P3
400 225
255
163 200 255
163 200 255
163 200 255
163 200 255
163 200 255
163 200 255
163 200 255
163 200 255
163 200 255
163 200 255
163 200 255
162 200 255
162 200 255
162 200 255
162 199 255
162 199 255
162 199 255
162 199 255
162 199 255
162 199 255
162 199 255
161 199 255
161 199 255
161 199 255
161 199 255
161 199 255
161 199 255
161 199 255
161 199 255
161 199 255
161 199 255
161 199 255
160 198 255
160 198 255
160 198 255
160 198 255
160 198 255
160 198 255
160 198 255
160 198 255
160 198 255
160 198 255
159 198 255
159 198 255
159 198 255
159 198 255
159 198 255
159 198 255
159 198 255
159 197 255
159 197 255
158 197 255
158 197 255
158 197 255
158 197 255
158 197 255
158 197 255
158 197 255
158 197 255
158 197 255
158 197 255
157 197 255
157 197 255
157 197 255
157 196 255
157 196 255
157 196 255
157 196 255
157 196 255
157 196 255
157 196 255
156 196 255
156 196 255
156 196 255
156 196 255
156 196 255
156 196 255
156 196 255
156 196 255
156 196 255
155 195 255
155 195 255
155 195 255
155 195 255
155 195 255
155 195 255
155 195 255
155 195 255
155 195 255
154 195 255
154 195 255
154 195 255
154 195 255
154 195 255
154 195 255
154 194 255
154 194 255
154 194 255
153 194 255
153 194 255
153 194 255
153 194 255
153 194 255
153 194 255
153 194 255
153 194 255
153 194 255
153 194 255
152 194 255
152 194 255
152 193 255
152 193 255
152 193 255
152 193 255
152 193 255
152 193 255
152 193 255
151 193 255
151 193 255
151 193 255
151 193 255
151 193 255
151 193 255
151 193 255
151 193 255
151 193 255
150 192 255
150 192 255
150 192 255
150 192 255
150 192 255
150 192 255
150 192 255
150 192 255
150 192 255
150 192 255
150 192 255
149 192 255
149 192 255
149 192 255
149 192 255
149 192 255
149 192 255
149 192 255
149 192 255
149 191 255
149 191 255
149 191 255
149 191 255
148 191 255
148 191 255
148 191 255
148 191 255
148 191 255
148 191 255
148 191 255
148 191 255
148 191 255
148 191 255
148 191 255
148 191 255
148 191 255
148 191 255
148 191 255
147 191 255
147 191 255
147 191 255
147 191 255
147 191 255
147 190 255
147 190 255
147 190 255
147 190 255
147 190 255
147 190 255
147 190 255
147 190 255
147 190 255
147 190 255
147 190 255
147 190 255
147 190 255
147 190 255
147 190 255
147 190 255
147 190 255
146 190 255
146 190 255
146 190 255
146 190 255
146 190 255
146 190 255
146 190 255
146 190 255
146 190 255
146 190 255
146 190 255
146 190 255
146 190 255
146 190 255
146 190 255
146 190 255
146 190 255
146 190 255
146 190 255
146 190 255
146 190 255
146 190 255
146 190 255
146 190 255
146 190 255
146 190 255
146 190 255
147 190 255
147 190 255
147 190 255
147 190 255
147 190 255
147 190 255
147 190 255
147 190 255
147 190 255
147 190 255
147 190 255
147 190 255
147 190 255
147 190 255
147 190 255
147 190 255
147 190 255
147 190 255
147 191 255
147 191 255
147 191 255
147 191 255
147 191 255
148 191 255
148 191 255
148 191 255
148 191 255
148 191 255
148 191 255
148 191 255
148 191 255
148 191 255
148 191 255
148 191 255
148 191 255
148 191 255
148 191 255
148 191 255
149 191 255
149 191 255
149 191 255
149 191 255
149 192 255
149 192 255
149 192 255
149 192 255
149 192 255
149 192 255
149 192 255
149 192 255
150 192 255
150 192 255
150 192 255
150 192 255
150 192 255
150 192 255
150 192 255
150 192 255
150 192 255
150 192 255
151 193 255
151 193 255
151 193 255
151 193 255
151 193 255
151 193 255
151 193 255
151 193 255
151 193 255
151 193 255
152 193 255
152 193 255
152 193 255
152 193 255
152 193 255
152 193 255
152 194 255
152 194 255
152 194 255
153 194 255
153 194 255
153 194 255
153 194 255
153 194 255
153 194 255
153 194 255
153 194 255
153 194 255
154 194 255
154 194 255
154 194 255
154 195 255
154 195 255
154 195 255
154 195 255
154 195 255
154 195 255
154 195 255
155 195 255
155 195 255
155 195 255
155 195 255
155 195 255
155 195 255
155 195 255
155 195 255
155 195 255
156 196 255
156 196 255
156 196 255
156 196 255
156 196 255
156 196 255
156 196 255
156 196 255
156 196 255
157 196 255
157 196 255
157 196 255
157 196 255
157 196 255
157 196 255
157 196 255
157 197 255
157 197 255
157 197 255
158 197 255
158 197 255
158 197 255
158 197 255
158 197 255
158 197 255
158 197 255
158 197 255
158 197 255
159 197 255
159 197 255
159 197 255
159 197 255
159 198 255
159 198 255
159 198 255
159 198 255
159 198 255
159 198 255
160 198 255
160 198 255
160 198 255
160 198 255
160 198 255
160 198 255
160 198 255
160 198 255
160 198 255
160 198 255
161 199 255
161 199 255
161 199 255
161 199 255
161 199 255
161 199 255
161 199 255
161 199 255
161 199 255
161 199 255
161 199 255
162 199 255
162 199 255
162 199 255
162 199 255
162 199 255
162 199 255
162 199 255
162 200 255
162 200 255
162 200 255
162 200 255
163 200 255
163 200 255
163 200 255
163 200 255
163 200 255
163 200 255
163 200 255
163 200 255
163 200 255
163 200 255
164 200 255
163 200 255
163 200 255
163 200 255
163 200 255
163 200 255
163 200 255
163 200 255
163 200 255
163 200 255
163 200 255
163 200 255
163 200 255
162 200 255
162 200 255
162 200 255
162 200 255
162 199 255
162 199 255
162 199 255
162 199 255
162 199 255
162 199 255
162 199 255
161 199 255
161 199 255
161 199 255
161 199 255
161 199 255
161 199 255
161 199 255
161 199 255
161 199 255
161 199 255
160 198 255
160 198 255
160 198 255
160 198 255
160 198 255
160 198 255
160 198 255
160 198 255
160 198 255
160 198 255
159 198 255
159 198 255
159 198 255
159 198 255
159 198 255
159 198 255
159 198 255
159 197 255
159 197 255
158 197 255
158 197 255
158 197 255
158 197 255
158 197 255
158 197 255
158 197 255
158 197 255
158 197 255
158 197 255
158 197 255
157 197 255
157 197 255
157 197 255
157 196 255
157 196 255
157 196 255
157 196 255
157 196 255
157 196 255
156 196 255
156 196 255
156 196 255
156 196 255
156 196 255
156 196 255
156 196 255
156 196 255
156 196 255
155 195 255
155 195 255
155 195 255
155 195 255
155 195 255
155 195 255
155 195 255
155 195 255
155 195 255
154 195 255
154 195 255
154 195 255
154 195 255
154 195 255
154 195 255
154 194 255
154 194 255
154 194 255
153 194 255
153 194 255
153 194 255
153 194 255
153 194 255
153 194 255
153 194 255
153 194 255
153 194 255
153 194 255
152 194 255
152 194 255
152 194 255
152 193 255
152 193 255
152 193 255
152 193 255
152 193 255
152 193 255
151 193 255
151 193 255
151 193 255
151 193 255
151 193 255
151 193 255
151 193 255
151 193 255
151 193 255
151 193 255
150 192 255
150 192 255
150 192 255
150 192 255
150 192 255
150 192 255
150 192 255
150 192 255
150 192 255
150 192 255
150 192 255
149 192 255
149 192 255
149 192 255
149 192 255
149 192 255
149 192 255
149 192 255
149 192 255
149 191 255
149 191 255
149 191 255
149 191 255
148 191 255
148 191 255
148 191 255
148 191 255
148 191 255
148 191 255
148 191 255
148 191 255
148 191 255
148 191 255
148 191 255
148 191 255
148 191 255
148 191 255
148 191 255
147 191 255
147 191 255
147 191 255
147 191 255
147 191 255
147 191 255
147 190 255
147 190 255
147 190 255
147 190 255
147 190 255
147 190 255
147 190 255
147 190 255
147 190 255
147 190 255
147 190 255
147 190 255
147 190 255
147 190 255
147 190 255
147 190 255
147 190 255
147 190 255
147 190 255
147 190 255
147 190 255
147 190 255
147 190 255
147 190 255
147 190 255
147 190 255
147 190 255
147 190 255
147 190 255
147 190 255
147 190 255
147 190 255
147 190 255
147 190 255
147 190 255
147 190 255
147 190 255
147 190 255
147 190 255
147 190 255
147 190 255
147 190 255
147 190 255
147 190 255
147 190 255
147 190 255
147 190 255
147 190 255
147 190 255
147 190 255
147 190 255
147 190 255
147 190 255
147 190 255
147 191 255
147 191 255
147 191 255
147 191 255
147 191 255
147 191 255
148 191 255
148 191 255
148 191 255
148 191 255
148 191 255
148 191 255
148 191 255
148 191 255
148 191 255
148 191 255
148 191 255
148 191 255
148 191 255
148 191 255
149 191 255
149 191 255
149 191 255
149 191 255
149 191 255
149 191 255
149 192 255
149 192 255
149 192 255
149 192 255
149 192 255
149 192 255
149 192 255
150 192 255
150 192 255
150 192 255
150 192 255
150 192 255
150 192 255
150 192 255
150 192 255
150 192 255
150 192 255
150 192 255
151 193 255
151 193 255
151 193 255
151 193 255
151 193 255
151 193 255
151 193 255
151 193 255
151 193 255
151 193 255
152 193 255
152 193 255
152 193 255
152 193 255
152 193 255
152 193 255
152 193 255
152 194 255
152 194 255
152 194 255
153 194 255
153 194 255
153 194 255
153 194 255
153 194 255
153 194 255
153 194 255
153 194 255
153 194 255
154 194 255
154 194 255
154 194 255
154 195 255
154 195 255
154 195 255
154 195 255
154 195 255
154 195 255
155 195 255
155 195 255
155 195 255
155 195 255
155 195 255
155 195 255
155 195 255
155 195 255
155 195 255
156 196 255
156 196 255
156 196 255
156 196 255
156 196 255
156 196 255
156 196 255
156 196 255
156 196 255
157 196 255
157 196 255
157 196 255
157 196 255
157 196 255
157 196 255
157 197 255
157 197 255
157 197 255
157 197 255
158 197 255
158 197 255
158 197 255
158 197 255
158 197 255
158 197 255
158 197 255
158 197 255
158 197 255
159 197 255
159 197 255
159 197 255
159 198 255
159 198 255
159 198 255
159 198 255
159 198 255
159 198 255
159 198 255
160 198 255
160 198 255
160 198 255
160 198 255
160 198 255
160 198 255
160 198 255
160 198 255
160 198 255
160 198 255
161 199 255
161 199 255
161 199 255
161 199 255
161 199 255
161 199 255
161 199 255
161 199 255
161 199 255
161 199 255
162 199 255
162 199 255
162 199 255
162 199 255
162 199 255
162 199 255
162 199 255
162 199 255
162 200 255
162 200 255
162 200 255
163 200 255
163 200 255
163 200 255
163 200 255
163 200 255
163 200 255
163 200 255
163 200 255
163 200 255
163 200 255
163 200 255
164 200 255
164 200 255
164 200 255
164 200 255
164 200 255
164 200 255
163 200 255
163 200 255
163 200 255
163 200 255
163 200 255
163 200 255
163 200 255
163 200 255
163 200 255
163 200 255
163 200 255
162 200 255
162 200 255
162 200 255
162 200 255
162 199 255
162 199 255
162 199 255
162 199 255
162 199 255
162 199 255
162 199 255
162 199 255
161 199 255
161 199 255
161 199 255
161 199 255
161 199 255
161 199 255
161 199 255
161 199 255
161 199 255
160 198 255
160 198 255
160 198 255
160 198 255
160 198 255
160 198 255
160 198 255
160 198 255
160 198 255
160 198 255
159 198 255
159 198 255
159 198 255
159 198 255
159 198 255
159 198 255
159 198 255
159 197 255
159 197 255
159 197 255
158 197 255
158 197 255
158 197 255
158 197 255
158 197 255
158 197 255
158 197 255
158 197 255
158 197 255
157 197 255
157 197 255
157 197 255
157 197 255
157 196 255
157 196 255
157 196 255
157 196 255
157 196 255
157 196 255
156 196 255
156 196 255
156 196 255
156 196 255
156 196 255
156 196 255
156 196 255
156 196 255
156 196 255
155 195 255
155 195 255
155 195 255
155 195 255
155 195 255
155 195 255
155 195 255
155 195 255
155 195 255
154 195 255
154 195 255
154 195 255
154 195 255
154 195 255
154 195 255
154 194 255
154 194 255
154 194 255
153 194 255
153 194 255
153 194 255
153 194 255
153 194 255
153 194 255
153 194 255
153 194 255
153 194 255
153 194 255
152 194 255
152 194 255
152 194 255
152 193 255
152 193 255
152 193 255
152 193 255
152 193 255
152 193 255
151 193 255
151 193 255
151 193 255
151 193 255
151 193 255
151 193 255
151 193 255
151 193 255
151 193 255
151 193 255
150 192 255
150 192 255
150 192 255
150 192 255
150 192 255
150 192 255
150 192 255
150 192 255
150 192 255
150 192 255
150 192 255
149 192 255
149 192 255
149 192 255
149 192 255
149 192 255
149 192 255
149 192 255
149 192 255
149 191 255
149 191 255
149 191 255
149 191 255
149 191 255
148 191 255
148 191 255
148 191 255
148 191 255
148 191 255
148 191 255
148 191 255
148 191 255
148 191 255
148 191 255
148 191 255
148 191 255
148 191 255
148 191 255
148 191 255
148 191 255
147 191 255
147 191 255
147 191 255
147 191 255
147 191 255
147 191 255
147 191 255
147 190 255
147 190 255
147 190 255
147 190 255
147 190 255
147 190 255
147 190 255
147 190 255
147 190 255
147 190 255
147 190 255
147 190 255
147 190 255
147 190 255
147 190 255
147 190 255
147 190 255
147 190 255
147 190 255
147 190 255
147 190 255
147 190 255
147 190 255
147 190 255
147 190 255
147 190 255
147 190 255
147 190 255
147 190 255
147 190 255
147 190 255
147 190 255
147 190 255
147 190 255
147 190 255
147 190 255
147 190 255
147 190 255
147 190 255
147 190 255
147 190 255
147 190 255
147 190 255
147 190 255
147 191 255
147 191 255
147 191 255
147 191 255
147 191 255
147 191 255
147 191 255
148 191 255
148 191 255
148 191 255
148 191 255
148 191 255
148 191 255
148 191 255
148 191 255
148 191 255
148 191 255
148 191 255
148 191 255
148 191 255
148 191 255
148 191 255
148 191 255
149 191 255
149 191 255
149 191 255
149 191 255
149 191 255
149 192 255
149 192 255
149 192 255
149 192 255
149 192 255
149 192 255
149 192 255
149 192 255
150 192 255
150 192 255
150 192 255
150 192 255
150 192 255
150 192 255
150 192 255
150 192 255
150 192 255
150 192 255
150 192 255
151 193 255
151 193 255
151 193 255
151 193 255
151 193 255
151 193 255
151 193 255
151 193 255
151 193 255
152 193 255
152 193 255
152 193 255
152 193 255
152 193 255
152 193 255
152 193 255
152 194 255
152 194 255
152 194 255
153 194 255
153 194 255
153 194 255
153 194 255
153 194 255
153 194 255
153 194 255
153 194 255
153 194 255
153 194 255
154 194 255
154 194 255
154 194 255
154 195 255
154 195 255
154 195 255
154 195 255
154 195 255
154 195 255
155 195 255
155 195 255
155 195 255
155 195 255
155 195 255
155 195 255
155 195 255
155 195 255
155 195 255
156 196 255
156 196 255
156 196 255
156 196 255
156 196 255
156 196 255
156 196 255
156 196 255
156 196 255
157 196 255
157 196 255
157 196 255
157 196 255
157 196 255
157 196 255
157 197 255
157 197 255
157 197 255
158 197 255
158 197 255
158 197 255
158 197 255
158 197 255
158 197 255
158 197 255
158 197 255
158 197 255
158 197 255
159 197 255
159 197 255
159 197 255
159 198 255
159 198 255
159 198 255
159 198 255
159 198 255
159 198 255
159 198 255
160 198 255
160 198 255
160 198 255
160 198 255
160 198 255
160 198 255
160 198 255
160 198 255
160 198 255
160 198 255
161 199 255
161 199 255
161 199 255
161 199 255
161 199 255
161 199 255
161 199 255
161 199 255
161 199 255
161 199 255
162 199 255
162 199 255
162 199 255
162 199 255
162 199 255
162 199 255
162 199 255
162 199 255
162 200 255
162 200 255
162 200 255
163 200 255
163 200 255
163 200 255
163 200 255
163 200 255
163 200 255
163 200 255
163 200 255
163 200 255
163 200 255
163 200 255
164 200 255
164 200 255
164 200 255
164 200 255
164 201 255
164 201 255
164 200 255
164 200 255
164 200 255
164 200 255
163 200 255
163 200 255
163 200 255
163 200 255
163 200 255
163 200 255
163 200 255
163 200 255
163 200 255
163 200 255
163 200 255
162 200 255
162 200 255
162 200 255
162 200 255
162 199 255
162 199 255
162 199 255
162 199 255
162 199 255
162 199 255
162 199 255
161 199 255
161 199 255
161 199 255
161 199 255
161 199 255
161 199 255
161 199 255
161 199 255
161 199 255
161 199 255
161 199 255
160 198 255
160 198 255
160 198 255
160 198 255
160 198 255
160 198 255
160 198 255
160 198 255
160 198 255
160 198 255
159 198 255
159 198 255
159 198 255
159 198 255
159 198 255
159 198 255
159 197 255
159 197 255
159 197 255
158 197 255
158 197 255
158 197 255
158 197 255
158 197 255
158 197 255
158 197 255
158 197 255
158 197 255
157 197 255
157 197 255
157 197 255
157 197 255
157 196 255
157 196 255
157 196 255
157 196 255
157 196 255
157 196 255
156 196 255
156 196 255
156 196 255
156 196 255
156 196 255
156 196 255
156 196 255
156 196 255
156 196 255
155 195 255
155 195 255
155 195 255
155 195 255
155 195 255
155 195 255
155 195 255
155 195 255
155 195 255
154 195 255
154 195 255
154 195 255
154 195 255
154 195 255
154 195 255
154 194 255
154 194 255
154 194 255
153 194 255
153 194 255
153 194 255
153 194 255
153 194 255
153 194 255
153 194 255
153 194 255
153 194 255
153 194 255
152 194 255
152 194 255
152 194 255
152 193 255
152 193 255
152 193 255
152 193 255
152 193 255
152 193 255
152 193 255
151 193 255
151 193 255
151 193 255
151 193 255
151 193 255
151 193 255
151 193 255
151 193 255
151 193 255
151 193 255
150 192 255
150 192 255
150 192 255
150 192 255
150 192 255
150 192 255
150 192 255
150 192 255
150 192 255
150 192 255
150 192 255
149 192 255
149 192 255
149 192 255
149 192 255
149 192 255
149 192 255
149 192 255
149 192 255
149 191 255
149 191 255
149 191 255
149 191 255
149 191 255
148 191 255
148 191 255
148 191 255
148 191 255
148 191 255
148 191 255
148 191 255
148 191 255
148 191 255
148 191 255
148 191 255
148 191 255
148 191 255
148 191 255
148 191 255
148 191 255
148 191 255
148 191 255
147 191 255
147 191 255
147 191 255
147 191 255
147 191 255
147 191 255
147 191 255
147 191 255
147 191 255
147 190 255
147 190 255
147 190 255
147 190 255
147 190 255
147 190 255
147 190 255
147 190 255
147 190 255
147 190 255
147 190 255
147 190 255
147 190 255
147 190 255
147 190 255
147 190 255
147 190 255
147 190 255
147 190 255
147 190 255
147 190 255
147 190 255
147 190 255
147 190 255
147 190 255
147 190 255
147 190 255
147 190 255
147 190 255
147 190 255
147 191 255
147 191 255
147 191 255
147 191 255
147 191 255
147 191 255
147 191 255
147 191 255
147 191 255
148 191 255
148 191 255
148 191 255
148 191 255
148 191 255
148 191 255
148 191 255
148 191 255
148 191 255
148 191 255
148 191 255
148 191 255
148 191 255
148 191 255
148 191 255
148 191 255
148 191 255
148 191 255
149 191 255
149 191 255
149 191 255
149 191 255
149 191 255
149 192 255
149 192 255
149 192 255
149 192 255
149 192 255
149 192 255
149 192 255
149 192 255
150 192 255
150 192 255
150 192 255
150 192 255
150 192 255
150 192 255
150 192 255
150 192 255
150 192 255
150 192 255
150 192 255
151 193 255
151 193 255
151 193 255
151 193 255
151 193 255
151 193 255
151 193 255
151 193 255
151 193 255
151 193 255
151 193 255
152 193 255
152 193 255
152 193 255
152 193 255
152 193 255
152 193 255
152 194 255
152 194 255
152 194 255
153 194 255
153 194 255
153 194 255
153 194 255
153 194 255
153 194 255
153 194 255
153 194 255
153 194 255
153 194 255
154 194 255
154 194 255
154 194 255
154 195 255
154 195 255
154 195 255
154 195 255
154 195 255
154 195 255
155 195 255
155 195 255
155 195 255
155 195 255
155 195 255
155 195 255
155 195 255
155 195 255
155 195 255
156 196 255
156 196 255
156 196 255
156 196 255
156 196 255
156 196 255
156 196 255
156 196 255
156 196 255
157 196 255
157 196 255
157 196 255
157 196 255
157 196 255
157 196 255
157 196 255
157 197 255
157 197 255
157 197 255
158 197 255
158 197 255
158 197 255
158 197 255
158 197 255
158 197 255
158 197 255
158 197 255
158 197 255
159 197 255
159 197 255
159 197 255
159 198 255
159 198 255
159 198 255
159 198 255
159 198 255
159 198 255
159 198 255
160 198 255
160 198 255
160 198 255
160 198 255
160 198 255
160 198 255
160 198 255
160 198 255
160 198 255
160 198 255
161 199 255
161 199 255
161 199 255
161 199 255
161 199 255
161 199 255
161 199 255
161 199 255
161 199 255
161 199 255
162 199 255
162 199 255
162 199 255
162 199 255
162 199 255
162 199 255
162 199 255
162 200 255
162 200 255
162 200 255
162 200 255
163 200 255
163 200 255
163 200 255
163 200 255
163 200 255
163 200 255
163 200 255
163 200 255
163 200 255
163 200 255
164 200 255
164 200 255
164 200 255
164 200 255
164 200 255
164 201 255
164 201 255
164 201 255
164 201 255
164 201 255
164 201 255
164 201 255
164 200 255
164 200 255
164 200 255
164 200 255
163 200 255
163 200 255
163 200 255
163 200 255
163 200 255
163 200 255
163 200 255
163 200 255
163 200 255
163 200 255
163 200 255
162 200 255
162 200 255
162 200 255
162 200 255
162 199 255
162 199 255
162 199 255
162 199 255
162 199 255
162 199 255
162 199 255
161 199 255
161 199 255
161 199 255
161 199 255
161 199 255
161 199 255
161 199 255
161 199 255
161 199 255
161 199 255
160 198 255
160 198 255
160 198 255
160 198 255
160 198 255
160 198 255
160 198 255
160 198 255
160 198 255
159 198 255
159 198 255
159 198 255
159 198 255
159 198 255
159 198 255
159 198 255
159 197 255
159 197 255
159 197 255
158 197 255
158 197 255
158 197 255
158 197 255
158 197 255
158 197 255
158 197 255
158 197 255
158 197 255
158 197 255
157 197 255
157 197 255
157 197 255
157 196 255
157 196 255
157 196 255
157 196 255
157 196 255
157 196 255
156 196 255
156 196 255
156 196 255
156 196 255
156 196 255
156 196 255
156 196 255
156 196 255
156 196 255
155 195 255
155 195 255
155 195 255
155 195 255
155 195 255
155 195 255
155 195 255
155 195 255
155 195 255
154 195 255
154 195 255
154 195 255
154 195 255
154 195 255
154 195 255
154 194 255
154 194 255
154 194 255
153 194 255
153 194 255
153 194 255
153 194 255
153 194 255
153 194 255
153 194 255
153 194 255
153 194 255
153 194 255
152 194 255
152 194 255
152 194 255
152 193 255
152 193 255
152 193 255
152 193 255
152 193 255
152 193 255
152 193 255
151 193 255
151 193 255
151 193 255
151 193 255
151 193 255
151 193 255
151 193 255
151 193 255
151 193 255
151 193 255
150 192 255
150 192 255
150 192 255
150 192 255
150 192 255
150 192 255
150 192 255
150 192 255
150 192 255
150 192 255
150 192 255
150 192 255
149 192 255
149 192 255
149 192 255
149 192 255
149 192 255
149 192 255
149 192 255
149 192 255
149 192 255
149 191 255
149 191 255
149 191 255
149 191 255
148 191 255
148 191 255
148 191 255
148 191 255
148 191 255
148 191 255
148 191 255
148 191 255
148 191 255
148 191 255
148 191 255
148 191 255
148 191 255
148 191 255
148 191 255
148 191 255
148 191 255
148 191 255
148 191 255
148 191 255
147 191 255
147 191 255
147 191 255
147 191 255
147 191 255
147 191 255
147 191 255
147 191 255
147 191 255
147 191 255
147 191 255
147 191 255
147 191 255
147 191 255
147 191 255
147 191 255
147 191 255
147 191 255
147 191 255
147 190 255
147 191 255
147 191 255
147 191 255
147 191 255
147 191 255
147 191 255
147 191 255
147 191 255
147 191 255
147 191 255
147 191 255
147 191 255
147 191 255
147 191 255
147 191 255
147 191 255
147 191 255
148 191 255
148 191 255
148 191 255
148 191 255
148 191 255
148 191 255
148 191 255
148 191 255
148 191 255
148 191 255
148 191 255
148 191 255
148 191 255
148 191 255
148 191 255
148 191 255
148 191 255
148 191 255
148 191 255
148 191 255
148 191 255
148 191 255
149 191 255
149 191 255
149 191 255
149 191 255
149 192 255
149 192 255
149 192 255
149 192 255
149 192 255
149 192 255
149 192 255
149 192 255
150 192 255
150 192 255
150 192 255
150 192 255
150 192 255
150 192 255
150 192 255
150 192 255
150 192 255
150 192 255
150 192 255
150 192 255
151 193 255
151 193 255
151 193 255
151 193 255
151 193 255
151 193 255
151 193 255
151 193 255
151 193 255
151 193 255
152 193 255
152 193 255
152 193 255
152 193 255
152 193 255
152 193 255
152 193 255
152 194 255
152 194 255
152 194 255
153 194 255
153 194 255
153 194 255
153 194 255
153 194 255
153 194 255
153 194 255
153 194 255
153 194 255
153 194 255
154 194 255
154 194 255
154 194 255
154 195 255
154 195 255
154 195 255
154 195 255
154 195 255
154 195 255
155 195 255
155 195 255
155 195 255
155 195 255
155 195 255
155 195 255
155 195 255
155 195 255
155 195 255
156 196 255
156 196 255
156 196 255
156 196 255
156 196 255
156 196 255
156 196 255
156 196 255
156 196 255
157 196 255
157 196 255
157 196 255
157 196 255
157 196 255
157 196 255
157 197 255
157 197 255
157 197 255
157 197 255
158 197 255
158 197 255
158 197 255
158 197 255
158 197 255
158 197 255
158 197 255
158 197 255
158 197 255
159 197 255
159 197 255
159 197 255
159 198 255
159 198 255
159 198 255
159 198 255
159 198 255
159 198 255
160 198 255
160 198 255
160 198 255
160 198 255
160 198 255
160 198 255
160 198 255
160 198 255
160 198 255
160 198 255
160 198 255
161 199 255
161 199 255
161 199 255
161 199 255
161 199 255
161 199 255
161 199 255
161 199 255
161 199 255
161 199 255
162 199 255
162 199 255
162 199 255
162 199 255
162 199 255
162 199 255
162 200 255
162 200 255
162 200 255
162 200 255
163 200 255
163 200 255
163 200 255
163 200 255
163 200 255
163 200 255
163 200 255
163 200 255
163 200 255
163 200 255
163 200 255
164 200 255
164 200 255
164 200 255
164 200 255
164 201 255
164 201 255
164 201 255
164 201 255
164 201 255
164 201 255
164 201 255
164 201 255
164 201 255
164 201 255
164 201 255
164 201 255
164 200 255
164 200 255
164 200 255
164 200 255
163 200 255
163 200 255
163 200 255
163 200 255
163 200 255
163 200 255
163 200 255
163 200 255
163 200 255
163 200 255
163 200 255
162 200 255
162 200 255
162 200 255
162 200 255
162 199 255
162 199 255
162 199 255
162 199 255
162 199 255
162 199 255
162 199 255
161 199 255
161 199 255
161 199 255
161 199 255
161 199 255
161 199 255
161 199 255
161 199 255
161 199 255
161 199 255
160 198 255
160 198 255
160 198 255
160 198 255
160 198 255
160 198 255
160 198 255
160 198 255
160 198 255
160 198 255
159 198 255
159 198 255
159 198 255
159 198 255
159 198 255
159 198 255
159 197 255
159 197 255
159 197 255
158 197 255
158 197 255
158 197 255
158 197 255
158 197 255
158 197 255
158 197 255
158 197 255
158 197 255
158 197 255
157 197 255
157 197 255
157 197 255
157 196 255
157 196 255
157 196 255
157 196 255
157 196 255
157 196 255
156 196 255
156 196 255
156 196 255
156 196 255
156 196 255
156 196 255
156 196 255
156 196 255
156 196 255
155 195 255
155 195 255
155 195 255
155 195 255
155 195 255
155 195 255
155 195 255
155 195 255
155 195 255
155 195 255
154 195 255
154 195 255
154 195 255
154 195 255
154 195 255
154 195 255
154 194 255
154 194 255
154 194 255
153 194 255
153 194 255
153 194 255
153 194 255
153 194 255
153 194 255
153 194 255
153 194 255
153 194 255
152 194 255
152 194 255
152 194 255
152 193 255
152 193 255
152 193 255
152 193 255
152 193 255
152 193 255
152 193 255
151 193 255
151 193 255
151 193 255
151 193 255
151 193 255
151 193 255
151 193 255
151 193 255
151 193 255
151 193 255
150 192 255
150 192 255
150 192 255
150 192 255
150 192 255
150 192 255
150 192 255
150 192 255
150 192 255
150 192 255
150 192 255
150 192 255
150 192 255
149 192 255
149 192 255
149 192 255
149 192 255
149 192 255
149 192 255
149 192 255
149 192 255
149 191 255
149 191 255
149 191 255
149 191 255
149 191 255
148 191 255
148 191 255
148 191 255
148 191 255
148 191 255
148 191 255
148 191 255
148 191 255
148 191 255
148 191 255
148 191 255
148 191 255
148 191 255
148 191 255
148 191 255
148 191 255
148 191 255
148 191 255
148 191 255
148 191 255
148 191 255
148 191 255
148 191 255
148 191 255
148 191 255
148 191 255
147 191 255
147 191 255
147 191 255
147 191 255
147 191 255
147 191 255
147 191 255
147 191 255
147 191 255
147 191 255
147 191 255
147 191 255
147 191 255
147 191 255
147 191 255
147 191 255
147 191 255
147 191 255
147 191 255
147 191 255
147 191 255
148 191 255
148 191 255
148 191 255
148 191 255
148 191 255
148 191 255
148 191 255
148 191 255
148 191 255
148 191 255
148 191 255
148 191 255
148 191 255
148 191 255
148 191 255
148 191 255
148 191 255
148 191 255
148 191 255
148 191 255
148 191 255
148 191 255
148 191 255
148 191 255
148 191 255
149 191 255
149 191 255
149 191 255
149 191 255
149 191 255
149 192 255
149 192 255
149 192 255
149 192 255
149 192 255
149 192 255
149 192 255
149 192 255
149 192 255
150 192 255
150 192 255
150 192 255
150 192 255
150 192 255
150 192 255
150 192 255
150 192 255
150 192 255
150 192 255
150 192 255
150 192 255
151 193 255
151 193 255
151 193 255
151 193 255
151 193 255
151 193 255
151 193 255
151 193 255
151 193 255
151 193 255
151 193 255
152 193 255
152 193 255
152 193 255
152 193 255
152 193 255
152 193 255
152 194 255
152 194 255
152 194 255
153 194 255
153 194 255
153 194 255
153 194 255
153 194 255
153 194 255
153 194 255
153 194 255
153 194 255
153 194 255
154 194 255
154 194 255
154 194 255
154 195 255
154 195 255
154 195 255
154 195 255
154 195 255
154 195 255
155 195 255
155 195 255
155 195 255
155 195 255
155 195 255
155 195 255
155 195 255
155 195 255
155 195 255
156 196 255
156 196 255
156 196 255
156 196 255
156 196 255
156 196 255
156 196 255
156 196 255
156 196 255
157 196 255
157 196 255
157 196 255
157 196 255
157 196 255
157 196 255
157 197 255
157 197 255
157 197 255
158 197 255
158 197 255
158 197 255
158 197 255
158 197 255
158 197 255
158 197 255
158 197 255
158 197 255
158 197 255
159 197 255
159 197 255
159 197 255
159 198 255
159 198 255
159 198 255
159 198 255
159 198 255
159 198 255
160 198 255
160 198 255
160 198 255
160 198 255
160 198 255
160 198 255
160 198 255
160 198 255
160 198 255
160 198 255
161 199 255
161 199 255
161 199 255
161 199 255
161 199 255
161 199 255
161 199 255
161 199 255
161 199 255
161 199 255
162 199 255
162 199 255
162 199 255
162 199 255
162 199 255
162 199 255
162 199 255
162 200 255
162 200 255
162 200 255
162 200 255
163 200 255
163 200 255
163 200 255
163 200 255
163 200 255
163 200 255
163 200 255
163 200 255
163 200 255
163 200 255
163 200 255
164 200 255
164 200 255
164 200 255
164 200 255
164 201 255
164 201 255
164 201 255
164 201 255
164 201 255
164 201 255
164 201 255
165 201 255
165 201 255
164 201 255
164 201 255
164 201 255
164 201 255
164 201 255
164 201 255
164 201 255
164 201 255
164 200 255
164 200 255
164 200 255
163 200 255
163 200 255
163 200 255
163 200 255
163 200 255
163 200 255
163 200 255
163 200 255
163 200 255
163 200 255
163 200 255
162 200 255
162 200 255
162 200 255
162 200 255
162 199 255
162 199 255
162 199 255
162 199 255
162 199 255
162 199 255
162 199 255
161 199 255
161 199 255
161 199 255
161 199 255
161 199 255
161 199 255
161 199 255
161 199 255
161 199 255
161 199 255
160 198 255
160 198 255
160 198 255
160 198 255
160 198 255
160 198 255
160 198 255
160 198 255
160 198 255
159 198 255
159 198 255
159 198 255
159 198 255
159 198 255
159 198 255
159 198 255
159 197 255
159 197 255
159 197 255
158 197 255
158 197 255
158 197 255
158 197 255
158 197 255
158 197 255
158 197 255
158 197 255
158 197 255
158 197 255
157 197 255
157 197 255
157 197 255
157 196 255
157 196 255
157 196 255
157 196 255
157 196 255
157 196 255
156 196 255
156 196 255
156 196 255
156 196 255
156 196 255
156 196 255
156 196 255
156 196 255
156 196 255
155 195 255
155 195 255
155 195 255
155 195 255
155 195 255
155 195 255
155 195 255
155 195 255
155 195 255
154 195 255
154 195 255
154 195 255
154 195 255
154 195 255
154 195 255
154 195 255
154 194 255
154 194 255
153 194 255
153 194 255
153 194 255
153 194 255
153 194 255
153 194 255
153 194 255
153 194 255
153 194 255
153 194 255
152 194 255
152 194 255
152 194 255
152 194 255
152 193 255
152 193 255
152 193 255
152 193 255
152 193 255
152 193 255
151 193 255
151 193 255
151 193 255
151 193 255
151 193 255
151 193 255
151 193 255
151 193 255
151 193 255
151 193 255
151 193 255
150 192 255
150 192 255
150 192 255
150 192 255
150 192 255
150 192 255
150 192 255
150 192 255
150 192 255
150 192 255
150 192 255
150 192 255
149 192 255
149 192 255
149 192 255
149 192 255
149 192 255
149 192 255
149 192 255
149 192 255
149 192 255
149 192 255
149 191 255
149 191 255
149 191 255
149 191 255
149 191 255
149 191 255
148 191 255
148 191 255
148 191 255
148 191 255
148 191 255
148 191 255
148 191 255
148 191 255
148 191 255
148 191 255
148 191 255
148 191 255
148 191 255
148 191 255
148 191 255
148 191 255
148 191 255
148 191 255
148 191 255
148 191 255
148 191 255
148 191 255
148 191 255
148 191 255
148 191 255
148 191 255
148 191 255
148 191 255
148 191 255
148 191 255
148 191 255
148 191 255
148 191 255
148 191 255
148 191 255
148 191 255
148 191 255
148 191 255
148 191 255
148 191 255
148 191 255
148 191 255
148 191 255
148 191 255
148 191 255
148 191 255
148 191 255
148 191 255
148 191 255
148 191 255
148 191 255
148 191 255
148 191 255
148 191 255
148 191 255
148 191 255
148 191 255
148 191 255
148 191 255
148 191 255
148 191 255
148 191 255
149 191 255
149 191 255
149 191 255
149 191 255
149 191 255
149 191 255
149 192 255
149 192 255
149 192 255
149 192 255
149 192 255
149 192 255
149 192 255
149 192 255
149 192 255
149 192 255
150 192 255
150 192 255
150 192 255
150 192 255
150 192 255
150 192 255
150 192 255
150 192 255
150 192 255
150 192 255
150 192 255
150 192 255
151 193 255
151 193 255
151 193 255
151 193 255
151 193 255
151 193 255
151 193 255
151 193 255
151 193 255
151 193 255
151 193 255
152 193 255
152 193 255
152 193 255
152 193 255
152 193 255
152 193 255
152 193 255
152 194 255
152 194 255
152 194 255
153 194 255
153 194 255
153 194 255
153 194 255
153 194 255
153 194 255
153 194 255
153 194 255
153 194 255
154 194 255
154 194 255
154 194 255
154 195 255
154 195 255
154 195 255
154 195 255
154 195 255
154 195 255
155 195 255
155 195 255
155 195 255
155 195 255
155 195 255
155 195 255
155 195 255
155 195 255
155 195 255
155 195 255
156 196 255
156 196 255
156 196 255
156 196 255
156 196 255
156 196 255
156 196 255
156 196 255
156 196 255
157 196 255
157 196 255
157 196 255
157 196 255
157 196 255
157 196 255
157 197 255
157 197 255
157 197 255
158 197 255
158 197 255
158 197 255
158 197 255
158 197 255
158 197 255
158 197 255
158 197 255
158 197 255
159 197 255
159 197 255
159 197 255
159 197 255
159 198 255
159 198 255
159 198 255
159 198 255
159 198 255
159 198 255
160 198 255
160 198 255
160 198 255
160 198 255
160 198 255
160 198 255
160 198 255
160 198 255
160 198 255
160 198 255
161 199 255
161 199 255
161 199 255
161 199 255
161 199 255
161 199 255
161 199 255
161 199 255
161 199 255
161 199 255
162 199 255
162 199 255
162 199 255
162 199 255
162 199 255
162 199 255
162 199 255
162 200 255
162 200 255
162 200 255
163 200 255
163 200 255
163 200 255
163 200 255
163 200 255
163 200 255
163 200 255
163 200 255
163 200 255
163 200 255
163 200 255
163 200 255
164 200 255
164 200 255
164 200 255
164 201 255
164 201 255
164 201 255
164 201 255
164 201 255
164 201 255
164 201 255
164 201 255
165 201 255
165 201 255
165 201 255
165 201 255
165 201 255
165 201 255
164 201 255
164 201 255
164 201 255
164 201 255
164 201 255
164 201 255
164 201 255
164 201 255
164 200 255
164 200 255
164 200 255
164 200 255
163 200 255
163 200 255
163 200 255
163 200 255
163 200 255
163 200 255
163 200 255
163 200 255
163 200 255
163 200 255
163 200 255
162 200 255
162 200 255
162 200 255
162 199 255
162 199 255
162 199 255
162 199 255
162 199 255
162 199 255
162 199 255
162 199 255
161 199 255
161 199 255
161 199 255
161 199 255
161 199 255
161 199 255
161 199 255
161 199 255
161 199 255
160 198 255
160 198 255
160 198 255
160 198 255
160 198 255
160 198 255
160 198 255
160 198 255
160 198 255
160 198 255
159 198 255
159 198 255
159 198 255
159 198 255
159 198 255
159 198 255
159 197 255
159 197 255
159 197 255
159 197 255
158 197 255
158 197 255
158 197 255
158 197 255
158 197 255
158 197 255
158 197 255
158 197 255
158 197 255
157 197 255
157 197 255
157 197 255
157 196 255
157 196 255
157 196 255
157 196 255
157 196 255
157 196 255
156 196 255
156 196 255
156 196 255
156 196 255
156 196 255
156 196 255
156 196 255
156 196 255
156 196 255
155 195 255
155 195 255
155 195 255
155 195 255
155 195 255
155 195 255
155 195 255
155 195 255
155 195 255
155 195 255
154 195 255
154 195 255
154 195 255
154 195 255
154 195 255
154 195 255
154 194 255
154 194 255
154 194 255
153 194 255
153 194 255
153 194 255
153 194 255
153 194 255
153 194 255
153 194 255
153 194 255
153 194 255
153 194 255
152 194 255
152 194 255
152 194 255
152 193 255
152 193 255
152 193 255
152 193 255
152 193 255
152 193 255
152 193 255
151 193 255
151 193 255
151 193 255
151 193 255
151 193 255
151 193 255
151 193 255
151 193 255
151 193 255
151 193 255
151 193 255
150 192 255
150 192 255
150 192 255
150 192 255
150 192 255
150 192 255
150 192 255
150 192 255
150 192 255
150 192 255
150 192 255
150 192 255
149 192 255
149 192 255
149 192 255
149 192 255
149 192 255
149 192 255
149 192 255
149 192 255
149 192 255
149 192 255
149 191 255
149 191 255
149 191 255
149 191 255
149 191 255
149 191 255
148 191 255
148 191 255
148 191 255
148 191 255
148 191 255
148 191 255
148 191 255
148 191 255
148 191 255
148 191 255
148 191 255
148 191 255
148 191 255
148 191 255
148 191 255
148 191 255
148 191 255
148 191 255
148 191 255
148 191 255
148 191 255
148 191 255
148 191 255
148 191 255
148 191 255
148 191 255
148 191 255
148 191 255
148 191 255
148 191 255
148 191 255
148 191 255
148 191 255
148 191 255
148 191 255
148 191 255
148 191 255
148 191 255
148 191 255
148 191 255
148 191 255
148 191 255
148 191 255
148 191 255
148 191 255
148 191 255
148 191 255
148 191 255
148 191 255
148 191 255
148 191 255
148 191 255
148 191 255
148 191 255
148 191 255
149 191 255
149 191 255
149 191 255
149 191 255
149 191 255
149 191 255
149 192 255
149 192 255
149 192 255
149 192 255
149 192 255
149 192 255
149 192 255
149 192 255
149 192 255
149 192 255
149 192 255
150 192 255
150 192 255
150 192 255
150 192 255
150 192 255
150 192 255
150 192 255
150 192 255
150 192 255
150 192 255
150 192 255
150 192 255
151 193 255
151 193 255
151 193 255
151 193 255
151 193 255
151 193 255
151 193 255
151 193 255
151 193 255
151 193 255
151 193 255
151 193 255
152 193 255
152 193 255
152 193 255
152 193 255
152 193 255
152 193 255
152 194 255
152 194 255
152 194 255
153 194 255
153 194 255
153 194 255
153 194 255
153 194 255
153 194 255
153 194 255
153 194 255
153 194 255
153 194 255
154 194 255
154 194 255
154 194 255
154 195 255
154 195 255
154 195 255
154 195 255
154 195 255
154 195 255
154 195 255
155 195 255
155 195 255
155 195 255
155 195 255
155 195 255
155 195 255
155 195 255
155 195 255
156 196 255
156 196 255
156 196 255
156 196 255
156 196 255
156 196 255
156 196 255
156 196 255
156 196 255
156 196 255
157 196 255
157 196 255
157 196 255
157 196 255
157 196 255
157 196 255
157 197 255
157 197 255
157 197 255
158 197 255
158 197 255
158 197 255
158 197 255
158 197 255
158 197 255
158 197 255
158 197 255
158 197 255
159 197 255
159 197 255
159 197 255
159 198 255
159 198 255
159 198 255
159 198 255
159 198 255
159 198 255
159 198 255
160 198 255
160 198 255
160 198 255
160 198 255
160 198 255
160 198 255
160 198 255
160 198 255
160 198 255
161 199 255
161 199 255
161 199 255
161 199 255
161 199 255
161 199 255
161 199 255
161 199 255
161 199 255
161 199 255
162 199 255
162 199 255
162 199 255
162 199 255
162 199 255
162 199 255
162 199 255
162 199 255
162 200 255
162 200 255
162 200 255
163 200 255
163 200 255
163 200 255
163 200 255
163 200 255
163 200 255
163 200 255
163 200 255
163 200 255
163 200 255
163 200 255
164 200 255
164 200 255
164 200 255
164 200 255
164 201 255
164 201 255
164 201 255
164 201 255
164 201 255
164 201 255
164 201 255
164 201 255
165 201 255
165 201 255
165 201 255
165 201 255
165 201 255
165 201 255
165 201 255
165 201 255
165 201 255
165 201 255
165 201 255
164 201 255
164 201 255
164 201 255
164 201 255
164 201 255
164 201 255
164 201 255
164 201 255
164 200 255
164 200 255
164 200 255
163 200 255
163 200 255
163 200 255
163 200 255
163 200 255
163 200 255
163 200 255
163 200 255
163 200 255
163 200 255
163 200 255
162 200 255
162 200 255
162 200 255
162 200 255
162 199 255
162 199 255
162 199 255
162 199 255
162 199 255
162 199 255
161 199 255
161 199 255
161 199 255
161 199 255
161 199 255
161 199 255
161 199 255
161 199 255
161 199 255
161 199 255
161 199 255
160 198 255
160 198 255
160 198 255
160 198 255
160 198 255
160 198 255
160 198 255
160 198 255
160 198 255
160 198 255
159 198 255
159 198 255
159 198 255
159 198 255
159 198 255
159 198 255
159 197 255
159 197 255
159 197 255
158 197 255
158 197 255
158 197 255
158 197 255
158 197 255
158 197 255
158 197 255
158 197 255
158 197 255
157 197 255
157 197 255
157 197 255
157 196 255
157 196 255
157 196 255
157 196 255
157 196 255
157 196 255
156 196 255
156 196 255
156 196 255
156 196 255
156 196 255
156 196 255
156 196 255
156 196 255
156 196 255
156 196 255
155 195 255
155 195 255
155 195 255
155 195 255
155 195 255
155 195 255
155 195 255
155 195 255
155 195 255
154 195 255
154 195 255
154 195 255
154 195 255
154 195 255
154 195 255
154 194 255
154 194 255
154 194 255
153 194 255
153 194 255
153 194 255
153 194 255
153 194 255
153 194 255
153 194 255
153 194 255
153 194 255
153 194 255
152 194 255
152 194 255
152 194 255
152 193 255
152 193 255
152 193 255
152 193 255
152 193 255
152 193 255
152 193 255
151 193 255
151 193 255
151 193 255
151 193 255
151 193 255
151 193 255
151 193 255
151 193 255
151 193 255
151 193 255
151 193 255
151 193 255
150 192 255
150 192 255
150 192 255
150 192 255
150 192 255
150 192 255
150 192 255
150 192 255
150 192 255
150 192 255
150 192 255
150 192 255
149 192 255
149 192 255
149 192 255
149 192 255
149 192 255
149 192 255
149 192 255
149 192 255
149 192 255
149 192 255
149 192 255
149 192 255
149 191 255
149 191 255
149 191 255
149 191 255
149 191 255
149 191 255
149 191 255
148 191 255
148 191 255
148 191 255
148 191 255
148 191 255
148 191 255
148 191 255
148 191 255
148 191 255
148 191 255
148 191 255
148 191 255
148 191 255
148 191 255
148 191 255
148 191 255
148 191 255
148 191 255
148 191 255
148 191 255
148 191 255
148 191 255
148 191 255
148 191 255
148 191 255
148 191 255
148 191 255
148 191 255
148 191 255
148 191 255
148 191 255
148 191 255
148 191 255
148 191 255
148 191 255
148 191 255
148 191 255
148 191 255
148 191 255
148 191 255
148 191 255
148 191 255
148 191 255
148 191 255
149 191 255
149 191 255
149 191 255
149 191 255
149 191 255
149 191 255
149 191 255
149 191 255
149 192 255
149 192 255
149 192 255
149 192 255
149 192 255
149 192 255
149 192 255
149 192 255
149 192 255
149 192 255
149 192 255
150 192 255
150 192 255
150 192 255
150 192 255
150 192 255
150 192 255
150 192 255
150 192 255
150 192 255
150 192 255
150 192 255
150 192 255
150 192 255
151 193 255
151 193 255
151 193 255
151 193 255
151 193 255
151 193 255
151 193 255
151 193 255
151 193 255
151 193 255
151 193 255
152 193 255
152 193 255
152 193 255
152 193 255
152 193 255
152 193 255
152 193 255
152 194 255
152 194 255
152 194 255
153 194 255
153 194 255
153 194 255
153 194 255
153 194 255
153 194 255
153 194 255
153 194 255
153 194 255
153 194 255
154 194 255
154 194 255
154 194 255
154 195 255
154 195 255
154 195 255
154 195 255
154 195 255
154 195 255
155 195 255
155 195 255
155 195 255
155 195 255
155 195 255
155 195 255
155 195 255
155 195 255
155 195 255
156 196 255
156 196 255
156 196 255
156 196 255
156 196 255
156 196 255
156 196 255
156 196 255
156 196 255
156 196 255
157 196 255
157 196 255
157 196 255
157 196 255
157 196 255
157 196 255
157 197 255
157 197 255
157 197 255
158 197 255
158 197 255
158 197 255
158 197 255
158 197 255
158 197 255
158 197 255
158 197 255
158 197 255
159 197 255
159 197 255
159 197 255
159 198 255
159 198 255
159 198 255
159 198 255
159 198 255
159 198 255
160 198 255
160 198 255
160 198 255
160 198 255
160 198 255
160 198 255
160 198 255
160 198 255
160 198 255
160 198 255
161 199 255
161 199 255
161 199 255
161 199 255
161 199 255
161 199 255
161 199 255
161 199 255
161 199 255
161 199 255
161 199 255
162 199 255
162 199 255
162 199 255
162 199 255
162 199 255
162 199 255
162 200 255
162 200 255
162 200 255
162 200 255
163 200 255
163 200 255
163 200 255
163 200 255
163 200 255
163 200 255
163 200 255
163 200 255
163 200 255
163 200 255
163 200 255
164 200 255
164 200 255
164 200 255
164 201 255
164 201 255
164 201 255
164 201 255
164 201 255
164 201 255
164 201 255
164 201 255
165 201 255
165 201 255
165 201 255
165 201 255
165 201 255
165 201 255
165 201 255
165 201 255
165 201 255
165 201 255
165 201 255
165 201 255
165 201 255
165 201 255
165 201 255
165 201 255
164 201 255
164 201 255
164 201 255
164 201 255
164 201 255
164 201 255
164 201 255
164 201 255
164 200 255
164 200 255
164 200 255
164 200 255
163 200 255
163 200 255
163 200 255
163 200 255
163 200 255
163 200 255
163 200 255
163 200 255
163 200 255
163 200 255
162 200 255
162 200 255
162 200 255
162 200 255
162 199 255
162 199 255
162 199 255
162 199 255
162 199 255
162 199 255
162 199 255
161 199 255
161 199 255
161 199 255
161 199 255
161 199 255
161 199 255
161 199 255
161 199 255
161 199 255
161 199 255
160 198 255
160 198 255
160 198 255
160 198 255
160 198 255
160 198 255
160 198 255
160 198 255
160 198 255
160 198 255
159 198 255
159 198 255
159 198 255
159 198 255
159 198 255
159 198 255
159 197 255
159 197 255
159 197 255
158 197 255
158 197 255
158 197 255
158 197 255
158 197 255
158 197 255
158 197 255
158 197 255
158 197 255
157 197 255
157 197 255
157 197 255
157 196 255
157 196 255
157 196 255
157 196 255
157 196 255
157 196 255
157 196 255
156 196 255
156 196 255
156 196 255
156 196 255
156 196 255
156 196 255
156 196 255
156 196 255
155 195 255
155 195 255
155 195 255
155 195 255
155 195 255
155 195 255
155 195 255
155 195 255
155 195 255
155 195 255
154 195 255
154 195 255
154 195 255
154 195 255
154 195 255
154 195 255
154 194 255
154 194 255
154 194 255
154 194 255
153 194 255
153 194 255
153 194 255
153 194 255
153 194 255
153 194 255
153 194 255
153 194 255
153 194 255
152 194 255
152 194 255
152 194 255
152 193 255
152 193 255
152 193 255
152 193 255
152 193 255
152 193 255
152 193 255
151 193 255
151 193 255
151 193 255
151 193 255
151 193 255
151 193 255
151 193 255
151 193 255
151 193 255
151 193 255
151 193 255
151 193 255
150 192 255
150 192 255
150 192 255
150 192 255
150 192 255
150 192 255
150 192 255
150 192 255
150 192 255
150 192 255
150 192 255
150 192 255
150 192 255
149 192 255
149 192 255
149 192 255
149 192 255
149 192 255
149 192 255
149 192 255
149 192 255
149 192 255
149 192 255
149 192 255
149 192 255
149 192 255
149 191 255
149 191 255
149 191 255
149 191 255
149 191 255
149 191 255
149 191 255
149 191 255
149 191 255
149 191 255
149 191 255
148 191 255
148 191 255
148 191 255
148 191 255
148 191 255
148 191 255
148 191 255
148 191 255
148 191 255
148 191 255
148 191 255
148 191 255
148 191 255
148 191 255
148 191 255
148 191 255
148 191 255
148 191 255
148 191 255
148 191 255
148 191 255
148 191 255
148 191 255
148 191 255
148 191 255
148 191 255
148 191 255
148 191 255
148 191 255
149 191 255
149 191 255
149 191 255
149 191 255
149 191 255
149 191 255
149 191 255
149 191 255
149 191 255
149 191 255
149 192 255
149 192 255
149 192 255
149 192 255
149 192 255
149 192 255
149 192 255
149 192 255
149 192 255
149 192 255
149 192 255
149 192 255
150 192 255
150 192 255
150 192 255
150 192 255
150 192 255
150 192 255
150 192 255
150 192 255
150 192 255
150 192 255
150 192 255
150 192 255
150 192 255
151 193 255
151 193 255
151 193 255
151 193 255
151 193 255
151 193 255
151 193 255
151 193 255
151 193 255
151 193 255
151 193 255
151 193 255
151 193 255
152 193 255
152 193 255
152 193 255
152 193 255
152 193 255
152 193 255
152 193 255
152 194 255
152 194 255
152 194 255
153 194 255
153 194 255
153 194 255
153 194 255
153 194 255
153 194 255
153 194 255
153 194 255
153 194 255
153 194 255
154 194 255
154 194 255
154 194 255
154 195 255
154 195 255
154 195 255
154 195 255
154 195 255
154 195 255
155 195 255
155 195 255
155 195 255
155 195 255
155 195 255
155 195 255
155 195 255
155 195 255
155 195 255
155 195 255
156 196 255
156 196 255
156 196 255
156 196 255
156 196 255
156 196 255
156 196 255
156 196 255
157 196 255
157 196 255
157 196 255
157 196 255
157 196 255
157 196 255
157 196 255
157 197 255
157 197 255
157 197 255
158 197 255
158 197 255
158 197 255
158 197 255
158 197 255
158 197 255
158 197 255
158 197 255
158 197 255
159 197 255
159 197 255
159 197 255
159 198 255
159 198 255
159 198 255
159 198 255
159 198 255
159 198 255
159 198 255
160 198 255
160 198 255
160 198 255
160 198 255
160 198 255
160 198 255
160 198 255
160 198 255
160 198 255
161 199 255
161 199 255
161 199 255
161 199 255
161 199 255
161 199 255
161 199 255
161 199 255
161 199 255
161 199 255
162 199 255
162 199 255
162 199 255
162 199 255
162 199 255
162 199 255
162 199 255
162 199 255
162 200 255
162 200 255
163 200 255
163 200 255
163 200 255
163 200 255
163 200 255
163 200 255
163 200 255
163 200 255
163 200 255
163 200 255
163 200 255
164 200 255
164 200 255
164 200 255
164 200 255
164 201 255
164 201 255
164 201 255
164 201 255
164 201 255
164 201 255
164 201 255
164 201 255
165 201 255
165 201 255
165 201 255
165 201 255
165 201 255
165 201 255
165 201 255
165 201 255
165 201 255
165 201 255
165 201 255
165 201 255
165 201 255
165 201 255
165 201 255
165 201 255
165 201 255
165 201 255
165 201 255
165 201 255
165 201 255
164 201 255
164 201 255
164 201 255
164 201 255
164 201 255
164 201 255
164 201 255
164 200 255
164 200 255
164 200 255
164 200 255
163 200 255
163 200 255
163 200 255
163 200 255
163 200 255
163 200 255
163 200 255
163 200 255
163 200 255
163 200 255
163 200 255
162 200 255
162 200 255
162 200 255
162 199 255
162 199 255
162 199 255
162 199 255
162 199 255
162 199 255
162 199 255
161 199 255
161 199 255
161 199 255
161 199 255
161 199 255
161 199 255
161 199 255
161 199 255
161 199 255
161 199 255
160 198 255
160 198 255
160 198 255
160 198 255
160 198 255
160 198 255
160 198 255
160 198 255
160 198 255
160 198 255
159 198 255
159 198 255
159 198 255
159 198 255
159 198 255
159 198 255
159 197 255
159 197 255
159 197 255
158 197 255
158 197 255
158 197 255
158 197 255
158 197 255
158 197 255
158 197 255
158 197 255
158 197 255
157 197 255
157 197 255
157 197 255
157 197 255
157 196 255
157 196 255
157 196 255
157 196 255
157 196 255
157 196 255
156 196 255
156 196 255
156 196 255
156 196 255
156 196 255
156 196 255
156 196 255
156 196 255
156 196 255
155 195 255
155 195 255
155 195 255
155 195 255
155 195 255
155 195 255
155 195 255
155 195 255
155 195 255
154 195 255
154 195 255
154 195 255
154 195 255
154 195 255
154 195 255
154 195 255
154 194 255
154 194 255
154 194 255
153 194 255
153 194 255
153 194 255
153 194 255
153 194 255
153 194 255
153 194 255
153 194 255
153 194 255
152 194 255
152 194 255
152 194 255
152 194 255
152 193 255
152 193 255
152 193 255
152 193 255
152 193 255
152 193 255
152 193 255
151 193 255
151 193 255
151 193 255
151 193 255
151 193 255
151 193 255
151 193 255
151 193 255
151 193 255
151 193 255
151 193 255
151 193 255
150 192 255
150 192 255
150 192 255
150 192 255
150 192 255
150 192 255
150 192 255
150 192 255
150 192 255
150 192 255
150 192 255
150 192 255
150 192 255
150 192 255
150 192 255
149 192 255
149 192 255
149 192 255
149 192 255
149 192 255
149 192 255
149 192 255
149 192 255
149 192 255
149 192 255
149 192 255
149 192 255
149 192 255
149 192 255
149 192 255
149 191 255
149 191 255
149 191 255
149 191 255
149 191 255
149 191 255
149 191 255
149 191 255
149 191 255
149 191 255
149 191 255
149 191 255
149 191 255
149 191 255
149 191 255
148 191 255
149 191 255
149 191 255
149 191 255
148 191 255
149 191 255
149 191 255
149 191 255
149 191 255
149 191 255
149 191 255
149 191 255
149 191 255
149 191 255
149 191 255
149 191 255
149 191 255
149 191 255
149 191 255
149 191 255
149 191 255
149 191 255
149 192 255
149 192 255
149 192 255
149 192 255
149 192 255
149 192 255
149 192 255
149 192 255
149 192 255
149 192 255
149 192 255
149 192 255
149 192 255
149 192 255
149 192 255
150 192 255
150 192 255
150 192 255
150 192 255
150 192 255
150 192 255
150 192 255
150 192 255
150 192 255
150 192 255
150 192 255
150 192 255
150 192 255
150 192 255
151 193 255
151 193 255
151 193 255
151 193 255
151 193 255
151 193 255
151 193 255
151 193 255
151 193 255
151 193 255
151 193 255
151 193 255
152 193 255
152 193 255
152 193 255
152 193 255
152 193 255
152 193 255
152 193 255
152 194 255
152 194 255
152 194 255
153 194 255
153 194 255
153 194 255
153 194 255
153 194 255
153 194 255
153 194 255
153 194 255
153 194 255
153 194 255
154 194 255
154 194 255
154 194 255
154 194 255
154 195 255
154 195 255
154 195 255
154 195 255
154 195 255
154 195 255
155 195 255
155 195 255
155 195 255
155 195 255
155 195 255
155 195 255
155 195 255
155 195 255
155 195 255
156 196 255
156 196 255
156 196 255
156 196 255
156 196 255
156 196 255
156 196 255
156 196 255
156 196 255
156 196 255
157 196 255
157 196 255
157 196 255
157 196 255
157 196 255
157 197 255
157 197 255
157 197 255
157 197 255
158 197 255
158 197 255
158 197 255
158 197 255
158 197 255
158 197 255
158 197 255
158 197 255
158 197 255
159 197 255
159 197 255
159 198 255
159 198 255
159 198 255
159 198 255
159 198 255
159 198 255
159 198 255
159 198 255
160 198 255
160 198 255
160 198 255
160 198 255
160 198 255
160 198 255
160 198 255
160 198 255
160 198 255
161 199 255
161 199 255
161 199 255
161 199 255
161 199 255
161 199 255
161 199 255
161 199 255
161 199 255
161 199 255
162 199 255
162 199 255
162 199 255
162 199 255
162 199 255
162 199 255
162 199 255
162 200 255
162 200 255
162 200 255
163 200 255
163 200 255
163 200 255
163 200 255
163 200 255
163 200 255
163 200 255
163 200 255
163 200 255
163 200 255
163 200 255
164 200 255
164 200 255
164 200 255
164 200 255
164 201 255
164 201 255
164 201 255
164 201 255
164 201 255
164 201 255
164 201 255
165 201 255
165 201 255
165 201 255
165 201 255
165 201 255
165 201 255
165 201 255
165 201 255
165 201 255
165 201 255
165 201 255
165 201 255
166 202 255
166 202 255
165 201 255
165 201 255
165 201 255
165 201 255
165 201 255
165 201 255
165 201 255
165 201 255
165 201 255
165 201 255
165 201 255
165 201 255
164 201 255
164 201 255
164 201 255
164 201 255
164 201 255
164 201 255
164 201 255
164 201 255
164 200 255
164 200 255
164 200 255
163 200 255
163 200 255
163 200 255
163 200 255
163 200 255
163 200 255
163 200 255
163 200 255
163 200 255
163 200 255
163 200 255
163 200 255
162 200 255
162 200 255
162 200 255
162 199 255
162 199 255
162 199 255
162 199 255
162 199 255
162 199 255
161 199 255
161 199 255
161 199 255
161 199 255
161 199 255
161 199 255
161 199 255
161 199 255
161 199 255
161 199 255
160 198 255
160 198 255
160 198 255
160 198 255
160 198 255
160 198 255
160 198 255
160 198 255
160 198 255
160 198 255
159 198 255
159 198 255
159 198 255
159 198 255
159 198 255
159 198 255
159 197 255
159 197 255
159 197 255
159 197 255
158 197 255
158 197 255
158 197 255
158 197 255
158 197 255
158 197 255
158 197 255
158 197 255
158 197 255
157 197 255
157 197 255
157 197 255
157 196 255
157 196 255
157 196 255
157 196 255
157 196 255
157 196 255
156 196 255
156 196 255
156 196 255
156 196 255
156 196 255
156 196 255
156 196 255
156 196 255
156 196 255
155 195 255
155 195 255
155 195 255
155 195 255
155 195 255
155 195 255
155 195 255
155 195 255
155 195 255
154 195 255
154 195 255
154 195 255
154 195 255
154 195 255
154 195 255
154 195 255
154 194 255
154 194 255
154 194 255
153 194 255
153 194 255
153 194 255
153 194 255
153 194 255
153 194 255
153 194 255
153 194 255
153 194 255
153 194 255
152 194 255
152 194 255
152 194 255
152 194 255
152 193 255
152 193 255
152 193 255
152 193 255
152 193 255
152 193 255
152 193 255
151 193 255
151 193 255
151 193 255
151 193 255
151 193 255
151 193 255
151 193 255
151 193 255
151 193 255
151 193 255
151 193 255
151 193 255
150 192 255
150 192 255
150 192 255
150 192 255
150 192 255
150 192 255
150 192 255
150 192 255
150 192 255
150 192 255
150 192 255
150 192 255
150 192 255
150 192 255
150 192 255
150 192 255
149 192 255
149 192 255
149 192 255
149 192 255
149 192 255
149 192 255
149 192 255
149 192 255
149 192 255
149 192 255
149 192 255
149 192 255
149 192 255
149 192 255
149 192 255
149 192 255
149 192 255
149 192 255
149 192 255
149 191 255
149 191 255
149 191 255
149 191 255
149 191 255
149 191 255
149 191 255
149 191 255
149 191 255
149 191 255
149 191 255
149 191 255
149 191 255
149 191 255
149 191 255
149 191 255
149 191 255
149 191 255
149 191 255
149 192 255
149 192 255
149 192 255
149 192 255
149 192 255
149 192 255
149 192 255
149 192 255
149 192 255
149 192 255
149 192 255
149 192 255
149 192 255
149 192 255
149 192 255
149 192 255
149 192 255
149 192 255
149 192 255
149 192 255
150 192 255
150 192 255
150 192 255
150 192 255
150 192 255
150 192 255
150 192 255
150 192 255
150 192 255
150 192 255
150 192 255
150 192 255
150 192 255
150 192 255
150 192 255
150 192 255
151 193 255
151 193 255
151 193 255
151 193 255
151 193 255
151 193 255
151 193 255
151 193 255
151 193 255
151 193 255
151 193 255
151 193 255
152 193 255
152 193 255
152 193 255
152 193 255
152 193 255
152 193 255
152 193 255
152 194 255
152 194 255
152 194 255
152 194 255
153 194 255
153 194 255
153 194 255
153 194 255
153 194 255
153 194 255
153 194 255
153 194 255
153 194 255
153 194 255
154 194 255
154 194 255
154 194 255
154 194 255
154 195 255
154 195 255
154 195 255
154 195 255
154 195 255
155 195 255
155 195 255
155 195 255
155 195 255
155 195 255
155 195 255
155 195 255
155 195 255
155 195 255
155 195 255
156 196 255
156 196 255
156 196 255
156 196 255
156 196 255
156 196 255
156 196 255
156 196 255
156 196 255
157 196 255
157 196 255
157 196 255
157 196 255
157 196 255
157 196 255
157 197 255
157 197 255
157 197 255
158 197 255
158 197 255
158 197 255
158 197 255
158 197 255
158 197 255
158 197 255
158 197 255
158 197 255
159 197 255
159 197 255
159 197 255
159 197 255
159 198 255
159 198 255
159 198 255
159 198 255
159 198 255
159 198 255
160 198 255
160 198 255
160 198 255
160 198 255
160 198 255
160 198 255
160 198 255
160 198 255
160 198 255
160 198 255
161 199 255
161 199 255
161 199 255
161 199 255
161 199 255
161 199 255
161 199 255
161 199 255
161 199 255
162 199 255
162 199 255
162 199 255
162 199 255
162 199 255
162 199 255
162 199 255
162 200 255
162 200 255
162 200 255
163 200 255
163 200 255
163 200 255
163 200 255
163 200 255
163 200 255
163 200 255
163 200 255
163 200 255
163 200 255
163 200 255
164 200 255
164 200 255
164 200 255
164 200 255
164 201 255
164 201 255
164 201 255
164 201 255
164 201 255
164 201 255
164 201 255
164 201 255
165 201 255
165 201 255
165 201 255
165 201 255
165 201 255
165 201 255
165 201 255
165 201 255
165 201 255
165 201 255
165 201 255
166 202 255
166 202 255
166 202 255
166 202 255
166 202 255
166 202 255
166 202 255
166 202 255
165 201 255
165 201 255
165 201 255
165 201 255
165 201 255
165 201 255
165 201 255
165 201 255
165 201 255
165 201 255
165 201 255
165 201 255
164 201 255
164 201 255
164 201 255
164 201 255
164 201 255
164 201 255
164 201 255
164 200 255
164 200 255
164 200 255
164 200 255
163 200 255
163 200 255
163 200 255
163 200 255
163 200 255
163 200 255
163 200 255
163 200 255
163 200 255
163 200 255
163 200 255
162 200 255
162 200 255
162 200 255
162 199 255
162 199 255
162 199 255
162 199 255
162 199 255
162 199 255
162 199 255
161 199 255
161 199 255
161 199 255
161 199 255
161 199 255
161 199 255
161 199 255
161 199 255
161 199 255
161 199 255
160 198 255
160 198 255
160 198 255
160 198 255
160 198 255
160 198 255
160 198 255
160 198 255
160 198 255
159 198 255
159 198 255
159 198 255
159 198 255
159 198 255
159 198 255
159 197 255
159 197 255
159 197 255
159 197 255
158 197 255
158 197 255
158 197 255
158 197 255
158 197 255
158 197 255
158 197 255
158 197 255
158 197 255
157 197 255
157 197 255
157 197 255
157 196 255
157 196 255
157 196 255
157 196 255
157 196 255
157 196 255
156 196 255
156 196 255
156 196 255
156 196 255
156 196 255
156 196 255
156 196 255
156 196 255
156 196 255
155 195 255
155 195 255
155 195 255
155 195 255
155 195 255
155 195 255
155 195 255
155 195 255
155 195 255
155 195 255
154 195 255
154 195 255
154 195 255
154 195 255
154 195 255
154 195 255
154 194 255
154 194 255
154 194 255
154 194 255
153 194 255
153 194 255
153 194 255
153 194 255
153 194 255
153 194 255
153 194 255
153 194 255
153 194 255
153 194 255
152 194 255
152 194 255
152 194 255
152 193 255
152 193 255
152 193 255
152 193 255
152 193 255
152 193 255
152 193 255
151 193 255
151 193 255
151 193 255
151 193 255
151 193 255
151 193 255
151 193 255
151 193 255
151 193 255
151 193 255
151 193 255
151 193 255
151 193 255
150 192 255
150 192 255
150 192 255
150 192 255
150 192 255
150 192 255
150 192 255
150 192 255
150 192 255
150 192 255
150 192 255
150 192 255
150 192 255
150 192 255
150 192 255
150 192 255
150 192 255
150 192 255
149 192 255
149 192 255
149 192 255
149 192 255
149 192 255
149 192 255
149 192 255
149 192 255
149 192 255
149 192 255
149 192 255
149 192 255
149 192 255
149 192 255
149 192 255
149 192 255
149 192 255
149 192 255
149 192 255
149 192 255
149 192 255
149 192 255
149 192 255
149 192 255
149 192 255
149 192 255
149 192 255
149 192 255
149 192 255
149 192 255
149 192 255
149 192 255
149 192 255
149 192 255
149 192 255
149 192 255
149 192 255
149 192 255
149 192 255
149 192 255
149 192 255
149 192 255
149 192 255
149 192 255
149 192 255
149 192 255
149 192 255
149 192 255
150 192 255
150 192 255
150 192 255
150 192 255
150 192 255
150 192 255
150 192 255
150 192 255
150 192 255
150 192 255
150 192 255
150 192 255
150 192 255
150 192 255
150 192 255
150 192 255
150 192 255
151 193 255
151 193 255
151 193 255
151 193 255
151 193 255
151 193 255
151 193 255
151 193 255
151 193 255
151 193 255
151 193 255
151 193 255
151 193 255
152 193 255
152 193 255
152 193 255
152 193 255
152 193 255
152 193 255
152 193 255
152 193 255
152 194 255
152 194 255
152 194 255
153 194 255
153 194 255
153 194 255
153 194 255
153 194 255
153 194 255
153 194 255
153 194 255
153 194 255
153 194 255
153 194 255
154 194 255
154 194 255
154 194 255
154 195 255
154 195 255
154 195 255
154 195 255
154 195 255
154 195 255
155 195 255
155 195 255
155 195 255
155 195 255
155 195 255
155 195 255
155 195 255
155 195 255
155 195 255
155 195 255
156 196 255
156 196 255
156 196 255
156 196 255
156 196 255
156 196 255
156 196 255
156 196 255
156 196 255
157 196 255
157 196 255
157 196 255
157 196 255
157 196 255
157 196 255
157 197 255
157 197 255
157 197 255
158 197 255
158 197 255
158 197 255
158 197 255
158 197 255
158 197 255
158 197 255
158 197 255
158 197 255
159 197 255
159 197 255
159 197 255
159 198 255
159 198 255
159 198 255
159 198 255
159 198 255
159 198 255
159 198 255
160 198 255
160 198 255
160 198 255
160 198 255
160 198 255
160 198 255
160 198 255
160 198 255
160 198 255
161 199 255
161 199 255
161 199 255
161 199 255
161 199 255
161 199 255
161 199 255
161 199 255
161 199 255
161 199 255
162 199 255
162 199 255
162 199 255
162 199 255
162 199 255
162 199 255
162 199 255
162 200 255
162 200 255
162 200 255
162 200 255
163 200 255
163 200 255
163 200 255
163 200 255
163 200 255
163 200 255
163 200 255
163 200 255
163 200 255
163 200 255
164 200 255
164 200 255
164 200 255
164 201 255
164 201 255
164 201 255
164 201 255
164 201 255
164 201 255
164 201 255
164 201 255
165 201 255
165 201 255
165 201 255
165 201 255
165 201 255
165 201 255
165 201 255
165 201 255
165 201 255
165 201 255
165 201 255
165 201 255
166 202 255
166 202 255
166 202 255
166 202 255
166 202 255
166 202 255
166 202 255
166 202 255
166 202 255
166 202 255
166 202 255
166 202 255
166 202 255
165 201 255
165 201 255
165 201 255
165 201 255
165 201 255
165 201 255
165 201 255
165 201 255
165 201 255
165 201 255
165 201 255
164 201 255
164 201 255
164 201 255
164 201 255
164 201 255
164 201 255
164 201 255
164 201 255
164 200 255
164 200 255
164 200 255
164 200 255
163 200 255
163 200 255
163 200 255
163 200 255
163 200 255
163 200 255
163 200 255
163 200 255
163 200 255
163 200 255
162 200 255
162 200 255
162 200 255
162 199 255
162 199 255
162 199 255
162 199 255
162 199 255
162 199 255
162 199 255
161 199 255
161 199 255
161 199 255
161 199 255
161 199 255
161 199 255
161 199 255
161 199 255
161 199 255
161 199 255
160 198 255
160 198 255
160 198 255
160 198 255
160 198 255
160 198 255
160 198 255
160 198 255
160 198 255
159 198 255
159 198 255
159 198 255
159 198 255
159 198 255
159 198 255
159 198 255
159 197 255
159 197 255
159 197 255
158 197 255
158 197 255
158 197 255
158 197 255
158 197 255
158 197 255
158 197 255
158 197 255
158 197 255
157 197 255
157 197 255
157 197 255
157 197 255
157 196 255
157 196 255
157 196 255
157 196 255
157 196 255
156 196 255
156 196 255
156 196 255
156 196 255
156 196 255
156 196 255
156 196 255
156 196 255
156 196 255
156 196 255
155 195 255
155 195 255
155 195 255
155 195 255
155 195 255
155 195 255
155 195 255
155 195 255
155 195 255
154 195 255
154 195 255
154 195 255
154 195 255
154 195 255
154 195 255
154 195 255
154 194 255
154 194 255
154 194 255
153 194 255
153 194 255
153 194 255
153 194 255
153 194 255
153 194 255
153 194 255
153 194 255
153 194 255
153 194 255
152 194 255
152 194 255
152 194 255
152 194 255
152 193 255
152 193 255
152 193 255
152 193 255
152 193 255
152 193 255
152 193 255
152 193 255
151 193 255
151 193 255
151 193 255
151 193 255
151 193 255
151 193 255
151 193 255
151 193 255
151 193 255
151 193 255
151 193 255
151 193 255
151 193 255
151 193 255
150 192 255
150 192 255
150 192 255
150 192 255
150 192 255
150 192 255
150 192 255
150 192 255
150 192 255
150 192 255
150 192 255
150 192 255
150 192 255
150 192 255
150 192 255
150 192 255
150 192 255
150 192 255
150 192 255
149 192 255
149 192 255
149 192 255
149 192 255
149 192 255
149 192 255
149 192 255
149 192 255
149 192 255
149 192 255
149 192 255
149 192 255
149 192 255
149 192 255
149 192 255
149 192 255
149 192 255
149 192 255
149 192 255
149 192 255
149 192 255
149 192 255
149 192 255
149 192 255
149 192 255
149 192 255
149 192 255
149 192 255
149 192 255
149 192 255
149 192 255
149 192 255
149 192 255
149 192 255
150 192 255
149 192 255
150 192 255
150 192 255
150 192 255
150 192 255
150 192 255
150 192 255
150 192 255
150 192 255
150 192 255
150 192 255
150 192 255
150 192 255
150 192 255
150 192 255
150 192 255
150 192 255
150 192 255
150 192 255
150 192 255
150 192 255
151 193 255
151 193 255
151 193 255
151 193 255
151 193 255
151 193 255
151 193 255
151 193 255
151 193 255
151 193 255
151 193 255
151 193 255
151 193 255
151 193 255
152 193 255
152 193 255
152 193 255
152 193 255
152 193 255
152 193 255
152 193 255
152 194 255
152 194 255
152 194 255
152 194 255
153 194 255
153 194 255
153 194 255
153 194 255
153 194 255
153 194 255
153 194 255
153 194 255
153 194 255
153 194 255
154 194 255
154 194 255
154 194 255
154 194 255
154 195 255
154 195 255
154 195 255
154 195 255
154 195 255
154 195 255
155 195 255
155 195 255
155 195 255
155 195 255
155 195 255
155 195 255
155 195 255
155 195 255
155 195 255
156 196 255
156 196 255
156 196 255
156 196 255
156 196 255
156 196 255
156 196 255
156 196 255
156 196 255
157 196 255
157 196 255
157 196 255
157 196 255
157 196 255
157 196 255
157 196 255
157 197 255
157 197 255
157 197 255
158 197 255
158 197 255
158 197 255
158 197 255
158 197 255
158 197 255
158 197 255
158 197 255
158 197 255
159 197 255
159 197 255
159 197 255
159 198 255
159 198 255
159 198 255
159 198 255
159 198 255
159 198 255
160 198 255
160 198 255
160 198 255
160 198 255
160 198 255
160 198 255
160 198 255
160 198 255
160 198 255
160 198 255
161 199 255
161 199 255
161 199 255
161 199 255
161 199 255
161 199 255
161 199 255
161 199 255
161 199 255
161 199 255
162 199 255
162 199 255
162 199 255
162 199 255
162 199 255
162 199 255
162 199 255
162 200 255
162 200 255
162 200 255
163 200 255
163 200 255
163 200 255
163 200 255
163 200 255
163 200 255
163 200 255
163 200 255
163 200 255
163 200 255
163 200 255
164 200 255
164 200 255
164 200 255
164 201 255
164 201 255
164 201 255
164 201 255
164 201 255
164 201 255
164 201 255
164 201 255
165 201 255
165 201 255
165 201 255
165 201 255
165 201 255
165 201 255
165 201 255
165 201 255
165 201 255
165 201 255
165 201 255
166 202 255
166 202 255
166 202 255
166 202 255
166 202 255
166 202 255
166 202 255
166 202 255
166 202 255
166 202 255
166 202 255
166 202 255
166 202 255
166 202 255
166 202 255
166 202 255
166 202 255
166 202 255
166 202 255
165 201 255
165 201 255
165 201 255
165 201 255
165 201 255
165 201 255
165 201 255
165 201 255
165 201 255
165 201 255
165 201 255
164 201 255
164 201 255
164 201 255
164 201 255
164 201 255
164 201 255
164 201 255
164 200 255
164 200 255
164 200 255
164 200 255
163 200 255
163 200 255
163 200 255
163 200 255
163 200 255
163 200 255
163 200 255
163 200 255
163 200 255
163 200 255
163 200 255
162 200 255
162 200 255
162 200 255
162 199 255
162 199 255
162 199 255
162 199 255
162 199 255
162 199 255
162 199 255
161 199 255
161 199 255
161 199 255
161 199 255
161 199 255
161 199 255
161 199 255
161 199 255
161 199 255
160 198 255
160 198 255
160 198 255
160 198 255
160 198 255
160 198 255
160 198 255
160 198 255
160 198 255
160 198 255
159 198 255
159 198 255
159 198 255
159 198 255
159 198 255
159 198 255
159 197 255
159 197 255
159 197 255
158 197 255
158 197 255
158 197 255
158 197 255
158 197 255
158 197 255
158 197 255
158 197 255
158 197 255
157 197 255
157 197 255
157 197 255
157 197 255
157 196 255
157 196 255
157 196 255
157 196 255
157 196 255
156 196 255
156 196 255
156 196 255
156 196 255
156 196 255
156 196 255
156 196 255
156 196 255
156 196 255
156 196 255
155 195 255
155 195 255
155 195 255
155 195 255
155 195 255
155 195 255
155 195 255
155 195 255
155 195 255
154 195 255
154 195 255
154 195 255
154 195 255
154 195 255
154 195 255
154 195 255
154 194 255
154 194 255
154 194 255
154 194 255
153 194 255
153 194 255
153 194 255
153 194 255
153 194 255
153 194 255
153 194 255
153 194 255
153 194 255
153 194 255
152 194 255
152 194 255
152 194 255
152 193 255
152 193 255
152 193 255
152 193 255
152 193 255
152 193 255
152 193 255
152 193 255
152 193 255
151 193 255
151 193 255
151 193 255
151 193 255
151 193 255
151 193 255
151 193 255
151 193 255
151 193 255
151 193 255
151 193 255
151 193 255
151 193 255
151 193 255
151 193 255
150 192 255
150 192 255
150 192 255
150 192 255
150 192 255
150 192 255
150 192 255
150 192 255
150 192 255
150 192 255
150 192 255
150 192 255
150 192 255
150 192 255
150 192 255
150 192 255
150 192 255
150 192 255
150 192 255
150 192 255
150 192 255
150 192 255
150 192 255
150 192 255
150 192 255
149 192 255
150 192 255
150 192 255
150 192 255
149 192 255
149 192 255
149 192 255
149 192 255
149 192 255
149 192 255
149 192 255
149 192 255
150 192 255
150 192 255
150 192 255
150 192 255
150 192 255
150 192 255
150 192 255
150 192 255
150 192 255
150 192 255
150 192 255
150 192 255
150 192 255
150 192 255
150 192 255
150 192 255
150 192 255
150 192 255
150 192 255
150 192 255
150 192 255
150 192 255
150 192 255
150 192 255
150 192 255
150 192 255
150 192 255
150 192 255
150 192 255
151 193 255
151 193 255
151 193 255
151 193 255
151 193 255
151 193 255
151 193 255
151 193 255
151 193 255
151 193 255
151 193 255
151 193 255
151 193 255
151 193 255
151 193 255
152 193 255
152 193 255
152 193 255
152 193 255
152 193 255
152 193 255
152 193 255
152 193 255
152 194 255
152 194 255
152 194 255
152 194 255
152 194 255
153 194 255
153 194 255
153 194 255
153 194 255
153 194 255
153 194 255
153 194 255
153 194 255
153 194 255
153 194 255
154 194 255
154 194 255
154 194 255
154 195 255
154 195 255
154 195 255
154 195 255
154 195 255
154 195 255
155 195 255
155 195 255
155 195 255
155 195 255
155 195 255
155 195 255
155 195 255
155 195 255
155 195 255
155 195 255
156 196 255
156 196 255
156 196 255
156 196 255
156 196 255
156 196 255
156 196 255
156 196 255
156 196 255
157 196 255
157 196 255
157 196 255
157 196 255
157 196 255
157 196 255
157 197 255
157 197 255
157 197 255
158 197 255
158 197 255
158 197 255
158 197 255
158 197 255
158 197 255
158 197 255
158 197 255
158 197 255
158 197 255
159 197 255
159 197 255
159 197 255
159 198 255
159 198 255
159 198 255
159 198 255
159 198 255
159 198 255
160 198 255
160 198 255
160 198 255
160 198 255
160 198 255
160 198 255
160 198 255
160 198 255
160 198 255
160 198 255
161 199 255
161 199 255
161 199 255
161 199 255
161 199 255
161 199 255
161 199 255
161 199 255
161 199 255
161 199 255
162 199 255
162 199 255
162 199 255
162 199 255
162 199 255
162 199 255
162 200 255
162 200 255
162 200 255
162 200 255
163 200 255
163 200 255
163 200 255
163 200 255
163 200 255
163 200 255
163 200 255
163 200 255
163 200 255
163 200 255
164 200 255
164 200 255
164 200 255
164 200 255
164 201 255
164 201 255
164 201 255
164 201 255
164 201 255
164 201 255
164 201 255
165 201 255
165 201 255
165 201 255
165 201 255
165 201 255
165 201 255
165 201 255
165 201 255
165 201 255
165 201 255
165 201 255
165 201 255
166 202 255
166 202 255
166 202 255
166 202 255
166 202 255
166 202 255
166 202 255
166 202 255
166 202 255
166 202 255
167 202 255
166 202 255
166 202 255
166 202 255
166 202 255
166 202 255
166 202 255
166 202 255
166 202 255
166 202 255
166 202 255
166 202 255
166 202 255
165 201 255
165 201 255
165 201 255
165 201 255
165 201 255
165 201 255
165 201 255
165 201 255
165 201 255
165 201 255
165 201 255
165 201 255
164 201 255
164 201 255
164 201 255
164 201 255
164 201 255
164 201 255
164 201 255
164 200 255
164 200 255
164 200 255
163 200 255
163 200 255
163 200 255
163 200 255
163 200 255
163 200 255
163 200 255
163 200 255
163 200 255
163 200 255
163 200 255
162 200 255
162 200 255
162 200 255
162 199 255
162 199 255
162 199 255
162 199 255
162 199 255
162 199 255
162 199 255
161 199 255
161 199 255
161 199 255
161 199 255
161 199 255
161 199 255
161 199 255
161 199 255
161 199 255
160 198 255
160 198 255
160 198 255
160 198 255
160 198 255
160 198 255
160 198 255
160 198 255
160 198 255
160 198 255
159 198 255
159 198 255
159 198 255
159 198 255
159 198 255
159 198 255
159 198 255
159 197 255
159 197 255
158 197 255
158 197 255
158 197 255
158 197 255
158 197 255
158 197 255
158 197 255
158 197 255
158 197 255
158 197 255
157 197 255
157 197 255
157 197 255
157 196 255
157 196 255
157 196 255
157 196 255
157 196 255
157 196 255
156 196 255
156 196 255
156 196 255
156 196 255
156 196 255
156 196 255
156 196 255
156 196 255
156 196 255
155 195 255
155 195 255
155 195 255
155 195 255
155 195 255
155 195 255
155 195 255
155 195 255
155 195 255
155 195 255
154 195 255
154 195 255
154 195 255
154 195 255
154 195 255
154 195 255
154 194 255
154 194 255
154 194 255
154 194 255
153 194 255
153 194 255
153 194 255
153 194 255
153 194 255
153 194 255
153 194 255
153 194 255
153 194 255
153 194 255
153 194 255
152 194 255
152 194 255
152 194 255
152 193 255
152 193 255
152 193 255
152 193 255
152 193 255
152 193 255
152 193 255
152 193 255
152 193 255
151 193 255
151 193 255
151 193 255
151 193 255
151 193 255
151 193 255
151 193 255
151 193 255
151 193 255
151 193 255
151 193 255
151 193 255
151 193 255
151 193 255
151 193 255
150 192 255
150 192 255
150 192 255
150 192 255
150 192 255
150 192 255
150 192 255
150 192 255
150 192 255
150 192 255
150 192 255
150 192 255
150 192 255
150 192 255
150 192 255
150 192 255
150 192 255
150 192 255
150 192 255
150 192 255
150 192 255
150 192 255
150 192 255
150 192 255
150 192 255
150 192 255
150 192 255
150 192 255
150 192 255
150 192 255
150 192 255
150 192 255
150 192 255
150 192 255
150 192 255
150 192 255
150 192 255
150 192 255
150 192 255
150 192 255
150 192 255
150 192 255
150 192 255
150 192 255
150 192 255
150 192 255
150 192 255
150 192 255
150 192 255
150 192 255
150 192 255
150 192 255
150 192 255
150 192 255
150 192 255
150 192 255
150 192 255
150 192 255
150 192 255
151 193 255
151 193 255
151 193 255
151 193 255
151 193 255
151 193 255
151 193 255
151 193 255
151 193 255
151 193 255
151 193 255
151 193 255
151 193 255
151 193 255
151 193 255
152 193 255
152 193 255
152 193 255
152 193 255
152 193 255
152 193 255
152 193 255
152 193 255
152 193 255
152 193 255
152 194 255
152 194 255
152 194 255
153 194 255
153 194 255
153 194 255
153 194 255
153 194 255
153 194 255
153 194 255
153 194 255
153 194 255
153 194 255
153 194 255
154 194 255
154 194 255
154 194 255
154 195 255
154 195 255
154 195 255
154 195 255
154 195 255
154 195 255
154 195 255
155 195 255
155 195 255
155 195 255
155 195 255
155 195 255
155 195 255
155 195 255
155 195 255
155 195 255
155 195 255
156 196 255
156 196 255
156 196 255
156 196 255
156 196 255
156 196 255
156 196 255
156 196 255
156 196 255
157 196 255
157 196 255
157 196 255
157 196 255
157 196 255
157 196 255
157 197 255
157 197 255
157 197 255
158 197 255
158 197 255
158 197 255
158 197 255
158 197 255
158 197 255
158 197 255
158 197 255
158 197 255
159 197 255
159 197 255
159 197 255
159 197 255
159 198 255
159 198 255
159 198 255
159 198 255
159 198 255
159 198 255
160 198 255
160 198 255
160 198 255
160 198 255
160 198 255
160 198 255
160 198 255
160 198 255
160 198 255
161 199 255
161 199 255
161 199 255
161 199 255
161 199 255
161 199 255
161 199 255
161 199 255
161 199 255
161 199 255
162 199 255
162 199 255
162 199 255
162 199 255
162 199 255
162 199 255
162 199 255
162 200 255
162 200 255
162 200 255
163 200 255
163 200 255
163 200 255
163 200 255
163 200 255
163 200 255
163 200 255
163 200 255
163 200 255
163 200 255
164 200 255
164 200 255
164 200 255
164 200 255
164 201 255
164 201 255
164 201 255
164 201 255
164 201 255
164 201 255
164 201 255
165 201 255
165 201 255
165 201 255
165 201 255
165 201 255
165 201 255
165 201 255
165 201 255
165 201 255
165 201 255
165 201 255
165 201 255
166 202 255
166 202 255
166 202 255
166 202 255
166 202 255
166 202 255
166 202 255
166 202 255
166 202 255
166 202 255
166 202 255
166 202 255
167 202 255
167 202 255
167 202 255
167 202 255
167 202 255
166 202 255
166 202 255
166 202 255
166 202 255
166 202 255
166 202 255
166 202 255
166 202 255
166 202 255
166 202 255
166 202 255
166 202 255
165 201 255
165 201 255
165 201 255
165 201 255
165 201 255
165 201 255
165 201 255
165 201 255
165 201 255
165 201 255
165 201 255
164 201 255
164 201 255
164 201 255
164 201 255
164 201 255
164 201 255
164 201 255
164 200 255
164 200 255
164 200 255
164 200 255
163 200 255
163 200 255
163 200 255
163 200 255
163 200 255
163 200 255
163 200 255
163 200 255
163 200 255
163 200 255
163 200 255
162 200 255
162 200 255
162 200 255
162 199 255
162 199 255
162 199 255
162 199 255
162 199 255
162 199 255
162 199 255
161 199 255
161 199 255
161 199 255
161 199 255
161 199 255
161 199 255
161 199 255
161 199 255
161 199 255
160 198 255
160 198 255
160 198 255
160 198 255
160 198 255
160 198 255
160 198 255
160 198 255
160 198 255
160 198 255
159 198 255
159 198 255
159 198 255
159 198 255
159 198 255
159 198 255
159 197 255
159 197 255
159 197 255
158 197 255
158 197 255
158 197 255
158 197 255
158 197 255
158 197 255
158 197 255
158 197 255
158 197 255
157 197 255
157 197 255
157 197 255
157 197 255
157 196 255
157 196 255
157 196 255
157 196 255
157 196 255
156 196 255
156 196 255
156 196 255
156 196 255
156 196 255
156 196 255
156 196 255
156 196 255
156 196 255
156 196 255
155 195 255
155 195 255
155 195 255
155 195 255
155 195 255
155 195 255
155 195 255
155 195 255
155 195 255
155 195 255
154 195 255
154 195 255
154 195 255
154 195 255
154 195 255
154 195 255
154 194 255
154 194 255
154 194 255
154 194 255
153 194 255
153 194 255
153 194 255
153 194 255
153 194 255
153 194 255
153 194 255
153 194 255
153 194 255
153 194 255
153 194 255
152 194 255
152 194 255
152 194 255
152 194 255
152 193 255
152 193 255
152 193 255
152 193 255
152 193 255
152 193 255
152 193 255
152 193 255
151 193 255
151 193 255
151 193 255
151 193 255
151 193 255
151 193 255
151 193 255
151 193 255
151 193 255
151 193 255
151 193 255
151 193 255
151 193 255
151 193 255
151 193 255
151 193 255
151 193 255
151 193 255
150 192 255
150 192 255
150 192 255
150 192 255
150 192 255
150 192 255
150 192 255
150 192 255
150 192 255
150 192 255
150 192 255
150 192 255
150 192 255
150 192 255
150 192 255
150 192 255
150 192 255
150 192 255
150 192 255
150 192 255
150 192 255
150 192 255
150 192 255
150 192 255
150 192 255
150 192 255
150 192 255
150 192 255
150 192 255
150 192 255
150 192 255
150 192 255
150 192 255
150 192 255
150 192 255
150 192 255
150 192 255
150 192 255
150 192 255
150 192 255
150 192 255
150 192 255
150 192 255
150 192 255
150 192 255
150 192 255
150 192 255
150 192 255
151 193 255
151 193 255
151 193 255
151 193 255
151 193 255
151 193 255
151 193 255
151 193 255
151 193 255
151 193 255
151 193 255
151 193 255
151 193 255
151 193 255
151 193 255
151 193 255
151 193 255
151 193 255
152 193 255
152 193 255
152 193 255
152 193 255
152 193 255
152 193 255
152 193 255
152 193 255
152 194 255
152 194 255
152 194 255
152 194 255
153 194 255
153 194 255
153 194 255
153 194 255
153 194 255
153 194 255
153 194 255
153 194 255
153 194 255
153 194 255
153 194 255
154 194 255
154 194 255
154 194 255
154 194 255
154 195 255
154 195 255
154 195 255
154 195 255
154 195 255
154 195 255
155 195 255
155 195 255
155 195 255
155 195 255
155 195 255
155 195 255
155 195 255
155 195 255
155 195 255
155 195 255
156 196 255
156 196 255
156 196 255
156 196 255
156 196 255
156 196 255
156 196 255
156 196 255
156 196 255
156 196 255
157 196 255
157 196 255
157 196 255
157 196 255
157 196 255
157 196 255
157 197 255
157 197 255
157 197 255
158 197 255
158 197 255
158 197 255
158 197 255
158 197 255
158 197 255
158 197 255
158 197 255
158 197 255
158 197 255
159 197 255
159 197 255
159 198 255
159 198 255
159 198 255
159 198 255
159 198 255
159 198 255
160 198 255
160 198 255
160 198 255
160 198 255
160 198 255
160 198 255
160 198 255
160 198 255
160 198 255
160 198 255
161 199 255
161 199 255
161 199 255
161 199 255
161 199 255
161 199 255
161 199 255
161 199 255
161 199 255
161 199 255
162 199 255
162 199 255
162 199 255
162 199 255
162 199 255
162 199 255
162 200 255
162 200 255
162 200 255
162 200 255
163 200 255
163 200 255
163 200 255
163 200 255
163 200 255
163 200 255
163 200 255
163 200 255
163 200 255
163 200 255
164 200 255
164 200 255
164 200 255
164 200 255
164 201 255
164 201 255
164 201 255
164 201 255
164 201 255
164 201 255
164 201 255
165 201 255
165 201 255
165 201 255
165 201 255
165 201 255
165 201 255
165 201 255
165 201 255
165 201 255
165 201 255
165 201 255
165 201 255
166 202 255
166 202 255
166 202 255
166 202 255
166 202 255
166 202 255
166 202 255
166 202 255
166 202 255
166 202 255
166 202 255
167 202 255
167 202 255
167 202 255
167 202 255
167 202 255
167 202 255
167 202 255
167 202 255
167 202 255
167 202 255
166 202 255
166 202 255
166 202 255
166 202 255
166 202 255
166 202 255
166 202 255
166 202 255
166 202 255
166 202 255
166 202 255
166 202 255
165 201 255
165 201 255
165 201 255
165 201 255
165 201 255
165 201 255
165 201 255
165 201 255
165 201 255
165 201 255
165 201 255
165 201 255
164 201 255
164 201 255
164 201 255
164 201 255
164 201 255
164 201 255
164 201 255
164 200 255
164 200 255
164 200 255
163 200 255
163 200 255
163 200 255
163 200 255
163 200 255
163 200 255
163 200 255
163 200 255
163 200 255
163 200 255
163 200 255
162 200 255
162 200 255
162 200 255
162 199 255
162 199 255
162 199 255
162 199 255
162 199 255
162 199 255
162 199 255
161 199 255
161 199 255
161 199 255
161 199 255
161 199 255
161 199 255
161 199 255
161 199 255
161 199 255
160 198 255
160 198 255
160 198 255
160 198 255
160 198 255
160 198 255
160 198 255
160 198 255
160 198 255
160 198 255
159 198 255
159 198 255
159 198 255
159 198 255
159 198 255
159 198 255
159 197 255
159 197 255
159 197 255
158 197 255
158 197 255
158 197 255
158 197 255
158 197 255
158 197 255
158 197 255
158 197 255
158 197 255
158 197 255
157 197 255
157 197 255
157 197 255
157 196 255
157 196 255
157 196 255
157 196 255
157 196 255
157 196 255
156 196 255
156 196 255
156 196 255
156 196 255
156 196 255
156 196 255
156 196 255
156 196 255
156 196 255
155 195 255
155 195 255
155 195 255
155 195 255
155 195 255
155 195 255
155 195 255
155 195 255
155 195 255
155 195 255
154 195 255
154 195 255
154 195 255
154 195 255
154 195 255
154 195 255
154 195 255
154 194 255
154 194 255
154 194 255
153 194 255
153 194 255
153 194 255
153 194 255
153 194 255
153 194 255
153 194 255
153 194 255
153 194 255
153 194 255
153 194 255
153 194 255
152 194 255
152 194 255
152 194 255
152 194 255
152 193 255
152 193 255
152 193 255
152 193 255
152 193 255
152 193 255
152 193 255
152 193 255
152 193 255
151 193 255
151 193 255
151 193 255
151 193 255
151 193 255
151 193 255
151 193 255
151 193 255
151 193 255
151 193 255
151 193 255
151 193 255
151 193 255
151 193 255
151 193 255
151 193 255
151 193 255
151 193 255
151 193 255
150 192 255
151 193 255
150 192 255
150 192 255
150 192 255
150 192 255
150 192 255
150 192 255
150 192 255
150 192 255
150 192 255
150 192 255
150 192 255
150 192 255
150 192 255
150 192 255
150 192 255
150 192 255
150 192 255
150 192 255
150 192 255
150 192 255
150 192 255
150 192 255
150 192 255
150 192 255
150 192 255
150 192 255
150 192 255
150 192 255
150 192 255
150 192 255
150 192 255
150 192 255
150 192 255
150 192 255
151 193 255
151 193 255
151 193 255
151 193 255
151 193 255
151 193 255
151 193 255
151 193 255
151 193 255
151 193 255
151 193 255
151 193 255
151 193 255
151 193 255
151 193 255
151 193 255
151 193 255
151 193 255
151 193 255
151 193 255
151 193 255
152 193 255
152 193 255
152 193 255
152 193 255
152 193 255
152 193 255
152 193 255
152 193 255
152 193 255
152 194 255
152 194 255
152 194 255
152 194 255
152 194 255
153 194 255
153 194 255
153 194 255
153 194 255
153 194 255
153 194 255
153 194 255
153 194 255
153 194 255
153 194 255
153 194 255
154 194 255
154 194 255
154 194 255
154 195 255
154 195 255
154 195 255
154 195 255
154 195 255
154 195 255
154 195 255
155 195 255
155 195 255
155 195 255
155 195 255
155 195 255
155 195 255
155 195 255
155 195 255
155 195 255
155 195 255
156 196 255
156 196 255
156 196 255
156 196 255
156 196 255
156 196 255
156 196 255
156 196 255
156 196 255
157 196 255
157 196 255
157 196 255
157 196 255
157 196 255
157 196 255
157 196 255
157 197 255
157 197 255
158 197 255
158 197 255
158 197 255
158 197 255
158 197 255
158 197 255
158 197 255
158 197 255
158 197 255
158 197 255
159 197 255
159 197 255
159 197 255
159 198 255
159 198 255
159 198 255
159 198 255
159 198 255
159 198 255
160 198 255
160 198 255
160 198 255
160 198 255
160 198 255
160 198 255
160 198 255
160 198 255
160 198 255
160 198 255
161 199 255
161 199 255
161 199 255
161 199 255
161 199 255
161 199 255
161 199 255
161 199 255
161 199 255
162 199 255
162 199 255
162 199 255
162 199 255
162 199 255
162 199 255
162 199 255
162 200 255
162 200 255
162 200 255
163 200 255
163 200 255
163 200 255
163 200 255
163 200 255
163 200 255
163 200 255
163 200 255
163 200 255
163 200 255
163 200 255
164 200 255
164 200 255
164 200 255
164 201 255
164 201 255
164 201 255
164 201 255
164 201 255
164 201 255
164 201 255
165 201 255
165 201 255
165 201 255
165 201 255
165 201 255
165 201 255
165 201 255
165 201 255
165 201 255
165 201 255
165 201 255
166 202 255
166 202 255
166 202 255
166 202 255
166 202 255
166 202 255
166 202 255
166 202 255
166 202 255
166 202 255
166 202 255
166 202 255
167 202 255
167 202 255
167 202 255
167 202 255
167 202 255
167 202 255
167 202 255
167 203 255
167 203 255
167 202 255
167 202 255
167 202 255
167 202 255
167 202 255
167 202 255
167 202 255
166 202 255
166 202 255
166 202 255
166 202 255
166 202 255
166 202 255
166 202 255
166 202 255
166 202 255
166 202 255
166 202 255
166 202 255
165 201 255
165 201 255
165 201 255
165 201 255
165 201 255
165 201 255
165 201 255
165 201 255
165 201 255
165 201 255
165 201 255
165 201 255
164 201 255
164 201 255
164 201 255
164 201 255
164 201 255
164 201 255
164 200 255
164 200 255
164 200 255
164 200 255
163 200 255
163 200 255
163 200 255
163 200 255
163 200 255
163 200 255
163 200 255
163 200 255
163 200 255
163 200 255
163 200 255
162 200 255
162 200 255
162 199 255
162 199 255
162 199 255
162 199 255
162 199 255
162 199 255
162 199 255
161 199 255
161 199 255
161 199 255
161 199 255
161 199 255
161 199 255
161 199 255
161 199 255
161 199 255
161 199 255
160 198 255
160 198 255
160 198 255
160 198 255
160 198 255
160 198 255
160 198 255
160 198 255
160 198 255
160 198 255
159 198 255
159 198 255
159 198 255
159 198 255
159 198 255
159 198 255
159 197 255
159 197 255
159 197 255
158 197 255
158 197 255
158 197 255
158 197 255
158 197 255
158 197 255
158 197 255
158 197 255
158 197 255
157 197 255
157 197 255
157 197 255
157 196 255
157 196 255
157 196 255
157 196 255
157 196 255
157 196 255
156 196 255
156 196 255
156 196 255
156 196 255
156 196 255
156 196 255
156 196 255
156 196 255
156 196 255
156 196 255
155 195 255
155 195 255
155 195 255
155 195 255
155 195 255
155 195 255
155 195 255
155 195 255
155 195 255
154 195 255
154 195 255
154 195 255
154 195 255
154 195 255
154 195 255
154 195 255
154 195 255
154 194 255
154 194 255
154 194 255
154 194 255
153 194 255
153 194 255
153 194 255
153 194 255
153 194 255
153 194 255
153 194 255
153 194 255
153 194 255
153 194 255
153 194 255
152 194 255
152 194 255
152 194 255
152 194 255
152 194 255
152 193 255
152 193 255
152 193 255
152 193 255
152 193 255
152 193 255
152 193 255
152 193 255
152 193 255
151 193 255
151 193 255
151 193 255
151 193 255
151 193 255
151 193 255
151 193 255
151 193 255
151 193 255
151 193 255
151 193 255
151 193 255
151 193 255
151 193 255
151 193 255
151 193 255
151 193 255
151 193 255
151 193 255
151 193 255
151 193 255
151 193 255
151 193 255
151 193 255
151 193 255
151 193 255
151 193 255
151 193 255
151 193 255
150 192 255
150 192 255
150 192 255
150 192 255
150 192 255
150 192 255
151 193 255
150 192 255
150 192 255
150 192 255
151 193 255
150 192 255
151 193 255
151 193 255
151 193 255
151 193 255
151 193 255
151 193 255
151 193 255
151 193 255
151 193 255
151 193 255
151 193 255
151 193 255
151 193 255
151 193 255
151 193 255
151 193 255
151 193 255
151 193 255
151 193 255
151 193 255
151 193 255
151 193 255
151 193 255
151 193 255
151 193 255
151 193 255
152 193 255
152 193 255
152 193 255
152 193 255
152 193 255
152 193 255
152 193 255
152 193 255
152 193 255
152 193 255
152 194 255
152 194 255
152 194 255
152 194 255
152 194 255
153 194 255
153 194 255
153 194 255
153 194 255
153 194 255
153 194 255
153 194 255
153 194 255
153 194 255
153 194 255
153 194 255
153 194 255
154 194 255
154 194 255
154 194 255
154 194 255
154 195 255
154 195 255
154 195 255
154 195 255
154 195 255
154 195 255
155 195 255
155 195 255
155 195 255
155 195 255
155 195 255
155 195 255
155 195 255
155 195 255
155 195 255
155 195 255
156 196 255
156 196 255
156 196 255
156 196 255
156 196 255
156 196 255
156 196 255
156 196 255
156 196 255
156 196 255
157 196 255
157 196 255
157 196 255
157 196 255
157 196 255
157 196 255
157 197 255
157 197 255
157 197 255
158 197 255
158 197 255
158 197 255
158 197 255
158 197 255
158 197 255
158 197 255
158 197 255
158 197 255
159 197 255
159 197 255
159 197 255
159 197 255
159 198 255
159 198 255
159 198 255
159 198 255
159 198 255
159 198 255
160 198 255
160 198 255
160 198 255
160 198 255
160 198 255
160 198 255
160 198 255
160 198 255
160 198 255
161 199 255
161 199 255
161 199 255
161 199 255
161 199 255
161 199 255
161 199 255
161 199 255
161 199 255
161 199 255
162 199 255
162 199 255
162 199 255
162 199 255
162 199 255
162 199 255
162 200 255
162 200 255
162 200 255
162 200 255
163 200 255
163 200 255
163 200 255
163 200 255
163 200 255
163 200 255
163 200 255
163 200 255
163 200 255
164 200 255
164 200 255
164 200 255
164 200 255
164 200 255
164 201 255
164 201 255
164 201 255
164 201 255
164 201 255
164 201 255
165 201 255
165 201 255
165 201 255
165 201 255
165 201 255
165 201 255
165 201 255
165 201 255
165 201 255
165 201 255
165 201 255
165 201 255
166 202 255
166 202 255
166 202 255
166 202 255
166 202 255
166 202 255
166 202 255
166 202 255
166 202 255
166 202 255
166 202 255
166 202 255
167 202 255
167 202 255
167 202 255
167 202 255
167 202 255
167 202 255
167 202 255
167 202 255
167 203 255
167 203 255
167 203 255
167 203 255
167 203 255
167 202 255
167 202 255
167 202 255
167 202 255
167 202 255
167 202 255
167 202 255
167 202 255
166 202 255
166 202 255
166 202 255
166 202 255
166 202 255
166 202 255
166 202 255
166 202 255
166 202 255
166 202 255
166 202 255
165 201 255
165 201 255
165 201 255
165 201 255
165 201 255
165 201 255
165 201 255
165 201 255
165 201 255
165 201 255
165 201 255
165 201 255
164 201 255
164 201 255
164 201 255
164 201 255
164 201 255
164 201 255
164 201 255
164 200 255
164 200 255
164 200 255
163 200 255
163 200 255
163 200 255
163 200 255
163 200 255
163 200 255
163 200 255
163 200 255
163 200 255
163 200 255
163 200 255
162 200 255
162 200 255
162 200 255
162 199 255
162 199 255
162 199 255
162 199 255
162 199 255
162 199 255
162 199 255
161 199 255
161 199 255
161 199 255
161 199 255
161 199 255
161 199 255
161 199 255
161 199 255
161 199 255
160 198 255
160 198 255
160 198 255
160 198 255
160 198 255
160 198 255
160 198 255
160 198 255
160 198 255
160 198 255
159 198 255
159 198 255
159 198 255
159 198 255
159 198 255
159 198 255
159 197 255
159 197 255
159 197 255
158 197 255
158 197 255
158 197 255
158 197 255
158 197 255
158 197 255
158 197 255
158 197 255
158 197 255
157 197 255
157 197 255
157 197 255
157 197 255
157 196 255
157 196 255
157 196 255
157 196 255
157 196 255
157 196 255
156 196 255
156 196 255
156 196 255
156 196 255
156 196 255
156 196 255
156 196 255
156 196 255
156 196 255
156 196 255
155 195 255
155 195 255
155 195 255
155 195 255
155 195 255
155 195 255
155 195 255
155 195 255
155 195 255
155 195 255
154 195 255
154 195 255
154 195 255
154 195 255
154 195 255
154 195 255
154 194 255
154 194 255
154 194 255
154 194 255
153 194 255
153 194 255
153 194 255
153 194 255
153 194 255
153 194 255
153 194 255
153 194 255
153 194 255
153 194 255
153 194 255
153 194 255
152 194 255
152 194 255
152 194 255
152 194 255
152 194 255
152 194 255
152 193 255
152 193 255
152 193 255
152 193 255
152 193 255
152 193 255
152 193 255
152 193 255
152 193 255
152 193 255
151 193 255
151 193 255
151 193 255
151 193 255
151 193 255
151 193 255
151 193 255
151 193 255
151 193 255
151 193 255
151 193 255
151 193 255
151 193 255
151 193 255
151 193 255
151 193 255
151 193 255
151 193 255
151 193 255
151 193 255
151 193 255
151 193 255
151 193 255
151 193 255
151 193 255
151 193 255
151 193 255
151 193 255
151 193 255
151 193 255
151 193 255
151 193 255
151 193 255
151 193 255
151 193 255
151 193 255
151 193 255
151 193 255
151 193 255
151 193 255
151 193 255
151 193 255
151 193 255
151 193 255
151 193 255
151 193 255
151 193 255
151 193 255
151 193 255
151 193 255
151 193 255
151 193 255
151 193 255
151 193 255
151 193 255
151 193 255
151 193 255
152 193 255
151 193 255
152 193 255
152 193 255
152 193 255
152 193 255
152 193 255
152 193 255
152 193 255
152 193 255
152 193 255
152 193 255
152 194 255
152 194 255
152 194 255
152 194 255
152 194 255
153 194 255
153 194 255
153 194 255
153 194 255
153 194 255
153 194 255
153 194 255
153 194 255
153 194 255
153 194 255
153 194 255
153 194 255
154 194 255
154 194 255
154 194 255
154 195 255
154 195 255
154 195 255
154 195 255
154 195 255
154 195 255
154 195 255
154 195 255
155 195 255
155 195 255
155 195 255
155 195 255
155 195 255
155 195 255
155 195 255
155 195 255
155 195 255
155 195 255
156 196 255
156 196 255
156 196 255
156 196 255
156 196 255
156 196 255
156 196 255
156 196 255
156 196 255
157 196 255
157 196 255
157 196 255
157 196 255
157 196 255
157 196 255
157 197 255
157 197 255
157 197 255
157 197 255
158 197 255
158 197 255
158 197 255
158 197 255
158 197 255
158 197 255
158 197 255
158 197 255
158 197 255
159 197 255
159 197 255
159 197 255
159 198 255
159 198 255
159 198 255
159 198 255
159 198 255
159 198 255
159 198 255
160 198 255
160 198 255
160 198 255
160 198 255
160 198 255
160 198 255
160 198 255
160 198 255
160 198 255
161 199 255
161 199 255
161 199 255
161 199 255
161 199 255
161 199 255
161 199 255
161 199 255
161 199 255
162 199 255
162 199 255
162 199 255
162 199 255
162 199 255
162 199 255
162 199 255
162 200 255
162 200 255
162 200 255
163 200 255
163 200 255
163 200 255
163 200 255
163 200 255
163 200 255
163 200 255
163 200 255
163 200 255
163 200 255
164 200 255
164 200 255
164 200 255
164 200 255
164 201 255
164 201 255
164 201 255
164 201 255
164 201 255
164 201 255
164 201 255
165 201 255
165 201 255
165 201 255
165 201 255
165 201 255
165 201 255
165 201 255
165 201 255
165 201 255
165 201 255
165 201 255
165 201 255
166 202 255
166 202 255
166 202 255
166 202 255
166 202 255
166 202 255
166 202 255
166 202 255
166 202 255
166 202 255
166 202 255
167 202 255
167 202 255
167 202 255
167 202 255
167 202 255
167 202 255
167 202 255
167 202 255
167 203 255
167 203 255
167 203 255
167 203 255
168 203 255
168 203 255
167 203 255
167 203 255
167 203 255
167 203 255
167 202 255
167 202 255
167 202 255
167 202 255
167 202 255
167 202 255
167 202 255
167 202 255
167 202 255
166 202 255
166 202 255
166 202 255
166 202 255
166 202 255
166 202 255
166 202 255
166 202 255
166 202 255
166 202 255
166 202 255
165 201 255
165 201 255
165 201 255
165 201 255
165 201 255
165 201 255
165 201 255
165 201 255
165 201 255
165 201 255
165 201 255
164 201 255
164 201 255
164 201 255
164 201 255
164 201 255
164 201 255
164 201 255
164 201 255
164 200 255
164 200 255
164 200 255
163 200 255
163 200 255
163 200 255
163 200 255
163 200 255
163 200 255
163 200 255
163 200 255
163 200 255
163 200 255
162 200 255
162 200 255
162 200 255
162 200 255
162 199 255
162 199 255
162 199 255
162 199 255
162 199 255
162 199 255
161 199 255
161 199 255
161 199 255
161 199 255
161 199 255
161 199 255
161 199 255
161 199 255
161 199 255
161 199 255
160 198 255
160 198 255
160 198 255
160 198 255
160 198 255
160 198 255
160 198 255
160 198 255
160 198 255
159 198 255
159 198 255
159 198 255
159 198 255
159 198 255
159 198 255
159 197 255
159 197 255
159 197 255
159 197 255
158 197 255
158 197 255
158 197 255
158 197 255
158 197 255
158 197 255
158 197 255
158 197 255
158 197 255
157 197 255
157 197 255
157 197 255
157 196 255
157 196 255
157 196 255
157 196 255
157 196 255
157 196 255
157 196 255
156 196 255
156 196 255
156 196 255
156 196 255
156 196 255
156 196 255
156 196 255
156 196 255
156 196 255
155 195 255
155 195 255
155 195 255
155 195 255
155 195 255
155 195 255
155 195 255
155 195 255
155 195 255
155 195 255
154 195 255
154 195 255
154 195 255
154 195 255
154 195 255
154 195 255
154 195 255
154 194 255
154 194 255
154 194 255
154 194 255
153 194 255
153 194 255
153 194 255
153 194 255
153 194 255
153 194 255
153 194 255
153 194 255
153 194 255
153 194 255
153 194 255
153 194 255
153 194 255
152 194 255
152 194 255
152 194 255
152 194 255
152 194 255
152 193 255
152 193 255
152 193 255
152 193 255
152 193 255
152 193 255
152 193 255
152 193 255
152 193 255
152 193 255
152 193 255
152 193 255
151 193 255
151 193 255
151 193 255
151 193 255
151 193 255
151 193 255
151 193 255
151 193 255
151 193 255
151 193 255
151 193 255
151 193 255
151 193 255
151 193 255
151 193 255
151 193 255
151 193 255
151 193 255
151 193 255
151 193 255
151 193 255
151 193 255
151 193 255
151 193 255
151 193 255
151 193 255
151 193 255
151 193 255
151 193 255
151 193 255
151 193 255
151 193 255
151 193 255
151 193 255
151 193 255
151 193 255
151 193 255
151 193 255
151 193 255
151 193 255
151 193 255
151 193 255
151 193 255
151 193 255
151 193 255
151 193 255
151 193 255
152 193 255
152 193 255
152 193 255
152 193 255
152 193 255
152 193 255
152 193 255
152 193 255
152 193 255
152 193 255
152 193 255
152 193 255
152 193 255
152 194 255
152 194 255
152 194 255
152 194 255
152 194 255
153 194 255
153 194 255
153 194 255
153 194 255
153 194 255
153 194 255
153 194 255
153 194 255
153 194 255
153 194 255
153 194 255
153 194 255
154 194 255
154 194 255
154 194 255
154 194 255
154 195 255
154 195 255
154 195 255
154 195 255
154 195 255
154 195 255
154 195 255
154 195 255
155 195 255
155 195 255
155 195 255
155 195 255
155 195 255
155 195 255
155 195 255
155 195 255
155 195 255
155 195 255
156 196 255
156 196 255
156 196 255
156 196 255
156 196 255
156 196 255
156 196 255
156 196 255
156 196 255
156 196 255
157 196 255
157 196 255
157 196 255
157 196 255
157 196 255
157 196 255
157 197 255
157 197 255
157 197 255
158 197 255
158 197 255
158 197 255
158 197 255
158 197 255
158 197 255
158 197 255
158 197 255
158 197 255
158 197 255
159 197 255
159 197 255
159 197 255
159 198 255
159 198 255
159 198 255
159 198 255
159 198 255
159 198 255
160 198 255
160 198 255
160 198 255
160 198 255
160 198 255
160 198 255
160 198 255
160 198 255
160 198 255
161 199 255
161 199 255
161 199 255
161 199 255
161 199 255
161 199 255
161 199 255
161 199 255
161 199 255
161 199 255
162 199 255
162 199 255
162 199 255
162 199 255
162 199 255
162 199 255
162 200 255
162 200 255
162 200 255
162 200 255
163 200 255
163 200 255
163 200 255
163 200 255
163 200 255
163 200 255
163 200 255
163 200 255
163 200 255
163 200 255
163 200 255
164 200 255
164 200 255
164 201 255
164 201 255
164 201 255
164 201 255
164 201 255
164 201 255
164 201 255
164 201 255
165 201 255
165 201 255
165 201 255
165 201 255
165 201 255
165 201 255
165 201 255
165 201 255
165 201 255
165 201 255
165 201 255
166 202 255
166 202 255
166 202 255
166 202 255
166 202 255
166 202 255
166 202 255
166 202 255
166 202 255
166 202 255
166 202 255
167 202 255
167 202 255
167 202 255
167 202 255
167 202 255
167 202 255
167 202 255
167 202 255
167 203 255
167 203 255
167 203 255
167 203 255
167 203 255
168 203 255
168 203 255
168 203 255
168 203 255
168 203 255
168 203 255
168 203 255
167 203 255
167 203 255
167 203 255
167 203 255
167 202 255
167 202 255
167 202 255
167 202 255
167 202 255
167 202 255
167 202 255
167 202 255
166 202 255
166 202 255
166 202 255
166 202 255
166 202 255
166 202 255
166 202 255
166 202 255
166 202 255
166 202 255
166 202 255
166 202 255
165 201 255
165 201 255
165 201 255
165 201 255
165 201 255
165 201 255
165 201 255
165 201 255
165 201 255
165 201 255
165 201 255
164 201 255
164 201 255
164 201 255
164 201 255
164 201 255
164 201 255
164 201 255
164 200 255
164 200 255
164 200 255
163 200 255
163 200 255
163 200 255
163 200 255
163 200 255
163 200 255
163 200 255
163 200 255
163 200 255
163 200 255
163 200 255
162 200 255
162 200 255
162 200 255
162 199 255
162 199 255
162 199 255
162 199 255
162 199 255
162 199 255
162 199 255
161 199 255
161 199 255
161 199 255
161 199 255
161 199 255
161 199 255
161 199 255
161 199 255
161 199 255
160 198 255
160 198 255
160 198 255
160 198 255
160 198 255
160 198 255
160 198 255
160 198 255
160 198 255
160 198 255
159 198 255
159 198 255
159 198 255
159 198 255
159 198 255
159 198 255
159 197 255
159 197 255
159 197 255
158 197 255
158 197 255
158 197 255
158 197 255
158 197 255
158 197 255
158 197 255
158 197 255
158 197 255
158 197 255
157 197 255
157 197 255
157 196 255
157 196 255
157 196 255
157 196 255
157 196 255
157 196 255
157 196 255
156 196 255
156 196 255
156 196 255
156 196 255
156 196 255
156 196 255
156 196 255
156 196 255
156 196 255
155 195 255
155 195 255
155 195 255
155 195 255
155 195 255
155 195 255
155 195 255
155 195 255
155 195 255
155 195 255
155 195 255
154 195 255
154 195 255
154 195 255
154 195 255
154 195 255
154 195 255
154 195 255
154 194 255
154 194 255
154 194 255
154 194 255
153 194 255
153 194 255
153 194 255
153 194 255
153 194 255
153 194 255
153 194 255
153 194 255
153 194 255
153 194 255
153 194 255
153 194 255
153 194 255
153 194 255
152 194 255
152 194 255
152 194 255
152 194 255
152 194 255
152 193 255
152 193 255
152 193 255
152 193 255
152 193 255
152 193 255
152 193 255
152 193 255
152 193 255
152 193 255
152 193 255
152 193 255
152 193 255
152 193 255
152 193 255
152 193 255
151 193 255
151 193 255
151 193 255
151 193 255
151 193 255
151 193 255
151 193 255
151 193 255
151 193 255
151 193 255
151 193 255
151 193 255
151 193 255
151 193 255
151 193 255
151 193 255
151 193 255
151 193 255
151 193 255
151 193 255
151 193 255
151 193 255
151 193 255
151 193 255
151 193 255
151 193 255
151 193 255
151 193 255
151 193 255
151 193 255
151 193 255
151 193 255
151 193 255
152 193 255
152 193 255
152 193 255
152 193 255
152 193 255
152 193 255
152 193 255
152 193 255
152 193 255
152 193 255
152 193 255
152 193 255
152 193 255
152 193 255
152 193 255
152 194 255
152 194 255
152 194 255
152 194 255
152 194 255
153 194 255
153 194 255
153 194 255
153 194 255
153 194 255
153 194 255
153 194 255
153 194 255
153 194 255
153 194 255
153 194 255
153 194 255
153 194 255
154 194 255
154 194 255
154 194 255
154 194 255
154 194 255
154 195 255
154 195 255
154 195 255
154 195 255
154 195 255
154 195 255
154 195 255
155 195 255
155 195 255
155 195 255
155 195 255
155 195 255
155 195 255
155 195 255
155 195 255
155 195 255
155 195 255
156 196 255
156 196 255
156 196 255
156 196 255
156 196 255
156 196 255
156 196 255
156 196 255
156 196 255
156 196 255
157 196 255
157 196 255
157 196 255
157 196 255
157 196 255
157 196 255
157 197 255
157 197 255
157 197 255
158 197 255
158 197 255
158 197 255
158 197 255
158 197 255
158 197 255
158 197 255
158 197 255
158 197 255
158 197 255
158 197 255
159 197 255
159 197 255
159 198 255
159 198 255
159 198 255
159 198 255
159 198 255
159 198 255
160 198 255
160 198 255
160 198 255
160 198 255
160 198 255
160 198 255
160 198 255
160 198 255
160 198 255
160 198 255
161 199 255
161 199 255
161 199 255
161 199 255
161 199 255
161 199 255
161 199 255
161 199 255
161 199 255
162 199 255
162 199 255
162 199 255
162 199 255
162 199 255
162 199 255
162 199 255
162 199 255
162 200 255
162 200 255
163 200 255
163 200 255
163 200 255
163 200 255
163 200 255
163 200 255
163 200 255
163 200 255
163 200 255
163 200 255
164 200 255
164 200 255
164 200 255
164 200 255
164 201 255
164 201 255
164 201 255
164 201 255
164 201 255
164 201 255
164 201 255
165 201 255
165 201 255
165 201 255
165 201 255
165 201 255
165 201 255
165 201 255
165 201 255
165 201 255
165 201 255
165 201 255
166 202 255
166 202 255
166 202 255
166 202 255
166 202 255
166 202 255
166 202 255
166 202 255
166 202 255
166 202 255
166 202 255
166 202 255
167 202 255
167 202 255
167 202 255
167 202 255
167 202 255
167 202 255
167 202 255
167 202 255
167 203 255
167 203 255
167 203 255
167 203 255
168 203 255
168 203 255
168 203 255
168 203 255
168 203 255
168 203 255
168 203 255
168 203 255
168 203 255
168 203 255
168 203 255
168 203 255
168 203 255
167 203 255
167 203 255
167 203 255
167 203 255
167 202 255
167 202 255
167 202 255
167 202 255
167 202 255
167 202 255
167 202 255
167 202 255
166 202 255
166 202 255
166 202 255
166 202 255
166 202 255
166 202 255
166 202 255
166 202 255
166 202 255
166 202 255
166 202 255
166 202 255
165 201 255
165 201 255
165 201 255
165 201 255
165 201 255
165 201 255
165 201 255
165 201 255
165 201 255
165 201 255
165 201 255
164 201 255
164 201 255
164 201 255
164 201 255
164 201 255
164 201 255
164 201 255
164 200 255
164 200 255
164 200 255
163 200 255
163 200 255
163 200 255
163 200 255
163 200 255
163 200 255
163 200 255
163 200 255
163 200 255
163 200 255
162 200 255
162 200 255
162 200 255
162 200 255
162 199 255
162 199 255
162 199 255
162 199 255
162 199 255
162 199 255
161 199 255
161 199 255
161 199 255
161 199 255
161 199 255
161 199 255
161 199 255
161 199 255
161 199 255
161 199 255
160 198 255
160 198 255
160 198 255
160 198 255
160 198 255
160 198 255
160 198 255
160 198 255
160 198 255
159 198 255
159 198 255
159 198 255
159 198 255
159 198 255
159 198 255
159 197 255
159 197 255
159 197 255
158 197 255
158 197 255
158 197 255
158 197 255
158 197 255
158 197 255
158 197 255
158 197 255
158 197 255
158 197 255
157 197 255
157 197 255
157 197 255
157 196 255
157 196 255
157 196 255
157 196 255
157 196 255
157 196 255
157 196 255
156 196 255
156 196 255
156 196 255
156 196 255
156 196 255
156 196 255
156 196 255
156 196 255
156 196 255
155 195 255
155 195 255
155 195 255
155 195 255
155 195 255
155 195 255
155 195 255
155 195 255
155 195 255
155 195 255
155 195 255
154 195 255
154 195 255
154 195 255
154 195 255
154 195 255
154 195 255
154 195 255
154 194 255
154 194 255
154 194 255
154 194 255
154 194 255
153 194 255
153 194 255
153 194 255
153 194 255
153 194 255
153 194 255
153 194 255
153 194 255
153 194 255
153 194 255
153 194 255
153 194 255
153 194 255
153 194 255
153 194 255
152 194 255
152 194 255
152 194 255
152 194 255
152 194 255
152 193 255
152 193 255
152 193 255
152 193 255
152 193 255
152 193 255
152 193 255
152 193 255
152 193 255
152 193 255
152 193 255
152 193 255
152 193 255
152 193 255
152 193 255
152 193 255
152 193 255
152 193 255
152 193 255
152 193 255
152 193 255
152 193 255
152 193 255
152 193 255
152 193 255
152 193 255
151 193 255
152 193 255
152 193 255
152 193 255
152 193 255
152 193 255
152 193 255
152 193 255
152 193 255
152 193 255
152 193 255
152 193 255
152 193 255
152 193 255
152 193 255
152 193 255
152 193 255
152 193 255
152 193 255
152 193 255
152 193 255
152 193 255
152 193 255
152 193 255
152 193 255
152 193 255
152 193 255
152 194 255
152 194 255
152 194 255
152 194 255
152 194 255
152 194 255
152 194 255
153 194 255
153 194 255
153 194 255
153 194 255
153 194 255
153 194 255
153 194 255
153 194 255
153 194 255
153 194 255
153 194 255
153 194 255
153 194 255
153 194 255
154 194 255
154 194 255
154 194 255
154 194 255
154 195 255
154 195 255
154 195 255
154 195 255
154 195 255
154 195 255
154 195 255
154 195 255
155 195 255
155 195 255
155 195 255
155 195 255
155 195 255
155 195 255
155 195 255
155 195 255
155 195 255
155 195 255
155 195 255
156 196 255
156 196 255
156 196 255
156 196 255
156 196 255
156 196 255
156 196 255
156 196 255
156 196 255
157 196 255
157 196 255
157 196 255
157 196 255
157 196 255
157 196 255
157 196 255
157 197 255
157 197 255
157 197 255
158 197 255
158 197 255
158 197 255
158 197 255
158 197 255
158 197 255
158 197 255
158 197 255
158 197 255
159 197 255
159 197 255
159 197 255
159 197 255
159 198 255
159 198 255
159 198 255
159 198 255
159 198 255
159 198 255
160 198 255
160 198 255
160 198 255
160 198 255
160 198 255
160 198 255
160 198 255
160 198 255
160 198 255
161 199 255
161 199 255
161 199 255
161 199 255
161 199 255
161 199 255
161 199 255
161 199 255
161 199 255
161 199 255
162 199 255
162 199 255
162 199 255
162 199 255
162 199 255
162 199 255
162 200 255
162 200 255
162 200 255
163 200 255
163 200 255
163 200 255
163 200 255
163 200 255
163 200 255
163 200 255
163 200 255
163 200 255
163 200 255
163 200 255
164 200 255
164 200 255
164 200 255
164 201 255
164 201 255
164 201 255
164 201 255
164 201 255
164 201 255
164 201 255
165 201 255
165 201 255
165 201 255
165 201 255
165 201 255
165 201 255
165 201 255
165 201 255
165 201 255
165 201 255
165 201 255
166 202 255
166 202 255
166 202 255
166 202 255
166 202 255
166 202 255
166 202 255
166 202 255
166 202 255
166 202 255
166 202 255
167 202 255
167 202 255
167 202 255
167 202 255
167 202 255
167 202 255
167 202 255
167 202 255
167 202 255
167 203 255
167 203 255
167 203 255
167 203 255
168 203 255
168 203 255
168 203 255
168 203 255
168 203 255
168 203 255
168 203 255
168 203 255
168 203 255
168 203 255
168 203 255
168 203 255
168 203 255
168 203 255
168 203 255
168 203 255
168 203 255
168 203 255
168 203 255
167 203 255
167 203 255
167 203 255
167 203 255
167 202 255
167 202 255
167 202 255
167 202 255
167 202 255
167 202 255
167 202 255
167 202 255
166 202 255
166 202 255
166 202 255
166 202 255
166 202 255
166 202 255
166 202 255
166 202 255
166 202 255
166 202 255
166 202 255
166 202 255
165 201 255
165 201 255
165 201 255
165 201 255
165 201 255
165 201 255
165 201 255
165 201 255
165 201 255
165 201 255
164 201 255
164 201 255
164 201 255
164 201 255
164 201 255
164 201 255
164 201 255
164 200 255
164 200 255
164 200 255
164 200 255
163 200 255
163 200 255
163 200 255
163 200 255
163 200 255
163 200 255
163 200 255
163 200 255
163 200 255
162 200 255
162 200 255
162 200 255
162 200 255
162 199 255
162 199 255
162 199 255
162 199 255
162 199 255
162 199 255
162 199 255
161 199 255
161 199 255
161 199 255
161 199 255
161 199 255
161 199 255
161 199 255
161 199 255
161 199 255
160 198 255
160 198 255
160 198 255
160 198 255
160 198 255
160 198 255
160 198 255
160 198 255
160 198 255
159 198 255
159 198 255
159 198 255
159 198 255
159 198 255
159 198 255
159 198 255
159 197 255
159 197 255
159 197 255
158 197 255
158 197 255
158 197 255
158 197 255
158 197 255
158 197 255
158 197 255
158 197 255
158 197 255
157 197 255
157 197 255
157 197 255
157 197 255
157 196 255
157 196 255
157 196 255
157 196 255
157 196 255
157 196 255
156 196 255
156 196 255
156 196 255
156 196 255
156 196 255
156 196 255
156 196 255
156 196 255
156 196 255
156 196 255
155 195 255
155 195 255
155 195 255
155 195 255
155 195 255
155 195 255
155 195 255
155 195 255
155 195 255
155 195 255
155 195 255
155 195 255
154 195 255
154 195 255
154 195 255
154 195 255
154 195 255
154 195 255
154 195 255
154 194 255
154 194 255
154 194 255
154 194 255
153 194 255
153 194 255
153 194 255
153 194 255
153 194 255
153 194 255
153 194 255
153 194 255
153 194 255
153 194 255
153 194 255
153 194 255
153 194 255
153 194 255
153 194 255
153 194 255
152 194 255
152 194 255
152 194 255
152 194 255
152 194 255
152 194 255
152 194 255
152 194 255
152 194 255
152 193 255
152 193 255
152 193 255
152 193 255
152 193 255
152 193 255
152 193 255
152 193 255
152 193 255
152 193 255
152 193 255
152 193 255
152 193 255
152 193 255
152 193 255
152 193 255
152 193 255
152 193 255
152 193 255
152 193 255
152 193 255
152 193 255
152 193 255
152 193 255
152 193 255
152 193 255
152 193 255
152 193 255
152 193 255
152 193 255
152 193 255
152 193 255
152 193 255
152 193 255
152 193 255
152 193 255
152 193 255
152 193 255
152 193 255
152 194 255
152 194 255
152 194 255
152 194 255
152 194 255
152 194 255
153 194 255
153 194 255
153 194 255
153 194 255
153 194 255
153 194 255
153 194 255
153 194 255
153 194 255
153 194 255
153 194 255
153 194 255
153 194 255
153 194 255
153 194 255
153 194 255
153 194 255
154 194 255
154 194 255
154 194 255
154 194 255
154 195 255
154 194 255
154 195 255
154 195 255
154 195 255
154 195 255
154 195 255
154 195 255
154 195 255
155 195 255
155 195 255
155 195 255
155 195 255
155 195 255
155 195 255
155 195 255
155 195 255
155 195 255
155 195 255
155 195 255
156 196 255
156 196 255
156 196 255
156 196 255
156 196 255
156 196 255
156 196 255
156 196 255
156 196 255
156 196 255
157 196 255
157 196 255
157 196 255
157 196 255
157 196 255
157 196 255
157 196 255
157 197 255
157 197 255
158 197 255
158 197 255
158 197 255
158 197 255
158 197 255
158 197 255
158 197 255
158 197 255
158 197 255
158 197 255
159 197 255
159 197 255
159 197 255
159 198 255
159 198 255
159 198 255
159 198 255
159 198 255
159 198 255
160 198 255
160 198 255
160 198 255
160 198 255
160 198 255
160 198 255
160 198 255
160 198 255
160 198 255
160 198 255
161 199 255
161 199 255
161 199 255
161 199 255
161 199 255
161 199 255
161 199 255
161 199 255
161 199 255
162 199 255
162 199 255
162 199 255
162 199 255
162 199 255
162 199 255
162 199 255
162 200 255
162 200 255
162 200 255
163 200 255
163 200 255
163 200 255
163 200 255
163 200 255
163 200 255
163 200 255
163 200 255
163 200 255
163 200 255
164 200 255
164 200 255
164 200 255
164 200 255
164 201 255
164 201 255
164 201 255
164 201 255
164 201 255
164 201 255
164 201 255
165 201 255
165 201 255
165 201 255
165 201 255
165 201 255
165 201 255
165 201 255
165 201 255
165 201 255
165 201 255
165 201 255
166 202 255
166 202 255
166 202 255
166 202 255
166 202 255
166 202 255
166 202 255
166 202 255
166 202 255
166 202 255
166 202 255
167 202 255
167 202 255
167 202 255
167 202 255
167 202 255
167 202 255
167 202 255
167 202 255
167 203 255
167 203 255
167 203 255
167 203 255
168 203 255
168 203 255
168 203 255
168 203 255
168 203 255
168 203 255
168 203 255
168 203 255
168 203 255
168 203 255
168 203 255
169 203 255
169 203 255
168 203 255
168 203 255
168 203 255
168 203 255
168 203 255
168 203 255
168 203 255
168 203 255
168 203 255
168 203 255
168 203 255
168 203 255
167 203 255
167 203 255
167 203 255
167 203 255
167 202 255
167 202 255
167 202 255
167 202 255
167 202 255
167 202 255
167 202 255
166 202 255
166 202 255
166 202 255
166 202 255
166 202 255
166 202 255
166 202 255
166 202 255
166 202 255
166 202 255
166 202 255
166 202 255
165 201 255
165 201 255
165 201 255
165 201 255
165 201 255
165 201 255
165 201 255
165 201 255
165 201 255
165 201 255
165 201 255
164 201 255
164 201 255
164 201 255
164 201 255
164 201 255
164 201 255
164 201 255
164 200 255
164 200 255
164 200 255
164 200 255
163 200 255
163 200 255
163 200 255
163 200 255
163 200 255
163 200 255
163 200 255
163 200 255
163 200 255
163 200 255
162 200 255
162 200 255
162 200 255
162 199 255
162 199 255
162 199 255
162 199 255
162 199 255
162 199 255
161 199 255
161 199 255
161 199 255
161 199 255
161 199 255
161 199 255
161 199 255
161 199 255
161 199 255
161 199 255
160 198 255
160 198 255
160 198 255
160 198 255
160 198 255
160 198 255
160 198 255
160 198 255
160 198 255
159 198 255
159 198 255
159 198 255
159 198 255
159 198 255
159 198 255
159 197 255
159 197 255
159 197 255
159 197 255
158 197 255
158 197 255
158 197 255
158 197 255
158 197 255
158 197 255
158 197 255
158 197 255
158 197 255
157 197 255
157 197 255
157 197 255
157 196 255
157 196 255
157 196 255
157 196 255
157 196 255
157 196 255
157 196 255
156 196 255
156 196 255
156 196 255
156 196 255
156 196 255
156 196 255
156 196 255
156 196 255
156 196 255
156 196 255
155 195 255
155 195 255
155 195 255
155 195 255
155 195 255
155 195 255
155 195 255
155 195 255
155 195 255
155 195 255
155 195 255
155 195 255
154 195 255
154 195 255
154 195 255
154 195 255
154 195 255
154 195 255
154 195 255
154 195 255
154 194 255
154 194 255
154 194 255
154 194 255
153 194 255
153 194 255
153 194 255
153 194 255
153 194 255
153 194 255
153 194 255
153 194 255
153 194 255
153 194 255
153 194 255
153 194 255
153 194 255
153 194 255
153 194 255
153 194 255
153 194 255
153 194 255
152 194 255
152 194 255
152 194 255
152 194 255
152 194 255
152 194 255
152 194 255
152 194 255
152 194 255
152 194 255
152 194 255
152 193 255
152 194 255
152 193 255
152 193 255
152 193 255
152 193 255
152 193 255
152 193 255
152 193 255
152 193 255
152 193 255
152 193 255
152 193 255
152 193 255
152 193 255
152 193 255
152 193 255
152 193 255
152 193 255
152 194 255
152 193 255
152 194 255
152 194 255
152 194 255
152 194 255
152 194 255
152 194 255
152 194 255
152 194 255
152 194 255
152 194 255
152 194 255
152 194 255
153 194 255
153 194 255
153 194 255
153 194 255
153 194 255
153 194 255
153 194 255
153 194 255
153 194 255
153 194 255
153 194 255
153 194 255
153 194 255
153 194 255
153 194 255
153 194 255
153 194 255
153 194 255
154 194 255
154 194 255
154 194 255
154 194 255
154 195 255
154 195 255
154 195 255
154 195 255
154 195 255
154 195 255
154 195 255
154 195 255
154 195 255
155 195 255
155 195 255
155 195 255
155 195 255
155 195 255
155 195 255
155 195 255
155 195 255
155 195 255
155 195 255
155 195 255
156 196 255
156 196 255
156 196 255
156 196 255
156 196 255
156 196 255
156 196 255
156 196 255
156 196 255
156 196 255
157 196 255
157 196 255
157 196 255
157 196 255
157 196 255
157 196 255
157 196 255
157 197 255
157 197 255
157 197 255
158 197 255
158 197 255
158 197 255
158 197 255
158 197 255
158 197 255
158 197 255
158 197 255
158 197 255
159 197 255
159 197 255
159 197 255
159 197 255
159 198 255
159 198 255
159 198 255
159 198 255
159 198 255
159 198 255
160 198 255
160 198 255
160 198 255
160 198 255
160 198 255
160 198 255
160 198 255
160 198 255
160 198 255
161 199 255
161 199 255
161 199 255
161 199 255
161 199 255
161 199 255
161 199 255
161 199 255
161 199 255
161 199 255
162 199 255
162 199 255
162 199 255
162 199 255
162 199 255
162 199 255
162 199 255
162 200 255
162 200 255
162 200 255
163 200 255
163 200 255
163 200 255
163 200 255
163 200 255
163 200 255
163 200 255
163 200 255
163 200 255
163 200 255
164 200 255
164 200 255
164 200 255
164 201 255
164 201 255
164 201 255
164 201 255
164 201 255
164 201 255
164 201 255
165 201 255
165 201 255
165 201 255
165 201 255
165 201 255
165 201 255
165 201 255
165 201 255
165 201 255
165 201 255
165 201 255
166 202 255
166 202 255
166 202 255
166 202 255
166 202 255
166 202 255
166 202 255
166 202 255
166 202 255
166 202 255
166 202 255
167 202 255
167 202 255
167 202 255
167 202 255
167 202 255
167 202 255
167 202 255
167 202 255
167 203 255
167 203 255
167 203 255
167 203 255
168 203 255
168 203 255
168 203 255
168 203 255
168 203 255
168 203 255
168 203 255
168 203 255
168 203 255
168 203 255
168 203 255
168 203 255
168 203 255
169 203 255
169 203 255
169 203 255
169 203 255
169 203 255
168 203 255
168 203 255
168 203 255
168 203 255
168 203 255
168 203 255
168 203 255
168 203 255
168 203 255
168 203 255
168 203 255
168 203 255
168 203 255
167 203 255
167 203 255
167 203 255
167 203 255
167 202 255
167 202 255
167 202 255
167 202 255
167 202 255
167 202 255
167 202 255
167 202 255
166 202 255
166 202 255
166 202 255
166 202 255
166 202 255
166 202 255
166 202 255
166 202 255
166 202 255
166 202 255
166 202 255
165 201 255
165 201 255
165 201 255
165 201 255
165 201 255
165 201 255
165 201 255
165 201 255
165 201 255
165 201 255
165 201 255
164 201 255
164 201 255
164 201 255
164 201 255
164 201 255
164 201 255
164 201 255
164 200 255
164 200 255
164 200 255
163 200 255
163 200 255
163 200 255
163 200 255
163 200 255
163 200 255
163 200 255
163 200 255
163 200 255
163 200 255
162 200 255
162 200 255
162 200 255
162 200 255
162 199 255
162 199 255
162 199 255
162 199 255
162 199 255
162 199 255
161 199 255
161 199 255
161 199 255
161 199 255
161 199 255
161 199 255
161 199 255
161 199 255
161 199 255
160 198 255
160 198 255
160 198 255
160 198 255
160 198 255
160 198 255
160 198 255
160 198 255
160 198 255
160 198 255
159 198 255
159 198 255
159 198 255
159 198 255
159 198 255
159 198 255
159 197 255
159 197 255
159 197 255
158 197 255
158 197 255
158 197 255
158 197 255
158 197 255
158 197 255
158 197 255
158 197 255
158 197 255
158 197 255
157 197 255
157 197 255
157 197 255
157 196 255
157 196 255
157 196 255
157 196 255
157 196 255
157 196 255
157 196 255
156 196 255
156 196 255
156 196 255
156 196 255
156 196 255
156 196 255
156 196 255
156 196 255
156 196 255
156 196 255
156 196 255
155 195 255
155 195 255
155 195 255
155 195 255
155 195 255
155 195 255
155 195 255
155 195 255
155 195 255
155 195 255
155 195 255
154 195 255
154 195 255
154 195 255
154 195 255
154 195 255
154 195 255
154 195 255
154 195 255
154 195 255
154 194 255
154 194 255
154 194 255
154 194 255
154 194 255
153 194 255
153 194 255
153 194 255
153 194 255
153 194 255
153 194 255
153 194 255
153 194 255
153 194 255
153 194 255
153 194 255
153 194 255
153 194 255
153 194 255
153 194 255
153 194 255
153 194 255
153 194 255
153 194 255
153 194 255
153 194 255
153 194 255
152 194 255
152 194 255
153 194 255
152 194 255
152 194 255
152 194 255
152 194 255
152 194 255
152 194 255
152 194 255
152 194 255
152 194 255
152 194 255
152 194 255
152 194 255
152 194 255
152 194 255
152 194 255
152 194 255
152 194 255
152 194 255
152 194 255
152 194 255
152 194 255
152 194 255
152 194 255
152 194 255
153 194 255
153 194 255
153 194 255
153 194 255
153 194 255
153 194 255
153 194 255
153 194 255
153 194 255
153 194 255
153 194 255
153 194 255
153 194 255
153 194 255
153 194 255
153 194 255
153 194 255
153 194 255
153 194 255
153 194 255
153 194 255
153 194 255
154 194 255
154 194 255
154 194 255
154 194 255
154 195 255
154 195 255
154 195 255
154 195 255
154 195 255
154 195 255
154 195 255
154 195 255
154 195 255
154 195 255
155 195 255
155 195 255
155 195 255
155 195 255
155 195 255
155 195 255
155 195 255
155 195 255
155 195 255
155 195 255
155 195 255
156 196 255
156 196 255
156 196 255
156 196 255
156 196 255
156 196 255
156 196 255
156 196 255
156 196 255
156 196 255
157 196 255
157 196 255
157 196 255
157 196 255
157 196 255
157 196 255
157 196 255
157 197 255
157 197 255
157 197 255
158 197 255
158 197 255
158 197 255
158 197 255
158 197 255
158 197 255
158 197 255
158 197 255
158 197 255
158 197 255
159 197 255
159 197 255
159 197 255
159 198 255
159 198 255
159 198 255
159 198 255
159 198 255
159 198 255
160 198 255
160 198 255
160 198 255
160 198 255
160 198 255
160 198 255
160 198 255
160 198 255
160 198 255
160 198 255
161 199 255
161 199 255
161 199 255
161 199 255
161 199 255
161 199 255
161 199 255
161 199 255
161 199 255
162 199 255
162 199 255
162 199 255
162 199 255
162 199 255
162 199 255
162 199 255
162 200 255
162 200 255
162 200 255
163 200 255
163 200 255
163 200 255
163 200 255
163 200 255
163 200 255
163 200 255
163 200 255
163 200 255
163 200 255
164 200 255
164 200 255
164 200 255
164 201 255
164 201 255
164 201 255
164 201 255
164 201 255
164 201 255
164 201 255
164 201 255
165 201 255
165 201 255
165 201 255
165 201 255
165 201 255
165 201 255
165 201 255
165 201 255
165 201 255
165 201 255
166 202 255
166 202 255
166 202 255
166 202 255
166 202 255
166 202 255
166 202 255
166 202 255
166 202 255
166 202 255
166 202 255
166 202 255
167 202 255
167 202 255
167 202 255
167 202 255
167 202 255
167 202 255
167 202 255
167 203 255
167 203 255
167 203 255
167 203 255
167 203 255
168 203 255
168 203 255
168 203 255
168 203 255
168 203 255
168 203 255
168 203 255
168 203 255
168 203 255
168 203 255
168 203 255
168 203 255
169 203 255
169 203 255
169 203 255
169 203 255
169 204 255
169 204 255
169 204 255
169 203 255
169 203 255
169 203 255
169 203 255
168 203 255
168 203 255
168 203 255
168 203 255
168 203 255
168 203 255
168 203 255
168 203 255
168 203 255
168 203 255
168 203 255
168 203 255
168 203 255
167 203 255
167 203 255
167 203 255
167 202 255
167 202 255
167 202 255
167 202 255
167 202 255
167 202 255
167 202 255
167 202 255
166 202 255
166 202 255
166 202 255
166 202 255
166 202 255
166 202 255
166 202 255
166 202 255
166 202 255
166 202 255
166 202 255
166 202 255
165 201 255
165 201 255
165 201 255
165 201 255
165 201 255
165 201 255
165 201 255
165 201 255
165 201 255
165 201 255
164 201 255
164 201 255
164 201 255
164 201 255
164 201 255
164 201 255
164 201 255
164 200 255
164 200 255
164 200 255
164 200 255
163 200 255
163 200 255
163 200 255
163 200 255
163 200 255
163 200 255
163 200 255
163 200 255
163 200 255
163 200 255
162 200 255
162 200 255
162 200 255
162 199 255
162 199 255
162 199 255
162 199 255
162 199 255
162 199 255
161 199 255
161 199 255
161 199 255
161 199 255
161 199 255
161 199 255
161 199 255
161 199 255
161 199 255
161 199 255
160 198 255
160 198 255
160 198 255
160 198 255
160 198 255
160 198 255
160 198 255
160 198 255
160 198 255
160 198 255
159 198 255
159 198 255
159 198 255
159 198 255
159 198 255
159 198 255
159 197 255
159 197 255
159 197 255
158 197 255
158 197 255
158 197 255
158 197 255
158 197 255
158 197 255
158 197 255
158 197 255
158 197 255
158 197 255
157 197 255
157 197 255
157 196 255
157 196 255
157 196 255
157 196 255
157 196 255
157 196 255
157 196 255
156 196 255
156 196 255
156 196 255
156 196 255
156 196 255
156 196 255
156 196 255
156 196 255
156 196 255
156 196 255
156 196 255
155 195 255
155 195 255
155 195 255
155 195 255
155 195 255
155 195 255
155 195 255
155 195 255
155 195 255
155 195 255
155 195 255
155 195 255
155 195 255
154 195 255
154 195 255
154 195 255
154 195 255
154 195 255
154 195 255
154 195 255
154 195 255
154 195 255
154 194 255
154 194 255
154 194 255
154 194 255
154 194 255
154 194 255
153 194 255
153 194 255
153 194 255
153 194 255
153 194 255
153 194 255
153 194 255
153 194 255
153 194 255
153 194 255
153 194 255
153 194 255
153 194 255
153 194 255
153 194 255
153 194 255
153 194 255
153 194 255
153 194 255
153 194 255
153 194 255
153 194 255
153 194 255
153 194 255
153 194 255
153 194 255
153 194 255
153 194 255
153 194 255
153 194 255
153 194 255
153 194 255
153 194 255
153 194 255
153 194 255
153 194 255
153 194 255
153 194 255
153 194 255
153 194 255
153 194 255
153 194 255
153 194 255
153 194 255
153 194 255
153 194 255
153 194 255
153 194 255
153 194 255
153 194 255
153 194 255
153 194 255
153 194 255
153 194 255
153 194 255
153 194 255
153 194 255
153 194 255
153 194 255
153 194 255
154 194 255
154 194 255
154 194 255
154 194 255
154 194 255
154 194 255
154 195 255
154 195 255
154 195 255
154 195 255
154 195 255
154 195 255
154 195 255
154 195 255
154 195 255
154 195 255
155 195 255
155 195 255
155 195 255
155 195 255
155 195 255
155 195 255
155 195 255
155 195 255
155 195 255
155 195 255
155 195 255
155 195 255
156 196 255
156 196 255
156 196 255
156 196 255
156 196 255
156 196 255
156 196 255
156 196 255
156 196 255
156 196 255
156 196 255
157 196 255
157 196 255
157 196 255
157 196 255
157 196 255
157 196 255
157 197 255
157 197 255
157 197 255
158 197 255
158 197 255
158 197 255
158 197 255
158 197 255
158 197 255
158 197 255
158 197 255
158 197 255
158 197 255
159 197 255
159 197 255
159 197 255
159 198 255
159 198 255
159 198 255
159 198 255
159 198 255
159 198 255
160 198 255
160 198 255
160 198 255
160 198 255
160 198 255
160 198 255
160 198 255
160 198 255
160 198 255
160 198 255
161 199 255
161 199 255
161 199 255
161 199 255
161 199 255
161 199 255
161 199 255
161 199 255
161 199 255
161 199 255
162 199 255
162 199 255
162 199 255
162 199 255
162 199 255
162 199 255
162 200 255
162 200 255
162 200 255
163 200 255
163 200 255
163 200 255
163 200 255
163 200 255
163 200 255
163 200 255
163 200 255
163 200 255
163 200 255
164 200 255
164 200 255
164 200 255
164 201 255
164 201 255
164 201 255
164 201 255
164 201 255
164 201 255
164 201 255
164 201 255
165 201 255
165 201 255
165 201 255
165 201 255
165 201 255
165 201 255
165 201 255
165 201 255
165 201 255
165 201 255
166 202 255
166 202 255
166 202 255
166 202 255
166 202 255
166 202 255
166 202 255
166 202 255
166 202 255
166 202 255
166 202 255
166 202 255
167 202 255
167 202 255
167 202 255
167 202 255
167 202 255
167 202 255
167 202 255
167 203 255
167 203 255
167 203 255
167 203 255
167 203 255
168 203 255
168 203 255
168 203 255
168 203 255
168 203 255
168 203 255
168 203 255
168 203 255
168 203 255
168 203 255
168 203 255
168 203 255
169 203 255
169 203 255
169 203 255
169 203 255
169 204 255
169 204 255
169 204 255
169 204 255
169 204 255
169 204 255
169 204 255
169 204 255
169 203 255
169 203 255
169 203 255
169 203 255
169 203 255
168 203 255
168 203 255
168 203 255
168 203 255
168 203 255
168 203 255
168 203 255
168 203 255
168 203 255
168 203 255
168 203 255
168 203 255
167 203 255
167 203 255
167 203 255
167 203 255
167 202 255
167 202 255
167 202 255
167 202 255
167 202 255
167 202 255
167 202 255
167 202 255
166 202 255
166 202 255
166 202 255
166 202 255
166 202 255
166 202 255
166 202 255
166 202 255
166 202 255
166 202 255
166 202 255
166 202 255
165 201 255
165 201 255
165 201 255
165 201 255
165 201 255
165 201 255
165 201 255
165 201 255
165 201 255
165 201 255
164 201 255
164 201 255
164 201 255
164 201 255
164 201 255
164 201 255
164 201 255
164 200 255
164 200 255
164 200 255
164 200 255
163 200 255
163 200 255
163 200 255
163 200 255
163 200 255
163 200 255
163 200 255
163 200 255
163 200 255
162 200 255
162 200 255
162 200 255
162 200 255
162 199 255
162 199 255
162 199 255
162 199 255
162 199 255
162 199 255
161 199 255
161 199 255
161 199 255
161 199 255
161 199 255
161 199 255
161 199 255
161 199 255
161 199 255
160 198 255
160 198 255
160 198 255
160 198 255
160 198 255
160 198 255
160 198 255
160 198 255
160 198 255
160 198 255
160 198 255
159 198 255
159 198 255
159 198 255
159 198 255
159 198 255
159 197 255
159 197 255
159 197 255
159 197 255
158 197 255
158 197 255
158 197 255
158 197 255
158 197 255
158 197 255
158 197 255
158 197 255
158 197 255
157 197 255
157 197 255
157 197 255
157 197 255
157 196 255
157 196 255
157 196 255
157 196 255
157 196 255
157 196 255
156 196 255
156 196 255
156 196 255
156 196 255
156 196 255
156 196 255
156 196 255
156 196 255
156 196 255
156 196 255
156 196 255
156 196 255
155 195 255
155 195 255
155 195 255
155 195 255
155 195 255
155 195 255
155 195 255
155 195 255
155 195 255
155 195 255
155 195 255
155 195 255
154 195 255
154 195 255
154 195 255
154 195 255
154 195 255
154 195 255
154 195 255
154 195 255
154 195 255
154 195 255
154 194 255
154 194 255
154 194 255
154 194 255
154 194 255
154 194 255
154 194 255
153 194 255
153 194 255
153 194 255
153 194 255
153 194 255
153 194 255
153 194 255
153 194 255
153 194 255
153 194 255
153 194 255
153 194 255
153 194 255
153 194 255
153 194 255
153 194 255
153 194 255
153 194 255
153 194 255
153 194 255
153 194 255
153 194 255
153 194 255
153 194 255
153 194 255
153 194 255
153 194 255
153 194 255
153 194 255
153 194 255
153 194 255
153 194 255
153 194 255
153 194 255
153 194 255
153 194 255
153 194 255
153 194 255
153 194 255
153 194 255
153 194 255
153 194 255
153 194 255
153 194 255
153 194 255
153 194 255
153 194 255
153 194 255
153 194 255
153 194 255
153 194 255
154 194 255
154 194 255
154 194 255
154 194 255
154 194 255
154 195 255
154 195 255
154 195 255
154 195 255
154 195 255
154 195 255
154 195 255
154 195 255
154 195 255
154 195 255
155 195 255
155 195 255
155 195 255
155 195 255
155 195 255
155 195 255
155 195 255
155 195 255
155 195 255
155 195 255
155 195 255
155 195 255
155 195 255
156 196 255
156 196 255
156 196 255
156 196 255
156 196 255
156 196 255
156 196 255
156 196 255
156 196 255
156 196 255
156 196 255
157 196 255
157 196 255
157 196 255
157 196 255
157 196 255
157 196 255
157 196 255
157 197 255
157 197 255
157 197 255
157 197 255
158 197 255
158 197 255
158 197 255
158 197 255
158 197 255
158 197 255
158 197 255
158 197 255
158 197 255
158 197 255
159 197 255
159 197 255
159 198 255
159 198 255
159 198 255
159 198 255
159 198 255
159 198 255
159 198 255
160 198 255
160 198 255
160 198 255
160 198 255
160 198 255
160 198 255
160 198 255
160 198 255
160 198 255
160 198 255
161 199 255
161 199 255
161 199 255
161 199 255
161 199 255
161 199 255
161 199 255
161 199 255
161 199 255
162 199 255
162 199 255
162 199 255
162 199 255
162 199 255
162 199 255
162 199 255
162 200 255
162 200 255
162 200 255
163 200 255
163 200 255
163 200 255
163 200 255
163 200 255
163 200 255
163 200 255
163 200 255
163 200 255
164 200 255
164 200 255
164 200 255
164 200 255
164 201 255
164 201 255
164 201 255
164 201 255
164 201 255
164 201 255
164 201 255
165 201 255
165 201 255
165 201 255
165 201 255
165 201 255
165 201 255
165 201 255
165 201 255
165 201 255
165 201 255
165 201 255
166 202 255
166 202 255
166 202 255
166 202 255
166 202 255
166 202 255
166 202 255
166 202 255
166 202 255
166 202 255
166 202 255
167 202 255
167 202 255
167 202 255
167 202 255
167 202 255
167 202 255
167 202 255
167 202 255
167 203 255
167 203 255
167 203 255
167 203 255
168 203 255
168 203 255
168 203 255
168 203 255
168 203 255
168 203 255
168 203 255
168 203 255
168 203 255
168 203 255
168 203 255
169 203 255
169 203 255
169 203 255
169 203 255
169 203 255
169 204 255
169 204 255
169 204 255
169 204 255
169 204 255
169 204 255
169 204 255
169 204 255
169 204 255
169 204 255
169 204 255
169 204 255
169 204 255
169 204 255
169 204 255
169 203 255
169 203 255
169 203 255
169 203 255
169 203 255
168 203 255
168 203 255
168 203 255
168 203 255
168 203 255
168 203 255
168 203 255
168 203 255
168 203 255
168 203 255
168 203 255
168 203 255
167 203 255
167 203 255
167 203 255
167 202 255
167 202 255
167 202 255
167 202 255
167 202 255
167 202 255
167 202 255
167 202 255
166 202 255
166 202 255
166 202 255
166 202 255
166 202 255
166 202 255
166 202 255
166 202 255
166 202 255
166 202 255
166 202 255
165 201 255
165 201 255
165 201 255
165 201 255
165 201 255
165 201 255
165 201 255
165 201 255
165 201 255
165 201 255
165 201 255
164 201 255
164 201 255
164 201 255
164 201 255
164 201 255
164 201 255
164 201 255
164 200 255
164 200 255
164 200 255
163 200 255
163 200 255
163 200 255
163 200 255
163 200 255
163 200 255
163 200 255
163 200 255
163 200 255
163 200 255
162 200 255
162 200 255
162 200 255
162 199 255
162 199 255
162 199 255
162 199 255
162 199 255
162 199 255
162 199 255
161 199 255
161 199 255
161 199 255
161 199 255
161 199 255
161 199 255
161 199 255
161 199 255
161 199 255
160 198 255
160 198 255
160 198 255
160 198 255
160 198 255
160 198 255
160 198 255
160 198 255
160 198 255
160 198 255
159 198 255
159 198 255
159 198 255
159 198 255
159 198 255
159 198 255
159 197 255
159 197 255
159 197 255
159 197 255
158 197 255
158 197 255
158 197 255
158 197 255
158 197 255
158 197 255
158 197 255
158 197 255
158 197 255
157 197 255
157 197 255
157 197 255
157 197 255
157 196 255
157 196 255
157 196 255
157 196 255
157 196 255
157 196 255
157 196 255
156 196 255
156 196 255
156 196 255
156 196 255
156 196 255
156 196 255
156 196 255
156 196 255
156 196 255
156 196 255
156 196 255
155 195 255
155 195 255
155 195 255
155 195 255
155 195 255
155 195 255
155 195 255
155 195 255
155 195 255
155 195 255
155 195 255
155 195 255
155 195 255
154 195 255
154 195 255
154 195 255
154 195 255
154 195 255
154 195 255
154 195 255
154 195 255
154 195 255
154 195 255
154 195 255
154 195 255
154 195 255
154 194 255
154 194 255
154 194 255
154 194 255
154 194 255
154 194 255
154 194 255
154 194 255
153 194 255
153 194 255
153 194 255
153 194 255
153 194 255
153 194 255
153 194 255
153 194 255
153 194 255
153 194 255
153 194 255
153 194 255
153 194 255
153 194 255
153 194 255
153 194 255
153 194 255
153 194 255
153 194 255
153 194 255
153 194 255
153 194 255
153 194 255
153 194 255
153 194 255
153 194 255
153 194 255
153 194 255
153 194 255
153 194 255
153 194 255
153 194 255
153 194 255
153 194 255
154 194 255
154 194 255
154 194 255
154 194 255
154 194 255
154 194 255
154 194 255
154 194 255
154 194 255
154 195 255
154 195 255
154 195 255
154 195 255
154 195 255
154 195 255
154 195 255
154 195 255
154 195 255
154 195 255
154 195 255
154 195 255
155 195 255
155 195 255
155 195 255
155 195 255
155 195 255
155 195 255
155 195 255
155 195 255
155 195 255
155 195 255
155 195 255
155 195 255
155 195 255
156 196 255
156 196 255
156 196 255
156 196 255
156 196 255
156 196 255
156 196 255
156 196 255
156 196 255
156 196 255
156 196 255
157 196 255
157 196 255
157 196 255
157 196 255
157 196 255
157 196 255
157 196 255
157 196 255
157 197 255
157 197 255
157 197 255
158 197 255
158 197 255
158 197 255
158 197 255
158 197 255
158 197 255
158 197 255
158 197 255
158 197 255
159 197 255
159 197 255
159 197 255
159 197 255
159 198 255
159 198 255
159 198 255
159 198 255
159 198 255
159 198 255
159 198 255
160 198 255
160 198 255
160 198 255
160 198 255
160 198 255
160 198 255
160 198 255
160 198 255
160 198 255
161 199 255
161 199 255
161 199 255
161 199 255
161 199 255
161 199 255
161 199 255
161 199 255
161 199 255
162 199 255
162 199 255
162 199 255
162 199 255
162 199 255
162 199 255
162 199 255
162 200 255
162 200 255
162 200 255
163 200 255
163 200 255
163 200 255
163 200 255
163 200 255
163 200 255
163 200 255
163 200 255
163 200 255
163 200 255
164 200 255
164 200 255
164 200 255
164 201 255
164 201 255
164 201 255
164 201 255
164 201 255
164 201 255
164 201 255
164 201 255
165 201 255
165 201 255
165 201 255
165 201 255
165 201 255
165 201 255
165 201 255
165 201 255
165 201 255
166 202 255
166 202 255
166 202 255
166 202 255
166 202 255
166 202 255
166 202 255
166 202 255
166 202 255
166 202 255
166 202 255
166 202 255
167 202 255
167 202 255
167 202 255
167 202 255
167 202 255
167 202 255
167 202 255
167 203 255
167 203 255
167 203 255
167 203 255
168 203 255
168 203 255
168 203 255
168 203 255
168 203 255
168 203 255
168 203 255
168 203 255
168 203 255
168 203 255
168 203 255
168 203 255
168 203 255
169 203 255
169 203 255
169 203 255
169 203 255
169 203 255
169 204 255
169 204 255
169 204 255
169 204 255
169 204 255
169 204 255
169 204 255
169 204 255
170 204 255
170 204 255
170 204 255
169 204 255
169 204 255
169 204 255
169 204 255
169 204 255
169 204 255
169 204 255
169 204 255
169 204 255
169 203 255
169 203 255
169 203 255
169 203 255
169 203 255
168 203 255
168 203 255
168 203 255
168 203 255
168 203 255
168 203 255
168 203 255
168 203 255
168 203 255
168 203 255
168 203 255
167 203 255
167 203 255
167 203 255
167 203 255
167 203 255
167 202 255
167 202 255
167 202 255
167 202 255
167 202 255
167 202 255
167 202 255
166 202 255
166 202 255
166 202 255
166 202 255
166 202 255
166 202 255
166 202 255
166 202 255
166 202 255
166 202 255
166 202 255
165 201 255
165 201 255
165 201 255
165 201 255
165 201 255
165 201 255
165 201 255
165 201 255
165 201 255
165 201 255
165 201 255
164 201 255
164 201 255
164 201 255
164 201 255
164 201 255
164 201 255
164 200 255
164 200 255
164 200 255
164 200 255
163 200 255
163 200 255
163 200 255
163 200 255
163 200 255
163 200 255
163 200 255
163 200 255
163 200 255
162 200 255
162 200 255
162 200 255
162 200 255
162 199 255
162 199 255
162 199 255
162 199 255
162 199 255
162 199 255
162 199 255
161 199 255
161 199 255
161 199 255
161 199 255
161 199 255
161 199 255
161 199 255
161 199 255
161 199 255
160 198 255
160 198 255
160 198 255
160 198 255
160 198 255
160 198 255
160 198 255
160 198 255
160 198 255
159 198 255
159 198 255
159 198 255
159 198 255
159 198 255
159 198 255
159 198 255
159 197 255
159 197 255
159 197 255
158 197 255
158 197 255
158 197 255
158 197 255
158 197 255
158 197 255
158 197 255
158 197 255
158 197 255
158 197 255
157 197 255
157 197 255
157 197 255
157 197 255
157 196 255
157 196 255
157 196 255
157 196 255
157 196 255
157 196 255
156 196 255
156 196 255
156 196 255
156 196 255
156 196 255
156 196 255
156 196 255
156 196 255
156 196 255
156 196 255
156 196 255
156 196 255
156 196 255
155 195 255
155 195 255
155 195 255
155 195 255
155 195 255
155 195 255
155 195 255
155 195 255
155 195 255
155 195 255
155 195 255
155 195 255
155 195 255
155 195 255
154 195 255
154 195 255
154 195 255
154 195 255
154 195 255
154 195 255
154 195 255
154 195 255
154 195 255
154 195 255
154 195 255
154 195 255
154 195 255
154 195 255
154 194 255
154 194 255
154 194 255
154 194 255
154 194 255
154 194 255
154 194 255
154 194 255
154 194 255
154 194 255
154 194 255
154 194 255
154 194 255
154 194 255
154 194 255
153 194 255
153 194 255
154 194 255
154 194 255
153 194 255
153 194 255
154 194 255
153 194 255
154 194 255
154 194 255
154 194 255
154 194 255
154 194 255
154 194 255
154 194 255
154 194 255
154 194 255
154 194 255
154 194 255
154 194 255
154 194 255
154 194 255
154 195 255
154 195 255
154 195 255
154 195 255
154 195 255
154 195 255
154 195 255
154 195 255
154 195 255
154 195 255
154 195 255
154 195 255
154 195 255
154 195 255
154 195 255
155 195 255
155 195 255
155 195 255
155 195 255
155 195 255
155 195 255
155 195 255
155 195 255
155 195 255
155 195 255
155 195 255
155 195 255
155 195 255
155 195 255
156 196 255
156 196 255
156 196 255
156 196 255
156 196 255
156 196 255
156 196 255
156 196 255
156 196 255
156 196 255
156 196 255
157 196 255
157 196 255
157 196 255
157 196 255
157 196 255
157 196 255
157 196 255
157 196 255
157 197 255
157 197 255
157 197 255
157 197 255
158 197 255
158 197 255
158 197 255
158 197 255
158 197 255
158 197 255
158 197 255
158 197 255
158 197 255
158 197 255
159 197 255
159 197 255
159 197 255
159 198 255
159 198 255
159 198 255
159 198 255
159 198 255
159 198 255
160 198 255
160 198 255
160 198 255
160 198 255
160 198 255
160 198 255
160 198 255
160 198 255
160 198 255
160 198 255
161 199 255
161 199 255
161 199 255
161 199 255
161 199 255
161 199 255
161 199 255
161 199 255
161 199 255
161 199 255
162 199 255
162 199 255
162 199 255
162 199 255
162 199 255
162 199 255
162 200 255
162 200 255
162 200 255
163 200 255
163 200 255
163 200 255
163 200 255
163 200 255
163 200 255
163 200 255
163 200 255
163 200 255
163 200 255
164 200 255
164 200 255
164 200 255
164 200 255
164 201 255
164 201 255
164 201 255
164 201 255
164 201 255
164 201 255
165 201 255
165 201 255
165 201 255
165 201 255
165 201 255
165 201 255
165 201 255
165 201 255
165 201 255
165 201 255
165 201 255
166 202 255
166 202 255
166 202 255
166 202 255
166 202 255
166 202 255
166 202 255
166 202 255
166 202 255
166 202 255
166 202 255
167 202 255
167 202 255
167 202 255
167 202 255
167 202 255
167 202 255
167 202 255
167 202 255
167 203 255
167 203 255
167 203 255
167 203 255
168 203 255
168 203 255
168 203 255
168 203 255
168 203 255
168 203 255
168 203 255
168 203 255
168 203 255
168 203 255
168 203 255
168 203 255
169 203 255
169 203 255
169 203 255
169 203 255
169 204 255
169 204 255
169 204 255
169 204 255
169 204 255
169 204 255
169 204 255
169 204 255
169 204 255
170 204 255
170 204 255
170 204 255
170 204 255
170 204 255
170 204 255
170 204 255
170 204 255
170 204 255
169 204 255
169 204 255
169 204 255
169 204 255
169 204 255
169 204 255
169 204 255
169 204 255
169 204 255
169 203 255
169 203 255
169 203 255
169 203 255
168 203 255
168 203 255
168 203 255
168 203 255
168 203 255
168 203 255
168 203 255
168 203 255
168 203 255
168 203 255
168 203 255
168 203 255
168 203 255
167 203 255
167 203 255
167 203 255
167 202 255
167 202 255
167 202 255
167 202 255
167 202 255
167 202 255
167 202 255
167 202 255
166 202 255
166 202 255
166 202 255
166 202 255
166 202 255
166 202 255
166 202 255
166 202 255
166 202 255
166 202 255
166 202 255
165 201 255
165 201 255
165 201 255
165 201 255
165 201 255
165 201 255
165 201 255
165 201 255
165 201 255
165 201 255
165 201 255
164 201 255
164 201 255
164 201 255
164 201 255
164 201 255
164 201 255
164 200 255
164 200 255
164 200 255
164 200 255
163 200 255
163 200 255
163 200 255
163 200 255
163 200 255
163 200 255
163 200 255
163 200 255
163 200 255
163 200 255
162 200 255
162 200 255
162 199 255
162 199 255
162 199 255
162 199 255
162 199 255
162 199 255
162 199 255
161 199 255
161 199 255
161 199 255
161 199 255
161 199 255
161 199 255
161 199 255
161 199 255
161 199 255
160 198 255
160 198 255
160 198 255
160 198 255
160 198 255
160 198 255
160 198 255
160 198 255
160 198 255
160 198 255
159 198 255
159 198 255
159 198 255
159 198 255
159 198 255
159 198 255
159 198 255
159 197 255
159 197 255
159 197 255
158 197 255
158 197 255
158 197 255
158 197 255
158 197 255
158 197 255
158 197 255
158 197 255
158 197 255
158 197 255
157 197 255
157 197 255
157 197 255
157 196 255
157 196 255
157 196 255
157 196 255
157 196 255
157 196 255
157 196 255
157 196 255
157 196 255
156 196 255
156 196 255
156 196 255
156 196 255
156 196 255
156 196 255
156 196 255
156 196 255
156 196 255
156 196 255
156 196 255
155 195 255
155 195 255
155 195 255
155 195 255
155 195 255
155 195 255
155 195 255
155 195 255
155 195 255
155 195 255
155 195 255
155 195 255
155 195 255
155 195 255
155 195 255
155 195 255
155 195 255
154 195 255
154 195 255
154 195 255
154 195 255
154 195 255
154 195 255
154 195 255
154 195 255
154 195 255
154 195 255
154 195 255
154 195 255
154 195 255
154 195 255
154 195 255
154 195 255
154 195 255
154 195 255
154 195 255
154 195 255
154 194 255
154 194 255
154 195 255
154 194 255
154 194 255
154 194 255
154 194 255
154 194 255
154 194 255
154 195 255
154 194 255
154 194 255
154 194 255
154 195 255
154 195 255
154 195 255
154 195 255
154 195 255
154 195 255
154 195 255
154 195 255
154 195 255
154 195 255
154 195 255
154 195 255
154 195 255
154 195 255
154 195 255
154 195 255
154 195 255
154 195 255
154 195 255
154 195 255
155 195 255
154 195 255
155 195 255
155 195 255
155 195 255
155 195 255
155 195 255
155 195 255
155 195 255
155 195 255
155 195 255
155 195 255
155 195 255
155 195 255
155 195 255
155 195 255
155 195 255
155 195 255
156 196 255
156 196 255
156 196 255
156 196 255
156 196 255
156 196 255
156 196 255
156 196 255
156 196 255
156 196 255
156 196 255
156 196 255
157 196 255
157 196 255
157 196 255
157 196 255
157 196 255
157 196 255
157 196 255
157 197 255
157 197 255
157 197 255
158 197 255
158 197 255
158 197 255
158 197 255
158 197 255
158 197 255
158 197 255
158 197 255
158 197 255
158 197 255
158 197 255
159 197 255
159 197 255
159 197 255
159 198 255
159 198 255
159 198 255
159 198 255
159 198 255
159 198 255
159 198 255
160 198 255
160 198 255
160 198 255
160 198 255
160 198 255
160 198 255
160 198 255
160 198 255
160 198 255
161 199 255
161 199 255
161 199 255
161 199 255
161 199 255
161 199 255
161 199 255
161 199 255
161 199 255
161 199 255
162 199 255
162 199 255
162 199 255
162 199 255
162 199 255
162 199 255
162 199 255
162 200 255
162 200 255
163 200 255
163 200 255
163 200 255
163 200 255
163 200 255
163 200 255
163 200 255
163 200 255
163 200 255
163 200 255
164 200 255
164 200 255
164 200 255
164 200 255
164 201 255
164 201 255
164 201 255
164 201 255
164 201 255
164 201 255
164 201 255
165 201 255
165 201 255
165 201 255
165 201 255
165 201 255
165 201 255
165 201 255
165 201 255
165 201 255
165 201 255
166 202 255
166 202 255
166 202 255
166 202 255
166 202 255
166 202 255
166 202 255
166 202 255
166 202 255
166 202 255
166 202 255
167 202 255
167 202 255
167 202 255
167 202 255
167 202 255
167 202 255
167 202 255
167 202 255
167 203 255
167 203 255
167 203 255
167 203 255
168 203 255
168 203 255
168 203 255
168 203 255
168 203 255
168 203 255
168 203 255
168 203 255
168 203 255
168 203 255
168 203 255
168 203 255
169 203 255
169 203 255
169 203 255
169 203 255
169 204 255
169 204 255
169 204 255
169 204 255
169 204 255
169 204 255
169 204 255
169 204 255
169 204 255
170 204 255
170 204 255
170 204 255
170 204 255
170 204 255
170 204 255
170 204 255
170 204 255
170 204 255
170 204 255
170 204 255
170 204 255
170 204 255
170 204 255
170 204 255
169 204 255
169 204 255
169 204 255
169 204 255
169 204 255
169 204 255
169 204 255
169 204 255
169 204 255
169 203 255
169 203 255
169 203 255
169 203 255
168 203 255
168 203 255
168 203 255
168 203 255
168 203 255
168 203 255
168 203 255
168 203 255
168 203 255
168 203 255
168 203 255
168 203 255
167 203 255
167 203 255
167 203 255
167 203 255
167 202 255
167 202 255
167 202 255
167 202 255
167 202 255
167 202 255
167 202 255
166 202 255
166 202 255
166 202 255
166 202 255
166 202 255
166 202 255
166 202 255
166 202 255
166 202 255
166 202 255
166 202 255
166 202 255
165 201 255
165 201 255
165 201 255
165 201 255
165 201 255
165 201 255
165 201 255
165 201 255
165 201 255
165 201 255
164 201 255
164 201 255
164 201 255
164 201 255
164 201 255
164 201 255
164 201 255
164 200 255
164 200 255
164 200 255
163 200 255
163 200 255
163 200 255
163 200 255
163 200 255
163 200 255
163 200 255
163 200 255
163 200 255
163 200 255
162 200 255
162 200 255
162 200 255
162 200 255
162 199 255
162 199 255
162 199 255
162 199 255
162 199 255
162 199 255
161 199 255
161 199 255
161 199 255
161 199 255
161 199 255
161 199 255
161 199 255
161 199 255
161 199 255
161 199 255
160 198 255
160 198 255
160 198 255
160 198 255
160 198 255
160 198 255
160 198 255
160 198 255
160 198 255
159 198 255
159 198 255
159 198 255
159 198 255
159 198 255
159 198 255
159 197 255
159 197 255
159 197 255
159 197 255
158 197 255
158 197 255
158 197 255
158 197 255
158 197 255
158 197 255
158 197 255
158 197 255
158 197 255
158 197 255
157 197 255
157 197 255
157 197 255
157 197 255
157 196 255
157 196 255
157 196 255
157 196 255
157 196 255
157 196 255
157 196 255
157 196 255
156 196 255
156 196 255
156 196 255
156 196 255
156 196 255
156 196 255
156 196 255
156 196 255
156 196 255
156 196 255
156 196 255
156 196 255
156 196 255
155 195 255
155 195 255
155 195 255
155 195 255
155 195 255
155 195 255
155 195 255
155 195 255
155 195 255
155 195 255
155 195 255
155 195 255
155 195 255
155 195 255
155 195 255
155 195 255
155 195 255
155 195 255
154 195 255
155 195 255
154 195 255
154 195 255
154 195 255
154 195 255
154 195 255
154 195 255
154 195 255
154 195 255
154 195 255
154 195 255
154 195 255
154 195 255
154 195 255
154 195 255
154 195 255
154 195 255
154 195 255
154 195 255
154 195 255
154 195 255
154 195 255
154 195 255
154 195 255
154 195 255
154 195 255
154 195 255
154 195 255
154 195 255
154 195 255
154 195 255
154 195 255
154 195 255
154 195 255
154 195 255
154 195 255
154 195 255
154 195 255
154 195 255
154 195 255
155 195 255
155 195 255
155 195 255
155 195 255
155 195 255
155 195 255
155 195 255
155 195 255
155 195 255
155 195 255
155 195 255
155 195 255
155 195 255
155 195 255
155 195 255
155 195 255
155 195 255
155 195 255
155 195 255
156 196 255
156 196 255
156 196 255
156 196 255
156 196 255
156 196 255
156 196 255
156 196 255
156 196 255
156 196 255
156 196 255
156 196 255
156 196 255
157 196 255
157 196 255
157 196 255
157 196 255
157 196 255
157 196 255
157 196 255
157 196 255
157 197 255
157 197 255
157 197 255
157 197 255
158 197 255
158 197 255
158 197 255
158 197 255
158 197 255
158 197 255
158 197 255
158 197 255
158 197 255
158 197 255
159 197 255
159 197 255
159 197 255
159 198 255
159 198 255
159 198 255
159 198 255
159 198 255
159 198 255
159 198 255
160 198 255
160 198 255
160 198 255
160 198 255
160 198 255
160 198 255
160 198 255
160 198 255
160 198 255
161 199 255
161 199 255
161 199 255
161 199 255
161 199 255
161 199 255
161 199 255
161 199 255
161 199 255
161 199 255
161 199 255
162 199 255
162 199 255
162 199 255
162 199 255
162 199 255
162 199 255
162 200 255
162 200 255
162 200 255
163 200 255
163 200 255
163 200 255
163 200 255
163 200 255
163 200 255
163 200 255
163 200 255
163 200 255
163 200 255
164 200 255
164 200 255
164 200 255
164 201 255
164 201 255
164 201 255
164 201 255
164 201 255
164 201 255
164 201 255
165 201 255
165 201 255
165 201 255
165 201 255
165 201 255
165 201 255
165 201 255
165 201 255
165 201 255
165 201 255
166 202 255
166 202 255
166 202 255
166 202 255
166 202 255
166 202 255
166 202 255
166 202 255
166 202 255
166 202 255
166 202 255
167 202 255
167 202 255
167 202 255
167 202 255
167 202 255
167 202 255
167 202 255
167 202 255
167 203 255
167 203 255
167 203 255
167 203 255
168 203 255
168 203 255
168 203 255
168 203 255
168 203 255
168 203 255
168 203 255
168 203 255
168 203 255
168 203 255
168 203 255
168 203 255
169 203 255
169 203 255
169 203 255
169 203 255
169 204 255
169 204 255
169 204 255
169 204 255
169 204 255
169 204 255
169 204 255
169 204 255
170 204 255
170 204 255
170 204 255
170 204 255
170 204 255
170 204 255
170 204 255
170 204 255
170 204 255
170 204 255
170 204 255
170 204 255
170 204 255
170 204 255
170 204 255
170 204 255
170 204 255
170 204 255
170 204 255
170 204 255
170 204 255
170 204 255
170 204 255
169 204 255
169 204 255
169 204 255
169 204 255
169 204 255
169 204 255
169 204 255
169 204 255
169 204 255
169 203 255
169 203 255
169 203 255
168 203 255
168 203 255
168 203 255
168 203 255
168 203 255
168 203 255
168 203 255
168 203 255
168 203 255
168 203 255
168 203 255
168 203 255
167 203 255
167 203 255
167 203 255
167 203 255
167 202 255
167 202 255
167 202 255
167 202 255
167 202 255
167 202 255
167 202 255
167 202 255
166 202 255
166 202 255
166 202 255
166 202 255
166 202 255
166 202 255
166 202 255
166 202 255
166 202 255
166 202 255
165 201 255
165 201 255
165 201 255
165 201 255
165 201 255
165 201 255
165 201 255
165 201 255
165 201 255
165 201 255
165 201 255
164 201 255
164 201 255
164 201 255
164 201 255
164 201 255
164 201 255
164 201 255
164 201 255
164 200 255
164 200 255
163 200 255
163 200 255
163 200 255
163 200 255
163 200 255
163 200 255
163 200 255
163 200 255
163 200 255
163 200 255
162 200 255
162 200 255
162 200 255
162 199 255
162 199 255
162 199 255
162 199 255
162 199 255
162 199 255
162 199 255
161 199 255
161 199 255
161 199 255
161 199 255
161 199 255
161 199 255
161 199 255
161 199 255
161 199 255
160 198 255
160 198 255
160 198 255
160 198 255
160 198 255
160 198 255
160 198 255
160 198 255
160 198 255
160 198 255
159 198 255
159 198 255
159 198 255
159 198 255
159 198 255
159 198 255
159 198 255
159 197 255
159 197 255
159 197 255
159 197 255
158 197 255
158 197 255
158 197 255
158 197 255
158 197 255
158 197 255
158 197 255
158 197 255
158 197 255
158 197 255
157 197 255
157 197 255
157 197 255
157 196 255
157 196 255
157 196 255
157 196 255
157 196 255
157 196 255
157 196 255
157 196 255
157 196 255
156 196 255
156 196 255
156 196 255
156 196 255
156 196 255
156 196 255
156 196 255
156 196 255
156 196 255
156 196 255
156 196 255
156 196 255
156 196 255
155 195 255
155 195 255
155 195 255
155 195 255
155 195 255
155 195 255
155 195 255
155 195 255
155 195 255
155 195 255
155 195 255
155 195 255
155 195 255
155 195 255
155 195 255
155 195 255
155 195 255
155 195 255
155 195 255
155 195 255
155 195 255
155 195 255
155 195 255
155 195 255
155 195 255
154 195 255
154 195 255
154 195 255
154 195 255
154 195 255
154 195 255
154 195 255
154 195 255
154 195 255
154 195 255
154 195 255
154 195 255
154 195 255
154 195 255
154 195 255
154 195 255
154 195 255
154 195 255
155 195 255
154 195 255
155 195 255
155 195 255
155 195 255
155 195 255
155 195 255
155 195 255
155 195 255
155 195 255
155 195 255
155 195 255
155 195 255
155 195 255
155 195 255
155 195 255
155 195 255
155 195 255
155 195 255
155 195 255
155 195 255
155 195 255
155 195 255
155 195 255
155 195 255
155 195 255
156 196 255
156 196 255
156 196 255
156 196 255
156 196 255
156 196 255
156 196 255
156 196 255
156 196 255
156 196 255
156 196 255
156 196 255
156 196 255
156 196 255
157 196 255
157 196 255
157 196 255
157 196 255
157 196 255
157 196 255
157 196 255
157 196 255
157 196 255
157 197 255
157 197 255
157 197 255
157 197 255
158 197 255
158 197 255
158 197 255
158 197 255
158 197 255
158 197 255
158 197 255
158 197 255
158 197 255
158 197 255
159 197 255
159 197 255
159 197 255
159 198 255
159 198 255
159 198 255
159 198 255
159 198 255
159 198 255
159 198 255
160 198 255
160 198 255
160 198 255
160 198 255
160 198 255
160 198 255
160 198 255
160 198 255
160 198 255
160 198 255
161 199 255
161 199 255
161 199 255
161 199 255
161 199 255
161 199 255
161 199 255
161 199 255
161 199 255
162 199 255
162 199 255
162 199 255
162 199 255
162 199 255
162 199 255
162 199 255
162 200 255
162 200 255
162 200 255
163 200 255
163 200 255
163 200 255
163 200 255
163 200 255
163 200 255
163 200 255
163 200 255
163 200 255
163 200 255
164 200 255
164 200 255
164 200 255
164 201 255
164 201 255
164 201 255
164 201 255
164 201 255
164 201 255
164 201 255
165 201 255
165 201 255
165 201 255
165 201 255
165 201 255
165 201 255
165 201 255
165 201 255
165 201 255
165 201 255
165 201 255
166 202 255
166 202 255
166 202 255
166 202 255
166 202 255
166 202 255
166 202 255
166 202 255
166 202 255
166 202 255
167 202 255
167 202 255
167 202 255
167 202 255
167 202 255
167 202 255
167 202 255
167 202 255
167 203 255
167 203 255
167 203 255
167 203 255
168 203 255
168 203 255
168 203 255
168 203 255
168 203 255
168 203 255
168 203 255
168 203 255
168 203 255
168 203 255
168 203 255
169 203 255
169 203 255
169 203 255
169 203 255
169 204 255
169 204 255
169 204 255
169 204 255
169 204 255
169 204 255
169 204 255
169 204 255
169 204 255
169 204 255
170 204 255
170 204 255
170 204 255
170 204 255
170 204 255
170 204 255
170 204 255
170 204 255
170 204 255
170 204 255
170 204 255
170 204 255
171 205 255
171 205 255
171 205 255
170 204 255
170 204 255
170 204 255
170 204 255
170 204 255
170 204 255
170 204 255
170 204 255
170 204 255
170 204 255
170 204 255
170 204 255
170 204 255
169 204 255
169 204 255
169 204 255
169 204 255
169 204 255
169 204 255
169 204 255
169 204 255
169 203 255
169 203 255
169 203 255
169 203 255
169 203 255
168 203 255
168 203 255
168 203 255
168 203 255
168 203 255
168 203 255
168 203 255
168 203 255
168 203 255
168 203 255
168 203 255
167 203 255
167 203 255
167 203 255
167 203 255
167 202 255
167 202 255
167 202 255
167 202 255
167 202 255
167 202 255
167 202 255
166 202 255
166 202 255
166 202 255
166 202 255
166 202 255
166 202 255
166 202 255
166 202 255
166 202 255
166 202 255
166 202 255
166 202 255
165 201 255
165 201 255
165 201 255
165 201 255
165 201 255
165 201 255
165 201 255
165 201 255
165 201 255
165 201 255
164 201 255
164 201 255
164 201 255
164 201 255
164 201 255
164 201 255
164 200 255
164 200 255
164 200 255
164 200 255
163 200 255
163 200 255
163 200 255
163 200 255
163 200 255
163 200 255
163 200 255
163 200 255
163 200 255
163 200 255
162 200 255
162 200 255
162 200 255
162 199 255
162 199 255
162 199 255
162 199 255
162 199 255
162 199 255
161 199 255
161 199 255
161 199 255
161 199 255
161 199 255
161 199 255
161 199 255
161 199 255
161 199 255
161 199 255
160 198 255
160 198 255
160 198 255
160 198 255
160 198 255
160 198 255
160 198 255
160 198 255
160 198 255
160 198 255
159 198 255
159 198 255
159 198 255
159 198 255
159 198 255
159 198 255
159 198 255
159 197 255
159 197 255
159 197 255
158 197 255
158 197 255
158 197 255
158 197 255
158 197 255
158 197 255
158 197 255
158 197 255
158 197 255
158 197 255
158 197 255
157 197 255
157 197 255
157 197 255
157 197 255
157 197 255
157 196 255
157 196 255
157 196 255
157 196 255
157 196 255
157 196 255
157 196 255
157 196 255
156 196 255
156 196 255
156 196 255
156 196 255
156 196 255
156 196 255
156 196 255
156 196 255
156 196 255
156 196 255
156 196 255
156 196 255
156 196 255
156 196 255
156 196 255
155 195 255
155 195 255
155 195 255
155 195 255
155 195 255
155 195 255
155 195 255
155 195 255
155 195 255
155 195 255
155 195 255
155 195 255
155 195 255
155 195 255
155 195 255
155 195 255
155 195 255
155 195 255
155 195 255
155 195 255
155 195 255
155 195 255
155 195 255
155 195 255
155 195 255
155 195 255
155 195 255
155 195 255
155 195 255
155 195 255
155 195 255
155 195 255
155 195 255
155 195 255
155 195 255
155 195 255
155 195 255
155 195 255
155 195 255
155 195 255
155 195 255
155 195 255
155 195 255
155 195 255
155 195 255
155 195 255
155 195 255
155 195 255
155 195 255
155 195 255
155 195 255
155 195 255
155 195 255
155 195 255
155 195 255
155 195 255
155 195 255
155 195 255
155 195 255
156 196 255
156 196 255
156 196 255
156 196 255
156 196 255
156 196 255
156 196 255
156 196 255
156 196 255
156 196 255
156 196 255
156 196 255
156 196 255
156 196 255
157 196 255
157 196 255
157 196 255
157 196 255
157 196 255
157 196 255
157 196 255
157 196 255
157 196 255
157 197 255
157 197 255
157 197 255
157 197 255
158 197 255
158 197 255
158 197 255
158 197 255
158 197 255
158 197 255
158 197 255
158 197 255
158 197 255
158 197 255
159 197 255
159 197 255
159 197 255
159 197 255
159 198 255
159 198 255
159 198 255
159 198 255
159 198 255
159 198 255
160 198 255
160 198 255
160 198 255
160 198 255
160 198 255
160 198 255
160 198 255
160 198 255
160 198 255
160 198 255
161 199 255
161 199 255
161 199 255
161 199 255
161 199 255
161 199 255
161 199 255
161 199 255
161 199 255
161 199 255
162 199 255
162 199 255
162 199 255
162 199 255
162 199 255
162 199 255
162 199 255
162 200 255
162 200 255
162 200 255
163 200 255
163 200 255
163 200 255
163 200 255
163 200 255
163 200 255
163 200 255
163 200 255
163 200 255
163 200 255
163 200 255
164 200 255
164 200 255
164 200 255
164 201 255
164 201 255
164 201 255
164 201 255
164 201 255
164 201 255
165 201 255
165 201 255
165 201 255
165 201 255
165 201 255
165 201 255
165 201 255
165 201 255
165 201 255
165 201 255
165 201 255
166 202 255
166 202 255
166 202 255
166 202 255
166 202 255
166 202 255
166 202 255
166 202 255
166 202 255
166 202 255
167 202 255
167 202 255
167 202 255
167 202 255
167 202 255
167 202 255
167 202 255
167 202 255
167 203 255
167 203 255
167 203 255
167 203 255
168 203 255
168 203 255
168 203 255
168 203 255
168 203 255
168 203 255
168 203 255
168 203 255
168 203 255
168 203 255
168 203 255
169 203 255
169 203 255
169 203 255
169 203 255
169 203 255
169 204 255
169 204 255
169 204 255
169 204 255
169 204 255
169 204 255
169 204 255
169 204 255
170 204 255
170 204 255
170 204 255
170 204 255
170 204 255
170 204 255
170 204 255
170 204 255
170 204 255
170 204 255
170 204 255
170 204 255
170 204 255
170 204 255
171 205 255
171 205 255
171 205 255
171 205 255
171 205 255
171 205 255
171 205 255
171 205 255
170 204 255
170 204 255
170 204 255
170 204 255
170 204 255
170 204 255
170 204 255
170 204 255
170 204 255
170 204 255
170 204 255
170 204 255
169 204 255
169 204 255
169 204 255
169 204 255
169 204 255
169 204 255
169 204 255
169 204 255
169 204 255
169 203 255
169 203 255
169 203 255
169 203 255
169 203 255
168 203 255
168 203 255
168 203 255
168 203 255
168 203 255
168 203 255
168 203 255
168 203 255
168 203 255
168 203 255
168 203 255
167 203 255
167 203 255
167 203 255
167 203 255
167 202 255
167 202 255
167 202 255
167 202 255
167 202 255
167 202 255
167 202 255
166 202 255
166 202 255
166 202 255
166 202 255
166 202 255
166 202 255
166 202 255
166 202 255
166 202 255
166 202 255
166 202 255
165 201 255
165 201 255
165 201 255
165 201 255
165 201 255
165 201 255
165 201 255
165 201 255
165 201 255
165 201 255
165 201 255
164 201 255
164 201 255
164 201 255
164 201 255
164 201 255
164 201 255
164 201 255
164 200 255
164 200 255
164 200 255
163 200 255
163 200 255
163 200 255
163 200 255
163 200 255
163 200 255
163 200 255
163 200 255
163 200 255
163 200 255
162 200 255
162 200 255
162 200 255
162 199 255
162 199 255
162 199 255
162 199 255
162 199 255
162 199 255
161 199 255
161 199 255
161 199 255
161 199 255
161 199 255
161 199 255
161 199 255
161 199 255
161 199 255
161 199 255
160 198 255
160 198 255
160 198 255
160 198 255
160 198 255
160 198 255
160 198 255
160 198 255
160 198 255
160 198 255
159 198 255
159 198 255
159 198 255
159 198 255
159 198 255
159 198 255
159 198 255
159 197 255
159 197 255
159 197 255
159 197 255
158 197 255
158 197 255
158 197 255
158 197 255
158 197 255
158 197 255
158 197 255
158 197 255
158 197 255
158 197 255
158 197 255
157 197 255
157 197 255
157 197 255
157 197 255
157 196 255
157 196 255
157 196 255
157 196 255
157 196 255
157 196 255
157 196 255
157 196 255
157 196 255
156 196 255
156 196 255
156 196 255
156 196 255
156 196 255
156 196 255
156 196 255
156 196 255
156 196 255
156 196 255
156 196 255
156 196 255
156 196 255
156 196 255
156 196 255
156 196 255
156 196 255
155 195 255
155 195 255
155 195 255
155 195 255
155 195 255
155 195 255
155 195 255
155 195 255
155 195 255
155 195 255
155 195 255
155 195 255
155 195 255
155 195 255
155 195 255
155 195 255
155 195 255
155 195 255
155 195 255
155 195 255
155 195 255
155 195 255
155 195 255
155 195 255
155 195 255
155 195 255
155 195 255
155 195 255
155 195 255
155 195 255
155 195 255
155 195 255
155 195 255
155 195 255
155 195 255
155 195 255
155 195 255
155 195 255
155 195 255
155 195 255
155 195 255
155 195 255
155 195 255
155 195 255
155 195 255
156 196 255
156 196 255
156 196 255
156 196 255
156 196 255
156 196 255
156 196 255
156 196 255
156 196 255
156 196 255
156 196 255
156 196 255
156 196 255
156 196 255
156 196 255
156 196 255
156 196 255
156 196 255
157 196 255
157 196 255
157 196 255
157 196 255
157 196 255
157 196 255
157 196 255
157 196 255
157 196 255
157 197 255
157 197 255
157 197 255
157 197 255
158 197 255
158 197 255
158 197 255
158 197 255
158 197 255
158 197 255
158 197 255
158 197 255
158 197 255
158 197 255
158 197 255
159 197 255
159 197 255
159 197 255
159 197 255
159 198 255
159 198 255
159 198 255
159 198 255
159 198 255
159 198 255
160 198 255
160 198 255
160 198 255
160 198 255
160 198 255
160 198 255
160 198 255
160 198 255
160 198 255
160 198 255
160 198 255
161 199 255
161 199 255
161 199 255
161 199 255
161 199 255
161 199 255
161 199 255
161 199 255
161 199 255
161 199 255
162 199 255
162 199 255
162 199 255
162 199 255
162 199 255
162 199 255
162 200 255
162 200 255
162 200 255
163 200 255
163 200 255
163 200 255
163 200 255
163 200 255
163 200 255
163 200 255
163 200 255
163 200 255
163 200 255
164 200 255
164 200 255
164 200 255
164 201 255
164 201 255
164 201 255
164 201 255
164 201 255
164 201 255
164 201 255
165 201 255
165 201 255
165 201 255
165 201 255
165 201 255
165 201 255
165 201 255
165 201 255
165 201 255
165 201 255
165 201 255
166 202 255
166 202 255
166 202 255
166 202 255
166 202 255
166 202 255
166 202 255
166 202 255
166 202 255
166 202 255
167 202 255
167 202 255
167 202 255
167 202 255
167 202 255
167 202 255
167 202 255
167 202 255
167 203 255
167 203 255
167 203 255
167 203 255
168 203 255
168 203 255
168 203 255
168 203 255
168 203 255
168 203 255
168 203 255
168 203 255
168 203 255
168 203 255
168 203 255
168 203 255
169 203 255
169 203 255
169 203 255
169 203 255
169 204 255
169 204 255
169 204 255
169 204 255
169 204 255
169 204 255
169 204 255
169 204 255
170 204 255
170 204 255
170 204 255
170 204 255
170 204 255
170 204 255
170 204 255
170 204 255
170 204 255
170 204 255
170 204 255
170 204 255
170 204 255
171 205 255
171 205 255
171 205 255
171 205 255
171 205 255
171 205 255
171 205 255
171 205 255
171 205 255
171 205 255
171 205 255
171 205 255
171 205 255
171 205 255
171 205 255
170 204 255
170 204 255
170 204 255
170 204 255
170 204 255
170 204 255
170 204 255
170 204 255
170 204 255
170 204 255
170 204 255
170 204 255
170 204 255
169 204 255
169 204 255
169 204 255
169 204 255
169 204 255
169 204 255
169 204 255
169 204 255
169 203 255
169 203 255
169 203 255
169 203 255
169 203 255
168 203 255
168 203 255
168 203 255
168 203 255
168 203 255
168 203 255
168 203 255
168 203 255
168 203 255
168 203 255
168 203 255
168 203 255
167 203 255
167 203 255
167 203 255
167 202 255
167 202 255
167 202 255
167 202 255
167 202 255
167 202 255
167 202 255
166 202 255
166 202 255
166 202 255
166 202 255
166 202 255
166 202 255
166 202 255
166 202 255
166 202 255
166 202 255
166 202 255
165 201 255
165 201 255
165 201 255
165 201 255
165 201 255
165 201 255
165 201 255
165 201 255
165 201 255
165 201 255
165 201 255
164 201 255
164 201 255
164 201 255
164 201 255
164 201 255
164 201 255
164 200 255
164 200 255
164 200 255
164 200 255
163 200 255
163 200 255
163 200 255
163 200 255
163 200 255
163 200 255
163 200 255
163 200 255
163 200 255
162 200 255
162 200 255
162 200 255
162 200 255
162 199 255
162 199 255
162 199 255
162 199 255
162 199 255
162 199 255
161 199 255
161 199 255
161 199 255
161 199 255
161 199 255
161 199 255
161 199 255
161 199 255
161 199 255
161 199 255
160 198 255
160 198 255
160 198 255
160 198 255
160 198 255
160 198 255
160 198 255
160 198 255
160 198 255
160 198 255
160 198 255
159 198 255
159 198 255
159 198 255
159 198 255
159 198 255
159 198 255
159 198 255
159 197 255
159 197 255
159 197 255
158 197 255
158 197 255
158 197 255
158 197 255
158 197 255
158 197 255
158 197 255
158 197 255
158 197 255
158 197 255
158 197 255
158 197 255
157 197 255
157 197 255
157 197 255
157 197 255
157 197 255
157 196 255
157 196 255
157 196 255
157 196 255
157 196 255
157 196 255
157 196 255
157 196 255
157 196 255
156 196 255
156 196 255
156 196 255
156 196 255
156 196 255
156 196 255
156 196 255
156 196 255
156 196 255
156 196 255
156 196 255
156 196 255
156 196 255
156 196 255
156 196 255
156 196 255
156 196 255
156 196 255
156 196 255
156 196 255
156 196 255
156 196 255
155 195 255
155 195 255
155 195 255
155 195 255
155 195 255
155 195 255
155 195 255
155 195 255
155 195 255
155 195 255
155 195 255
155 195 255
155 195 255
155 195 255
155 195 255
155 195 255
155 195 255
155 195 255
155 195 255
155 195 255
155 195 255
155 195 255
155 195 255
155 195 255
155 195 255
155 195 255
156 196 255
156 196 255
156 196 255
156 196 255
156 196 255
156 196 255
156 196 255
156 196 255
156 196 255
156 196 255
156 196 255
156 196 255
156 196 255
156 196 255
156 196 255
156 196 255
156 196 255
156 196 255
156 196 255
156 196 255
156 196 255
156 196 255
156 196 255
157 196 255
157 196 255
157 196 255
157 196 255
157 196 255
157 196 255
157 196 255
157 196 255
157 197 255
157 196 255
157 197 255
157 197 255
157 197 255
158 197 255
158 197 255
158 197 255
158 197 255
158 197 255
158 197 255
158 197 255
158 197 255
158 197 255
158 197 255
158 197 255
158 197 255
159 197 255
159 197 255
159 197 255
159 197 255
159 198 255
159 198 255
159 198 255
159 198 255
159 198 255
159 198 255
160 198 255
160 198 255
160 198 255
160 198 255
160 198 255
160 198 255
160 198 255
160 198 255
160 198 255
160 198 255
160 198 255
161 199 255
161 199 255
161 199 255
161 199 255
161 199 255
161 199 255
161 199 255
161 199 255
161 199 255
161 199 255
162 199 255
162 199 255
162 199 255
162 199 255
162 199 255
162 199 255
162 200 255
162 200 255
162 200 255
162 200 255
163 200 255
163 200 255
163 200 255
163 200 255
163 200 255
163 200 255
163 200 255
163 200 255
163 200 255
164 200 255
164 200 255
164 200 255
164 200 255
164 201 255
164 201 255
164 201 255
164 201 255
164 201 255
164 201 255
165 201 255
165 201 255
165 201 255
165 201 255
165 201 255
165 201 255
165 201 255
165 201 255
165 201 255
165 201 255
165 201 255
166 202 255
166 202 255
166 202 255
166 202 255
166 202 255
166 202 255
166 202 255
166 202 255
166 202 255
166 202 255
167 202 255
167 202 255
167 202 255
167 202 255
167 202 255
167 202 255
167 202 255
167 202 255
167 203 255
167 203 255
167 203 255
168 203 255
168 203 255
168 203 255
168 203 255
168 203 255
168 203 255
168 203 255
168 203 255
168 203 255
168 203 255
168 203 255
168 203 255
169 203 255
169 203 255
169 203 255
169 203 255
169 204 255
169 204 255
169 204 255
169 204 255
169 204 255
169 204 255
169 204 255
169 204 255
170 204 255
170 204 255
170 204 255
170 204 255
170 204 255
170 204 255
170 204 255
170 204 255
170 204 255
170 204 255
170 204 255
170 204 255
170 204 255
170 204 255
171 205 255
171 205 255
171 205 255
171 205 255
171 205 255
171 205 255
171 205 255
171 205 255
171 205 255
171 205 255
171 205 255
171 205 255
171 205 255
171 205 255
171 205 255
171 205 255
171 205 255
171 205 255
171 205 255
171 205 255
171 205 255
170 204 255
170 204 255
170 204 255
170 204 255
170 204 255
170 204 255
170 204 255
170 204 255
170 204 255
170 204 255
170 204 255
170 204 255
170 204 255
169 204 255
169 204 255
169 204 255
169 204 255
169 204 255
169 204 255
169 204 255
169 204 255
169 204 255
169 203 255
169 203 255
169 203 255
169 203 255
168 203 255
168 203 255
168 203 255
168 203 255
168 203 255
168 203 255
168 203 255
168 203 255
168 203 255
168 203 255
168 203 255
167 203 255
167 203 255
167 203 255
167 203 255
167 202 255
167 202 255
167 202 255
167 202 255
167 202 255
167 202 255
167 202 255
167 202 255
166 202 255
166 202 255
166 202 255
166 202 255
166 202 255
166 202 255
166 202 255
166 202 255
166 202 255
166 202 255
165 201 255
165 201 255
165 201 255
165 201 255
165 201 255
165 201 255
165 201 255
165 201 255
165 201 255
165 201 255
164 201 255
164 201 255
164 201 255
164 201 255
164 201 255
164 201 255
164 201 255
164 201 255
164 200 255
164 200 255
164 200 255
163 200 255
163 200 255
163 200 255
163 200 255
163 200 255
163 200 255
163 200 255
163 200 255
163 200 255
162 200 255
162 200 255
162 200 255
162 199 255
162 199 255
162 199 255
162 199 255
162 199 255
162 199 255
162 199 255
161 199 255
161 199 255
161 199 255
161 199 255
161 199 255
161 199 255
161 199 255
161 199 255
161 199 255
161 199 255
161 199 255
160 198 255
160 198 255
160 198 255
160 198 255
160 198 255
160 198 255
160 198 255
160 198 255
160 198 255
160 198 255
159 198 255
159 198 255
159 198 255
159 198 255
159 198 255
159 198 255
159 198 255
159 197 255
159 197 255
159 197 255
158 197 255
158 197 255
158 197 255
158 197 255
158 197 255
158 197 255
158 197 255
158 197 255
158 197 255
158 197 255
158 197 255
158 197 255
158 197 255
158 197 255
157 197 255
157 197 255
157 197 255
157 197 255
157 196 255
157 196 255
157 196 255
157 196 255
157 196 255
157 196 255
157 196 255
157 196 255
157 196 255
157 196 255
157 196 255
156 196 255
156 196 255
156 196 255
156 196 255
156 196 255
156 196 255
156 196 255
156 196 255
156 196 255
156 196 255
156 196 255
156 196 255
156 196 255
156 196 255
156 196 255
156 196 255
156 196 255
156 196 255
156 196 255
156 196 255
156 196 255
156 196 255
156 196 255
156 196 255
156 196 255
156 196 255
156 196 255
156 196 255
156 196 255
156 196 255
156 196 255
156 196 255
156 196 255
156 196 255
156 196 255
156 196 255
156 196 255
156 196 255
156 196 255
156 196 255
156 196 255
156 196 255
156 196 255
156 196 255
156 196 255
156 196 255
156 196 255
156 196 255
156 196 255
156 196 255
156 196 255
156 196 255
156 196 255
156 196 255
156 196 255
156 196 255
156 196 255
156 196 255
156 196 255
157 196 255
157 196 255
157 196 255
157 196 255
157 196 255
157 196 255
157 196 255
157 196 255
157 196 255
157 196 255
157 196 255
157 197 255
157 197 255
157 197 255
157 197 255
158 197 255
158 197 255
158 197 255
158 197 255
158 197 255
158 197 255
158 197 255
158 197 255
158 197 255
158 197 255
158 197 255
158 197 255
159 197 255
159 197 255
159 197 255
159 197 255
159 198 255
159 198 255
159 198 255
159 198 255
159 198 255
159 198 255
159 198 255
160 198 255
160 198 255
160 198 255
160 198 255
160 198 255
160 198 255
160 198 255
160 198 255
160 198 255
160 198 255
160 198 255
161 199 255
161 199 255
161 199 255
161 199 255
161 199 255
161 199 255
161 199 255
161 199 255
161 199 255
161 199 255
162 199 255
162 199 255
162 199 255
162 199 255
162 199 255
162 199 255
162 200 255
162 200 255
162 200 255
162 200 255
163 200 255
163 200 255
163 200 255
163 200 255
163 200 255
163 200 255
163 200 255
163 200 255
163 200 255
163 200 255
164 200 255
164 200 255
164 200 255
164 201 255
164 201 255
164 201 255
164 201 255
164 201 255
164 201 255
165 201 255
165 201 255
165 201 255
165 201 255
165 201 255
165 201 255
165 201 255
165 201 255
165 201 255
165 201 255
165 201 255
166 202 255
166 202 255
166 202 255
166 202 255
166 202 255
166 202 255
166 202 255
166 202 255
166 202 255
166 202 255
166 202 255
167 202 255
167 202 255
167 202 255
167 202 255
167 202 255
167 202 255
167 202 255
167 203 255
167 203 255
167 203 255
168 203 255
168 203 255
168 203 255
168 203 255
168 203 255
168 203 255
168 203 255
168 203 255
168 203 255
168 203 255
168 203 255
168 203 255
169 203 255
169 203 255
169 203 255
169 203 255
169 203 255
169 204 255
169 204 255
169 204 255
169 204 255
169 204 255
169 204 255
169 204 255
170 204 255
170 204 255
170 204 255
170 204 255
170 204 255
170 204 255
170 204 255
170 204 255
170 204 255
170 204 255
170 204 255
170 204 255
170 204 255
170 204 255
171 205 255
171 205 255
171 205 255
171 205 255
171 205 255
171 205 255
171 205 255
171 205 255
171 205 255
171 205 255
171 205 255
171 205 255
172 205 255
172 205 255
171 205 255
171 205 255
171 205 255
171 205 255
171 205 255
171 205 255
171 205 255
171 205 255
171 205 255
171 205 255
171 205 255
171 205 255
171 205 255
170 204 255
170 204 255
170 204 255
170 204 255
170 204 255
170 204 255
170 204 255
170 204 255
170 204 255
170 204 255
170 204 255
170 204 255
170 204 255
170 204 255
169 204 255
169 204 255
169 204 255
169 204 255
169 204 255
169 204 255
169 204 255
169 204 255
169 203 255
169 203 255
169 203 255
169 203 255
168 203 255
168 203 255
168 203 255
168 203 255
168 203 255
168 203 255
168 203 255
168 203 255
168 203 255
168 203 255
168 203 255
167 203 255
167 203 255
167 203 255
167 203 255
167 203 255
167 202 255
167 202 255
167 202 255
167 202 255
167 202 255
167 202 255
166 202 255
166 202 255
166 202 255
166 202 255
166 202 255
166 202 255
166 202 255
166 202 255
166 202 255
166 202 255
166 202 255
165 201 255
165 201 255
165 201 255
165 201 255
165 201 255
165 201 255
165 201 255
165 201 255
165 201 255
165 201 255
164 201 255
164 201 255
164 201 255
164 201 255
164 201 255
164 201 255
164 201 255
164 201 255
164 200 255
164 200 255
163 200 255
163 200 255
163 200 255
163 200 255
163 200 255
163 200 255
163 200 255
163 200 255
163 200 255
163 200 255
162 200 255
162 200 255
162 200 255
162 200 255
162 199 255
162 199 255
162 199 255
162 199 255
162 199 255
162 199 255
161 199 255
161 199 255
161 199 255
161 199 255
161 199 255
161 199 255
161 199 255
161 199 255
161 199 255
161 199 255
161 199 255
160 198 255
160 198 255
160 198 255
160 198 255
160 198 255
160 198 255
160 198 255
160 198 255
160 198 255
160 198 255
159 198 255
159 198 255
159 198 255
159 198 255
159 198 255
159 198 255
159 198 255
159 197 255
159 197 255
159 197 255
159 197 255
158 197 255
158 197 255
158 197 255
158 197 255
158 197 255
158 197 255
158 197 255
158 197 255
158 197 255
158 197 255
158 197 255
158 197 255
158 197 255
158 197 255
157 197 255
157 197 255
157 197 255
157 197 255
157 197 255
157 196 255
157 196 255
157 196 255
157 196 255
157 196 255
157 196 255
157 196 255
157 196 255
157 196 255
157 196 255
157 196 255
157 196 255
156 196 255
156 196 255
156 196 255
156 196 255
156 196 255
156 196 255
156 196 255
156 196 255
156 196 255
156 196 255
156 196 255
156 196 255
156 196 255
156 196 255
156 196 255
156 196 255
156 196 255
156 196 255
156 196 255
156 196 255
156 196 255
156 196 255
156 196 255
156 196 255
156 196 255
156 196 255
156 196 255
156 196 255
156 196 255
156 196 255
156 196 255
156 196 255
156 196 255
156 196 255
156 196 255
156 196 255
156 196 255
156 196 255
156 196 255
156 196 255
156 196 255
156 196 255
156 196 255
156 196 255
156 196 255
156 196 255
156 196 255
157 196 255
157 196 255
157 196 255
157 196 255
157 196 255
157 196 255
157 196 255
157 196 255
157 196 255
157 196 255
157 196 255
157 196 255
157 197 255
157 197 255
157 197 255
157 197 255
158 197 255
158 197 255
158 197 255
158 197 255
158 197 255
158 197 255
158 197 255
158 197 255
158 197 255
158 197 255
158 197 255
158 197 255
158 197 255
158 197 255
159 197 255
159 197 255
159 197 255
159 198 255
159 198 255
159 198 255
159 198 255
159 198 255
159 198 255
159 198 255
159 198 255
160 198 255
160 198 255
160 198 255
160 198 255
160 198 255
160 198 255
160 198 255
160 198 255
160 198 255
160 198 255
161 199 255
161 199 255
161 199 255
161 199 255
161 199 255
161 199 255
161 199 255
161 199 255
161 199 255
161 199 255
161 199 255
162 199 255
162 199 255
162 199 255
162 199 255
162 199 255
162 199 255
162 200 255
162 200 255
162 200 255
163 200 255
163 200 255
163 200 255
163 200 255
163 200 255
163 200 255
163 200 255
163 200 255
163 200 255
163 200 255
164 200 255
164 200 255
164 200 255
164 201 255
164 201 255
164 201 255
164 201 255
164 201 255
164 201 255
164 201 255
165 201 255
165 201 255
165 201 255
165 201 255
165 201 255
165 201 255
165 201 255
165 201 255
165 201 255
165 201 255
165 201 255
166 202 255
166 202 255
166 202 255
166 202 255
166 202 255
166 202 255
166 202 255
166 202 255
166 202 255
166 202 255
166 202 255
167 202 255
167 202 255
167 202 255
167 202 255
167 202 255
167 202 255
167 202 255
167 203 255
167 203 255
167 203 255
167 203 255
168 203 255
168 203 255
168 203 255
168 203 255
168 203 255
168 203 255
168 203 255
168 203 255
168 203 255
168 203 255
168 203 255
169 203 255
169 203 255
169 203 255
169 203 255
169 204 255
169 204 255
169 204 255
169 204 255
169 204 255
169 204 255
169 204 255
169 204 255
170 204 255
170 204 255
170 204 255
170 204 255
170 204 255
170 204 255
170 204 255
170 204 255
170 204 255
170 204 255
170 204 255
170 204 255
170 204 255
171 205 255
171 205 255
171 205 255
171 205 255
171 205 255
171 205 255
171 205 255
171 205 255
171 205 255
171 205 255
171 205 255
171 205 255
171 205 255
171 205 255
171 205 255
172 205 255
172 205 255
172 205 255
172 205 255
172 205 255
172 205 255
172 205 255
171 205 255
171 205 255
171 205 255
171 205 255
171 205 255
171 205 255
171 205 255
171 205 255
171 205 255
171 205 255
171 205 255
171 205 255
171 205 255
170 204 255
170 204 255
170 204 255
170 204 255
170 204 255
170 204 255
170 204 255
170 204 255
170 204 255
170 204 255
170 204 255
170 204 255
170 204 255
169 204 255
169 204 255
169 204 255
169 204 255
169 204 255
169 204 255
169 204 255
169 204 255
169 203 255
169 203 255
169 203 255
169 203 255
168 203 255
168 203 255
168 203 255
168 203 255
168 203 255
168 203 255
168 203 255
168 203 255
168 203 255
168 203 255
168 203 255
168 203 255
167 203 255
167 203 255
167 203 255
167 203 255
167 202 255
167 202 255
167 202 255
167 202 255
167 202 255
167 202 255
167 202 255
166 202 255
166 202 255
166 202 255
166 202 255
166 202 255
166 202 255
166 202 255
166 202 255
166 202 255
166 202 255
165 201 255
165 201 255
165 201 255
165 201 255
165 201 255
165 201 255
165 201 255
165 201 255
165 201 255
165 201 255
165 201 255
164 201 255
164 201 255
164 201 255
164 201 255
164 201 255
164 201 255
164 201 255
164 200 255
164 200 255
163 200 255
163 200 255
163 200 255
163 200 255
163 200 255
163 200 255
163 200 255
163 200 255
163 200 255
163 200 255
163 200 255
162 200 255
162 200 255
162 200 255
162 199 255
162 199 255
162 199 255
162 199 255
162 199 255
162 199 255
162 199 255
161 199 255
161 199 255
161 199 255
161 199 255
161 199 255
161 199 255
161 199 255
161 199 255
161 199 255
161 199 255
160 198 255
160 198 255
160 198 255
160 198 255
160 198 255
160 198 255
160 198 255
160 198 255
160 198 255
160 198 255
159 198 255
159 198 255
159 198 255
159 198 255
159 198 255
159 198 255
159 198 255
159 198 255
159 197 255
159 197 255
159 197 255
159 197 255
158 197 255
158 197 255
158 197 255
158 197 255
158 197 255
158 197 255
158 197 255
158 197 255
158 197 255
158 197 255
158 197 255
158 197 255
158 197 255
158 197 255
157 197 255
157 197 255
157 197 255
157 197 255
157 197 255
157 197 255
157 196 255
157 196 255
157 196 255
157 196 255
157 196 255
157 196 255
157 196 255
157 196 255
157 196 255
157 196 255
157 196 255
157 196 255
157 196 255
157 196 255
157 196 255
157 196 255
157 196 255
156 196 255
156 196 255
156 196 255
156 196 255
156 196 255
156 196 255
156 196 255
156 196 255
156 196 255
156 196 255
156 196 255
156 196 255
156 196 255
156 196 255
156 196 255
156 196 255
156 196 255
156 196 255
156 196 255
156 196 255
156 196 255
156 196 255
156 196 255
156 196 255
156 196 255
156 196 255
156 196 255
156 196 255
156 196 255
157 196 255
157 196 255
157 196 255
157 196 255
157 196 255
157 196 255
157 196 255
157 196 255
157 196 255
157 196 255
157 196 255
157 196 255
157 196 255
157 196 255
157 197 255
157 197 255
157 197 255
157 197 255
157 197 255
158 197 255
157 197 255
158 197 255
158 197 255
158 197 255
158 197 255
158 197 255
158 197 255
158 197 255
158 197 255
158 197 255
158 197 255
158 197 255
158 197 255
158 197 255
159 197 255
159 197 255
159 197 255
159 198 255
159 198 255
159 198 255
159 198 255
159 198 255
159 198 255
159 198 255
159 198 255
160 198 255
160 198 255
160 198 255
160 198 255
160 198 255
160 198 255
160 198 255
160 198 255
160 198 255
160 198 255
160 198 255
160 198 255
161 199 255
161 199 255
161 199 255
161 199 255
161 199 255
161 199 255
161 199 255
161 199 255
161 199 255
162 199 255
162 199 255
162 199 255
162 199 255
162 199 255
162 199 255
162 200 255
162 200 255
162 200 255
162 200 255
163 200 255
163 200 255
163 200 255
163 200 255
163 200 255
163 200 255
163 200 255
163 200 255
163 200 255
163 200 255
163 200 255
164 200 255
164 200 255
164 200 255
164 201 255
164 201 255
164 201 255
164 201 255
164 201 255
164 201 255
165 201 255
165 201 255
165 201 255
165 201 255
165 201 255
165 201 255
165 201 255
165 201 255
165 201 255
165 201 255
166 202 255
166 202 255
166 202 255
166 202 255
166 202 255
166 202 255
166 202 255
166 202 255
166 202 255
166 202 255
166 202 255
167 202 255
167 202 255
167 202 255
167 202 255
167 202 255
167 202 255
167 202 255
167 202 255
167 203 255
167 203 255
167 203 255
168 203 255
168 203 255
168 203 255
168 203 255
168 203 255
168 203 255
168 203 255
168 203 255
168 203 255
168 203 255
168 203 255
168 203 255
169 203 255
169 203 255
169 203 255
169 203 255
169 204 255
169 204 255
169 204 255
169 204 255
169 204 255
169 204 255
169 204 255
169 204 255
170 204 255
170 204 255
170 204 255
170 204 255
170 204 255
170 204 255
170 204 255
170 204 255
170 204 255
170 204 255
170 204 255
170 204 255
170 204 255
171 205 255
171 205 255
171 205 255
171 205 255
171 205 255
171 205 255
171 205 255
171 205 255
171 205 255
171 205 255
171 205 255
171 205 255
171 205 255
171 205 255
172 205 255
172 205 255
172 205 255
172 205 255
172 205 255
172 205 255
172 205 255
172 205 255
172 205 255
172 205 255
172 205 255
172 205 255
172 205 255
171 205 255
171 205 255
171 205 255
171 205 255
171 205 255
171 205 255
171 205 255
171 205 255
171 205 255
171 205 255
171 205 255
171 205 255
171 205 255
171 205 255
170 204 255
170 204 255
170 204 255
170 204 255
170 204 255
170 204 255
170 204 255
170 204 255
170 204 255
170 204 255
170 204 255
170 204 255
170 204 255
169 204 255
169 204 255
169 204 255
169 204 255
169 204 255
169 204 255
169 204 255
169 204 255
169 203 255
169 203 255
169 203 255
169 203 255
168 203 255
168 203 255
168 203 255
168 203 255
168 203 255
168 203 255
168 203 255
168 203 255
168 203 255
168 203 255
168 203 255
168 203 255
167 203 255
167 203 255
167 203 255
167 203 255
167 202 255
167 202 255
167 202 255
167 202 255
167 202 255
167 202 255
166 202 255
166 202 255
166 202 255
166 202 255
166 202 255
166 202 255
166 202 255
166 202 255
166 202 255
166 202 255
166 202 255
166 202 255
165 201 255
165 201 255
165 201 255
165 201 255
165 201 255
165 201 255
165 201 255
165 201 255
165 201 255
165 201 255
164 201 255
164 201 255
164 201 255
164 201 255
164 201 255
164 201 255
164 200 255
164 200 255
164 200 255
164 200 255
163 200 255
163 200 255
163 200 255
163 200 255
163 200 255
163 200 255
163 200 255
163 200 255
163 200 255
163 200 255
162 200 255
162 200 255
162 200 255
162 199 255
162 199 255
162 199 255
162 199 255
162 199 255
162 199 255
162 199 255
161 199 255
161 199 255
161 199 255
161 199 255
161 199 255
161 199 255
161 199 255
161 199 255
161 199 255
161 199 255
161 199 255
160 198 255
160 198 255
160 198 255
160 198 255
160 198 255
160 198 255
160 198 255
160 198 255
160 198 255
160 198 255
160 198 255
159 198 255
159 198 255
159 198 255
159 198 255
159 198 255
159 198 255
159 198 255
159 197 255
159 197 255
159 197 255
159 197 255
159 197 255
158 197 255
158 197 255
158 197 255
158 197 255
158 197 255
158 197 255
158 197 255
158 197 255
158 197 255
158 197 255
158 197 255
158 197 255
158 197 255
158 197 255
158 197 255
157 197 255
157 197 255
157 197 255
157 197 255
157 197 255
157 197 255
157 197 255
157 196 255
157 196 255
157 196 255
157 196 255
157 196 255
157 196 255
157 196 255
157 196 255
157 196 255
157 196 255
157 196 255
157 196 255
157 196 255
157 196 255
157 196 255
157 196 255
157 196 255
157 196 255
157 196 255
157 196 255
157 196 255
157 196 255
157 196 255
157 196 255
157 196 255
157 196 255
157 196 255
157 196 255
157 196 255
157 196 255
157 196 255
157 196 255
157 196 255
157 196 255
157 196 255
157 196 255
157 196 255
157 196 255
157 196 255
157 196 255
157 196 255
157 196 255
157 196 255
157 196 255
157 196 255
157 197 255
157 197 255
157 197 255
157 197 255
157 197 255
157 197 255
157 197 255
157 197 255
157 197 255
158 197 255
158 197 255
158 197 255
158 197 255
158 197 255
158 197 255
158 197 255
158 197 255
158 197 255
158 197 255
158 197 255
158 197 255
158 197 255
158 197 255
159 197 255
159 197 255
159 197 255
159 197 255
159 197 255
159 198 255
159 198 255
159 198 255
159 198 255
159 198 255
159 198 255
159 198 255
159 198 255
160 198 255
160 198 255
160 198 255
160 198 255
160 198 255
160 198 255
160 198 255
160 198 255
160 198 255
160 198 255
161 199 255
161 199 255
161 199 255
161 199 255
161 199 255
161 199 255
161 199 255
161 199 255
161 199 255
161 199 255
161 199 255
162 199 255
162 199 255
162 199 255
162 199 255
162 199 255
162 199 255
162 199 255
162 199 255
162 200 255
162 200 255
162 200 255
163 200 255
163 200 255
163 200 255
163 200 255
163 200 255
163 200 255
163 200 255
163 200 255
163 200 255
163 200 255
164 200 255
164 200 255
164 200 255
164 201 255
164 201 255
164 201 255
164 201 255
164 201 255
164 201 255
165 201 255
165 201 255
165 201 255
165 201 255
165 201 255
165 201 255
165 201 255
165 201 255
165 201 255
165 201 255
166 202 255
166 202 255
166 202 255
166 202 255
166 202 255
166 202 255
166 202 255
166 202 255
166 202 255
166 202 255
166 202 255
167 202 255
167 202 255
167 202 255
167 202 255
167 202 255
167 202 255
167 202 255
167 202 255
167 203 255
167 203 255
167 203 255
168 203 255
168 203 255
168 203 255
168 203 255
168 203 255
168 203 255
168 203 255
168 203 255
168 203 255
168 203 255
168 203 255
168 203 255
169 203 255
169 203 255
169 203 255
169 204 255
169 204 255
169 204 255
169 204 255
169 204 255
169 204 255
169 204 255
169 204 255
170 204 255
170 204 255
170 204 255
170 204 255
170 204 255
170 204 255
170 204 255
170 204 255
170 204 255
170 204 255
170 204 255
170 204 255
170 204 255
170 204 255
171 205 255
171 205 255
171 205 255
171 205 255
171 205 255
171 205 255
171 205 255
171 205 255
171 205 255
171 205 255
171 205 255
171 205 255
171 205 255
172 205 255
172 205 255
172 205 255
172 205 255
172 205 255
172 205 255
172 205 255
172 205 255
172 205 255
172 206 255
172 206 255
172 206 255
172 205 255
172 205 255
172 205 255
172 205 255
172 205 255
172 205 255
172 205 255
172 205 255
172 205 255
171 205 255
171 205 255
171 205 255
171 205 255
171 205 255
171 205 255
171 205 255
171 205 255
171 205 255
171 205 255
171 205 255
171 205 255
171 205 255
171 205 255
170 204 255
170 204 255
170 204 255
170 204 255
170 204 255
170 204 255
170 204 255
170 204 255
170 204 255
170 204 255
170 204 255
170 204 255
170 204 255
169 204 255
169 204 255
169 204 255
169 204 255
169 204 255
169 204 255
169 204 255
169 204 255
169 203 255
169 203 255
169 203 255
168 203 255
168 203 255
168 203 255
168 203 255
168 203 255
168 203 255
168 203 255
168 203 255
168 203 255
168 203 255
168 203 255
168 203 255
167 203 255
167 203 255
167 203 255
167 203 255
167 202 255
167 202 255
167 202 255
167 202 255
167 202 255
167 202 255
167 202 255
166 202 255
166 202 255
166 202 255
166 202 255
166 202 255
166 202 255
166 202 255
166 202 255
166 202 255
166 202 255
166 202 255
165 201 255
165 201 255
165 201 255
165 201 255
165 201 255
165 201 255
165 201 255
165 201 255
165 201 255
164 201 255
164 201 255
164 201 255
164 201 255
164 201 255
164 201 255
164 201 255
164 201 255
164 200 255
164 200 255
164 200 255
163 200 255
163 200 255
163 200 255
163 200 255
163 200 255
163 200 255
163 200 255
163 200 255
163 200 255
163 200 255
162 200 255
162 200 255
162 200 255
162 199 255
162 199 255
162 199 255
162 199 255
162 199 255
162 199 255
162 199 255
161 199 255
161 199 255
161 199 255
161 199 255
161 199 255
161 199 255
161 199 255
161 199 255
161 199 255
161 199 255
161 199 255
160 198 255
160 198 255
160 198 255
160 198 255
160 198 255
160 198 255
160 198 255
160 198 255
160 198 255
160 198 255
160 198 255
159 198 255
159 198 255
159 198 255
159 198 255
159 198 255
159 198 255
159 198 255
159 198 255
159 197 255
159 197 255
159 197 255
159 197 255
159 197 255
158 197 255
158 197 255
158 197 255
158 197 255
158 197 255
158 197 255
158 197 255
158 197 255
158 197 255
158 197 255
158 197 255
158 197 255
158 197 255
158 197 255
158 197 255
158 197 255
157 197 255
158 197 255
158 197 255
157 197 255
157 197 255
157 197 255
157 197 255
157 197 255
157 197 255
157 197 255
157 197 255
157 197 255
157 196 255
157 196 255
157 196 255
157 196 255
157 196 255
157 196 255
157 196 255
157 196 255
157 196 255
157 196 255
157 196 255
157 196 255
157 196 255
157 196 255
157 196 255
157 196 255
157 196 255
157 196 255
157 196 255
157 196 255
157 196 255
157 196 255
157 196 255
157 196 255
157 196 255
157 196 255
157 197 255
157 197 255
157 197 255
157 197 255
157 197 255
157 197 255
157 197 255
157 197 255
157 197 255
157 197 255
158 197 255
158 197 255
158 197 255
158 197 255
158 197 255
158 197 255
158 197 255
158 197 255
158 197 255
158 197 255
158 197 255
158 197 255
158 197 255
158 197 255
158 197 255
158 197 255
158 197 255
159 197 255
159 197 255
159 197 255
159 197 255
159 197 255
159 198 255
159 198 255
159 198 255
159 198 255
159 198 255
159 198 255
159 198 255
159 198 255
159 198 255
160 198 255
160 198 255
160 198 255
160 198 255
160 198 255
160 198 255
160 198 255
160 198 255
160 198 255
160 198 255
160 198 255
161 199 255
161 199 255
161 199 255
161 199 255
161 199 255
161 199 255
161 199 255
161 199 255
161 199 255
161 199 255
161 199 255
162 199 255
162 199 255
162 199 255
162 199 255
162 199 255
162 199 255
162 199 255
162 200 255
162 200 255
162 200 255
163 200 255
163 200 255
163 200 255
163 200 255
163 200 255
163 200 255
163 200 255
163 200 255
163 200 255
163 200 255
164 200 255
164 200 255
164 200 255
164 201 255
164 201 255
164 201 255
164 201 255
164 201 255
164 201 255
164 201 255
164 201 255
165 201 255
165 201 255
165 201 255
165 201 255
165 201 255
165 201 255
165 201 255
165 201 255
165 201 255
166 202 255
166 202 255
166 202 255
166 202 255
166 202 255
166 202 255
166 202 255
166 202 255
166 202 255
166 202 255
166 202 255
167 202 255
167 202 255
167 202 255
167 202 255
167 202 255
167 202 255
167 202 255
167 203 255
167 203 255
167 203 255
167 203 255
168 203 255
168 203 255
168 203 255
168 203 255
168 203 255
168 203 255
168 203 255
168 203 255
168 203 255
168 203 255
168 203 255
168 203 255
169 203 255
169 203 255
169 203 255
169 204 255
169 204 255
169 204 255
169 204 255
169 204 255
169 204 255
169 204 255
169 204 255
170 204 255
170 204 255
170 204 255
170 204 255
170 204 255
170 204 255
170 204 255
170 204 255
170 204 255
170 204 255
170 204 255
170 204 255
170 204 255
171 205 255
171 205 255
171 205 255
171 205 255
171 205 255
171 205 255
171 205 255
171 205 255
171 205 255
171 205 255
171 205 255
171 205 255
171 205 255
172 205 255
172 205 255
172 205 255
172 205 255
172 205 255
172 205 255
172 205 255
172 205 255
172 205 255
172 205 255
172 206 255
172 206 255
172 206 255
173 206 255
173 206 255
172 206 255
172 206 255
172 206 255
172 206 255
172 206 255
172 205 255
172 205 255
172 205 255
172 205 255
172 205 255
172 205 255
172 205 255
172 205 255
171 205 255
171 205 255
171 205 255
171 205 255
171 205 255
171 205 255
171 205 255
171 205 255
171 205 255
171 205 255
171 205 255
171 205 255
171 205 255
171 205 255
170 204 255
170 204 255
170 204 255
170 204 255
170 204 255
170 204 255
170 204 255
170 204 255
170 204 255
170 204 255
170 204 255
170 204 255
170 204 255
170 204 255
169 204 255
169 204 255
169 204 255
169 204 255
169 204 255
169 204 255
169 204 255
169 203 255
169 203 255
169 203 255
169 203 255
168 203 255
168 203 255
168 203 255
168 203 255
168 203 255
168 203 255
168 203 255
168 203 255
168 203 255
168 203 255
168 203 255
167 203 255
167 203 255
167 203 255
167 203 255
167 202 255
167 202 255
167 202 255
167 202 255
167 202 255
167 202 255
167 202 255
166 202 255
166 202 255
166 202 255
166 202 255
166 202 255
166 202 255
166 202 255
166 202 255
166 202 255
166 202 255
166 202 255
165 201 255
165 201 255
165 201 255
165 201 255
165 201 255
165 201 255
165 201 255
165 201 255
165 201 255
165 201 255
164 201 255
164 201 255
164 201 255
164 201 255
164 201 255
164 201 255
164 201 255
164 200 255
164 200 255
164 200 255
163 200 255
163 200 255
163 200 255
163 200 255
163 200 255
163 200 255
163 200 255
163 200 255
163 200 255
163 200 255
162 200 255
162 200 255
162 200 255
162 200 255
162 199 255
162 199 255
162 199 255
162 199 255
162 199 255
162 199 255
161 199 255
161 199 255
161 199 255
161 199 255
161 199 255
161 199 255
161 199 255
161 199 255
161 199 255
161 199 255
161 199 255
161 199 255
160 198 255
160 198 255
160 198 255
160 198 255
160 198 255
160 198 255
160 198 255
160 198 255
160 198 255
160 198 255
160 198 255
160 198 255
159 198 255
159 198 255
159 198 255
159 198 255
159 198 255
159 198 255
159 198 255
159 198 255
159 197 255
159 197 255
159 197 255
159 197 255
159 197 255
159 197 255
158 197 255
158 197 255
158 197 255
158 197 255
158 197 255
158 197 255
158 197 255
158 197 255
158 197 255
158 197 255
158 197 255
158 197 255
158 197 255
158 197 255
158 197 255
158 197 255
158 197 255
158 197 255
158 197 255
158 197 255
158 197 255
158 197 255
157 197 255
157 197 255
157 197 255
157 197 255
157 197 255
157 197 255
157 197 255
157 197 255
157 197 255
157 197 255
157 197 255
157 197 255
157 197 255
157 197 255
157 197 255
157 197 255
157 197 255
157 197 255
157 197 255
157 197 255
157 197 255
157 197 255
157 197 255
157 197 255
157 197 255
157 197 255
157 197 255
158 197 255
158 197 255
158 197 255
158 197 255
158 197 255
158 197 255
158 197 255
158 197 255
158 197 255
158 197 255
158 197 255
158 197 255
158 197 255
158 197 255
158 197 255
158 197 255
158 197 255
158 197 255
158 197 255
158 197 255
158 197 255
159 197 255
159 197 255
159 197 255
159 197 255
159 197 255
159 197 255
159 198 255
159 198 255
159 198 255
159 198 255
159 198 255
159 198 255
159 198 255
159 198 255
159 198 255
160 198 255
160 198 255
160 198 255
160 198 255
160 198 255
160 198 255
160 198 255
160 198 255
160 198 255
160 198 255
160 198 255
161 199 255
161 199 255
161 199 255
161 199 255
161 199 255
161 199 255
161 199 255
161 199 255
161 199 255
161 199 255
161 199 255
161 199 255
162 199 255
162 199 255
162 199 255
162 199 255
162 199 255
162 199 255
162 200 255
162 200 255
162 200 255
162 200 255
163 200 255
163 200 255
163 200 255
163 200 255
163 200 255
163 200 255
163 200 255
163 200 255
163 200 255
163 200 255
164 200 255
164 200 255
164 200 255
164 201 255
164 201 255
164 201 255
164 201 255
164 201 255
164 201 255
164 201 255
165 201 255
165 201 255
165 201 255
165 201 255
165 201 255
165 201 255
165 201 255
165 201 255
165 201 255
165 201 255
165 201 255
166 202 255
166 202 255
166 202 255
166 202 255
166 202 255
166 202 255
166 202 255
166 202 255
166 202 255
166 202 255
167 202 255
167 202 255
167 202 255
167 202 255
167 202 255
167 202 255
167 202 255
167 203 255
167 203 255
167 203 255
167 203 255
168 203 255
168 203 255
168 203 255
168 203 255
168 203 255
168 203 255
168 203 255
168 203 255
168 203 255
168 203 255
168 203 255
169 203 255
169 203 255
169 203 255
169 203 255
169 204 255
169 204 255
169 204 255
169 204 255
169 204 255
169 204 255
169 204 255
169 204 255
170 204 255
170 204 255
170 204 255
170 204 255
170 204 255
170 204 255
170 204 255
170 204 255
170 204 255
170 204 255
170 204 255
170 204 255
170 204 255
171 205 255
171 205 255
171 205 255
171 205 255
171 205 255
171 205 255
171 205 255
171 205 255
171 205 255
171 205 255
171 205 255
171 205 255
171 205 255
171 205 255
172 205 255
172 205 255
172 205 255
172 205 255
172 205 255
172 205 255
172 205 255
172 205 255
172 205 255
172 206 255
172 206 255
172 206 255
172 206 255
172 206 255
173 206 255
173 206 255
173 206 255
173 206 255
173 206 255
173 206 255
172 206 255
172 206 255
172 206 255
172 206 255
172 206 255
172 205 255
172 205 255
172 205 255
172 205 255
172 205 255
172 205 255
172 205 255
172 205 255
172 205 255
172 205 255
171 205 255
171 205 255
171 205 255
171 205 255
171 205 255
171 205 255
171 205 255
171 205 255
171 205 255
171 205 255
171 205 255
171 205 255
171 205 255
170 204 255
170 204 255
170 204 255
170 204 255
170 204 255
170 204 255
170 204 255
170 204 255
170 204 255
170 204 255
170 204 255
170 204 255
169 204 255
169 204 255
169 204 255
169 204 255
169 204 255
169 204 255
169 204 255
169 204 255
169 203 255
169 203 255
169 203 255
169 203 255
169 203 255
168 203 255
168 203 255
168 203 255
168 203 255
168 203 255
168 203 255
168 203 255
168 203 255
168 203 255
168 203 255
168 203 255
167 203 255
167 203 255
167 203 255
167 203 255
167 202 255
167 202 255
167 202 255
167 202 255
167 202 255
167 202 255
166 202 255
166 202 255
166 202 255
166 202 255
166 202 255
166 202 255
166 202 255
166 202 255
166 202 255
166 202 255
166 202 255
165 201 255
165 201 255
165 201 255
165 201 255
165 201 255
165 201 255
165 201 255
165 201 255
165 201 255
165 201 255
164 201 255
164 201 255
164 201 255
164 201 255
164 201 255
164 201 255
164 201 255
164 201 255
164 200 255
164 200 255
163 200 255
163 200 255
163 200 255
163 200 255
163 200 255
163 200 255
163 200 255
163 200 255
163 200 255
163 200 255
163 200 255
162 200 255
162 200 255
162 200 255
162 199 255
162 199 255
162 199 255
162 199 255
162 199 255
162 199 255
162 199 255
161 199 255
161 199 255
161 199 255
161 199 255
161 199 255
161 199 255
161 199 255
161 199 255
161 199 255
161 199 255
161 199 255
161 199 255
160 198 255
160 198 255
160 198 255
160 198 255
160 198 255
160 198 255
160 198 255
160 198 255
160 198 255
160 198 255
160 198 255
160 198 255
159 198 255
159 198 255
159 198 255
159 198 255
159 198 255
159 198 255
159 198 255
159 198 255
159 198 255
159 198 255
159 197 255
159 197 255
159 197 255
159 197 255
159 197 255
158 197 255
158 197 255
158 197 255
158 197 255
158 197 255
158 197 255
158 197 255
158 197 255
158 197 255
158 197 255
158 197 255
158 197 255
158 197 255
158 197 255
158 197 255
158 197 255
158 197 255
158 197 255
158 197 255
158 197 255
158 197 255
158 197 255
158 197 255
158 197 255
158 197 255
158 197 255
158 197 255
158 197 255
158 197 255
158 197 255
158 197 255
158 197 255
158 197 255
158 197 255
158 197 255
158 197 255
158 197 255
158 197 255
158 197 255
158 197 255
158 197 255
158 197 255
158 197 255
158 197 255
158 197 255
158 197 255
158 197 255
158 197 255
158 197 255
158 197 255
158 197 255
158 197 255
158 197 255
158 197 255
158 197 255
158 197 255
158 197 255
158 197 255
158 197 255
158 197 255
159 197 255
159 197 255
159 197 255
159 197 255
159 197 255
159 198 255
159 198 255
159 198 255
159 198 255
159 198 255
159 198 255
159 198 255
159 198 255
159 198 255
159 198 255
160 198 255
160 198 255
160 198 255
160 198 255
160 198 255
160 198 255
160 198 255
160 198 255
160 198 255
160 198 255
160 198 255
160 198 255
161 199 255
161 199 255
161 199 255
161 199 255
161 199 255
161 199 255
161 199 255
161 199 255
161 199 255
161 199 255
161 199 255
161 199 255
162 199 255
162 199 255
162 199 255
162 199 255
162 199 255
162 199 255
162 199 255
162 200 255
162 200 255
162 200 255
162 200 255
163 200 255
163 200 255
163 200 255
163 200 255
163 200 255
163 200 255
163 200 255
163 200 255
163 200 255
163 200 255
164 200 255
164 200 255
164 200 255
164 201 255
164 201 255
164 201 255
164 201 255
164 201 255
164 201 255
164 201 255
165 201 255
165 201 255
165 201 255
165 201 255
165 201 255
165 201 255
165 201 255
165 201 255
165 201 255
165 201 255
166 202 255
166 202 255
166 202 255
166 202 255
166 202 255
166 202 255
166 202 255
166 202 255
166 202 255
166 202 255
166 202 255
167 202 255
167 202 255
167 202 255
167 202 255
167 202 255
167 202 255
167 202 255
167 203 255
167 203 255
167 203 255
168 203 255
168 203 255
168 203 255
168 203 255
168 203 255
168 203 255
168 203 255
168 203 255
168 203 255
168 203 255
168 203 255
168 203 255
169 203 255
169 203 255
169 203 255
169 204 255
169 204 255
169 204 255
169 204 255
169 204 255
169 204 255
169 204 255
169 204 255
169 204 255
170 204 255
170 204 255
170 204 255
170 204 255
170 204 255
170 204 255
170 204 255
170 204 255
170 204 255
170 204 255
170 204 255
170 204 255
171 205 255
171 205 255
171 205 255
171 205 255
171 205 255
171 205 255
171 205 255
171 205 255
171 205 255
171 205 255
171 205 255
171 205 255
171 205 255
171 205 255
172 205 255
172 205 255
172 205 255
172 205 255
172 205 255
172 205 255
172 205 255
172 205 255
172 205 255
172 206 255
172 206 255
172 206 255
172 206 255
172 206 255
173 206 255
173 206 255
173 206 255
173 206 255
173 206 255
173 206 255
173 206 255
173 206 255
173 206 255
173 206 255
173 206 255
173 206 255
173 206 255
172 206 255
172 206 255
172 206 255
172 206 255
172 206 255
172 206 255
172 205 255
172 205 255
172 205 255
172 205 255
172 205 255
172 205 255
172 205 255
172 205 255
172 205 255
171 205 255
171 205 255
171 205 255
171 205 255
171 205 255
171 205 255
171 205 255
171 205 255
171 205 255
171 205 255
171 205 255
171 205 255
171 205 255
170 204 255
170 204 255
170 204 255
170 204 255
170 204 255
170 204 255
170 204 255
170 204 255
170 204 255
170 204 255
170 204 255
170 204 255
170 204 255
169 204 255
169 204 255
169 204 255
169 204 255
169 204 255
169 204 255
169 204 255
169 203 255
169 203 255
169 203 255
169 203 255
169 203 255
168 203 255
168 203 255
168 203 255
168 203 255
168 203 255
168 203 255
168 203 255
168 203 255
168 203 255
168 203 255
168 203 255
167 203 255
167 203 255
167 203 255
167 202 255
167 202 255
167 202 255
167 202 255
167 202 255
167 202 255
167 202 255
167 202 255
166 202 255
166 202 255
166 202 255
166 202 255
166 202 255
166 202 255
166 202 255
166 202 255
166 202 255
166 202 255
165 201 255
165 201 255
165 201 255
165 201 255
165 201 255
165 201 255
165 201 255
165 201 255
165 201 255
165 201 255
165 201 255
164 201 255
164 201 255
164 201 255
164 201 255
164 201 255
164 201 255
164 201 255
164 200 255
164 200 255
163 200 255
163 200 255
163 200 255
163 200 255
163 200 255
163 200 255
163 200 255
163 200 255
163 200 255
163 200 255
163 200 255
162 200 255
162 200 255
162 200 255
162 199 255
162 199 255
162 199 255
162 199 255
162 199 255
162 199 255
162 199 255
162 199 255
161 199 255
161 199 255
161 199 255
161 199 255
161 199 255
161 199 255
161 199 255
161 199 255
161 199 255
161 199 255
161 199 255
161 199 255
160 198 255
160 198 255
160 198 255
160 198 255
160 198 255
160 198 255
160 198 255
160 198 255
160 198 255
160 198 255
160 198 255
160 198 255
160 198 255
159 198 255
159 198 255
159 198 255
159 198 255
159 198 255
159 198 255
159 198 255
159 198 255
159 198 255
159 198 255
159 198 255
159 197 255
159 197 255
159 197 255
159 197 255
159 197 255
159 197 255
159 197 255
158 197 255
158 197 255
158 197 255
158 197 255
158 197 255
158 197 255
158 197 255
158 197 255
158 197 255
158 197 255
158 197 255
158 197 255
158 197 255
158 197 255
158 197 255
158 197 255
158 197 255
158 197 255
158 197 255
158 197 255
158 197 255
158 197 255
158 197 255
158 197 255
158 197 255
158 197 255
158 197 255
158 197 255
158 197 255
158 197 255
158 197 255
158 197 255
158 197 255
158 197 255
158 197 255
158 197 255
158 197 255
158 197 255
158 197 255
158 197 255
158 197 255
158 197 255
158 197 255
159 197 255
159 197 255
159 197 255
159 197 255
159 197 255
159 197 255
159 197 255
159 197 255
159 197 255
159 198 255
159 198 255
159 198 255
159 198 255
159 198 255
159 198 255
159 198 255
159 198 255
159 198 255
159 198 255
160 198 255
160 198 255
160 198 255
160 198 255
160 198 255
160 198 255
160 198 255
160 198 255
160 198 255
160 198 255
160 198 255
160 198 255
160 198 255
161 199 255
161 199 255
161 199 255
161 199 255
161 199 255
161 199 255
161 199 255
161 199 255
161 199 255
161 199 255
161 199 255
161 199 255
162 199 255
162 199 255
162 199 255
162 199 255
162 199 255
162 199 255
162 199 255
162 199 255
162 200 255
162 200 255
162 200 255
163 200 255
163 200 255
163 200 255
163 200 255
163 200 255
163 200 255
163 200 255
163 200 255
163 200 255
163 200 255
163 200 255
164 200 255
164 200 255
164 200 255
164 201 255
164 201 255
164 201 255
164 201 255
164 201 255
164 201 255
165 201 255
165 201 255
165 201 255
165 201 255
165 201 255
165 201 255
165 201 255
165 201 255
165 201 255
165 201 255
165 201 255
166 202 255
166 202 255
166 202 255
166 202 255
166 202 255
166 202 255
166 202 255
166 202 255
166 202 255
166 202 255
167 202 255
167 202 255
167 202 255
167 202 255
167 202 255
167 202 255
167 202 255
167 202 255
167 203 255
167 203 255
167 203 255
168 203 255
168 203 255
168 203 255
168 203 255
168 203 255
168 203 255
168 203 255
168 203 255
168 203 255
168 203 255
168 203 255
169 203 255
169 203 255
169 203 255
169 203 255
169 204 255
169 204 255
169 204 255
169 204 255
169 204 255
169 204 255
169 204 255
169 204 255
170 204 255
170 204 255
170 204 255
170 204 255
170 204 255
170 204 255
170 204 255
170 204 255
170 204 255
170 204 255
170 204 255
170 204 255
170 204 255
171 205 255
171 205 255
171 205 255
171 205 255
171 205 255
171 205 255
171 205 255
171 205 255
171 205 255
171 205 255
171 205 255
171 205 255
171 205 255
172 205 255
172 205 255
172 205 255
172 205 255
172 205 255
172 205 255
172 205 255
172 205 255
172 205 255
172 206 255
172 206 255
172 206 255
172 206 255
172 206 255
173 206 255
173 206 255
173 206 255
173 206 255
173 206 255
173 206 255
173 206 255
173 206 255
173 206 255
173 206 255
173 206 255
173 206 255
173 206 255
173 206 255
173 206 255
173 206 255
173 206 255
173 206 255
173 206 255
173 206 255
173 206 255
173 206 255
172 206 255
172 206 255
172 206 255
172 206 255
172 205 255
172 205 255
172 205 255
172 205 255
172 205 255
172 205 255
172 205 255
172 205 255
172 205 255
171 205 255
171 205 255
171 205 255
171 205 255
171 205 255
171 205 255
171 205 255
171 205 255
171 205 255
171 205 255
171 205 255
171 205 255
171 205 255
171 205 255
170 204 255
170 204 255
170 204 255
170 204 255
170 204 255
170 204 255
170 204 255
170 204 255
170 204 255
170 204 255
170 204 255
170 204 255
169 204 255
169 204 255
169 204 255
169 204 255
169 204 255
169 204 255
169 204 255
169 204 255
169 203 255
169 203 255
169 203 255
169 203 255
168 203 255
168 203 255
168 203 255
168 203 255
168 203 255
168 203 255
168 203 255
168 203 255
168 203 255
168 203 255
168 203 255
167 203 255
167 203 255
167 203 255
167 202 255
167 202 255
167 202 255
167 202 255
167 202 255
167 202 255
167 202 255
167 202 255
166 202 255
166 202 255
166 202 255
166 202 255
166 202 255
166 202 255
166 202 255
166 202 255
166 202 255
166 202 255
166 202 255
165 201 255
165 201 255
165 201 255
165 201 255
165 201 255
165 201 255
165 201 255
165 201 255
165 201 255
165 201 255
164 201 255
164 201 255
164 201 255
164 201 255
164 201 255
164 201 255
164 201 255
164 200 255
164 200 255
164 200 255
163 200 255
163 200 255
163 200 255
163 200 255
163 200 255
163 200 255
163 200 255
163 200 255
163 200 255
163 200 255
163 200 255
162 200 255
162 200 255
162 200 255
162 199 255
162 199 255
162 199 255
162 199 255
162 199 255
162 199 255
162 199 255
162 199 255
161 199 255
161 199 255
161 199 255
161 199 255
161 199 255
161 199 255
161 199 255
161 199 255
161 199 255
161 199 255
161 199 255
161 199 255
160 198 255
160 198 255
160 198 255
160 198 255
160 198 255
160 198 255
160 198 255
160 198 255
160 198 255
160 198 255
160 198 255
160 198 255
160 198 255
160 198 255
160 198 255
159 198 255
159 198 255
159 198 255
159 198 255
159 198 255
159 198 255
159 198 255
159 198 255
159 198 255
159 198 255
159 198 255
159 198 255
159 198 255
159 197 255
159 197 255
159 197 255
159 197 255
159 197 255
159 197 255
159 197 255
159 197 255
159 197 255
158 197 255
158 197 255
159 197 255
158 197 255
158 197 255
158 197 255
158 197 255
158 197 255
158 197 255
158 197 255
158 197 255
158 197 255
158 197 255
158 197 255
158 197 255
158 197 255
158 197 255
158 197 255
158 197 255
158 197 255
158 197 255
158 197 255
159 197 255
158 197 255
159 197 255
159 197 255
159 197 255
159 197 255
159 197 255
159 197 255
159 197 255
159 197 255
159 197 255
159 197 255
159 198 255
159 198 255
159 198 255
159 198 255
159 198 255
159 198 255
159 198 255
159 198 255
159 198 255
159 198 255
159 198 255
159 198 255
160 198 255
159 198 255
160 198 255
160 198 255
160 198 255
160 198 255
160 198 255
160 198 255
160 198 255
160 198 255
160 198 255
160 198 255
160 198 255
160 198 255
160 198 255
161 199 255
161 199 255
161 199 255
161 199 255
161 199 255
161 199 255
161 199 255
161 199 255
161 199 255
161 199 255
161 199 255
161 199 255
162 199 255
162 199 255
162 199 255
162 199 255
162 199 255
162 199 255
162 199 255
162 199 255
162 200 255
162 200 255
162 200 255
162 200 255
163 200 255
163 200 255
163 200 255
163 200 255
163 200 255
163 200 255
163 200 255
163 200 255
163 200 255
163 200 255
164 200 255
164 200 255
164 200 255
164 200 255
164 201 255
164 201 255
164 201 255
164 201 255
164 201 255
164 201 255
165 201 255
165 201 255
165 201 255
165 201 255
165 201 255
165 201 255
165 201 255
165 201 255
165 201 255
165 201 255
165 201 255
166 202 255
166 202 255
166 202 255
166 202 255
166 202 255
166 202 255
166 202 255
166 202 255
166 202 255
166 202 255
167 202 255
167 202 255
167 202 255
167 202 255
167 202 255
167 202 255
167 202 255
167 203 255
167 203 255
167 203 255
167 203 255
168 203 255
168 203 255
168 203 255
168 203 255
168 203 255
168 203 255
168 203 255
168 203 255
168 203 255
168 203 255
168 203 255
169 203 255
169 203 255
169 203 255
169 203 255
169 204 255
169 204 255
169 204 255
169 204 255
169 204 255
169 204 255
169 204 255
170 204 255
170 204 255
170 204 255
170 204 255
170 204 255
170 204 255
170 204 255
170 204 255
170 204 255
170 204 255
170 204 255
170 204 255
170 204 255
171 205 255
171 205 255
171 205 255
171 205 255
171 205 255
171 205 255
171 205 255
171 205 255
171 205 255
171 205 255
171 205 255
171 205 255
171 205 255
172 205 255
172 205 255
172 205 255
172 205 255
172 205 255
172 205 255
172 205 255
172 205 255
172 205 255
172 206 255
172 206 255
172 206 255
172 206 255
172 206 255
173 206 255
173 206 255
173 206 255
173 206 255
173 206 255
173 206 255
173 206 255
173 206 255
173 206 255
173 206 255
173 206 255
173 206 255
173 206 255
174 206 255
173 206 255
173 206 255
173 206 255
173 206 255
173 206 255
173 206 255
173 206 255
173 206 255
173 206 255
173 206 255
173 206 255
173 206 255
173 206 255
173 206 255
173 206 255
172 206 255
172 206 255
172 206 255
172 206 255
172 206 255
172 205 255
172 205 255
172 205 255
172 205 255
172 205 255
172 205 255
172 205 255
172 205 255
172 205 255
171 205 255
171 205 255
171 205 255
171 205 255
171 205 255
171 205 255
171 205 255
171 205 255
171 205 255
171 205 255
171 205 255
171 205 255
171 205 255
171 205 255
170 204 255
170 204 255
170 204 255
170 204 255
170 204 255
170 204 255
170 204 255
170 204 255
170 204 255
170 204 255
170 204 255
170 204 255
169 204 255
169 204 255
169 204 255
169 204 255
169 204 255
169 204 255
169 204 255
169 204 255
169 203 255
169 203 255
169 203 255
168 203 255
168 203 255
168 203 255
168 203 255
168 203 255
168 203 255
168 203 255
168 203 255
168 203 255
168 203 255
168 203 255
167 203 255
167 203 255
167 203 255
167 203 255
167 202 255
167 202 255
167 202 255
167 202 255
167 202 255
167 202 255
167 202 255
166 202 255
166 202 255
166 202 255
166 202 255
166 202 255
166 202 255
166 202 255
166 202 255
166 202 255
166 202 255
166 202 255
165 201 255
165 201 255
165 201 255
165 201 255
165 201 255
165 201 255
165 201 255
165 201 255
165 201 255
165 201 255
164 201 255
164 201 255
164 201 255
164 201 255
164 201 255
164 201 255
164 201 255
164 200 255
164 200 255
164 200 255
163 200 255
163 200 255
163 200 255
163 200 255
163 200 255
163 200 255
163 200 255
163 200 255
163 200 255
163 200 255
163 200 255
163 200 255
162 200 255
162 200 255
162 200 255
162 199 255
162 199 255
162 199 255
162 199 255
162 199 255
162 199 255
162 199 255
162 199 255
161 199 255
161 199 255
161 199 255
161 199 255
161 199 255
161 199 255
161 199 255
161 199 255
161 199 255
161 199 255
161 199 255
160 198 255
160 198 255
160 198 255
160 198 255
160 198 255
160 198 255
160 198 255
160 198 255
160 198 255
160 198 255
160 198 255
160 198 255
160 198 255
160 198 255
160 198 255
160 198 255
160 198 255
160 198 255
159 198 255
159 198 255
159 198 255
159 198 255
159 198 255
159 198 255
159 198 255
159 198 255
159 198 255
159 198 255
159 198 255
159 198 255
159 198 255
159 198 255
159 198 255
159 198 255
159 198 255
159 198 255
159 198 255
159 198 255
159 197 255
159 198 255
159 197 255
159 197 255
159 197 255
159 197 255
159 197 255
159 197 255
159 197 255
159 197 255
159 197 255
159 197 255
159 197 255
159 197 255
159 197 255
159 198 255
159 198 255
159 198 255
159 197 255
159 198 255
159 198 255
159 198 255
159 198 255
159 198 255
159 198 255
159 198 255
159 198 255
159 198 255
159 198 255
159 198 255
159 198 255
159 198 255
159 198 255
159 198 255
159 198 255
159 198 255
160 198 255
160 198 255
160 198 255
160 198 255
160 198 255
160 198 255
160 198 255
160 198 255
160 198 255
160 198 255
160 198 255
160 198 255
160 198 255
160 198 255
160 198 255
160 198 255
161 199 255
161 199 255
161 199 255
161 199 255
161 199 255
161 199 255
161 199 255
161 199 255
161 199 255
161 199 255
161 199 255
161 199 255
161 199 255
161 199 255
162 199 255
162 199 255
162 199 255
162 199 255
162 199 255
162 199 255
162 199 255
162 200 255
162 200 255
162 200 255
162 200 255
163 200 255
163 200 255
163 200 255
163 200 255
163 200 255
163 200 255
163 200 255
163 200 255
163 200 255
163 200 255
163 200 255
164 200 255
164 200 255
164 200 255
164 201 255
164 201 255
164 201 255
164 201 255
164 201 255
164 201 255
164 201 255
165 201 255
165 201 255
165 201 255
165 201 255
165 201 255
165 201 255
165 201 255
165 201 255
165 201 255
165 201 255
166 202 255
166 202 255
166 202 255
166 202 255
166 202 255
166 202 255
166 202 255
166 202 255
166 202 255
166 202 255
167 202 255
167 202 255
167 202 255
167 202 255
167 202 255
167 202 255
167 202 255
167 202 255
167 203 255
167 203 255
167 203 255
168 203 255
168 203 255
168 203 255
168 203 255
168 203 255
168 203 255
168 203 255
168 203 255
168 203 255
168 203 255
168 203 255
168 203 255
169 203 255
169 203 255
169 203 255
169 203 255
169 204 255
169 204 255
169 204 255
169 204 255
169 204 255
169 204 255
169 204 255
170 204 255
170 204 255
170 204 255
170 204 255
170 204 255
170 204 255
170 204 255
170 204 255
170 204 255
170 204 255
170 204 255
170 204 255
170 204 255
171 205 255
171 205 255
171 205 255
171 205 255
171 205 255
171 205 255
171 205 255
171 205 255
171 205 255
171 205 255
171 205 255
171 205 255
171 205 255
172 205 255
172 205 255
172 205 255
172 205 255
172 205 255
172 205 255
172 205 255
172 205 255
172 205 255
172 206 255
172 206 255
172 206 255
172 206 255
172 206 255
173 206 255
173 206 255
173 206 255
173 206 255
173 206 255
173 206 255
173 206 255
173 206 255
173 206 255
173 206 255
173 206 255
173 206 255
173 206 255
173 206 255
173 206 255
174 206 255
174 206 255
174 206 255
174 206 255
174 206 255
174 206 255
173 206 255
173 206 255
173 206 255
173 206 255
173 206 255
173 206 255
173 206 255
173 206 255
173 206 255
173 206 255
173 206 255
173 206 255
173 206 255
173 206 255
173 206 255
172 206 255
172 206 255
172 206 255
172 206 255
172 205 255
172 205 255
172 205 255
172 205 255
172 205 255
172 205 255
172 205 255
172 205 255
172 205 255
172 205 255
171 205 255
171 205 255
171 205 255
171 205 255
171 205 255
171 205 255
171 205 255
171 205 255
171 205 255
171 205 255
171 205 255
171 205 255
171 205 255
170 204 255
170 204 255
170 204 255
170 204 255
170 204 255
170 204 255
170 204 255
170 204 255
170 204 255
170 204 255
170 204 255
170 204 255
169 204 255
169 204 255
169 204 255
169 204 255
169 204 255
169 204 255
169 204 255
169 204 255
169 203 255
169 203 255
169 203 255
169 203 255
168 203 255
168 203 255
168 203 255
168 203 255
168 203 255
168 203 255
168 203 255
168 203 255
168 203 255
168 203 255
168 203 255
167 203 255
167 203 255
167 203 255
167 203 255
167 202 255
167 202 255
167 202 255
167 202 255
167 202 255
167 202 255
167 202 255
166 202 255
166 202 255
166 202 255
166 202 255
166 202 255
166 202 255
166 202 255
166 202 255
166 202 255
166 202 255
165 201 255
165 201 255
165 201 255
165 201 255
165 201 255
165 201 255
165 201 255
165 201 255
165 201 255
165 201 255
165 201 255
164 201 255
164 201 255
164 201 255
164 201 255
164 201 255
164 201 255
164 200 255
164 200 255
164 200 255
164 200 255
163 200 255
163 200 255
163 200 255
163 200 255
163 200 255
163 200 255
163 200 255
163 200 255
163 200 255
163 200 255
163 200 255
163 200 255
162 200 255
162 200 255
162 200 255
162 199 255
162 199 255
162 199 255
162 199 255
162 199 255
162 199 255
162 199 255
162 199 255
161 199 255
161 199 255
161 199 255
161 199 255
161 199 255
161 199 255
161 199 255
161 199 255
161 199 255
161 199 255
161 199 255
161 199 255
161 199 255
160 198 255
160 198 255
160 198 255
160 198 255
160 198 255
160 198 255
160 198 255
160 198 255
160 198 255
160 198 255
160 198 255
160 198 255
160 198 255
160 198 255
160 198 255
160 198 255
160 198 255
160 198 255
160 198 255
159 198 255
160 198 255
159 198 255
159 198 255
159 198 255
159 198 255
159 198 255
159 198 255
159 198 255
159 198 255
159 198 255
159 198 255
159 198 255
159 198 255
159 198 255
159 198 255
159 198 255
159 198 255
159 198 255
159 198 255
159 198 255
159 198 255
159 198 255
159 198 255
159 198 255
159 198 255
159 198 255
159 198 255
159 198 255
159 198 255
159 198 255
159 198 255
159 198 255
159 198 255
159 198 255
159 198 255
159 198 255
159 198 255
159 198 255
159 198 255
159 198 255
160 198 255
160 198 255
160 198 255
160 198 255
160 198 255
160 198 255
160 198 255
160 198 255
160 198 255
160 198 255
160 198 255
160 198 255
160 198 255
160 198 255
160 198 255
160 198 255
160 198 255
160 198 255
160 198 255
161 199 255
161 199 255
161 199 255
161 199 255
161 199 255
161 199 255
161 199 255
161 199 255
161 199 255
161 199 255
161 199 255
161 199 255
161 199 255
161 199 255
162 199 255
162 199 255
162 199 255
162 199 255
162 199 255
162 199 255
162 199 255
162 199 255
162 200 255
162 200 255
162 200 255
162 200 255
163 200 255
163 200 255
163 200 255
163 200 255
163 200 255
163 200 255
163 200 255
163 200 255
163 200 255
163 200 255
164 200 255
164 200 255
164 200 255
164 200 255
164 200 255
164 201 255
164 201 255
164 201 255
164 201 255
164 201 255
164 201 255
165 201 255
165 201 255
165 201 255
165 201 255
165 201 255
165 201 255
165 201 255
165 201 255
165 201 255
165 201 255
165 201 255
166 202 255
166 202 255
166 202 255
166 202 255
166 202 255
166 202 255
166 202 255
166 202 255
166 202 255
166 202 255
167 202 255
167 202 255
167 202 255
167 202 255
167 202 255
167 202 255
167 202 255
167 203 255
167 203 255
167 203 255
167 203 255
168 203 255
168 203 255
168 203 255
168 203 255
168 203 255
168 203 255
168 203 255
168 203 255
168 203 255
168 203 255
168 203 255
169 203 255
169 203 255
169 203 255
169 203 255
169 204 255
169 204 255
169 204 255
169 204 255
169 204 255
169 204 255
169 204 255
170 204 255
170 204 255
170 204 255
170 204 255
170 204 255
170 204 255
170 204 255
170 204 255
170 204 255
170 204 255
170 204 255
170 204 255
170 204 255
171 205 255
171 205 255
171 205 255
171 205 255
171 205 255
171 205 255
171 205 255
171 205 255
171 205 255
171 205 255
171 205 255
171 205 255
171 205 255
172 205 255
172 205 255
172 205 255
172 205 255
172 205 255
172 205 255
172 205 255
172 205 255
172 205 255
172 206 255
172 206 255
172 206 255
172 206 255
172 206 255
173 206 255
173 206 255
173 206 255
173 206 255
173 206 255
173 206 255
173 206 255
173 206 255
173 206 255
173 206 255
173 206 255
173 206 255
173 206 255
173 206 255
173 206 255
174 206 255
174 206 255
174 206 255
174 206 255
174 206 255
174 207 255
174 207 255
174 207 255
174 207 255
174 206 255
174 206 255
174 206 255
174 206 255
174 206 255
173 206 255
173 206 255
173 206 255
173 206 255
173 206 255
173 206 255
173 206 255
173 206 255
173 206 255
173 206 255
173 206 255
173 206 255
173 206 255
173 206 255
173 206 255
172 206 255
172 206 255
172 206 255
172 206 255
172 206 255
172 205 255
172 205 255
172 205 255
172 205 255
172 205 255
172 205 255
172 205 255
172 205 255
172 205 255
171 205 255
171 205 255
171 205 255
171 205 255
171 205 255
171 205 255
171 205 255
171 205 255
171 205 255
171 205 255
171 205 255
171 205 255
171 205 255
170 204 255
170 204 255
170 204 255
170 204 255
170 204 255
170 204 255
170 204 255
170 204 255
170 204 255
170 204 255
170 204 255
169 204 255
169 204 255
169 204 255
169 204 255
169 204 255
169 204 255
169 204 255
169 204 255
169 203 255
169 203 255
169 203 255
169 203 255
168 203 255
168 203 255
168 203 255
168 203 255
168 203 255
168 203 255
168 203 255
168 203 255
168 203 255
168 203 255
168 203 255
168 203 255
167 203 255
167 203 255
167 203 255
167 202 255
167 202 255
167 202 255
167 202 255
167 202 255
167 202 255
167 202 255
166 202 255
166 202 255
166 202 255
166 202 255
166 202 255
166 202 255
166 202 255
166 202 255
166 202 255
166 202 255
165 201 255
165 201 255
165 201 255
165 201 255
165 201 255
165 201 255
165 201 255
165 201 255
165 201 255
165 201 255
165 201 255
164 201 255
164 201 255
164 201 255
164 201 255
164 201 255
164 201 255
164 201 255
164 201 255
164 200 255
164 200 255
164 200 255
163 200 255
163 200 255
163 200 255
163 200 255
163 200 255
163 200 255
163 200 255
163 200 255
163 200 255
163 200 255
163 200 255
163 200 255
162 200 255
162 200 255
162 200 255
162 199 255
162 199 255
162 199 255
162 199 255
162 199 255
162 199 255
162 199 255
162 199 255
161 199 255
161 199 255
161 199 255
161 199 255
161 199 255
161 199 255
161 199 255
161 199 255
161 199 255
161 199 255
161 199 255
161 199 255
161 199 255
161 199 255
161 199 255
161 199 255
160 198 255
160 198 255
160 198 255
160 198 255
160 198 255
160 198 255
160 198 255
160 198 255
160 198 255
160 198 255
160 198 255
160 198 255
160 198 255
160 198 255
160 198 255
160 198 255
160 198 255
160 198 255
160 198 255
160 198 255
160 198 255
160 198 255
160 198 255
160 198 255
160 198 255
160 198 255
151 188 243
133 167 217
129 159 204
110 137 179
128 159 204
116 146 192
117 144 185
126 157 204
129 159 204
118 148 192
142 177 230
141 174 224
131 163 211
142 177 230
159 198 255
160 198 255
160 198 255
160 198 255
160 198 255
160 198 255
160 198 255
160 198 255
160 198 255
160 198 255
160 198 255
160 198 255
160 198 255
160 198 255
160 198 255
160 198 255
160 198 255
160 198 255
160 198 255
160 198 255
160 198 255
160 198 255
160 198 255
160 198 255
160 198 255
160 198 255
160 198 255
161 199 255
161 199 255
161 199 255
161 199 255
161 199 255
161 199 255
161 199 255
161 199 255
161 199 255
161 199 255
161 199 255
161 199 255
161 199 255
161 199 255
161 199 255
162 199 255
162 199 255
162 199 255
162 199 255
162 199 255
162 199 255
162 199 255
162 200 255
162 200 255
162 200 255
162 200 255
162 200 255
163 200 255
163 200 255
163 200 255
163 200 255
163 200 255
163 200 255
163 200 255
163 200 255
163 200 255
163 200 255
163 200 255
164 200 255
164 200 255
164 200 255
164 201 255
164 201 255
164 201 255
164 201 255
164 201 255
164 201 255
164 201 255
164 201 255
165 201 255
165 201 255
165 201 255
165 201 255
165 201 255
165 201 255
165 201 255
165 201 255
165 201 255
165 201 255
166 202 255
166 202 255
166 202 255
166 202 255
166 202 255
166 202 255
166 202 255
166 202 255
166 202 255
166 202 255
166 202 255
167 202 255
167 202 255
167 202 255
167 202 255
167 202 255
167 202 255
167 202 255
167 203 255
167 203 255
167 203 255
167 203 255
168 203 255
168 203 255
168 203 255
168 203 255
168 203 255
168 203 255
168 203 255
168 203 255
168 203 255
168 203 255
168 203 255
169 203 255
169 203 255
169 203 255
169 203 255
169 204 255
169 204 255
169 204 255
169 204 255
169 204 255
169 204 255
169 204 255
169 204 255
170 204 255
170 204 255
170 204 255
170 204 255
170 204 255
170 204 255
170 204 255
170 204 255
170 204 255
170 204 255
170 204 255
171 205 255
171 205 255
171 205 255
171 205 255
171 205 255
171 205 255
171 205 255
171 205 255
171 205 255
171 205 255
171 205 255
171 205 255
171 205 255
171 205 255
172 205 255
172 205 255
172 205 255
172 205 255
172 205 255
172 205 255
172 205 255
172 205 255
172 206 255
172 206 255
172 206 255
172 206 255
172 206 255
173 206 255
173 206 255
173 206 255
173 206 255
173 206 255
173 206 255
173 206 255
173 206 255
173 206 255
173 206 255
173 206 255
173 206 255
173 206 255
173 206 255
173 206 255
174 206 255
174 206 255
174 206 255
174 206 255
174 206 255
174 206 255
174 207 255
174 207 255
174 207 255
174 207 255
174 207 255
174 207 255
174 207 255
174 207 255
174 207 255
174 207 255
174 207 255
174 206 255
174 206 255
174 206 255
174 206 255
174 206 255
173 206 255
173 206 255
173 206 255
173 206 255
173 206 255
173 206 255
173 206 255
173 206 255
173 206 255
173 206 255
173 206 255
173 206 255
173 206 255
173 206 255
173 206 255
172 206 255
172 206 255
172 206 255
172 206 255
172 205 255
172 205 255
172 205 255
172 205 255
172 205 255
172 205 255
172 205 255
172 205 255
172 205 255
171 205 255
171 205 255
171 205 255
171 205 255
171 205 255
171 205 255
171 205 255
171 205 255
171 205 255
171 205 255
171 205 255
171 205 255
171 205 255
170 204 255
170 204 255
170 204 255
170 204 255
170 204 255
170 204 255
170 204 255
170 204 255
170 204 255
170 204 255
170 204 255
170 204 255
169 204 255
169 204 255
169 204 255
169 204 255
169 204 255
169 204 255
169 204 255
169 204 255
169 204 255
169 203 255
169 203 255
169 203 255
168 203 255
168 203 255
168 203 255
168 203 255
168 203 255
168 203 255
168 203 255
168 203 255
168 203 255
168 203 255
168 203 255
167 203 255
167 203 255
167 203 255
167 202 255
167 202 255
167 202 255
167 202 255
167 202 255
167 202 255
167 202 255
167 202 255
166 202 255
166 202 255
166 202 255
166 202 255
166 202 255
166 202 255
166 202 255
166 202 255
166 202 255
166 202 255
166 202 255
165 201 255
165 201 255
165 201 255
165 201 255
165 201 255
165 201 255
165 201 255
165 201 255
165 201 255
165 201 255
164 201 255
164 201 255
164 201 255
164 201 255
164 201 255
164 201 255
164 201 255
164 200 255
164 200 255
164 200 255
163 200 255
163 200 255
163 200 255
163 200 255
163 200 255
163 200 255
163 200 255
163 200 255
163 200 255
163 200 255
163 200 255
163 200 255
162 200 255
162 200 255
162 200 255
162 200 255
162 200 255
162 199 255
162 199 255
162 199 255
162 199 255
162 199 255
162 199 255
162 199 255
162 199 255
161 199 255
161 199 255
161 199 255
161 199 255
161 199 255
161 199 255
161 199 255
161 199 255
161 199 255
161 199 255
161 199 255
161 199 255
161 199 255
161 199 255
161 199 255
161 199 255
161 199 255
161 199 255
160 198 255
160 198 255
160 198 255
160 198 255
160 198 255
160 198 255
160 198 255
160 198 255
160 198 255
160 198 255
160 198 255
160 198 255
152 188 243
146 179 230
113 139 179
101 124 160
88 109 140
85 102 128
80 99 128
73 92 121
72 92 121
67 83 108
71 91 121
71 89 115
70 88 115
73 90 115
61 78 102
79 96 121
77 89 108
70 85 108
70 91 121
68 87 115
76 94 121
65 82 108
85 107 140
101 124 160
83 106 140
124 154 198
128 158 204
153 189 243
160 198 255
160 198 255
160 198 255
160 198 255
160 198 255
160 198 255
160 198 255
160 198 255
160 198 255
160 198 255
160 198 255
160 198 255
160 198 255
161 199 255
161 199 255
161 199 255
161 199 255
161 199 255
161 199 255
161 199 255
161 199 255
161 199 255
161 199 255
161 199 255
161 199 255
161 199 255
161 199 255
161 199 255
161 199 255
162 199 255
162 199 255
162 199 255
162 199 255
162 199 255
162 199 255
162 199 255
162 199 255
162 200 255
162 199 255
162 200 255
162 200 255
162 200 255
162 200 255
163 200 255
163 200 255
163 200 255
163 200 255
163 200 255
163 200 255
163 200 255
163 200 255
163 200 255
163 200 255
163 200 255
164 200 255
164 200 255
164 200 255
164 200 255
164 201 255
164 201 255
164 201 255
164 201 255
164 201 255
164 201 255
164 201 255
165 201 255
165 201 255
165 201 255
165 201 255
165 201 255
165 201 255
165 201 255
165 201 255
165 201 255
165 201 255
165 201 255
166 202 255
166 202 255
166 202 255
166 202 255
166 202 255
166 202 255
166 202 255
166 202 255
166 202 255
166 202 255
166 202 255
167 202 255
167 202 255
167 202 255
167 202 255
167 202 255
167 202 255
167 203 255
167 203 255
167 203 255
167 203 255
168 203 255
168 203 255
168 203 255
168 203 255
168 203 255
168 203 255
168 203 255
168 203 255
168 203 255
168 203 255
168 203 255
169 203 255
169 203 255
169 203 255
169 203 255
169 204 255
169 204 255
169 204 255
169 204 255
169 204 255
169 204 255
169 204 255
169 204 255
170 204 255
170 204 255
170 204 255
170 204 255
170 204 255
170 204 255
170 204 255
170 204 255
170 204 255
170 204 255
170 204 255
170 204 255
171 205 255
171 205 255
171 205 255
171 205 255
171 205 255
171 205 255
171 205 255
171 205 255
171 205 255
171 205 255
171 205 255
171 205 255
171 205 255
172 205 255
172 205 255
172 205 255
172 205 255
172 205 255
172 205 255
172 205 255
172 205 255
172 205 255
172 206 255
172 206 255
172 206 255
172 206 255
172 206 255
173 206 255
173 206 255
173 206 255
173 206 255
173 206 255
173 206 255
173 206 255
173 206 255
173 206 255
173 206 255
173 206 255
173 206 255
173 206 255
173 206 255
174 206 255
174 206 255
174 206 255
174 206 255
174 206 255
174 207 255
174 207 255
174 207 255
174 207 255
174 207 255
174 207 255
174 207 255
174 207 255
174 207 255
174 207 255
174 207 255
174 207 255
174 207 255
174 207 255
174 207 255
174 207 255
174 207 255
174 207 255
174 207 255
174 207 255
174 206 255
174 206 255
174 206 255
174 206 255
174 206 255
173 206 255
173 206 255
173 206 255
173 206 255
173 206 255
173 206 255
173 206 255
173 206 255
173 206 255
173 206 255
173 206 255
173 206 255
173 206 255
173 206 255
173 206 255
172 206 255
172 206 255
172 206 255
172 206 255
172 205 255
172 205 255
172 205 255
172 205 255
172 205 255
172 205 255
172 205 255
172 205 255
172 205 255
171 205 255
171 205 255
171 205 255
171 205 255
171 205 255
171 205 255
171 205 255
171 205 255
171 205 255
171 205 255
171 205 255
171 205 255
171 205 255
170 204 255
170 204 255
170 204 255
170 204 255
170 204 255
170 204 255
170 204 255
170 204 255
170 204 255
170 204 255
170 204 255
170 204 255
169 204 255
169 204 255
169 204 255
169 204 255
169 204 255
169 204 255
169 204 255
169 204 255
169 203 255
169 203 255
168 203 255
168 203 255
168 203 255
168 203 255
168 203 255
168 203 255
168 203 255
168 203 255
168 203 255
168 203 255
168 203 255
168 203 255
168 203 255
167 203 255
167 203 255
167 203 255
167 203 255
167 202 255
167 202 255
167 202 255
167 202 255
167 202 255
166 202 255
166 202 255
166 202 255
166 202 255
166 202 255
166 202 255
166 202 255
166 202 255
166 202 255
166 202 255
166 202 255
166 202 255
165 201 255
165 201 255
165 201 255
165 201 255
165 201 255
165 201 255
165 201 255
165 201 255
165 201 255
165 201 255
165 201 255
164 201 255
164 201 255
164 201 255
164 201 255
164 201 255
164 201 255
164 201 255
164 200 255
164 200 255
164 200 255
163 200 255
163 200 255
163 200 255
163 200 255
163 200 255
163 200 255
163 200 255
163 200 255
163 200 255
163 200 255
163 200 255
163 200 255
163 200 255
163 200 255
162 200 255
162 200 255
162 200 255
162 199 255
162 199 255
162 199 255
162 199 255
162 199 255
162 199 255
162 199 255
162 199 255
162 199 255
162 199 255
161 199 255
161 199 255
161 199 255
161 199 255
161 199 255
161 199 255
161 199 255
161 199 255
161 199 255
161 199 255
161 199 255
161 199 255
161 199 255
161 199 255
161 199 255
161 199 255
161 199 255
161 199 255
161 199 255
161 199 255
161 199 255
119 148 192
88 111 147
88 109 140
69 87 115
71 91 121
59 76 102
63 79 102
77 97 128
68 84 108
63 81 108
77 95 121
85 102 128
64 79 102
77 97 128
80 97 121
64 79 102
74 93 121
71 88 115
73 92 121
82 100 128
74 93 121
77 95 121
68 84 108
67 84 110
74 93 121
81 99 128
64 81 105
77 95 121
71 91 121
68 84 108
71 88 115
85 104 134
89 110 140
134 165 211
161 199 255
161 199 255
161 199 255
161 199 255
161 199 255
161 199 255
161 199 255
161 199 255
161 199 255
161 199 255
161 199 255
161 199 255
161 199 255
161 199 255
161 199 255
161 199 255
161 199 255
161 199 255
161 199 255
161 199 255
161 199 255
162 199 255
162 199 255
162 199 255
162 199 255
162 199 255
162 199 255
162 199 255
162 199 255
162 199 255
162 199 255
162 200 255
162 200 255
162 200 255
162 200 255
163 200 255
163 200 255
163 200 255
163 200 255
163 200 255
163 200 255
163 200 255
163 200 255
163 200 255
163 200 255
163 200 255
163 200 255
163 200 255
164 200 255
164 200 255
164 200 255
164 201 255
164 201 255
164 201 255
164 201 255
164 201 255
164 201 255
164 201 255
164 201 255
165 201 255
165 201 255
165 201 255
165 201 255
165 201 255
165 201 255
165 201 255
165 201 255
165 201 255
165 201 255
166 202 255
166 202 255
166 202 255
166 202 255
166 202 255
166 202 255
166 202 255
166 202 255
166 202 255
166 202 255
167 202 255
167 202 255
167 202 255
167 202 255
167 202 255
167 202 255
167 202 255
167 202 255
167 203 255
167 203 255
167 203 255
167 203 255
168 203 255
168 203 255
168 203 255
168 203 255
168 203 255
168 203 255
168 203 255
168 203 255
168 203 255
168 203 255
168 203 255
169 203 255
169 203 255
169 203 255
169 203 255
169 204 255
169 204 255
169 204 255
169 204 255
169 204 255
169 204 255
169 204 255
170 204 255
170 204 255
170 204 255
170 204 255
170 204 255
170 204 255
170 204 255
170 204 255
170 204 255
170 204 255
170 204 255
170 204 255
170 204 255
171 205 255
171 205 255
171 205 255
171 205 255
171 205 255
171 205 255
171 205 255
171 205 255
171 205 255
171 205 255
171 205 255
171 205 255
172 205 255
172 205 255
172 205 255
172 205 255
172 205 255
172 205 255
172 205 255
172 205 255
172 205 255
172 206 255
172 206 255
172 206 255
172 206 255
173 206 255
173 206 255
173 206 255
173 206 255
173 206 255
173 206 255
173 206 255
173 206 255
173 206 255
173 206 255
173 206 255
173 206 255
173 206 255
173 206 255
173 206 255
174 206 255
174 206 255
174 206 255
174 206 255
174 206 255
174 207 255
174 207 255
174 207 255
174 207 255
174 207 255
174 207 255
174 207 255
174 207 255
174 207 255
174 207 255
174 207 255
175 207 255
175 207 255
175 207 255
175 207 255
175 207 255
175 207 255
174 207 255
174 207 255
174 207 255
174 207 255
174 207 255
174 207 255
174 207 255
174 207 255
174 207 255
174 207 255
174 207 255
174 206 255
174 206 255
174 206 255
174 206 255
174 206 255
173 206 255
173 206 255
173 206 255
173 206 255
173 206 255
173 206 255
173 206 255
173 206 255
173 206 255
173 206 255
173 206 255
173 206 255
173 206 255
173 206 255
172 206 255
172 206 255
172 206 255
172 206 255
172 205 255
172 205 255
172 205 255
172 205 255
172 205 255
172 205 255
172 205 255
172 205 255
172 205 255
172 205 255
171 205 255
171 205 255
171 205 255
171 205 255
171 205 255
171 205 255
171 205 255
171 205 255
171 205 255
171 205 255
171 205 255
171 205 255
171 205 255
170 204 255
170 204 255
170 204 255
170 204 255
170 204 255
170 204 255
170 204 255
170 204 255
170 204 255
170 204 255
170 204 255
169 204 255
169 204 255
169 204 255
169 204 255
169 204 255
169 204 255
169 204 255
169 204 255
169 203 255
169 203 255
169 203 255
169 203 255
168 203 255
168 203 255
168 203 255
168 203 255
168 203 255
168 203 255
168 203 255
168 203 255
168 203 255
168 203 255
168 203 255
167 203 255
167 203 255
167 203 255
167 203 255
167 202 255
167 202 255
167 202 255
167 202 255
167 202 255
167 202 255
167 202 255
166 202 255
166 202 255
166 202 255
166 202 255
166 202 255
166 202 255
166 202 255
166 202 255
166 202 255
166 202 255
166 202 255
165 201 255
165 201 255
165 201 255
165 201 255
165 201 255
165 201 255
165 201 255
165 201 255
165 201 255
165 201 255
164 201 255
164 201 255
164 201 255
164 201 255
164 201 255
164 201 255
164 201 255
164 201 255
164 200 255
164 200 255
164 200 255
164 200 255
163 200 255
163 200 255
163 200 255
163 200 255
163 200 255
163 200 255
163 200 255
163 200 255
163 200 255
163 200 255
163 200 255
163 200 255
163 200 255
162 200 255
162 200 255
162 200 255
162 200 255
162 199 255
162 199 255
162 199 255
162 199 255
162 199 255
162 199 255
162 199 255
162 199 255
162 199 255
162 199 255
162 199 255
162 199 255
161 199 255
161 199 255
161 199 255
161 199 255
161 199 255
161 199 255
161 199 255
161 199 255
161 199 255
161 199 255
145 179 230
122 150 192
90 110 140
66 85 115
66 86 115
81 100 128
75 91 115
75 94 121
77 95 121
66 83 108
69 87 115
61 77 102
76 94 121
66 80 102
68 86 115
73 92 121
71 89 115
73 90 115
69 85 108
63 81 108
69 85 108
76 91 115
69 88 115
76 94 121
74 93 121
69 90 121
68 84 108
74 93 121
82 100 128
81 100 128
74 93 121
68 87 115
80 99 128
79 98 128
70 88 115
67 86 115
71 88 115
74 93 121
77 95 121
98 120 153
144 178 230
141 174 224
161 199 255
161 199 255
161 199 255
161 199 255
161 199 255
161 199 255
161 199 255
161 199 255
161 199 255
161 199 255
162 199 255
162 199 255
162 199 255
162 199 255
162 199 255
162 199 255
162 199 255
162 199 255
162 199 255
162 199 255
162 199 255
162 199 255
162 200 255
162 200 255
162 200 255
162 200 255
163 200 255
163 200 255
163 200 255
163 200 255
163 200 255
163 200 255
163 200 255
163 200 255
163 200 255
163 200 255
163 200 255
163 200 255
163 200 255
164 200 255
164 200 255
164 200 255
164 200 255
164 201 255
164 201 255
164 201 255
164 201 255
164 201 255
164 201 255
164 201 255
164 201 255
165 201 255
165 201 255
165 201 255
165 201 255
165 201 255
165 201 255
165 201 255
165 201 255
165 201 255
165 201 255
166 202 255
166 202 255
166 202 255
166 202 255
166 202 255
166 202 255
166 202 255
166 202 255
166 202 255
166 202 255
166 202 255
167 202 255
167 202 255
167 202 255
167 202 255
167 202 255
167 202 255
167 202 255
167 202 255
167 203 255
167 203 255
167 203 255
168 203 255
168 203 255
168 203 255
168 203 255
168 203 255
168 203 255
168 203 255
168 203 255
168 203 255
168 203 255
168 203 255
169 203 255
169 203 255
169 203 255
169 204 255
169 204 255
169 204 255
169 204 255
169 204 255
169 204 255
169 204 255
169 204 255
170 204 255
170 204 255
170 204 255
170 204 255
170 204 255
170 204 255
170 204 255
170 204 255
170 204 255
170 204 255
170 204 255
170 204 255
171 205 255
171 205 255
171 205 255
171 205 255
171 205 255
171 205 255
171 205 255
171 205 255
171 205 255
171 205 255
171 205 255
171 205 255
171 205 255
172 205 255
172 205 255
172 205 255
172 205 255
172 205 255
172 205 255
172 205 255
172 205 255
172 205 255
172 206 255
172 206 255
172 206 255
172 206 255
173 206 255
173 206 255
173 206 255
173 206 255
173 206 255
173 206 255
173 206 255
173 206 255
173 206 255
173 206 255
173 206 255
173 206 255
173 206 255
173 206 255
174 206 255
174 206 255
174 206 255
174 206 255
174 206 255
174 206 255
174 206 255
174 207 255
174 207 255
174 207 255
174 207 255
174 207 255
174 207 255
174 207 255
174 207 255
174 207 255
174 207 255
175 207 255
175 207 255
175 207 255
175 207 255
175 207 255
175 207 255
175 207 255
175 207 255
175 207 255
175 207 255
175 207 255
175 207 255
175 207 255
175 207 255
174 207 255
174 207 255
174 207 255
174 207 255
174 207 255
174 207 255
174 207 255
174 207 255
174 207 255
174 207 255
174 207 255
174 206 255
174 206 255
174 206 255
174 206 255
174 206 255
173 206 255
173 206 255
173 206 255
173 206 255
173 206 255
173 206 255
173 206 255
173 206 255
173 206 255
173 206 255
173 206 255
173 206 255
173 206 255
173 206 255
173 206 255
172 206 255
172 206 255
172 206 255
172 206 255
172 205 255
172 205 255
172 205 255
172 205 255
172 205 255
172 205 255
172 205 255
172 205 255
172 205 255
171 205 255
171 205 255
171 205 255
171 205 255
171 205 255
171 205 255
171 205 255
171 205 255
171 205 255
171 205 255
171 205 255
171 205 255
170 204 255
170 204 255
170 204 255
170 204 255
170 204 255
170 204 255
170 204 255
170 204 255
170 204 255
170 204 255
170 204 255
170 204 255
169 204 255
169 204 255
169 204 255
169 204 255
169 204 255
169 204 255
169 204 255
169 204 255
169 203 255
169 203 255
169 203 255
168 203 255
168 203 255
168 203 255
168 203 255
168 203 255
168 203 255
168 203 255
168 203 255
168 203 255
168 203 255
168 203 255
167 203 255
167 203 255
167 203 255
167 203 255
167 202 255
167 202 255
167 202 255
167 202 255
167 202 255
167 202 255
167 202 255
166 202 255
166 202 255
166 202 255
166 202 255
166 202 255
166 202 255
166 202 255
166 202 255
166 202 255
166 202 255
166 202 255
165 201 255
165 201 255
165 201 255
165 201 255
165 201 255
165 201 255
165 201 255
165 201 255
165 201 255
165 201 255
165 201 255
165 201 255
164 201 255
164 201 255
164 201 255
164 201 255
164 201 255
164 201 255
164 201 255
164 201 255
164 200 255
164 200 255
164 200 255
164 200 255
163 200 255
163 200 255
163 200 255
163 200 255
163 200 255
163 200 255
163 200 255
163 200 255
163 200 255
163 200 255
163 200 255
163 200 255
162 200 255
162 200 255
162 200 255
162 200 255
162 200 255
162 200 255
162 200 255
162 199 255
162 199 255
162 199 255
162 199 255
162 199 255
162 199 255
162 199 255
162 199 255
162 199 255
162 199 255
162 199 255
162 199 255
161 199 255
137 169 217
85 107 140
70 85 108
74 93 121
71 89 115
64 82 108
68 84 108
71 91 121
75 96 128
75 93 121
76 92 115
68 84 108
69 87 115
68 84 108
76 96 128
73 93 121
71 88 115
67 81 102
73 90 115
72 86 108
77 95 121
72 91 121
72 87 108
82 98 121
80 99 128
62 78 102
57 72 96
79 96 121
62 78 102
64 81 108
69 85 108
70 85 108
71 91 121
85 102 128
70 88 115
66 83 108
68 85 110
75 94 121
81 97 121
70 86 108
76 94 121
64 82 108
69 87 115
72 92 121
63 81 108
116 141 179
152 188 243
162 199 255
162 199 255
162 199 255
162 199 255
162 199 255
162 199 255
162 199 255
162 199 255
162 199 255
162 199 255
162 199 255
162 199 255
162 199 255
162 200 255
162 200 255
162 200 255
162 200 255
162 200 255
163 200 255
163 200 255
163 200 255
163 200 255
163 200 255
163 200 255
163 200 255
163 200 255
163 200 255
163 200 255
163 200 255
163 200 255
163 200 255
164 200 255
164 200 255
164 200 255
164 200 255
164 201 255
164 201 255
164 201 255
164 201 255
164 201 255
164 201 255
164 201 255
164 201 255
165 201 255
165 201 255
165 201 255
165 201 255
165 201 255
165 201 255
165 201 255
165 201 255
165 201 255
165 201 255
165 201 255
166 202 255
166 202 255
166 202 255
166 202 255
166 202 255
166 202 255
166 202 255
166 202 255
166 202 255
166 202 255
166 202 255
166 202 255
167 202 255
167 202 255
167 202 255
167 202 255
167 202 255
167 202 255
167 203 255
167 203 255
167 203 255
167 203 255
167 203 255
168 203 255
168 203 255
168 203 255
168 203 255
168 203 255
168 203 255
168 203 255
168 203 255
168 203 255
168 203 255
168 203 255
169 203 255
169 203 255
169 203 255
169 204 255
169 204 255
169 204 255
169 204 255
169 204 255
169 204 255
169 204 255
169 204 255
170 204 255
170 204 255
170 204 255
170 204 255
170 204 255
170 204 255
170 204 255
170 204 255
170 204 255
170 204 255
170 204 255
170 204 255
171 205 255
171 205 255
171 205 255
171 205 255
171 205 255
171 205 255
171 205 255
171 205 255
171 205 255
171 205 255
171 205 255
171 205 255
172 205 255
172 205 255
172 205 255
172 205 255
172 205 255
172 205 255
172 205 255
172 205 255
172 205 255
172 205 255
172 206 255
172 206 255
172 206 255
172 206 255
173 206 255
173 206 255
173 206 255
173 206 255
173 206 255
173 206 255
173 206 255
173 206 255
173 206 255
173 206 255
173 206 255
173 206 255
173 206 255
173 206 255
174 206 255
174 206 255
174 206 255
174 206 255
174 206 255
174 207 255
174 207 255
174 207 255
174 207 255
174 207 255
174 207 255
174 207 255
174 207 255
174 207 255
174 207 255
175 207 255
175 207 255
175 207 255
175 207 255
175 207 255
175 207 255
175 207 255
175 207 255
175 207 255
175 207 255
175 207 255
175 207 255
175 207 255
175 207 255
175 207 255
175 207 255
175 207 255
175 207 255
175 207 255
175 207 255
175 207 255
175 207 255
175 207 255
174 207 255
174 207 255
174 207 255
174 207 255
174 207 255
174 207 255
174 207 255
174 207 255
174 207 255
174 207 255
174 207 255
174 206 255
174 206 255
174 206 255
174 206 255
174 206 255
174 206 255
173 206 255
173 206 255
173 206 255
173 206 255
173 206 255
173 206 255
173 206 255
173 206 255
173 206 255
173 206 255
173 206 255
173 206 255
173 206 255
172 206 255
172 206 255
172 206 255
172 206 255
172 205 255
172 205 255
172 205 255
172 205 255
172 205 255
172 205 255
172 205 255
172 205 255
172 205 255
172 205 255
171 205 255
171 205 255
171 205 255
171 205 255
171 205 255
171 205 255
171 205 255
171 205 255
171 205 255
171 205 255
171 205 255
171 205 255
170 204 255
170 204 255
170 204 255
170 204 255
170 204 255
170 204 255
170 204 255
170 204 255
170 204 255
170 204 255
170 204 255
170 204 255
169 204 255
169 204 255
169 204 255
169 204 255
169 204 255
169 204 255
169 204 255
169 204 255
169 203 255
169 203 255
169 203 255
168 203 255
168 203 255
168 203 255
168 203 255
168 203 255
168 203 255
168 203 255
168 203 255
168 203 255
168 203 255
168 203 255
167 203 255
167 203 255
167 203 255
167 203 255
167 202 255
167 202 255
167 202 255
167 202 255
167 202 255
167 202 255
167 202 255
167 202 255
166 202 255
166 202 255
166 202 255
166 202 255
166 202 255
166 202 255
166 202 255
166 202 255
166 202 255
166 202 255
165 201 255
165 201 255
165 201 255
165 201 255
165 201 255
165 201 255
165 201 255
165 201 255
165 201 255
165 201 255
165 201 255
165 201 255
164 201 255
164 201 255
164 201 255
164 201 255
164 201 255
164 201 255
164 201 255
164 201 255
164 200 255
164 200 255
164 200 255
164 200 255
163 200 255
163 200 255
163 200 255
163 200 255
163 200 255
163 200 255
163 200 255
163 200 255
163 200 255
163 200 255
163 200 255
163 200 255
163 200 255
163 200 255
163 200 255
163 200 255
162 200 255
162 200 255
162 200 255
162 200 255
162 200 255
162 199 255
162 199 255
162 199 255
162 199 255
135 168 217
111 138 179
76 97 128
72 92 121
76 94 121
79 98 128
73 92 121
68 87 115
68 84 108
68 84 108
68 87 115
73 87 108
72 94 128
76 94 121
64 84 115
73 92 121
58 76 102
76 94 121
73 92 121
70 85 108
71 91 121
78 95 121
76 92 115
69 87 115
69 82 102
74 90 115
70 88 115
72 89 115
62 76 97
67 83 108
60 76 99
69 85 108
68 87 115
68 84 108
72 89 115
68 87 115
74 93 121
72 91 121
72 92 121
74 90 115
73 90 115
71 88 115
68 84 108
74 93 121
67 84 108
75 93 121
74 89 112
71 88 115
77 97 128
85 107 140
99 121 153
140 173 224
162 199 255
162 199 255
162 199 255
162 200 255
162 200 255
162 200 255
162 200 255
162 200 255
162 200 255
163 200 255
163 200 255
163 200 255
163 200 255
163 200 255
163 200 255
163 200 255
163 200 255
163 200 255
163 200 255
163 200 255
163 200 255
163 200 255
163 200 255
163 200 255
163 200 255
164 200 255
164 200 255
164 200 255
164 200 255
164 200 255
164 201 255
164 201 255
164 201 255
164 201 255
164 201 255
164 201 255
164 201 255
165 201 255
165 201 255
165 201 255
165 201 255
165 201 255
165 201 255
165 201 255
165 201 255
165 201 255
165 201 255
165 201 255
166 202 255
166 202 255
166 202 255
166 202 255
166 202 255
166 202 255
166 202 255
166 202 255
166 202 255
166 202 255
166 202 255
166 202 255
167 202 255
167 202 255
167 202 255
167 202 255
167 202 255
167 202 255
167 202 255
167 203 255
167 203 255
167 203 255
167 203 255
168 203 255
168 203 255
168 203 255
168 203 255
168 203 255
168 203 255
168 203 255
168 203 255
168 203 255
168 203 255
169 203 255
169 203 255
169 203 255
169 203 255
169 203 255
169 204 255
169 204 255
169 204 255
169 204 255
169 204 255
169 204 255
169 204 255
170 204 255
170 204 255
170 204 255
170 204 255
170 204 255
170 204 255
170 204 255
170 204 255
170 204 255
170 204 255
170 204 255
170 204 255
171 205 255
171 205 255
171 205 255
171 205 255
171 205 255
171 205 255
171 205 255
171 205 255
171 205 255
171 205 255
171 205 255
171 205 255
172 205 255
172 205 255
172 205 255
172 205 255
172 205 255
172 205 255
172 205 255
172 205 255
172 205 255
172 205 255
172 206 255
172 206 255
172 206 255
173 206 255
173 206 255
173 206 255
173 206 255
173 206 255
173 206 255
173 206 255
173 206 255
173 206 255
173 206 255
173 206 255
173 206 255
173 206 255
173 206 255
173 206 255
174 206 255
174 206 255
174 206 255
174 206 255
174 206 255
174 206 255
174 207 255
174 207 255
174 207 255
174 207 255
174 207 255
174 207 255
174 207 255
174 207 255
174 207 255
174 207 255
175 207 255
175 207 255
175 207 255
175 207 255
175 207 255
175 207 255
175 207 255
175 207 255
175 207 255
175 207 255
175 207 255
175 207 255
175 207 255
176 208 255
175 207 255
175 207 255
175 207 255
175 207 255
175 207 255
175 207 255
175 207 255
175 207 255
175 207 255
175 207 255
175 207 255
175 207 255
175 207 255
175 207 255
175 207 255
175 207 255
175 207 255
174 207 255
174 207 255
174 207 255
174 207 255
174 207 255
174 207 255
174 207 255
174 207 255
174 207 255
174 207 255
174 206 255
174 206 255
174 206 255
174 206 255
174 206 255
173 206 255
173 206 255
173 206 255
173 206 255
173 206 255
173 206 255
173 206 255
173 206 255
173 206 255
173 206 255
173 206 255
173 206 255
173 206 255
173 206 255
172 206 255
172 206 255
172 206 255
172 206 255
172 206 255
172 205 255
172 205 255
172 205 255
172 205 255
172 205 255
172 205 255
172 205 255
172 205 255
171 205 255
171 205 255
171 205 255
171 205 255
171 205 255
171 205 255
171 205 255
171 205 255
171 205 255
171 205 255
171 205 255
171 205 255
170 204 255
170 204 255
170 204 255
170 204 255
170 204 255
170 204 255
170 204 255
170 204 255
170 204 255
170 204 255
170 204 255
170 204 255
170 204 255
169 204 255
169 204 255
169 204 255
169 204 255
169 204 255
169 204 255
169 204 255
169 203 255
169 203 255
169 203 255
169 203 255
168 203 255
168 203 255
168 203 255
168 203 255
168 203 255
168 203 255
168 203 255
168 203 255
168 203 255
168 203 255
168 203 255
167 203 255
167 203 255
167 203 255
167 203 255
167 202 255
167 202 255
167 202 255
167 202 255
167 202 255
167 202 255
167 202 255
166 202 255
166 202 255
166 202 255
166 202 255
166 202 255
166 202 255
166 202 255
166 202 255
166 202 255
166 202 255
166 202 255
166 202 255
165 201 255
165 201 255
165 201 255
165 201 255
165 201 255
165 201 255
165 201 255
165 201 255
165 201 255
165 201 255
165 201 255
164 201 255
164 201 255
164 201 255
164 201 255
164 201 255
164 201 255
164 201 255
164 201 255
164 200 255
164 200 255
164 200 255
164 200 255
164 200 255
164 200 255
163 200 255
163 200 255
163 200 255
163 200 255
163 200 255
163 200 255
163 200 255
163 200 255
163 200 255
163 200 255
163 200 255
163 200 255
163 200 255
163 200 255
163 200 255
163 200 255
163 200 255
139 170 217
100 124 160
74 90 115
69 85 108
70 86 108
76 97 128
73 92 121
66 83 108
73 92 121
74 93 121
75 91 115
74 90 115
73 90 115
67 83 108
76 94 121
72 89 115
63 82 110
73 90 115
72 92 121
73 92 121
72 89 115
64 79 102
73 90 115
69 87 115
75 96 128
72 89 115
67 86 115
59 76 102
75 93 121
61 75 96
68 89 121
77 92 115
70 86 108
69 88 115
77 92 115
63 79 102
64 79 102
68 87 115
72 87 108
73 90 115
78 98 128
65 83 110
68 84 108
79 96 121
74 93 121
69 85 108
70 90 121
68 87 115
76 94 121
70 88 115
60 77 102
75 96 128
70 88 115
72 92 121
102 125 160
135 165 211
163 200 255
163 200 255
163 200 255
163 200 255
163 200 255
163 200 255
163 200 255
163 200 255
163 200 255
163 200 255
163 200 255
163 200 255
163 200 255
163 200 255
163 200 255
163 200 255
163 200 255
164 200 255
164 200 255
164 200 255
164 200 255
164 200 255
164 201 255
164 201 255
164 201 255
164 201 255
164 201 255
164 201 255
164 201 255
164 201 255
165 201 255
165 201 255
165 201 255
165 201 255
165 201 255
165 201 255
165 201 255
165 201 255
165 201 255
165 201 255
165 201 255
165 201 255
166 202 255
166 202 255
166 202 255
166 202 255
166 202 255
166 202 255
166 202 255
166 202 255
166 202 255
166 202 255
166 202 255
166 202 255
167 202 255
167 202 255
167 202 255
167 202 255
167 202 255
167 202 255
167 202 255
167 203 255
167 203 255
167 203 255
167 203 255
168 203 255
168 203 255
168 203 255
168 203 255
168 203 255
168 203 255
168 203 255
168 203 255
168 203 255
168 203 255
168 203 255
169 203 255
169 203 255
169 203 255
169 203 255
169 204 255
169 204 255
169 204 255
169 204 255
169 204 255
169 204 255
169 204 255
169 204 255
170 204 255
170 204 255
170 204 255
170 204 255
170 204 255
170 204 255
170 204 255
170 204 255
170 204 255
170 204 255
170 204 255
171 205 255
171 205 255
171 205 255
171 205 255
171 205 255
171 205 255
171 205 255
171 205 255
171 205 255
171 205 255
171 205 255
171 205 255
171 205 255
172 205 255
172 205 255
172 205 255
172 205 255
172 205 255
172 205 255
172 205 255
172 205 255
172 206 255
172 206 255
172 206 255
172 206 255
172 206 255
173 206 255
173 206 255
173 206 255
173 206 255
173 206 255
173 206 255
173 206 255
173 206 255
173 206 255
173 206 255
173 206 255
173 206 255
173 206 255
173 206 255
174 206 255
174 206 255
174 206 255
174 206 255
174 206 255
174 207 255
174 207 255
174 207 255
174 207 255
174 207 255
174 207 255
174 207 255
174 207 255
174 207 255
174 207 255
174 207 255
175 207 255
175 207 255
175 207 255
175 207 255
175 207 255
175 207 255
175 207 255
175 207 255
175 207 255
175 207 255
175 207 255
175 207 255
175 207 255
175 207 255
175 207 255
175 207 255
176 208 255
176 208 255
176 208 255
176 208 255
176 208 255
176 208 255
175 207 255
175 207 255
175 207 255
175 207 255
175 207 255
175 207 255
175 207 255
175 207 255
175 207 255
175 207 255
175 207 255
175 207 255
175 207 255
175 207 255
175 207 255
175 207 255
175 207 255
174 207 255
174 207 255
174 207 255
174 207 255
174 207 255
174 207 255
174 207 255
174 207 255
174 207 255
174 207 255
174 206 255
174 206 255
174 206 255
174 206 255
174 206 255
174 206 255
173 206 255
173 206 255
173 206 255
173 206 255
173 206 255
173 206 255
173 206 255
173 206 255
173 206 255
173 206 255
173 206 255
173 206 255
173 206 255
172 206 255
172 206 255
172 206 255
172 206 255
172 206 255
172 205 255
172 205 255
172 205 255
172 205 255
172 205 255
172 205 255
172 205 255
172 205 255
172 205 255
171 205 255
171 205 255
171 205 255
171 205 255
171 205 255
171 205 255
171 205 255
171 205 255
171 205 255
171 205 255
171 205 255
171 205 255
170 204 255
170 204 255
170 204 255
170 204 255
170 204 255
170 204 255
170 204 255
170 204 255
170 204 255
170 204 255
170 204 255
170 204 255
169 204 255
169 204 255
169 204 255
169 204 255
169 204 255
169 204 255
169 204 255
169 203 255
169 203 255
169 203 255
168 203 255
168 203 255
168 203 255
168 203 255
168 203 255
168 203 255
168 203 255
168 203 255
168 203 255
168 203 255
168 203 255
168 203 255
167 203 255
167 203 255
167 203 255
167 203 255
167 202 255
167 202 255
167 202 255
167 202 255
167 202 255
167 202 255
167 202 255
166 202 255
166 202 255
166 202 255
166 202 255
166 202 255
166 202 255
166 202 255
166 202 255
166 202 255
166 202 255
166 202 255
165 201 255
165 201 255
165 201 255
165 201 255
165 201 255
165 201 255
165 201 255
165 201 255
165 201 255
165 201 255
165 201 255
165 201 255
165 201 255
164 201 255
164 201 255
164 201 255
164 201 255
164 201 255
164 201 255
164 201 255
164 201 255
164 201 255
164 200 255
164 200 255
164 200 255
164 200 255
164 200 255
163 200 255
163 200 255
163 200 255
163 200 255
163 200 255
163 200 255
163 200 255
163 200 255
163 200 255
163 200 255
131 161 204
98 117 147
71 86 108
60 77 102
72 89 115
74 90 115
70 88 115
75 91 115
78 95 121
63 79 102
63 81 108
72 89 115
72 89 115
73 92 121
68 84 108
75 94 121
71 91 121
59 75 99
74 93 121
72 89 115
73 92 121
66 85 115
60 77 102
66 83 108
74 90 115
68 84 108
76 94 121
68 89 121
75 94 121
81 99 128
60 74 96
71 88 115
71 86 108
69 87 115
76 96 128
67 81 102
69 87 115
77 94 121
73 90 115
73 92 121
71 89 115
59 74 96
61 80 108
75 93 121
76 94 121
67 84 108
55 72 97
72 86 108
73 92 121
73 92 121
71 86 108
75 91 115
74 91 115
72 91 121
64 82 108
78 98 128
67 86 115
79 99 128
86 105 134
113 137 172
163 200 255
163 200 255
163 200 255
163 200 255
163 200 255
163 200 255
163 200 255
163 200 255
163 200 255
164 200 255
164 200 255
164 200 255
164 200 255
164 200 255
164 200 255
164 201 255
164 201 255
164 201 255
164 201 255
164 201 255
164 201 255
164 201 255
164 201 255
164 201 255
164 201 255
165 201 255
165 201 255
165 201 255
165 201 255
165 201 255
165 201 255
165 201 255
165 201 255
165 201 255
165 201 255
165 201 255
166 202 255
166 202 255
166 202 255
166 202 255
166 202 255
166 202 255
166 202 255
166 202 255
166 202 255
166 202 255
166 202 255
166 202 255
167 202 255
167 202 255
167 202 255
167 202 255
167 202 255
167 202 255
167 202 255
167 203 255
167 203 255
167 203 255
167 203 255
168 203 255
168 203 255
168 203 255
168 203 255
168 203 255
168 203 255
168 203 255
168 203 255
168 203 255
168 203 255
168 203 255
169 203 255
169 203 255
169 203 255
169 203 255
169 204 255
169 204 255
169 204 255
169 204 255
169 204 255
169 204 255
169 204 255
170 204 255
170 204 255
170 204 255
170 204 255
170 204 255
170 204 255
170 204 255
170 204 255
170 204 255
170 204 255
170 204 255
170 204 255
170 204 255
171 205 255
171 205 255
171 205 255
171 205 255
171 205 255
171 205 255
171 205 255
171 205 255
171 205 255
171 205 255
171 205 255
171 205 255
172 205 255
172 205 255
172 205 255
172 205 255
172 205 255
172 205 255
172 205 255
172 205 255
172 206 255
172 206 255
172 206 255
172 206 255
173 206 255
173 206 255
173 206 255
173 206 255
173 206 255
173 206 255
173 206 255
173 206 255
173 206 255
173 206 255
173 206 255
173 206 255
173 206 255
173 206 255
173 206 255
174 206 255
174 206 255
174 206 255
174 206 255
174 206 255
174 207 255
174 207 255
174 207 255
174 207 255
174 207 255
174 207 255
174 207 255
174 207 255
174 207 255
174 207 255
175 207 255
175 207 255
175 207 255
175 207 255
175 207 255
175 207 255
175 207 255
175 207 255
175 207 255
175 207 255
175 207 255
175 207 255
175 207 255
175 207 255
175 207 255
175 207 255
175 207 255
176 208 255
176 208 255
176 208 255
176 208 255
176 208 255
176 208 255
176 208 255
176 208 255
176 208 255
176 208 255
176 208 255
176 208 255
176 208 255
176 208 255
176 208 255
176 208 255
175 207 255
175 207 255
175 207 255
175 207 255
175 207 255
175 207 255
175 207 255
175 207 255
175 207 255
175 207 255
175 207 255
175 207 255
175 207 255
175 207 255
175 207 255
174 207 255
174 207 255
174 207 255
174 207 255
174 207 255
174 207 255
174 207 255
174 207 255
174 207 255
174 207 255
174 207 255
174 206 255
174 206 255
174 206 255
174 206 255
174 206 255
173 206 255
173 206 255
173 206 255
173 206 255
173 206 255
173 206 255
173 206 255
173 206 255
173 206 255
173 206 255
173 206 255
173 206 255
173 206 255
172 206 255
172 206 255
172 206 255
172 206 255
172 206 255
172 205 255
172 205 255
172 205 255
172 205 255
172 205 255
172 205 255
172 205 255
172 205 255
171 205 255
171 205 255
171 205 255
171 205 255
171 205 255
171 205 255
171 205 255
171 205 255
171 205 255
171 205 255
171 205 255
171 205 255
171 205 255
170 204 255
170 204 255
170 204 255
170 204 255
170 204 255
170 204 255
170 204 255
170 204 255
170 204 255
170 204 255
170 204 255
169 204 255
169 204 255
169 204 255
169 204 255
169 204 255
169 204 255
169 204 255
169 204 255
169 203 255
169 203 255
169 203 255
168 203 255
168 203 255
168 203 255
168 203 255
168 203 255
168 203 255
168 203 255
168 203 255
168 203 255
168 203 255
168 203 255
168 203 255
168 203 255
167 203 255
167 203 255
167 203 255
167 202 255
167 202 255
167 202 255
167 202 255
167 202 255
167 202 255
167 202 255
167 202 255
166 202 255
166 202 255
166 202 255
166 202 255
166 202 255
166 202 255
166 202 255
166 202 255
166 202 255
166 202 255
166 202 255
166 202 255
165 201 255
165 201 255
165 201 255
165 201 255
165 201 255
165 201 255
165 201 255
165 201 255
165 201 255
165 201 255
165 201 255
165 201 255
164 201 255
164 201 255
164 201 255
164 201 255
164 201 255
164 201 255
164 201 255
164 201 255
164 201 255
164 201 255
164 201 255
164 200 255
164 200 255
164 200 255
164 200 255
164 200 255
163 200 255
163 200 255
86 108 140
71 91 121
73 92 121
66 83 108
70 85 109
73 90 115
74 87 108
70 85 108
78 95 121
57 73 96
81 100 128
74 90 115
56 72 96
81 97 121
68 84 108
79 98 128
69 88 115
80 99 128
65 82 108
72 92 121
61 77 102
61 78 102
71 88 115
74 93 121
75 93 121
68 84 108
59 76 102
72 92 121
62 75 96
74 95 128
73 90 115
82 98 121
68 84 108
74 95 128
62 75 96
65 80 102
76 97 128
70 85 108
58 73 96
64 84 115
68 86 115
66 83 108
75 91 115
78 95 121
70 85 108
79 96 121
66 86 115
74 93 121
85 102 128
69 85 108
61 78 104
70 88 115
66 82 105
70 88 115
67 84 108
72 92 121
77 95 121
65 82 108
60 77 102
79 99 128
72 89 115
76 97 128
129 159 204
164 200 255
164 200 255
164 200 255
164 200 255
164 200 255
164 200 255
164 201 255
164 201 255
164 201 255
164 201 255
164 201 255
164 201 255
164 201 255
164 201 255
164 201 255
164 201 255
165 201 255
165 201 255
165 201 255
165 201 255
165 201 255
165 201 255
165 201 255
165 201 255
165 201 255
165 201 255
165 201 255
165 201 255
165 201 255
166 202 255
166 202 255
166 202 255
166 202 255
166 202 255
166 202 255
166 202 255
166 202 255
166 202 255
166 202 255
166 202 255
166 202 255
166 202 255
167 202 255
167 202 255
167 202 255
167 202 255
167 202 255
167 202 255
167 202 255
167 203 255
167 203 255
167 203 255
167 203 255
168 203 255
168 203 255
168 203 255
168 203 255
168 203 255
168 203 255
168 203 255
168 203 255
168 203 255
168 203 255
168 203 255
168 203 255
169 203 255
169 203 255
169 203 255
169 204 255
169 204 255
169 204 255
169 204 255
169 204 255
169 204 255
169 204 255
169 204 255
170 204 255
170 204 255
170 204 255
170 204 255
170 204 255
170 204 255
170 204 255
170 204 255
170 204 255
170 204 255
170 204 255
171 205 255
171 205 255
171 205 255
171 205 255
171 205 255
171 205 255
171 205 255
171 205 255
171 205 255
171 205 255
171 205 255
171 205 255
171 205 255
172 205 255
172 205 255
172 205 255
172 205 255
172 205 255
172 205 255
172 205 255
172 205 255
172 205 255
172 206 255
172 206 255
172 206 255
172 206 255
173 206 255
173 206 255
173 206 255
173 206 255
173 206 255
173 206 255
173 206 255
173 206 255
173 206 255
173 206 255
173 206 255
173 206 255
173 206 255
173 206 255
174 206 255
174 206 255
174 206 255
174 206 255
174 207 255
174 207 255
174 207 255
174 207 255
174 207 255
174 207 255
174 207 255
174 207 255
174 207 255
174 207 255
175 207 255
175 207 255
175 207 255
175 207 255
175 207 255
175 207 255
175 207 255
175 207 255
175 207 255
175 207 255
175 207 255
175 207 255
175 207 255
175 207 255
175 207 255
175 207 255
175 207 255
176 208 255
176 208 255
176 208 255
176 208 255
176 208 255
176 208 255
176 208 255
176 208 255
176 208 255
176 208 255
176 208 255
176 208 255
176 208 255
176 208 255
176 208 255
176 208 255
176 208 255
176 208 255
176 208 255
176 208 255
176 208 255
176 208 255
176 208 255
176 208 255
176 208 255
175 207 255
175 207 255
175 207 255
175 207 255
175 207 255
175 207 255
175 207 255
175 207 255
175 207 255
175 207 255
175 207 255
175 207 255
175 207 255
175 207 255
175 207 255
174 207 255
174 207 255
174 207 255
174 207 255
174 207 255
174 207 255
174 207 255
174 207 255
174 207 255
174 207 255
174 207 255
174 206 255
174 206 255
174 206 255
174 206 255
174 206 255
173 206 255
173 206 255
173 206 255
173 206 255
173 206 255
173 206 255
173 206 255
173 206 255
173 206 255
173 206 255
173 206 255
173 206 255
173 206 255
172 206 255
172 206 255
172 206 255
172 206 255
172 206 255
172 205 255
172 205 255
172 205 255
172 205 255
172 205 255
172 205 255
172 205 255
172 205 255
171 205 255
171 205 255
171 205 255
171 205 255
171 205 255
171 205 255
171 205 255
171 205 255
171 205 255
171 205 255
171 205 255
171 205 255
170 204 255
170 204 255
170 204 255
170 204 255
170 204 255
170 204 255
170 204 255
170 204 255
170 204 255
170 204 255
170 204 255
170 204 255
169 204 255
169 204 255
169 204 255
169 204 255
169 204 255
169 204 255
169 204 255
169 204 255
169 203 255
169 203 255
169 203 255
169 203 255
168 203 255
168 203 255
168 203 255
168 203 255
168 203 255
168 203 255
168 203 255
168 203 255
168 203 255
168 203 255
168 203 255
167 203 255
167 203 255
167 203 255
167 203 255
167 202 255
167 202 255
167 202 255
167 202 255
167 202 255
167 202 255
167 202 255
167 202 255
166 202 255
166 202 255
166 202 255
166 202 255
166 202 255
166 202 255
166 202 255
166 202 255
166 202 255
166 202 255
166 202 255
166 202 255
165 201 255
165 201 255
165 201 255
165 201 255
165 201 255
165 201 255
165 201 255
165 201 255
165 201 255
165 201 255
165 201 255
165 201 255
165 201 255
165 201 255
164 201 255
164 201 255
164 201 255
164 201 255
164 201 255
164 201 255
164 201 255
164 201 255
164 201 255
146 179 230
83 106 140
75 93 121
74 93 121
63 79 102
72 89 115
78 92 115
53 68 91
74 93 121
72 89 115
81 99 128
69 87 115
82 100 128
58 73 96
66 86 115
69 88 115
73 92 121
67 84 108
78 95 121
71 86 108
81 100 128
74 90 115
78 95 121
66 83 108
51 67 89
65 82 108
71 89 115
66 81 104
67 83 108
64 82 108
65 80 102
68 81 102
59 79 108
76 91 115
77 95 121
74 93 121
67 84 108
66 85 115
68 84 108
72 89 115
65 82 108
75 94 121
67 84 110
81 100 128
64 79 102
66 83 108
75 91 115
71 91 121
75 94 121
70 88 115
62 78 102
67 84 108
68 87 115
69 90 121
63 79 102
72 91 121
59 73 92
63 81 108
77 95 121
71 89 116
71 89 115
74 91 115
69 87 115
82 100 128
72 92 121
65 82 108
132 161 204
156 190 243
164 201 255
164 201 255
164 201 255
164 201 255
164 201 255
164 201 255
164 201 255
164 201 255
165 201 255
165 201 255
165 201 255
165 201 255
165 201 255
165 201 255
165 201 255
165 201 255
165 201 255
165 201 255
165 201 255
165 201 255
165 201 255
166 202 255
165 201 255
166 202 255
166 202 255
166 202 255
166 202 255
166 202 255
166 202 255
166 202 255
166 202 255
166 202 255
166 202 255
166 202 255
166 202 255
167 202 255
167 202 255
167 202 255
167 202 255
167 202 255
167 202 255
167 202 255
167 202 255
167 202 255
167 203 255
167 203 255
168 203 255
168 203 255
168 203 255
168 203 255
168 203 255
168 203 255
168 203 255
168 203 255
168 203 255
168 203 255
168 203 255
168 203 255
169 203 255
169 203 255
169 203 255
169 203 255
169 204 255
169 204 255
169 204 255
169 204 255
169 204 255
169 204 255
169 204 255
169 204 255
170 204 255
170 204 255
170 204 255
170 204 255
170 204 255
170 204 255
170 204 255
170 204 255
170 204 255
170 204 255
170 204 255
170 204 255
171 205 255
171 205 255
171 205 255
171 205 255
171 205 255
171 205 255
171 205 255
171 205 255
171 205 255
171 205 255
171 205 255
171 205 255
172 205 255
172 205 255
172 205 255
172 205 255
172 205 255
172 205 255
172 205 255
172 205 255
172 206 255
172 206 255
172 206 255
172 206 255
172 206 255
173 206 255
173 206 255
173 206 255
173 206 255
173 206 255
173 206 255
173 206 255
173 206 255
173 206 255
173 206 255
173 206 255
173 206 255
173 206 255
174 206 255
174 206 255
174 206 255
174 206 255
174 206 255
174 206 255
174 207 255
174 207 255
174 207 255
174 207 255
174 207 255
174 207 255
174 207 255
174 207 255
174 207 255
175 207 255
175 207 255
175 207 255
175 207 255
175 207 255
175 207 255
175 207 255
175 207 255
175 207 255
175 207 255
175 207 255
175 207 255
175 207 255
175 207 255
175 207 255
175 207 255
175 207 255
176 208 255
176 208 255
176 208 255
176 208 255
176 208 255
176 208 255
176 208 255
176 208 255
176 208 255
176 208 255
176 208 255
176 208 255
176 208 255
176 208 255
177 208 255
177 208 255
176 208 255
176 208 255
176 208 255
176 208 255
176 208 255
176 208 255
176 208 255
176 208 255
176 208 255
176 208 255
176 208 255
176 208 255
176 208 255
176 208 255
176 208 255
176 208 255
176 208 255
176 208 255
175 207 255
175 207 255
175 207 255
175 207 255
175 207 255
175 207 255
175 207 255
175 207 255
175 207 255
175 207 255
175 207 255
175 207 255
175 207 255
175 207 255
175 207 255
174 207 255
174 207 255
174 207 255
174 207 255
174 207 255
174 207 255
174 207 255
174 207 255
174 207 255
174 207 255
174 206 255
174 206 255
174 206 255
174 206 255
173 206 255
173 206 255
173 206 255
173 206 255
173 206 255
173 206 255
173 206 255
173 206 255
173 206 255
173 206 255
173 206 255
173 206 255
173 206 255
173 206 255
172 206 255
172 206 255
172 206 255
172 206 255
172 206 255
172 205 255
172 205 255
172 205 255
172 205 255
172 205 255
172 205 255
172 205 255
172 205 255
171 205 255
171 205 255
171 205 255
171 205 255
171 205 255
171 205 255
171 205 255
171 205 255
171 205 255
171 205 255
171 205 255
171 205 255
171 205 255
170 204 255
170 204 255
170 204 255
170 204 255
170 204 255
170 204 255
170 204 255
170 204 255
170 204 255
170 204 255
170 204 255
169 204 255
169 204 255
169 204 255
169 204 255
169 204 255
169 204 255
169 204 255
169 204 255
169 203 255
169 203 255
169 203 255
169 203 255
168 203 255
168 203 255
168 203 255
168 203 255
168 203 255
168 203 255
168 203 255
168 203 255
168 203 255
168 203 255
168 203 255
168 203 255
167 203 255
167 203 255
167 203 255
167 203 255
167 202 255
167 202 255
167 202 255
167 202 255
167 202 255
167 202 255
167 202 255
167 202 255
166 202 255
166 202 255
166 202 255
166 202 255
166 202 255
166 202 255
166 202 255
166 202 255
166 202 255
166 202 255
166 202 255
165 201 255
166 202 255
165 201 255
165 201 255
165 201 255
165 201 255
165 201 255
165 201 255
165 201 255
165 201 255
165 201 255
165 201 255
165 201 255
165 201 255
165 201 255
165 201 255
165 201 255
164 201 255
87 106 134
83 101 128
74 93 121
71 91 121
62 78 102
74 90 115
65 79 102
62 78 102
59 76 102
66 83 108
74 90 115
64 77 96
73 87 108
72 89 115
79 99 128
62 81 108
80 99 128
71 89 115
72 89 115
57 71 92
77 97 128
67 86 115
67 84 108
66 83 108
57 72 96
65 78 97
64 82 108
71 86 108
68 87 115
79 98 128
73 92 121
74 95 128
76 94 121
68 85 110
63 81 108
75 91 115
66 81 102
65 80 102
74 90 115
61 77 102
74 90 115
64 79 102
68 87 115
79 98 128
68 84 108
79 96 121
68 87 115
69 85 110
78 95 121
70 88 115
69 87 115
66 80 102
68 87 115
75 94 121
70 90 121
74 93 121
67 83 108
71 89 115
72 92 121
53 65 83
78 98 128
70 89 118
66 83 108
67 86 115
73 95 128
71 88 115
64 79 102
72 92 121
69 87 115
116 144 185
155 190 243
164 201 255
165 201 255
165 201 255
165 201 255
165 201 255
165 201 255
165 201 255
165 201 255
165 201 255
165 201 255
165 201 255
165 201 255
165 201 255
165 201 255
165 201 255
166 202 255
166 202 255
166 202 255
166 202 255
166 202 255
166 202 255
166 202 255
166 202 255
166 202 255
166 202 255
166 202 255
166 202 255
166 202 255
167 202 255
167 202 255
167 202 255
167 202 255
167 202 255
167 202 255
167 202 255
167 202 255
167 203 255
167 203 255
167 203 255
167 203 255
167 203 255
168 203 255
168 203 255
168 203 255
168 203 255
168 203 255
168 203 255
168 203 255
168 203 255
168 203 255
168 203 255
168 203 255
169 203 255
169 203 255
169 203 255
169 203 255
169 204 255
169 204 255
169 204 255
169 204 255
169 204 255
169 204 255
169 204 255
169 204 255
170 204 255
170 204 255
170 204 255
170 204 255
170 204 255
170 204 255
170 204 255
170 204 255
170 204 255
170 204 255
170 204 255
170 204 255
171 205 255
171 205 255
171 205 255
171 205 255
171 205 255
171 205 255
171 205 255
171 205 255
171 205 255
171 205 255
171 205 255
171 205 255
172 205 255
172 205 255
172 205 255
172 205 255
172 205 255
172 205 255
172 205 255
172 205 255
172 205 255
172 206 255
172 206 255
172 206 255
172 206 255
173 206 255
173 206 255
173 206 255
173 206 255
173 206 255
173 206 255
173 206 255
173 206 255
173 206 255
173 206 255
173 206 255
173 206 255
173 206 255
174 206 255
174 206 255
174 206 255
174 206 255
174 206 255
174 207 255
174 207 255
174 207 255
174 207 255
174 207 255
174 207 255
174 207 255
174 207 255
174 207 255
175 207 255
175 207 255
175 207 255
175 207 255
175 207 255
175 207 255
175 207 255
175 207 255
175 207 255
175 207 255
175 207 255
175 207 255
175 207 255
175 207 255
175 207 255
175 207 255
175 207 255
176 208 255
176 208 255
176 208 255
176 208 255
176 208 255
176 208 255
176 208 255
176 208 255
176 208 255
176 208 255
176 208 255
176 208 255
176 208 255
176 208 255
176 208 255
176 208 255
176 208 255
176 208 255
177 208 255
177 208 255
177 208 255
177 208 255
177 208 255
177 208 255
177 208 255
176 208 255
176 208 255
176 208 255
176 208 255
176 208 255
176 208 255
176 208 255
176 208 255
176 208 255
176 208 255
176 208 255
176 208 255
176 208 255
176 208 255
176 208 255
176 208 255
176 208 255
176 208 255
175 207 255
175 207 255
175 207 255
175 207 255
175 207 255
175 207 255
175 207 255
175 207 255
175 207 255
175 207 255
175 207 255
175 207 255
175 207 255
175 207 255
175 207 255
174 207 255
174 207 255
174 207 255
174 207 255
174 207 255
174 207 255
174 207 255
174 207 255
174 207 255
174 207 255
174 207 255
174 206 255
174 206 255
174 206 255
174 206 255
173 206 255
173 206 255
173 206 255
173 206 255
173 206 255
173 206 255
173 206 255
173 206 255
173 206 255
173 206 255
173 206 255
173 206 255
173 206 255
172 206 255
172 206 255
172 206 255
172 206 255
172 206 255
172 205 255
172 205 255
172 205 255
172 205 255
172 205 255
172 205 255
172 205 255
172 205 255
171 205 255
171 205 255
171 205 255
171 205 255
171 205 255
171 205 255
171 205 255
171 205 255
171 205 255
171 205 255
171 205 255
171 205 255
170 204 255
170 204 255
170 204 255
170 204 255
170 204 255
170 204 255
170 204 255
170 204 255
170 204 255
170 204 255
170 204 255
170 204 255
170 204 255
169 204 255
169 204 255
169 204 255
169 204 255
169 204 255
169 204 255
169 204 255
169 203 255
169 203 255
169 203 255
169 203 255
168 203 255
168 203 255
168 203 255
168 203 255
168 203 255
168 203 255
168 203 255
168 203 255
168 203 255
168 203 255
168 203 255
168 203 255
167 203 255
167 203 255
167 203 255
167 203 255
167 202 255
167 202 255
167 202 255
167 202 255
167 202 255
167 202 255
167 202 255
166 202 255
167 202 255
166 202 255
166 202 255
166 202 255
166 202 255
166 202 255
166 202 255
166 202 255
166 202 255
166 202 255
166 202 255
166 202 255
166 202 255
166 202 255
165 201 255
165 201 255
165 201 255
165 201 255
165 201 255
165 201 255
165 201 255
165 201 255
165 201 255
149 181 230
84 104 134
71 88 115
62 78 102
64 79 102
75 93 121
73 95 128
66 80 102
68 87 115
73 90 115
67 83 108
71 89 115
61 75 97
78 95 121
79 96 121
68 84 108
71 86 108
65 84 112
64 82 108
74 93 121
69 87 115
72 89 115
71 91 121
73 92 121
65 85 115
78 92 115
62 75 96
60 77 102
61 77 102
80 96 121
70 88 115
69 87 115
66 83 108
66 83 108
67 81 102
77 94 121
74 90 115
75 91 115
71 86 108
67 83 108
63 78 102
72 89 115
72 89 115
75 94 121
69 85 108
68 84 108
65 82 108
70 85 108
76 97 128
68 84 108
71 88 115
63 81 108
74 93 121
65 77 96
70 85 108
56 74 102
66 80 102
70 88 115
71 91 121
70 83 102
61 77 102
53 68 90
71 88 115
72 89 115
72 89 115
72 92 121
77 94 121
69 87 115
58 77 105
70 88 115
70 91 121
69 87 115
85 105 136
157 192 243
165 201 255
165 201 255
165 201 255
165 201 255
165 201 255
165 201 255
165 201 255
165 201 255
165 201 255
166 202 255
166 202 255
166 202 255
166 202 255
166 202 255
166 202 255
166 202 255
166 202 255
166 202 255
166 202 255
166 202 255
166 202 255
166 202 255
167 202 255
167 202 255
167 202 255
167 202 255
167 202 255
167 202 255
167 202 255
167 202 255
167 202 255
167 203 255
167 203 255
167 203 255
167 203 255
168 203 255
168 203 255
168 203 255
168 203 255
168 203 255
168 203 255
168 203 255
168 203 255
168 203 255
168 203 255
168 203 255
168 203 255
169 203 255
169 203 255
169 203 255
169 204 255
169 204 255
169 204 255
169 204 255
169 204 255
169 204 255
169 204 255
169 204 255
170 204 255
170 204 255
170 204 255
170 204 255
170 204 255
170 204 255
170 204 255
170 204 255
170 204 255
170 204 255
170 204 255
170 204 255
171 205 255
171 205 255
171 205 255
171 205 255
171 205 255
171 205 255
171 205 255
171 205 255
171 205 255
171 205 255
171 205 255
171 205 255
171 205 255
172 205 255
172 205 255
172 205 255
172 205 255
172 205 255
172 205 255
172 205 255
172 206 255
172 206 255
172 206 255
172 206 255
172 206 255
172 206 255
173 206 255
173 206 255
173 206 255
173 206 255
173 206 255
173 206 255
173 206 255
173 206 255
173 206 255
173 206 255
173 206 255
173 206 255
173 206 255
173 206 255
174 206 255
174 206 255
174 206 255
174 206 255
174 207 255
174 207 255
174 207 255
174 207 255
174 207 255
174 207 255
174 207 255
174 207 255
174 207 255
175 207 255
175 207 255
175 207 255
175 207 255
175 207 255
175 207 255
175 207 255
175 207 255
175 207 255
175 207 255
175 207 255
175 207 255
175 207 255
175 207 255
175 207 255
175 207 255
176 208 255
176 208 255
176 208 255
176 208 255
176 208 255
176 208 255
176 208 255
176 208 255
176 208 255
176 208 255
176 208 255
176 208 255
176 208 255
176 208 255
176 208 255
176 208 255
176 208 255
177 208 255
177 208 255
177 208 255
177 208 255
177 208 255
177 208 255
177 208 255
177 208 255
177 208 255
177 208 255
177 208 255
177 208 255
177 208 255
177 208 255
177 208 255
177 208 255
177 208 255
177 208 255
176 208 255
176 208 255
176 208 255
176 208 255
176 208 255
176 208 255
176 208 255
176 208 255
176 208 255
176 208 255
176 208 255
176 208 255
176 208 255
176 208 255
176 208 255
176 208 255
176 208 255
175 207 255
175 207 255
175 207 255
175 207 255
175 207 255
175 207 255
175 207 255
175 207 255
175 207 255
175 207 255
175 207 255
175 207 255
175 207 255
175 207 255
175 207 255
175 207 255
174 207 255
174 207 255
174 207 255
174 207 255
174 207 255
174 207 255
174 207 255
174 207 255
174 207 255
174 207 255
174 206 255
174 206 255
174 206 255
174 206 255
173 206 255
173 206 255
173 206 255
173 206 255
173 206 255
173 206 255
173 206 255
173 206 255
173 206 255
173 206 255
173 206 255
173 206 255
173 206 255
173 206 255
172 206 255
172 206 255
172 206 255
172 206 255
172 205 255
172 205 255
172 205 255
172 205 255
172 205 255
172 205 255
172 205 255
172 205 255
172 205 255
171 205 255
171 205 255
171 205 255
171 205 255
171 205 255
171 205 255
171 205 255
171 205 255
171 205 255
171 205 255
171 205 255
171 205 255
170 204 255
170 204 255
170 204 255
170 204 255
170 204 255
170 204 255
170 204 255
170 204 255
170 204 255
170 204 255
170 204 255
169 204 255
169 204 255
169 204 255
169 204 255
169 204 255
169 204 255
169 204 255
169 204 255
169 203 255
169 203 255
169 203 255
169 203 255
169 203 255
168 203 255
168 203 255
168 203 255
168 203 255
168 203 255
168 203 255
168 203 255
168 203 255
168 203 255
168 203 255
168 203 255
168 203 255
167 203 255
167 203 255
167 203 255
167 202 255
167 202 255
167 202 255
167 202 255
167 202 255
167 202 255
167 202 255
167 202 255
167 202 255
166 202 255
166 202 255
166 202 255
166 202 255
166 202 255
166 202 255
166 202 255
166 202 255
166 202 255
166 202 255
166 202 255
166 202 255
166 202 255
166 202 255
166 202 255
166 202 255
165 201 255
111 135 172
82 100 128
64 79 102
74 93 121
70 88 115
71 88 115
68 86 115
71 88 115
80 99 128
83 101 128
73 92 121
73 88 112
74 90 115
74 93 121
68 84 108
72 91 121
78 95 121
62 77 99
66 80 102
76 94 121
70 85 108
77 97 128
64 79 102
65 82 108
60 77 102
77 97 128
80 99 128
84 99 121
68 81 102
71 88 115
79 98 128
63 78 102
66 84 112
62 75 96
68 87 115
71 89 115
78 92 115
78 94 118
79 99 128
64 81 108
67 86 115
58 71 89
65 82 108
66 83 108
59 73 96
67 83 108
61 77 102
61 78 102
79 99 128
67 82 105
64 82 108
73 90 115
63 79 102
70 88 115
78 93 115
66 78 96
72 89 115
62 76 96
56 69 89
67 84 108
58 73 96
62 78 102
73 95 128
64 79 102
66 81 104
56 69 89
78 98 128
62 78 102
64 82 108
74 93 121
65 85 115
77 97 128
65 80 102
73 93 121
74 90 115
141 172 217
166 202 255
166 202 255
166 202 255
166 202 255
166 202 255
166 202 255
166 202 255
166 202 255
166 202 255
166 202 255
166 202 255
166 202 255
166 202 255
166 202 255
166 202 255
166 202 255
166 202 255
167 202 255
167 202 255
167 202 255
167 202 255
167 202 255
167 202 255
167 202 255
167 202 255
167 203 255
167 203 255
167 203 255
167 203 255
167 203 255
168 203 255
168 203 255
168 203 255
168 203 255
168 203 255
168 203 255
168 203 255
168 203 255
168 203 255
168 203 255
168 203 255
169 203 255
169 203 255
169 203 255
169 203 255
169 203 255
169 204 255
169 204 255
169 204 255
169 204 255
169 204 255
169 204 255
169 204 255
170 204 255
170 204 255
170 204 255
170 204 255
170 204 255
170 204 255
170 204 255
170 204 255
170 204 255
170 204 255
170 204 255
170 204 255
171 205 255
171 205 255
171 205 255
171 205 255
171 205 255
171 205 255
171 205 255
171 205 255
171 205 255
171 205 255
171 205 255
171 205 255
172 205 255
172 205 255
172 205 255
172 205 255
172 205 255
172 205 255
172 205 255
172 205 255
172 205 255
172 206 255
172 206 255
172 206 255
172 206 255
173 206 255
173 206 255
173 206 255
173 206 255
173 206 255
173 206 255
173 206 255
173 206 255
173 206 255
173 206 255
173 206 255
173 206 255
173 206 255
173 206 255
174 206 255
174 206 255
174 206 255
174 206 255
174 207 255
174 207 255
174 207 255
174 207 255
174 207 255
174 207 255
174 207 255
174 207 255
174 207 255
174 207 255
175 207 255
175 207 255
175 207 255
175 207 255
175 207 255
175 207 255
175 207 255
175 207 255
175 207 255
175 207 255
175 207 255
175 207 255
175 207 255
175 207 255
175 207 255
176 208 255
176 208 255
176 208 255
176 208 255
176 208 255
176 208 255
176 208 255
176 208 255
176 208 255
176 208 255
176 208 255
176 208 255
176 208 255
176 208 255
176 208 255
176 208 255
176 208 255
176 208 255
177 208 255
177 208 255
177 208 255
177 208 255
177 208 255
177 208 255
177 208 255
177 208 255
177 208 255
177 208 255
177 208 255
177 209 255
177 209 255
177 209 255
177 208 255
177 208 255
177 208 255
177 208 255
177 208 255
177 208 255
177 208 255
177 208 255
177 208 255
177 208 255
177 208 255
177 208 255
177 208 255
176 208 255
176 208 255
176 208 255
176 208 255
176 208 255
176 208 255
176 208 255
176 208 255
176 208 255
176 208 255
176 208 255
176 208 255
176 208 255
176 208 255
176 208 255
176 208 255
175 207 255
175 207 255
175 207 255
175 207 255
175 207 255
175 207 255
175 207 255
175 207 255
175 207 255
175 207 255
175 207 255
175 207 255
175 207 255
175 207 255
175 207 255
175 207 255
175 207 255
174 207 255
174 207 255
174 207 255
174 207 255
174 207 255
174 207 255
174 207 255
174 207 255
174 206 255
174 206 255
174 206 255
174 206 255
174 206 255
174 206 255
173 206 255
173 206 255
173 206 255
173 206 255
173 206 255
173 206 255
173 206 255
173 206 255
173 206 255
173 206 255
173 206 255
173 206 255
173 206 255
172 206 255
172 206 255
172 206 255
172 206 255
172 206 255
172 205 255
172 205 255
172 205 255
172 205 255
172 205 255
172 205 255
172 205 255
172 205 255
172 205 255
171 205 255
171 205 255
171 205 255
171 205 255
171 205 255
171 205 255
171 205 255
171 205 255
171 205 255
171 205 255
171 205 255
170 204 255
170 204 255
170 204 255
170 204 255
170 204 255
170 204 255
170 204 255
170 204 255
170 204 255
170 204 255
170 204 255
170 204 255
169 204 255
169 204 255
169 204 255
169 204 255
169 204 255
169 204 255
169 204 255
169 203 255
169 203 255
169 203 255
169 203 255
169 203 255
168 203 255
168 203 255
168 203 255
168 203 255
168 203 255
168 203 255
168 203 255
168 203 255
168 203 255
168 203 255
168 203 255
168 203 255
168 203 255
167 203 255
167 203 255
167 203 255
167 203 255
167 202 255
167 202 255
167 202 255
167 202 255
167 202 255
167 202 255
167 202 255
167 202 255
167 202 255
167 202 255
166 202 255
166 202 255
166 202 255
166 202 255
166 202 255
166 202 255
166 202 255
166 202 255
166 202 255
74 90 115
69 90 121
64 82 108
67 83 108
68 84 108
61 77 102
78 95 121
68 89 121
69 88 115
69 86 112
74 90 115
66 83 108
75 91 115
59 76 102
74 93 121
81 97 121
70 88 115
69 87 115
71 88 115
65 80 102
72 91 121
70 91 121
71 86 108
64 82 108
71 88 115
57 72 96
63 79 102
62 78 102
72 84 102
64 82 108
56 68 86
65 83 108
63 81 108
62 79 104
64 82 108
71 86 108
63 78 102
71 88 115
80 97 121
72 87 108
70 85 108
70 86 108
71 89 115
73 89 115
74 95 128
60 74 96
75 91 115
72 86 108
66 80 102
61 74 92
63 79 102
66 83 108
81 100 128
64 80 105
73 90 115
81 100 128
79 96 121
69 87 115
79 96 121
69 85 108
69 85 108
60 74 96
77 95 121
79 96 121
72 87 108
82 97 121
63 80 105
65 79 102
64 79 102
63 81 108
75 91 115
79 96 121
68 84 109
81 100 128
75 96 128
69 85 108
81 99 128
79 96 121
166 202 255
166 202 255
166 202 255
166 202 255
166 202 255
166 202 255
166 202 255
166 202 255
166 202 255
166 202 255
167 202 255
167 202 255
167 202 255
167 202 255
167 202 255
167 202 255
167 202 255
167 202 255
167 203 255
167 203 255
167 203 255
167 203 255
167 203 255
168 203 255
168 203 255
168 203 255
168 203 255
168 203 255
168 203 255
168 203 255
168 203 255
168 203 255
168 203 255
168 203 255
168 203 255
169 203 255
169 203 255
169 203 255
169 203 255
169 203 255
169 204 255
169 204 255
169 204 255
169 204 255
169 204 255
169 204 255
169 204 255
169 204 255
170 204 255
170 204 255
170 204 255
170 204 255
170 204 255
170 204 255
170 204 255
170 204 255
170 204 255
170 204 255
170 204 255
170 204 255
171 205 255
171 205 255
171 205 255
171 205 255
171 205 255
171 205 255
171 205 255
171 205 255
171 205 255
171 205 255
171 205 255
172 205 255
172 205 255
172 205 255
172 205 255
172 205 255
172 205 255
172 205 255
172 205 255
172 205 255
172 206 255
172 206 255
172 206 255
172 206 255
172 206 255
173 206 255
173 206 255
173 206 255
173 206 255
173 206 255
173 206 255
173 206 255
173 206 255
173 206 255
173 206 255
173 206 255
173 206 255
173 206 255
173 206 255
174 206 255
174 206 255
174 206 255
174 207 255
174 207 255
174 207 255
174 207 255
174 207 255
174 207 255
174 207 255
174 207 255
174 207 255
174 207 255
175 207 255
175 207 255
175 207 255
175 207 255
175 207 255
175 207 255
175 207 255
175 207 255
175 207 255
175 207 255
175 207 255
175 207 255
175 207 255
175 207 255
175 207 255
175 207 255
176 208 255
176 208 255
176 208 255
176 208 255
176 208 255
176 208 255
176 208 255
176 208 255
176 208 255
176 208 255
176 208 255
176 208 255
176 208 255
176 208 255
176 208 255
176 208 255
176 208 255
177 208 255
177 208 255
177 208 255
177 208 255
177 208 255
177 208 255
177 208 255
177 208 255
177 208 255
177 208 255
177 208 255
177 208 255
177 209 255
177 209 255
177 209 255
177 209 255
178 209 255
178 209 255
177 209 255
177 209 255
177 209 255
177 209 255
177 209 255
177 209 255
177 208 255
177 209 255
177 208 255
177 208 255
177 208 255
177 208 255
177 208 255
177 208 255
177 208 255
177 208 255
177 208 255
177 208 255
177 208 255
177 208 255
176 208 255
176 208 255
176 208 255
176 208 255
176 208 255
176 208 255
176 208 255
176 208 255
176 208 255
176 208 255
176 208 255
176 208 255
176 208 255
176 208 255
176 208 255
175 207 255
175 207 255
175 207 255
175 207 255
175 207 255
175 207 255
175 207 255
175 207 255
175 207 255
175 207 255
175 207 255
175 207 255
175 207 255
175 207 255
175 207 255
175 207 255
174 207 255
174 207 255
174 207 255
174 207 255
174 207 255
174 207 255
174 207 255
174 207 255
174 207 255
174 207 255
174 206 255
174 206 255
174 206 255
173 206 255
174 206 255
173 206 255
173 206 255
173 206 255
173 206 255
173 206 255
173 206 255
173 206 255
173 206 255
173 206 255
173 206 255
173 206 255
173 206 255
173 206 255
172 206 255
172 206 255
172 206 255
172 206 255
172 206 255
172 205 255
172 205 255
172 205 255
172 205 255
172 205 255
172 205 255
172 205 255
171 205 255
171 205 255
171 205 255
171 205 255
171 205 255
171 205 255
171 205 255
171 205 255
171 205 255
171 205 255
171 205 255
171 205 255
171 205 255
170 204 255
170 204 255
170 204 255
170 204 255
170 204 255
170 204 255
170 204 255
170 204 255
170 204 255
170 204 255
170 204 255
169 204 255
169 204 255
169 204 255
169 204 255
169 204 255
169 204 255
169 204 255
169 204 255
169 204 255
169 203 255
169 203 255
169 203 255
169 203 255
168 203 255
168 203 255
168 203 255
168 203 255
168 203 255
168 203 255
168 203 255
168 203 255
168 203 255
168 203 255
168 203 255
168 203 255
168 203 255
167 203 255
167 203 255
167 203 255
167 203 255
167 202 255
167 202 255
167 202 255
167 202 255
167 202 255
167 202 255
167 202 255
167 202 255
167 202 255
167 202 255
167 202 255
166 202 255
159 192 243
77 94 121
69 85 108
67 81 102
73 92 121
60 77 102
66 81 102
65 85 115
73 89 115
60 77 102
68 84 108
81 100 128
74 93 121
64 81 108
68 87 115
79 96 121
67 84 108
69 82 102
78 98 128
65 80 102
69 90 121
73 90 115
58 73 96
71 88 115
68 87 115
63 76 96
63 78 102
79 99 128
78 95 121
80 97 121
69 82 102
79 96 121
63 78 102
57 73 99
77 92 115
62 78 102
56 72 96
78 95 121
64 81 108
75 91 115
65 83 112
71 89 115
69 85 108
73 92 121
65 82 108
77 92 115
56 69 89
68 84 108
61 77 102
54 70 96
71 86 108
69 82 102
71 88 115
48 62 83
68 82 104
73 91 118
70 85 108
72 89 115
68 83 105
67 84 108
83 101 128
69 82 102
57 73 97
76 96 128
59 74 96
70 88 115
73 92 121
66 83 108
57 70 89
73 92 121
71 89 115
67 84 108
74 93 121
70 90 121
71 89 115
66 86 115
69 87 115
71 88 115
71 91 121
69 85 108
94 115 147
138 170 217
167 202 255
166 202 255
167 202 255
167 202 255
167 202 255
167 202 255
167 202 255
167 202 255
167 202 255
167 202 255
167 202 255
167 202 255
167 203 255
167 203 255
167 203 255
168 203 255
168 203 255
168 203 255
168 203 255
168 203 255
168 203 255
168 203 255
168 203 255
168 203 255
168 203 255
168 203 255
168 203 255
168 203 255
168 203 255
169 203 255
169 203 255
169 203 255
169 203 255
169 204 255
169 204 255
169 204 255
169 204 255
169 204 255
169 204 255
169 204 255
169 204 255
170 204 255
170 204 255
170 204 255
170 204 255
170 204 255
170 204 255
170 204 255
170 204 255
170 204 255
170 204 255
170 204 255
170 204 255
171 205 255
171 205 255
171 205 255
171 205 255
171 205 255
171 205 255
171 205 255
171 205 255
171 205 255
171 205 255
171 205 255
171 205 255
172 205 255
172 205 255
172 205 255
172 205 255
172 205 255
172 205 255
172 205 255
172 205 255
172 205 255
172 206 255
172 206 255
172 206 255
172 206 255
173 206 255
173 206 255
173 206 255
173 206 255
173 206 255
173 206 255
173 206 255
173 206 255
173 206 255
173 206 255
173 206 255
173 206 255
173 206 255
174 206 255
174 206 255
174 206 255
174 206 255
174 206 255
174 207 255
174 207 255
174 207 255
174 207 255
174 207 255
174 207 255
174 207 255
174 207 255
174 207 255
174 207 255
175 207 255
175 207 255
175 207 255
175 207 255
175 207 255
175 207 255
175 207 255
175 207 255
175 207 255
175 207 255
175 207 255
175 207 255
175 207 255
175 207 255
175 207 255
176 208 255
176 208 255
176 208 255
176 208 255
176 208 255
176 208 255
176 208 255
176 208 255
176 208 255
176 208 255
176 208 255
176 208 255
176 208 255
176 208 255
176 208 255
176 208 255
176 208 255
177 208 255
177 208 255
177 208 255
177 208 255
177 208 255
177 208 255
177 208 255
177 208 255
177 208 255
177 208 255
177 208 255
177 208 255
177 208 255
177 209 255
177 209 255
177 209 255
177 209 255
177 209 255
178 209 255
178 209 255
178 209 255
178 209 255
178 209 255
178 209 255
178 209 255
178 209 255
178 209 255
178 209 255
177 209 255
177 209 255
177 209 255
177 209 255
177 209 255
177 209 255
177 209 255
177 208 255
177 208 255
177 208 255
177 208 255
177 208 255
177 208 255
177 208 255
177 208 255
177 208 255
177 208 255
177 208 255
177 208 255
176 208 255
176 208 255
176 208 255
176 208 255
176 208 255
176 208 255
176 208 255
176 208 255
176 208 255
176 208 255
176 208 255
176 208 255
176 208 255
176 208 255
176 208 255
176 208 255
175 207 255
175 207 255
175 207 255
175 207 255
175 207 255
175 207 255
175 207 255
175 207 255
175 207 255
175 207 255
175 207 255
175 207 255
175 207 255
175 207 255
175 207 255
174 207 255
174 207 255
174 207 255
174 207 255
174 207 255
174 207 255
174 207 255
174 207 255
174 207 255
174 207 255
174 206 255
174 206 255
174 206 255
174 206 255
174 206 255
173 206 255
173 206 255
173 206 255
173 206 255
173 206 255
173 206 255
173 206 255
173 206 255
173 206 255
173 206 255
173 206 255
173 206 255
173 206 255
173 206 255
172 206 255
172 206 255
172 206 255
172 205 255
172 205 255
172 205 255
172 205 255
172 205 255
172 205 255
172 205 255
172 205 255
171 205 255
172 205 255
171 205 255
171 205 255
171 205 255
171 205 255
171 205 255
171 205 255
171 205 255
171 205 255
171 205 255
171 205 255
171 205 255
171 205 255
170 204 255
170 204 255
170 204 255
170 204 255
170 204 255
170 204 255
170 204 255
170 204 255
170 204 255
170 204 255
170 204 255
169 204 255
169 204 255
169 204 255
169 204 255
169 204 255
169 204 255
169 204 255
169 204 255
169 204 255
169 203 255
169 203 255
169 203 255
169 203 255
168 203 255
168 203 255
168 203 255
168 203 255
168 203 255
168 203 255
168 203 255
168 203 255
168 203 255
168 203 255
168 203 255
168 203 255
168 203 255
167 203 255
168 203 255
167 203 255
167 203 255
167 203 255
167 203 255
167 203 255
167 202 255
167 202 255
167 202 255
130 160 204
68 84 108
78 98 128
69 87 115
62 78 102
66 85 115
72 89 115
71 91 121
77 92 115
62 76 97
71 91 121
77 95 121
74 93 121
69 88 115
63 78 102
68 88 118
72 89 115
73 90 115
62 81 110
80 97 121
66 83 108
65 83 108
59 76 102
61 77 102
80 97 121
64 79 102
74 91 118
73 87 108
61 77 102
70 88 115
74 90 115
81 97 121
67 84 108
58 75 102
68 84 108
51 65 86
78 95 121
63 79 102
66 88 121
66 83 108
61 76 97
58 70 89
75 93 121
70 88 115
62 77 99
65 82 108
74 90 115
53 68 89
61 77 102
72 89 115
70 88 115
68 87 115
64 79 102
71 86 108
66 83 108
61 76 97
69 87 115
69 87 115
62 78 102
70 88 115
57 72 96
64 79 102
63 79 104
64 82 108
69 87 115
58 75 102
71 89 115
70 85 108
74 93 121
61 77 102
69 85 108
71 86 108
70 88 115
80 96 121
76 94 121
66 86 115
73 90 115
71 91 121
61 75 96
67 86 115
71 87 110
74 93 121
77 97 128
138 167 211
167 202 255
167 202 255
167 202 255
167 202 255
167 202 255
167 203 255
167 203 255
167 203 255
167 203 255
167 203 255
168 203 255
168 203 255
168 203 255
168 203 255
168 203 255
168 203 255
168 203 255
168 203 255
168 203 255
168 203 255
168 203 255
168 203 255
169 203 255
169 203 255
169 203 255
169 203 255
169 203 255
169 204 255
169 204 255
169 204 255
169 204 255
169 204 255
169 204 255
169 204 255
169 204 255
169 204 255
170 204 255
170 204 255
170 204 255
170 204 255
170 204 255
170 204 255
170 204 255
170 204 255
170 204 255
170 204 255
170 204 255
171 205 255
171 205 255
171 205 255
171 205 255
171 205 255
171 205 255
171 205 255
171 205 255
171 205 255
171 205 255
171 205 255
171 205 255
171 205 255
172 205 255
172 205 255
172 205 255
172 205 255
172 205 255
172 205 255
172 205 255
172 205 255
172 205 255
172 206 255
172 206 255
172 206 255
172 206 255
173 206 255
173 206 255
173 206 255
173 206 255
173 206 255
173 206 255
173 206 255
173 206 255
173 206 255
173 206 255
173 206 255
173 206 255
173 206 255
174 206 255
174 206 255
174 206 255
174 206 255
174 206 255
174 206 255
174 207 255
174 207 255
174 207 255
174 207 255
174 207 255
174 207 255
174 207 255
174 207 255
175 207 255
175 207 255
175 207 255
175 207 255
175 207 255
175 207 255
175 207 255
175 207 255
175 207 255
175 207 255
175 207 255
175 207 255
175 207 255
175 207 255
175 207 255
175 207 255
176 208 255
176 208 255
176 208 255
176 208 255
176 208 255
176 208 255
176 208 255
176 208 255
176 208 255
176 208 255
176 208 255
176 208 255
176 208 255
176 208 255
176 208 255
176 208 255
176 208 255
177 208 255
177 208 255
177 208 255
177 208 255
177 208 255
177 208 255
177 208 255
177 208 255
177 208 255
177 208 255
177 208 255
177 209 255
177 209 255
177 209 255
177 209 255
177 209 255
177 209 255
177 209 255
178 209 255
178 209 255
178 209 255
178 209 255
178 209 255
178 209 255
178 209 255
178 209 255
178 209 255
178 209 255
178 209 255
178 209 255
178 209 255
178 209 255
178 209 255
178 209 255
178 209 255
178 209 255
178 209 255
177 209 255
177 209 255
177 209 255
177 209 255
177 209 255
177 209 255
177 209 255
177 208 255
177 208 255
177 208 255
177 208 255
177 208 255
177 208 255
177 208 255
177 208 255
177 208 255
177 208 255
177 208 255
176 208 255
176 208 255
176 208 255
176 208 255
176 208 255
176 208 255
176 208 255
176 208 255
176 208 255
176 208 255
176 208 255
176 208 255
176 208 255
176 208 255
176 208 255
176 208 255
176 208 255
175 207 255
175 207 255
175 207 255
175 207 255
175 207 255
175 207 255
175 207 255
175 207 255
175 207 255
175 207 255
175 207 255
175 207 255
175 207 255
175 207 255
175 207 255
174 207 255
174 207 255
174 207 255
174 207 255
174 207 255
174 207 255
174 207 255
174 207 255
174 207 255
174 206 255
174 206 255
174 206 255
174 206 255
174 206 255
174 206 255
173 206 255
173 206 255
173 206 255
173 206 255
173 206 255
173 206 255
173 206 255
173 206 255
173 206 255
173 206 255
173 206 255
173 206 255
172 206 255
172 206 255
172 206 255
172 206 255
172 206 255
172 205 255
172 205 255
172 205 255
172 205 255
172 205 255
172 205 255
172 205 255
172 205 255
171 205 255
171 205 255
171 205 255
171 205 255
171 205 255
171 205 255
171 205 255
171 205 255
171 205 255
171 205 255
171 205 255
171 205 255
171 205 255
170 204 255
170 204 255
170 204 255
170 204 255
170 204 255
170 204 255
170 204 255
170 204 255
170 204 255
170 204 255
170 204 255
170 204 255
170 204 255
169 204 255
169 204 255
169 204 255
169 204 255
169 204 255
169 204 255
169 204 255
169 204 255
169 204 255
169 203 255
169 203 255
169 203 255
169 203 255
168 203 255
168 203 255
168 203 255
168 203 255
168 203 255
168 203 255
168 203 255
168 203 255
168 203 255
168 203 255
168 203 255
168 203 255
168 203 255
168 203 255
167 203 255
167 203 255
115 138 172
69 82 102
77 92 115
55 71 96
71 88 115
70 88 115
70 88 115
75 93 121
72 89 115
62 81 108
68 86 112
72 89 115
69 87 115
75 91 115
85 102 128
68 84 108
72 89 115
62 80 108
68 82 102
72 89 115
78 96 121
71 89 115
56 72 96
72 89 115
81 100 128
72 89 115
63 81 108
61 77 102
83 101 128
68 84 108
60 74 96
58 73 96
78 95 121
78 95 121
66 85 115
72 89 115
67 81 102
61 77 102
73 93 121
77 94 121
65 85 115
67 83 108
69 85 108
76 92 115
55 69 89
68 84 108
71 86 108
63 81 108
58 73 96
68 84 108
59 74 97
75 93 121
72 87 108
62 81 108
73 92 121
73 93 121
65 82 108
77 97 128
69 85 108
64 82 108
68 84 108
71 83 102
69 85 108
70 90 121
67 83 108
68 82 104
63 79 102
77 95 121
71 88 115
60 77 102
62 75 96
73 92 121
69 85 108
68 87 115
62 78 102
73 87 108
62 77 99
74 91 115
56 73 99
67 84 110
78 95 121
73 90 115
65 80 102
71 88 115
75 93 121
97 122 160
167 203 255
168 203 255
168 203 255
168 203 255
168 203 255
168 203 255
168 203 255
168 203 255
168 203 255
168 203 255
168 203 255
168 203 255
168 203 255
168 203 255
168 203 255
168 203 255
169 203 255
169 203 255
169 203 255
169 203 255
169 203 255
169 204 255
169 204 255
169 204 255
169 204 255
169 204 255
169 204 255
169 204 255
169 204 255
169 204 255
170 204 255
170 204 255
170 204 255
170 204 255
170 204 255
170 204 255
170 204 255
170 204 255
170 204 255
170 204 255
170 204 255
170 204 255
170 204 255
171 205 255
171 205 255
171 205 255
171 205 255
171 205 255
171 205 255
171 205 255
171 205 255
171 205 255
171 205 255
171 205 255
171 205 255
172 205 255
172 205 255
172 205 255
172 205 255
172 205 255
172 205 255
172 205 255
172 205 255
172 206 255
172 206 255
172 206 255
172 206 255
173 206 255
173 206 255
173 206 255
173 206 255
173 206 255
173 206 255
173 206 255
173 206 255
173 206 255
173 206 255
173 206 255
173 206 255
173 206 255
173 206 255
174 206 255
174 206 255
174 206 255
174 206 255
174 206 255
174 207 255
174 207 255
174 207 255
174 207 255
174 207 255
174 207 255
174 207 255
174 207 255
174 207 255
175 207 255
175 207 255
175 207 255
175 207 255
175 207 255
175 207 255
175 207 255
175 207 255
175 207 255
175 207 255
175 207 255
175 207 255
175 207 255
175 207 255
175 207 255
176 208 255
176 208 255
176 208 255
176 208 255
176 208 255
176 208 255
176 208 255
176 208 255
176 208 255
176 208 255
176 208 255
176 208 255
176 208 255
176 208 255
176 208 255
176 208 255
177 208 255
177 208 255
177 208 255
177 208 255
177 208 255
177 208 255
177 208 255
177 208 255
177 208 255
177 208 255
177 208 255
177 208 255
177 209 255
177 209 255
177 209 255
177 209 255
177 209 255
177 209 255
177 209 255
178 209 255
178 209 255
178 209 255
178 209 255
178 209 255
178 209 255
178 209 255
178 209 255
178 209 255
178 209 255
178 209 255
178 209 255
178 209 255
178 209 255
178 209 255
178 209 255
178 209 255
178 209 255
178 209 255
178 209 255
178 209 255
178 209 255
178 209 255
178 209 255
178 209 255
178 209 255
178 209 255
178 209 255
178 209 255
178 209 255
177 209 255
177 209 255
177 209 255
177 209 255
177 209 255
177 209 255
177 208 255
177 208 255
177 208 255
177 208 255
177 208 255
177 208 255
177 208 255
177 208 255
177 208 255
177 208 255
177 208 255
177 208 255
176 208 255
176 208 255
176 208 255
176 208 255
176 208 255
176 208 255
176 208 255
176 208 255
176 208 255
176 208 255
176 208 255
176 208 255
176 208 255
176 208 255
176 208 255
175 207 255
175 207 255
175 207 255
175 207 255
175 207 255
175 207 255
175 207 255
175 207 255
175 207 255
175 207 255
175 207 255
175 207 255
175 207 255
175 207 255
175 207 255
175 207 255
174 207 255
174 207 255
174 207 255
174 207 255
174 207 255
174 207 255
174 207 255
174 207 255
174 207 255
174 207 255
174 206 255
174 206 255
174 206 255
174 206 255
173 206 255
173 206 255
173 206 255
173 206 255
173 206 255
173 206 255
173 206 255
173 206 255
173 206 255
173 206 255
173 206 255
173 206 255
173 206 255
172 206 255
172 206 255
172 206 255
172 206 255
172 205 255
172 205 255
172 205 255
172 205 255
172 205 255
172 205 255
172 205 255
172 205 255
172 205 255
171 205 255
171 205 255
171 205 255
171 205 255
171 205 255
171 205 255
171 205 255
171 205 255
171 205 255
171 205 255
171 205 255
171 205 255
170 204 255
170 204 255
170 204 255
170 204 255
170 204 255
170 204 255
170 204 255
170 204 255
170 204 255
170 204 255
170 204 255
170 204 255
170 204 255
169 204 255
169 204 255
169 204 255
169 204 255
169 204 255
169 204 255
169 204 255
169 204 255
169 204 255
169 203 255
169 203 255
169 203 255
169 203 255
168 203 255
168 203 255
168 203 255
168 203 255
168 203 255
168 203 255
168 203 255
168 203 255
168 203 255
168 203 255
160 193 243
86 105 134
68 84 108
65 82 108
75 93 121
65 82 108
57 70 89
70 85 108
68 84 108
72 89 115
65 80 102
72 89 115
65 80 102
77 95 121
83 98 121
76 94 121
69 87 115
71 86 108
76 94 121
63 81 108
64 77 96
73 92 121
80 99 128
60 77 102
71 88 115
72 89 115
62 75 96
78 98 128
69 85 108
67 84 108
76 94 121
68 87 115
70 88 115
63 76 96
75 94 121
65 80 102
65 85 115
63 76 96
73 90 116
75 92 118
66 81 102
71 88 115
70 85 108
60 78 105
64 82 109
52 65 84
62 78 102
64 79 102
65 82 108
74 93 121
69 90 121
66 83 108
68 84 108
71 88 115
66 83 108
72 89 115
75 91 115
75 94 121
65 80 102
69 87 115
59 74 97
64 79 102
73 87 108
74 93 121
55 69 89
61 77 102
74 89 110
74 90 115
72 89 115
61 77 102
69 87 115
64 82 108
69 87 115
57 73 96
65 80 102
64 82 108
73 92 121
69 87 115
80 99 128
71 91 121
57 70 89
63 78 102
63 79 102
69 87 115
64 77 97
72 89 115
63 79 102
72 89 115
88 109 140
150 182 230
168 203 255
168 203 255
168 203 255
168 203 255
168 203 255
168 203 255
168 203 255
168 203 255
168 203 255
168 203 255
169 203 255
169 203 255
169 203 255
169 204 255
169 204 255
169 204 255
169 204 255
169 204 255
169 204 255
169 204 255
169 204 255
169 204 255
170 204 255
170 204 255
170 204 255
170 204 255
170 204 255
170 204 255
170 204 255
170 204 255
170 204 255
170 204 255
170 204 255
170 204 255
170 204 255
170 204 255
171 205 255
171 205 255
171 205 255
171 205 255
171 205 255
171 205 255
171 205 255
171 205 255
171 205 255
171 205 255
171 205 255
171 205 255
172 205 255
172 205 255
172 205 255
172 205 255
172 205 255
172 205 255
172 205 255
172 205 255
172 206 255
172 206 255
172 206 255
172 206 255
173 206 255
173 206 255
173 206 255
173 206 255
173 206 255
173 206 255
173 206 255
173 206 255
173 206 255
173 206 255
173 206 255
173 206 255
173 206 255
173 206 255
174 206 255
174 206 255
174 206 255
174 206 255
174 207 255
174 207 255
174 207 255
174 207 255
174 207 255
174 207 255
174 207 255
174 207 255
174 207 255
174 207 255
175 207 255
175 207 255
175 207 255
175 207 255
175 207 255
175 207 255
175 207 255
175 207 255
175 207 255
175 207 255
175 207 255
175 207 255
175 207 255
175 207 255
175 207 255
176 208 255
176 208 255
176 208 255
176 208 255
176 208 255
176 208 255
176 208 255
176 208 255
176 208 255
176 208 255
176 208 255
176 208 255
176 208 255
176 208 255
176 208 255
176 208 255
176 208 255
177 208 255
177 208 255
177 208 255
177 208 255
177 208 255
177 208 255
177 208 255
177 208 255
177 208 255
177 208 255
177 208 255
177 209 255
177 209 255
177 209 255
177 209 255
177 209 255
177 209 255
178 209 255
178 209 255
178 209 255
178 209 255
178 209 255
178 209 255
178 209 255
178 209 255
178 209 255
178 209 255
178 209 255
178 209 255
178 209 255
178 209 255
178 209 255
178 209 255
178 209 255
178 209 255
179 209 255
179 209 255
179 209 255
178 209 255
178 209 255
178 209 255
178 209 255
178 209 255
178 209 255
178 209 255
178 209 255
178 209 255
178 209 255
178 209 255
178 209 255
178 209 255
178 209 255
178 209 255
178 209 255
178 209 255
178 209 255
178 209 255
178 209 255
177 209 255
177 209 255
177 209 255
177 209 255
177 209 255
177 209 255
177 208 255
177 208 255
177 208 255
177 208 255
177 208 255
177 208 255
177 208 255
177 208 255
177 208 255
177 208 255
177 208 255
177 208 255
176 208 255
176 208 255
176 208 255
176 208 255
176 208 255
176 208 255
176 208 255
176 208 255
176 208 255
176 208 255
176 208 255
176 208 255
176 208 255
176 208 255
176 208 255
176 208 255
175 207 255
175 207 255
175 207 255
175 207 255
175 207 255
175 207 255
175 207 255
175 207 255
175 207 255
175 207 255
175 207 255
175 207 255
175 207 255
175 207 255
175 207 255
174 207 255
174 207 255
174 207 255
174 207 255
174 207 255
174 207 255
174 207 255
174 207 255
174 207 255
174 206 255
174 206 255
174 206 255
174 206 255
174 206 255
173 206 255
173 206 255
173 206 255
173 206 255
173 206 255
173 206 255
173 206 255
173 206 255
173 206 255
173 206 255
173 206 255
173 206 255
173 206 255
172 206 255
172 206 255
172 206 255
172 206 255
172 206 255
172 205 255
172 205 255
172 205 255
172 205 255
172 205 255
172 205 255
172 205 255
172 205 255
171 205 255
171 205 255
171 205 255
171 205 255
171 205 255
171 205 255
171 205 255
171 205 255
171 205 255
171 205 255
171 205 255
171 205 255
171 205 255
170 204 255
170 204 255
170 204 255
170 204 255
170 204 255
170 204 255
170 204 255
170 204 255
170 204 255
170 204 255
170 204 255
170 204 255
170 204 255
169 204 255
169 204 255
169 204 255
169 204 255
169 204 255
169 204 255
169 204 255
169 204 255
169 204 255
169 203 255
169 203 255
169 203 255
169 203 255
169 203 255
169 203 255
168 203 255
168 203 255
124 151 192
55 68 89
69 85 108
70 88 115
63 84 115
72 89 115
78 98 128
57 70 89
76 91 115
69 87 115
68 84 108
55 71 96
59 76 102
79 99 128
57 72 96
67 84 108
77 97 128
79 96 121
64 79 102
82 100 128
74 91 115
60 77 102
69 88 115
60 75 97
65 81 105
61 73 91
73 90 115
74 93 121
66 83 108
78 95 121
66 83 108
71 88 115
57 70 89
75 96 128
72 87 108
70 88 115
70 88 115
61 77 102
66 83 108
62 75 96
76 94 121
78 95 121
73 90 115
65 80 102
67 86 115
62 75 96
60 74 96
77 95 121
57 68 86
81 99 128
66 83 108
69 85 108
55 69 89
71 91 121
85 102 128
72 89 115
67 84 108
78 93 115
68 84 108
66 80 102
75 91 115
61 77 102
68 87 115
71 89 115
68 84 108
69 85 108
74 90 115
71 91 121
68 84 108
73 89 115
76 91 115
58 74 99
73 90 115
58 73 96
81 99 128
63 79 102
70 86 112
60 79 108
73 92 121
74 90 115
73 92 121
75 96 128
66 83 108
65 82 108
72 87 108
63 79 102
71 89 115
68 84 108
68 87 115
83 101 128
160 193 243
168 203 255
169 203 255
169 203 255
169 203 255
169 203 255
169 203 255
169 204 255
169 204 255
169 204 255
169 204 255
169 204 255
169 204 255
169 204 255
169 204 255
169 204 255
170 204 255
169 204 255
170 204 255
170 204 255
170 204 255
170 204 255
170 204 255
170 204 255
170 204 255
170 204 255
170 204 255
170 204 255
170 204 255
170 204 255
171 205 255
171 205 255
171 205 255
171 205 255
171 205 255
171 205 255
171 205 255
171 205 255
171 205 255
171 205 255
171 205 255
171 205 255
171 205 255
172 205 255
172 205 255
172 205 255
172 205 255
172 205 255
172 205 255
172 205 255
172 205 255
172 205 255
172 206 255
172 206 255
172 206 255
173 206 255
173 206 255
173 206 255
173 206 255
173 206 255
173 206 255
173 206 255
173 206 255
173 206 255
173 206 255
173 206 255
173 206 255
173 206 255
173 206 255
174 206 255
174 206 255
174 206 255
174 206 255
174 206 255
174 207 255
174 207 255
174 207 255
174 207 255
174 207 255
174 207 255
174 207 255
174 207 255
174 207 255
175 207 255
175 207 255
175 207 255
175 207 255
175 207 255
175 207 255
175 207 255
175 207 255
175 207 255
175 207 255
175 207 255
175 207 255
175 207 255
175 207 255
175 207 255
176 208 255
176 208 255
176 208 255
176 208 255
176 208 255
176 208 255
176 208 255
176 208 255
176 208 255
176 208 255
176 208 255
176 208 255
176 208 255
176 208 255
176 208 255
176 208 255
177 208 255
177 208 255
177 208 255
177 208 255
177 208 255
177 208 255
177 208 255
177 208 255
177 208 255
177 208 255
177 208 255
177 208 255
177 209 255
177 209 255
177 209 255
177 209 255
177 209 255
178 209 255
178 209 255
178 209 255
178 209 255
178 209 255
178 209 255
178 209 255
178 209 255
178 209 255
178 209 255
178 209 255
178 209 255
178 209 255
178 209 255
178 209 255
178 209 255
178 209 255
178 209 255
178 209 255
178 209 255
178 209 255
179 209 255
179 209 255
179 209 255
179 210 255
179 209 255
179 209 255
179 209 255
179 209 255
179 209 255
179 209 255
179 209 255
179 209 255
178 209 255
178 209 255
178 209 255
178 209 255
178 209 255
178 209 255
178 209 255
178 209 255
178 209 255
178 209 255
178 209 255
178 209 255
178 209 255
178 209 255
178 209 255
178 209 255
178 209 255
178 209 255
178 209 255
178 209 255
177 209 255
177 209 255
177 209 255
177 209 255
177 209 255
177 208 255
177 208 255
177 208 255
177 208 255
177 208 255
177 208 255
177 208 255
177 208 255
177 208 255
177 208 255
177 208 255
177 208 255
176 208 255
176 208 255
176 208 255
176 208 255
176 208 255
176 208 255
176 208 255
176 208 255
176 208 255
176 208 255
176 208 255
176 208 255
176 208 255
176 208 255
176 208 255
176 208 255
175 207 255
175 207 255
175 207 255
175 207 255
175 207 255
175 207 255
175 207 255
175 207 255
175 207 255
175 207 255
175 207 255
175 207 255
175 207 255
175 207 255
175 207 255
174 207 255
174 207 255
174 207 255
174 207 255
174 207 255
174 207 255
174 207 255
174 207 255
174 207 255
174 206 255
174 206 255
174 206 255
174 206 255
174 206 255
173 206 255
173 206 255
173 206 255
173 206 255
173 206 255
173 206 255
173 206 255
173 206 255
173 206 255
173 206 255
173 206 255
173 206 255
173 206 255
172 206 255
172 206 255
172 206 255
172 206 255
172 205 255
172 205 255
172 205 255
172 205 255
172 205 255
172 205 255
172 205 255
172 205 255
172 205 255
171 205 255
171 205 255
171 205 255
171 205 255
171 205 255
171 205 255
171 205 255
171 205 255
171 205 255
171 205 255
171 205 255
171 205 255
171 205 255
170 204 255
170 204 255
170 204 255
170 204 255
170 204 255
170 204 255
170 204 255
170 204 255
170 204 255
170 204 255
170 204 255
170 204 255
170 204 255
170 204 255
169 204 255
169 204 255
169 204 255
169 204 255
169 204 255
169 204 255
169 204 255
169 204 255
169 204 255
156 188 236
94 115 147
74 93 121
78 95 121
61 75 97
63 81 108
67 84 110
63 78 102
76 91 115
65 83 108
70 88 115
72 86 108
72 92 121
64 82 108
72 92 121
83 98 121
71 85 105
69 87 115
75 91 115
63 79 102
74 90 115
73 90 115
73 89 115
66 83 108
63 81 108
57 70 91
59 71 89
59 74 96
65 82 108
61 77 102
74 93 121
63 78 102
63 79 102
72 89 115
63 79 102
63 84 115
67 82 105
69 87 115
48 62 84
64 80 104
72 89 115
62 78 102
80 96 121
70 85 108
62 78 102
71 86 108
69 85 108
66 80 102
66 85 115
63 80 105
62 78 102
62 78 102
64 83 112
59 77 104
73 92 121
60 74 96
69 83 104
73 87 108
58 73 96
57 72 96
55 68 89
72 89 115
69 84 108
68 84 108
65 80 102
61 77 102
67 84 108
59 77 104
58 74 99
74 88 108
68 84 108
60 77 102
68 87 115
64 79 102
73 92 121
67 84 108
66 83 108
74 90 115
80 94 115
65 80 102
72 89 115
77 92 115
74 93 121
76 94 121
75 94 121
77 97 128
76 94 121
73 89 115
81 100 128
67 81 104
68 84 108
65 80 102
84 102 129
156 188 236
169 204 255
169 204 255
169 204 255
169 204 255
169 204 255
169 204 255
169 204 255
169 204 255
169 204 255
170 204 255
170 204 255
170 204 255
170 204 255
170 204 255
170 204 255
170 204 255
170 204 255
170 204 255
170 204 255
170 204 255
170 204 255
170 204 255
170 204 255
171 205 255
171 205 255
171 205 255
171 205 255
171 205 255
171 205 255
171 205 255
171 205 255
171 205 255
171 205 255
171 205 255
171 205 255
172 205 255
172 205 255
172 205 255
172 205 255
172 205 255
172 205 255
172 205 255
172 205 255
172 205 255
172 205 255
172 206 255
172 206 255
172 206 255
173 206 255
172 206 255
173 206 255
173 206 255
173 206 255
173 206 255
173 206 255
173 206 255
173 206 255
173 206 255
173 206 255
173 206 255
173 206 255
173 206 255
173 206 255
174 206 255
174 206 255
174 206 255
174 206 255
174 207 255
174 207 255
174 207 255
174 207 255
174 207 255
174 207 255
174 207 255
174 207 255
174 207 255
175 207 255
175 207 255
175 207 255
175 207 255
175 207 255
175 207 255
175 207 255
175 207 255
175 207 255
175 207 255
175 207 255
175 207 255
175 207 255
175 207 255
175 207 255
176 208 255
176 208 255
176 208 255
176 208 255
176 208 255
176 208 255
176 208 255
176 208 255
176 208 255
176 208 255
176 208 255
176 208 255
176 208 255
176 208 255
176 208 255
176 208 255
177 208 255
177 208 255
177 208 255
177 208 255
177 208 255
177 208 255
177 208 255
177 208 255
177 208 255
177 208 255
177 208 255
177 208 255
177 209 255
177 209 255
177 209 255
177 209 255
177 209 255
178 209 255
178 209 255
178 209 255
178 209 255
178 209 255
178 209 255
178 209 255
178 209 255
178 209 255
178 209 255
178 209 255
178 209 255
178 209 255
178 209 255
178 209 255
178 209 255
178 209 255
178 209 255
178 209 255
178 209 255
179 209 255
179 209 255
179 209 255
179 209 255
179 209 255
179 209 255
179 209 255
179 210 255
179 209 255
179 210 255
179 210 255
179 210 255
179 210 255
179 210 255
179 210 255
179 210 255
179 209 255
179 209 255
179 209 255
179 209 255
179 209 255
179 209 255
179 209 255
179 209 255
178 209 255
178 209 255
178 209 255
178 209 255
178 209 255
178 209 255
178 209 255
178 209 255
178 209 255
178 209 255
178 209 255
178 209 255
178 209 255
178 209 255
178 209 255
178 209 255
178 209 255
178 209 255
177 209 255
177 209 255
177 209 255
177 209 255
177 209 255
177 209 255
177 209 255
177 208 255
177 208 255
177 208 255
177 208 255
177 208 255
177 208 255
177 208 255
177 208 255
177 208 255
177 208 255
177 208 255
176 208 255
176 208 255
176 208 255
176 208 255
176 208 255
176 208 255
176 208 255
176 208 255
176 208 255
176 208 255
176 208 255
176 208 255
176 208 255
176 208 255
176 208 255
176 208 255
175 207 255
175 207 255
175 207 255
175 207 255
175 207 255
175 207 255
175 207 255
175 207 255
175 207 255
175 207 255
175 207 255
175 207 255
175 207 255
175 207 255
174 207 255
174 207 255
174 207 255
174 207 255
174 207 255
174 207 255
174 207 255
174 207 255
174 207 255
174 207 255
174 206 255
174 206 255
174 206 255
174 206 255
173 206 255
173 206 255
173 206 255
173 206 255
173 206 255
173 206 255
173 206 255
173 206 255
173 206 255
173 206 255
173 206 255
173 206 255
173 206 255
173 206 255
172 206 255
172 206 255
172 206 255
172 206 255
172 205 255
172 205 255
172 205 255
172 205 255
172 205 255
172 205 255
172 205 255
172 205 255
171 205 255
171 205 255
171 205 255
171 205 255
171 205 255
171 205 255
171 205 255
171 205 255
171 205 255
171 205 255
171 205 255
171 205 255
171 205 255
171 205 255
171 205 255
170 204 255
170 204 255
170 204 255
170 204 255
170 204 255
170 204 255
170 204 255
170 204 255
170 204 255
170 204 255
170 204 255
170 204 255
170 204 255
170 204 255
169 204 255
169 204 255
160 193 243
94 115 147
66 83 108
57 72 96
68 84 108
65 80 102
59 73 96
72 86 108
72 87 108
64 82 108
60 79 108
72 87 108
66 83 108
67 84 110
74 90 115
70 86 110
56 72 96
69 85 108
78 98 128
66 83 108
61 77 102
71 86 108
65 82 108
57 75 102
75 94 121
61 77 102
65 82 108
70 85 108
63 78 102
63 77 97
79 99 128
67 84 108
71 89 115
69 85 108
77 97 128
63 79 102
67 81 102
65 81 105
77 97 128
62 78 102
64 81 105
73 95 128
65 83 112
68 86 115
66 81 102
78 92 115
62 76 96
62 81 108
73 93 121
61 75 96
65 78 99
61 78 102
57 73 96
73 90 115
67 84 108
61 77 102
76 91 115
68 84 108
64 82 108
67 84 108
60 77 102
55 71 96
65 82 108
69 87 115
68 84 108
77 95 121
74 90 115
72 87 110
56 72 96
74 90 115
70 85 108
66 78 97
73 92 121
70 88 115
68 89 121
64 79 102
76 94 121
81 97 121
74 91 115
65 80 102
63 78 102
74 93 121
70 88 115
68 84 108
64 79 102
67 83 108
71 88 115
55 71 96
74 95 128
66 83 108
55 69 89
65 80 102
50 66 89
79 98 128
80 101 134
148 178 224
169 204 255
169 204 255
170 204 255
170 204 255
170 204 255
170 204 255
170 204 255
170 204 255
170 204 255
170 204 255
170 204 255
170 204 255
170 204 255
170 204 255
170 204 255
170 204 255
171 205 255
171 205 255
171 205 255
171 205 255
171 205 255
171 205 255
171 205 255
171 205 255
171 205 255
171 205 255
171 205 255
171 205 255
171 205 255
171 205 255
172 205 255
172 205 255
172 205 255
172 205 255
172 205 255
172 205 255
172 205 255
172 205 255
172 205 255
172 206 255
172 206 255
172 206 255
172 206 255
172 206 255
173 206 255
173 206 255
173 206 255
173 206 255
173 206 255
173 206 255
173 206 255
173 206 255
173 206 255
173 206 255
173 206 255
173 206 255
173 206 255
174 206 255
174 206 255
174 206 255
174 206 255
174 207 255
174 207 255
174 207 255
174 207 255
174 207 255
174 207 255
174 207 255
174 207 255
174 207 255
175 207 255
175 207 255
175 207 255
175 207 255
175 207 255
175 207 255
175 207 255
175 207 255
175 207 255
175 207 255
175 207 255
175 207 255
175 207 255
175 207 255
175 207 255
176 208 255
176 208 255
176 208 255
176 208 255
176 208 255
176 208 255
176 208 255
176 208 255
176 208 255
176 208 255
176 208 255
176 208 255
176 208 255
176 208 255
176 208 255
177 208 255
177 208 255
177 208 255
177 208 255
177 208 255
177 208 255
177 208 255
177 208 255
177 208 255
177 208 255
177 208 255
177 208 255
177 208 255
177 209 255
177 209 255
177 209 255
177 209 255
177 209 255
177 209 255
178 209 255
178 209 255
178 209 255
178 209 255
178 209 255
178 209 255
178 209 255
178 209 255
178 209 255
178 209 255
178 209 255
178 209 255
178 209 255
178 209 255
178 209 255
178 209 255
178 209 255
178 209 255
179 209 255
179 209 255
179 209 255
179 209 255
179 209 255
179 209 255
179 209 255
179 210 255
179 210 255
179 210 255
179 210 255
179 210 255
179 210 255
179 210 255
179 210 255
179 210 255
179 210 255
179 210 255
179 210 255
179 210 255
179 210 255
179 210 255
179 210 255
179 210 255
179 210 255
179 210 255
179 210 255
179 210 255
179 210 255
179 209 255
179 209 255
179 209 255
179 209 255
179 209 255
179 209 255
179 209 255
178 209 255
178 209 255
178 209 255
178 209 255
178 209 255
178 209 255
178 209 255
178 209 255
178 209 255
178 209 255
178 209 255
178 209 255
178 209 255
178 209 255
178 209 255
178 209 255
178 209 255
178 209 255
177 209 255
177 209 255
177 209 255
177 209 255
177 209 255
177 209 255
177 208 255
177 208 255
177 208 255
177 208 255
177 208 255
177 208 255
177 208 255
177 208 255
177 208 255
177 208 255
177 208 255
176 208 255
176 208 255
176 208 255
176 208 255
176 208 255
176 208 255
176 208 255
176 208 255
176 208 255
176 208 255
176 208 255
176 208 255
176 208 255
176 208 255
176 208 255
176 208 255
175 207 255
175 207 255
175 207 255
175 207 255
175 207 255
175 207 255
175 207 255
175 207 255
175 207 255
175 207 255
175 207 255
175 207 255
175 207 255
175 207 255
174 207 255
175 207 255
174 207 255
174 207 255
174 207 255
174 207 255
174 207 255
174 207 255
174 207 255
174 207 255
174 206 255
174 206 255
174 206 255
174 206 255
174 206 255
173 206 255
173 206 255
173 206 255
173 206 255
173 206 255
173 206 255
173 206 255
173 206 255
173 206 255
173 206 255
173 206 255
173 206 255
172 206 255
173 206 255
172 206 255
172 206 255
172 206 255
172 206 255
172 205 255
172 205 255
172 205 255
172 205 255
172 205 255
172 205 255
172 205 255
172 205 255
172 205 255
171 205 255
171 205 255
171 205 255
171 205 255
171 205 255
171 205 255
171 205 255
171 205 255
171 205 255
171 205 255
171 205 255
171 205 255
171 205 255
171 205 255
170 204 255
170 204 255
170 204 255
170 204 255
170 204 255
170 204 255
170 204 255
170 204 255
170 204 255
159 193 243
83 103 134
73 92 121
81 97 121
79 96 121
74 90 115
74 93 121
54 68 89
81 97 121
74 93 121
65 82 108
73 92 121
72 91 121
65 82 108
68 84 108
62 78 102
71 88 115
59 76 102
70 88 115
71 88 115
76 97 128
81 94 115
56 73 97
73 92 121
74 90 115
69 86 112
68 84 108
53 62 77
69 87 115
60 74 96
46 59 77
63 79 102
63 77 99
63 81 108
63 79 103
68 81 102
51 66 89
74 90 115
63 78 102
69 87 115
66 83 108
66 83 108
70 85 108
67 81 102
72 90 116
72 87 108
79 96 121
62 75 96
65 82 108
66 83 108
64 84 115
62 78 102
70 88 115
78 95 121
64 79 102
75 94 121
71 88 115
67 84 108
61 75 96
76 94 121
60 74 96
71 89 115
71 86 108
69 90 121
74 90 115
60 77 102
66 83 108
69 87 115
62 75 96
61 76 99
74 87 108
76 94 121
58 72 92
71 88 115
67 80 99
65 82 108
68 81 102
67 83 108
62 78 102
72 89 115
64 80 104
66 81 104
62 78 102
61 75 96
67 83 108
68 87 115
69 87 115
51 61 76
61 76 99
73 90 115
61 77 102
74 90 115
82 100 128
77 95 121
73 89 115
58 76 102
85 102 128
170 204 255
170 204 255
170 204 255
170 204 255
170 204 255
170 204 255
170 204 255
170 204 255
170 204 255
170 204 255
170 204 255
171 205 255
171 205 255
171 205 255
171 205 255
171 205 255
171 205 255
171 205 255
171 205 255
171 205 255
171 205 255
171 205 255
171 205 255
171 205 255
172 205 255
172 205 255
172 205 255
172 205 255
172 205 255
172 205 255
172 205 255
172 205 255
172 205 255
172 205 255
172 206 255
172 206 255
172 206 255
172 206 255
173 206 255
173 206 255
173 206 255
173 206 255
173 206 255
173 206 255
173 206 255
173 206 255
173 206 255
173 206 255
173 206 255
173 206 255
173 206 255
174 206 255
174 206 255
174 206 255
174 206 255
174 206 255
174 206 255
174 207 255
174 207 255
174 207 255
174 207 255
174 207 255
174 207 255
174 207 255
174 207 255
174 207 255
175 207 255
175 207 255
175 207 255
175 207 255
175 207 255
175 207 255
175 207 255
175 207 255
175 207 255
175 207 255
175 207 255
175 207 255
175 207 255
175 207 255
176 208 255
176 208 255
176 208 255
176 208 255
176 208 255
176 208 255
176 208 255
176 208 255
176 208 255
176 208 255
176 208 255
176 208 255
176 208 255
176 208 255
176 208 255
176 208 255
177 208 255
177 208 255
177 208 255
177 208 255
177 208 255
177 208 255
177 208 255
177 208 255
177 208 255
177 208 255
177 209 255
177 209 255
177 209 255
177 209 255
177 209 255
177 209 255
177 209 255
178 209 255
178 209 255
178 209 255
178 209 255
178 209 255
178 209 255
178 209 255
178 209 255
178 209 255
178 209 255
178 209 255
178 209 255
178 209 255
178 209 255
178 209 255
178 209 255
178 209 255
178 209 255
178 209 255
179 209 255
179 209 255
179 209 255
179 209 255
179 209 255
179 209 255
179 210 255
179 210 255
179 210 255
179 210 255
179 210 255
179 210 255
179 210 255
179 210 255
179 210 255
179 210 255
179 210 255
179 210 255
179 210 255
179 210 255
180 210 255
180 210 255
180 210 255
180 210 255
180 210 255
180 210 255
179 210 255
179 210 255
179 210 255
179 210 255
179 210 255
179 210 255
179 210 255
179 210 255
179 210 255
179 210 255
179 210 255
179 210 255
179 209 255
179 210 255
179 209 255
179 209 255
179 209 255
179 209 255
179 209 255
179 209 255
179 209 255
178 209 255
178 209 255
178 209 255
178 209 255
178 209 255
178 209 255
178 209 255
178 209 255
178 209 255
178 209 255
178 209 255
178 209 255
178 209 255
178 209 255
178 209 255
178 209 255
178 209 255
178 209 255
177 209 255
177 209 255
177 209 255
177 209 255
177 209 255
177 209 255
177 208 255
177 208 255
177 208 255
177 208 255
177 208 255
177 208 255
177 208 255
177 208 255
177 208 255
177 208 255
176 208 255
176 208 255
176 208 255
176 208 255
176 208 255
176 208 255
176 208 255
176 208 255
176 208 255
176 208 255
176 208 255
176 208 255
176 208 255
176 208 255
176 208 255
176 208 255
176 208 255
175 207 255
175 207 255
175 207 255
175 207 255
175 207 255
175 207 255
175 207 255
175 207 255
175 207 255
175 207 255
175 207 255
175 207 255
175 207 255
174 207 255
174 207 255
174 207 255
174 207 255
174 207 255
174 207 255
174 207 255
174 207 255
174 207 255
174 207 255
174 207 255
174 206 255
174 206 255
174 206 255
174 206 255
173 206 255
173 206 255
173 206 255
173 206 255
173 206 255
173 206 255
173 206 255
173 206 255
173 206 255
173 206 255
173 206 255
173 206 255
173 206 255
173 206 255
172 206 255
172 206 255
172 206 255
172 206 255
172 205 255
172 205 255
172 205 255
172 205 255
172 205 255
172 205 255
172 205 255
172 205 255
172 205 255
171 205 255
171 205 255
171 205 255
171 205 255
171 205 255
171 205 255
171 205 255
171 205 255
171 205 255
171 205 255
171 205 255
171 205 255
171 205 255
171 205 255
171 205 255
170 204 255
170 204 255
170 204 255
103 123 153
65 85 115
63 78 102
64 82 108
77 95 121
62 76 96
72 92 121
70 86 110
72 87 108
70 88 115
71 86 108
60 74 96
72 89 115
65 81 105
62 75 96
61 80 108
51 66 89
65 85 115
70 85 108
69 85 108
74 90 115
71 88 115
58 73 96
74 90 115
66 85 115
70 88 115
60 77 102
68 84 108
46 58 76
63 78 102
64 81 108
68 82 104
69 86 110
55 69 89
70 85 108
78 95 121
69 90 121
67 81 102
67 86 115
70 85 108
70 86 108
62 77 100
65 82 108
72 89 115
64 77 96
75 91 115
61 76 99
72 87 108
60 72 91
75 93 121
56 70 91
73 90 115
62 76 99
48 63 84
74 96 128
69 85 108
76 94 121
55 66 83
70 88 115
63 78 102
71 86 108
75 91 115
55 70 91
68 82 102
69 85 108
69 82 102
61 75 96
68 82 102
63 81 108
80 96 121
63 81 108
69 87 115
77 95 121
67 84 108
80 99 128
66 83 108
70 88 115
70 85 108
65 79 99
71 88 115
70 88 115
68 84 108
61 75 96
78 95 121
63 78 102
63 81 108
63 76 96
61 78 102
72 89 115
65 83 108
63 80 105
65 82 108
59 73 96
56 69 89
72 89 115
78 95 121
69 87 115
145 174 217
170 204 255
170 204 255
170 204 255
170 204 255
171 205 255
171 205 255
171 205 255
171 205 255
171 205 255
171 205 255
171 205 255
171 205 255
171 205 255
171 205 255
171 205 255
171 205 255
171 205 255
172 205 255
172 205 255
172 205 255
172 205 255
172 205 255
172 205 255
172 205 255
172 205 255
172 205 255
172 206 255
172 205 255
172 206 255
172 206 255
172 206 255
172 206 255
173 206 255
173 206 255
173 206 255
173 206 255
173 206 255
173 206 255
173 206 255
173 206 255
173 206 255
173 206 255
173 206 255
173 206 255
173 206 255
174 206 255
174 206 255
174 206 255
174 206 255
174 206 255
174 207 255
174 207 255
174 207 255
174 207 255
174 207 255
174 207 255
174 207 255
174 207 255
174 207 255
175 207 255
175 207 255
175 207 255
175 207 255
175 207 255
175 207 255
175 207 255
175 207 255
175 207 255
175 207 255
175 207 255
175 207 255
175 207 255
175 207 255
175 207 255
176 208 255
176 208 255
176 208 255
176 208 255
176 208 255
176 208 255
176 208 255
176 208 255
176 208 255
176 208 255
176 208 255
176 208 255
176 208 255
176 208 255
176 208 255
176 208 255
177 208 255
177 208 255
177 208 255
177 208 255
177 208 255
177 208 255
177 208 255
177 208 255
177 208 255
177 208 255
177 209 255
177 209 255
177 209 255
177 209 255
177 209 255
177 209 255
177 209 255
178 209 255
178 209 255
178 209 255
178 209 255
178 209 255
178 209 255
178 209 255
178 209 255
178 209 255
178 209 255
178 209 255
178 209 255
178 209 255
178 209 255
178 209 255
178 209 255
178 209 255
178 209 255
179 209 255
179 209 255
179 209 255
179 209 255
179 209 255
179 209 255
179 209 255
179 210 255
179 210 255
179 210 255
179 210 255
179 210 255
179 210 255
179 210 255
179 210 255
179 210 255
179 210 255
179 210 255
179 210 255
179 210 255
179 210 255
180 210 255
180 210 255
180 210 255
180 210 255
180 210 255
180 210 255
180 210 255
180 210 255
180 210 255
180 210 255
180 210 255
180 210 255
180 210 255
180 210 255
180 210 255
179 210 255
179 210 255
179 210 255
179 210 255
179 210 255
179 210 255
179 210 255
179 210 255
179 210 255
179 210 255
179 210 255
179 210 255
179 210 255
179 210 255
179 210 255
179 209 255
179 209 255
179 209 255
179 209 255
179 209 255
179 209 255
178 209 255
178 209 255
178 209 255
178 209 255
178 209 255
178 209 255
178 209 255
178 209 255
178 209 255
178 209 255
178 209 255
178 209 255
178 209 255
178 209 255
178 209 255
178 209 255
178 209 255
178 209 255
178 209 255
178 209 255
177 209 255
177 209 255
177 209 255
177 209 255
177 209 255
177 208 255
177 208 255
177 208 255
177 208 255
177 208 255
177 208 255
177 208 255
177 208 255
177 208 255
177 208 255
177 208 255
177 208 255
176 208 255
176 208 255
176 208 255
176 208 255
176 208 255
176 208 255
176 208 255
176 208 255
176 208 255
176 208 255
176 208 255
176 208 255
176 208 255
176 208 255
175 207 255
175 207 255
175 207 255
175 207 255
175 207 255
175 207 255
175 207 255
175 207 255
175 207 255
175 207 255
175 207 255
175 207 255
175 207 255
175 207 255
175 207 255
175 207 255
174 207 255
174 207 255
174 207 255
174 207 255
174 207 255
174 207 255
174 207 255
174 207 255
174 207 255
174 206 255
174 206 255
174 206 255
174 206 255
174 206 255
173 206 255
173 206 255
173 206 255
173 206 255
173 206 255
173 206 255
173 206 255
173 206 255
173 206 255
173 206 255
173 206 255
173 206 255
173 206 255
172 206 255
172 206 255
172 206 255
172 206 255
172 206 255
172 205 255
172 205 255
172 205 255
172 205 255
172 205 255
172 205 255
172 205 255
172 205 255
172 205 255
171 205 255
171 205 255
171 205 255
171 205 255
171 205 255
171 205 255
171 205 255
171 205 255
171 205 255
171 205 255
171 205 255
97 119 153
75 93 121
79 99 128
77 97 128
65 80 102
71 86 108
69 87 115
64 79 102
67 83 108
81 97 121
68 84 108
68 87 116
62 78 102
62 79 105
71 86 108
56 72 96
54 67 86
74 90 115
67 84 108
78 95 121
53 68 89
68 87 115
60 74 96
68 84 108
71 88 115
75 93 121
63 79 104
68 87 115
72 89 115
65 79 102
68 84 108
71 86 108
73 87 108
64 79 102
67 84 108
79 96 121
61 78 102
55 71 96
65 80 102
52 67 89
72 87 110
83 98 121
77 95 121
66 80 102
69 87 115
76 91 115
67 83 108
74 90 115
62 78 102
74 90 115
68 84 108
69 84 108
70 85 108
60 73 94
69 85 108
62 78 102
67 86 115
82 100 128
62 76 96
76 91 115
69 87 115
68 87 115
68 83 105
73 88 112
68 84 108
62 75 96
59 76 102
80 99 128
64 79 102
59 74 96
73 90 115
62 78 102
62 78 102
74 89 112
64 82 108
69 85 108
73 90 115
68 81 102
61 77 102
80 97 121
68 87 115
73 89 115
72 86 108
65 81 105
71 86 108
70 85 108
74 90 115
61 75 96
75 93 121
72 86 108
74 93 121
69 87 115
66 82 105
74 90 115
62 78 102
55 71 96
77 95 121
71 91 121
68 84 108
125 151 192
171 205 255
171 205 255
171 205 255
171 205 255
171 205 255
171 205 255
171 205 255
171 205 255
171 205 255
172 205 255
172 205 255
172 205 255
172 205 255
172 205 255
172 205 255
172 205 255
172 205 255
172 205 255
172 205 255
172 205 255
172 205 255
172 206 255
172 206 255
172 206 255
172 206 255
173 206 255
173 206 255
173 206 255
173 206 255
173 206 255
173 206 255
173 206 255
173 206 255
173 206 255
173 206 255
173 206 255
173 206 255
173 206 255
173 206 255
174 206 255
174 206 255
174 206 255
174 206 255
174 206 255
174 207 255
174 207 255
174 207 255
174 207 255
174 207 255
174 207 255
174 207 255
174 207 255
174 207 255
175 207 255
175 207 255
175 207 255
175 207 255
175 207 255
175 207 255
175 207 255
175 207 255
175 207 255
175 207 255
175 207 255
175 207 255
175 207 255
175 207 255
175 207 255
176 208 255
176 208 255
176 208 255
176 208 255
176 208 255
176 208 255
176 208 255
176 208 255
176 208 255
176 208 255
176 208 255
176 208 255
176 208 255
176 208 255
176 208 255
177 208 255
177 208 255
177 208 255
177 208 255
177 208 255
177 208 255
177 208 255
177 208 255
177 208 255
177 208 255
177 208 255
177 208 255
177 209 255
177 209 255
177 209 255
177 209 255
177 209 255
178 209 255
178 209 255
178 209 255
178 209 255
178 209 255
178 209 255
178 209 255
178 209 255
178 209 255
178 209 255
178 209 255
178 209 255
178 209 255
178 209 255
178 209 255
178 209 255
178 209 255
178 209 255
178 209 255
179 209 255
179 209 255
179 209 255
179 209 255
179 209 255
179 209 255
179 209 255
179 210 255
179 210 255
179 210 255
179 210 255
179 210 255
179 210 255
179 210 255
179 210 255
179 210 255
179 210 255
179 210 255
179 210 255
179 210 255
180 210 255
180 210 255
180 210 255
180 210 255
180 210 255
180 210 255
180 210 255
180 210 255
180 210 255
180 210 255
180 210 255
180 210 255
180 210 255
180 210 255
180 210 255
180 210 255
180 210 255
180 210 255
180 210 255
180 210 255
180 210 255
180 210 255
180 210 255
180 210 255
180 210 255
180 210 255
180 210 255
180 210 255
179 210 255
179 210 255
179 210 255
179 210 255
179 210 255
179 210 255
179 210 255
179 210 255
179 210 255
179 210 255
179 210 255
179 210 255
179 210 255
179 210 255
179 210 255
179 210 255
179 209 255
179 209 255
179 209 255
179 209 255
178 209 255
178 209 255
178 209 255
178 209 255
178 209 255
178 209 255
178 209 255
178 209 255
178 209 255
178 209 255
178 209 255
178 209 255
178 209 255
178 209 255
178 209 255
178 209 255
178 209 255
178 209 255
177 209 255
177 209 255
177 209 255
177 209 255
177 209 255
177 209 255
177 209 255
177 208 255
177 208 255
177 208 255
177 208 255
177 208 255
177 208 255
177 208 255
177 208 255
177 208 255
177 208 255
176 208 255
176 208 255
176 208 255
176 208 255
176 208 255
176 208 255
176 208 255
176 208 255
176 208 255
176 208 255
176 208 255
176 208 255
176 208 255
176 208 255
176 208 255
176 208 255
175 207 255
175 207 255
175 207 255
175 207 255
175 207 255
175 207 255
175 207 255
175 207 255
175 207 255
175 207 255
175 207 255
175 207 255
175 207 255
175 207 255
175 207 255
174 207 255
174 207 255
174 207 255
174 207 255
174 207 255
174 207 255
174 207 255
174 207 255
174 207 255
174 206 255
174 206 255
174 206 255
174 206 255
174 206 255
173 206 255
173 206 255
173 206 255
173 206 255
173 206 255
173 206 255
173 206 255
173 206 255
173 206 255
173 206 255
173 206 255
173 206 255
173 206 255
173 206 255
172 206 255
172 206 255
172 206 255
172 206 255
172 206 255
172 206 255
172 205 255
172 205 255
172 205 255
172 205 255
172 205 255
172 205 255
172 205 255
172 205 255
172 205 255
172 205 255
171 205 255
171 205 255
145 174 217
63 79 102
66 86 115
74 90 115
77 92 115
81 100 128
68 87 115
58 73 96
70 90 121
63 78 102
72 87 108
71 88 115
55 71 96
55 70 92
80 99 128
53 68 91
63 81 108
66 86 115
83 101 128
69 87 115
66 81 104
74 88 108
66 80 102
61 75 96
64 79 102
67 81 102
69 85 108
73 89 115
61 72 89
56 70 91
68 84 108
69 84 108
77 95 121
67 83 108
68 84 108
56 72 96
69 85 108
56 72 96
78 95 121
53 65 83
70 85 108
73 90 115
69 85 108
76 94 121
66 83 108
76 94 121
73 87 108
59 76 102
58 74 99
69 85 108
51 66 89
70 85 108
59 74 96
53 68 89
51 66 89
74 88 108
73 92 121
76 94 121
61 78 102
58 73 96
61 75 96
67 83 108
65 80 102
69 85 108
69 87 115
66 80 102
65 80 102
70 88 115
70 88 115
52 67 89
67 84 108
71 86 108
59 74 97
73 90 115
68 86 115
76 94 121
66 83 108
59 73 96
58 75 102
58 76 102
59 74 97
71 89 115
70 83 102
66 83 108
76 91 115
74 91 115
64 82 108
72 89 115
74 91 115
64 79 102
65 78 97
72 87 108
70 86 108
55 69 91
65 82 108
66 83 108
70 83 102
78 95 121
76 96 128
52 64 83
69 87 115
117 144 185
171 205 255
171 205 255
172 205 255
172 205 255
172 205 255
172 205 255
172 205 255
172 205 255
172 205 255
172 205 255
172 205 255
172 205 255
172 206 255
172 206 255
172 206 255
172 206 255
172 206 255
172 206 255
173 206 255
173 206 255
173 206 255
173 206 255
173 206 255
173 206 255
173 206 255
173 206 255
173 206 255
173 206 255
173 206 255
173 206 255
173 206 255
173 206 255
174 206 255
174 206 255
174 206 255
174 206 255
174 206 255
174 207 255
174 207 255
174 207 255
174 207 255
174 207 255
174 207 255
174 207 255
174 207 255
174 207 255
175 207 255
175 207 255
175 207 255
175 207 255
175 207 255
175 207 255
175 207 255
175 207 255
175 207 255
175 207 255
175 207 255
175 207 255
175 207 255
175 207 255
175 207 255
175 207 255
176 208 255
176 208 255
176 208 255
176 208 255
176 208 255
176 208 255
176 208 255
176 208 255
176 208 255
176 208 255
176 208 255
176 208 255
176 208 255
176 208 255
176 208 255
177 208 255
177 208 255
177 208 255
177 208 255
177 208 255
177 208 255
177 208 255
177 208 255
177 208 255
177 208 255
177 209 255
177 209 255
177 209 255
177 209 255
177 209 255
177 209 255
178 209 255
178 209 255
178 209 255
178 209 255
178 209 255
178 209 255
178 209 255
178 209 255
178 209 255
178 209 255
178 209 255
178 209 255
178 209 255
178 209 255
178 209 255
178 209 255
178 209 255
178 209 255
178 209 255
179 209 255
179 209 255
179 209 255
179 209 255
179 209 255
179 209 255
179 210 255
179 210 255
179 210 255
179 210 255
179 210 255
179 210 255
179 210 255
179 210 255
179 210 255
179 210 255
179 210 255
179 210 255
179 210 255
180 210 255
180 210 255
180 210 255
180 210 255
180 210 255
180 210 255
180 210 255
180 210 255
180 210 255
180 210 255
180 210 255
180 210 255
180 210 255
180 210 255
180 210 255
180 210 255
180 210 255
180 210 255
180 210 255
180 210 255
180 210 255
180 210 255
180 210 255
180 210 255
180 210 255
180 210 255
180 210 255
180 210 255
180 210 255
180 210 255
180 210 255
180 210 255
180 210 255
180 210 255
180 210 255
180 210 255
180 210 255
180 210 255
180 210 255
180 210 255
180 210 255
180 210 255
179 210 255
179 210 255
179 210 255
179 210 255
179 210 255
179 210 255
179 210 255
179 210 255
179 210 255
179 210 255
179 210 255
179 210 255
179 210 255
179 209 255
179 209 255
179 209 255
179 209 255
179 209 255
179 209 255
178 209 255
178 209 255
178 209 255
178 209 255
178 209 255
178 209 255
178 209 255
178 209 255
178 209 255
178 209 255
178 209 255
178 209 255
178 209 255
178 209 255
178 209 255
178 209 255
178 209 255
178 209 255
177 209 255
177 209 255
177 209 255
177 209 255
177 209 255
177 209 255
177 208 255
177 208 255
177 208 255
177 208 255
177 208 255
177 208 255
177 208 255
177 208 255
177 208 255
177 208 255
176 208 255
176 208 255
176 208 255
176 208 255
176 208 255
176 208 255
176 208 255
176 208 255
176 208 255
176 208 255
176 208 255
176 208 255
176 208 255
176 208 255
176 208 255
175 207 255
175 207 255
175 207 255
175 207 255
175 207 255
175 207 255
175 207 255
175 207 255
175 207 255
175 207 255
175 207 255
175 207 255
175 207 255
175 207 255
175 207 255
175 207 255
174 207 255
174 207 255
174 207 255
174 207 255
174 207 255
174 207 255
174 207 255
174 207 255
174 207 255
174 207 255
174 206 255
174 206 255
174 206 255
174 206 255
174 206 255
173 206 255
173 206 255
173 206 255
173 206 255
173 206 255
173 206 255
173 206 255
173 206 255
173 206 255
173 206 255
173 206 255
173 206 255
173 206 255
172 206 255
173 206 255
172 206 255
172 206 255
172 206 255
172 206 255
172 206 255
172 205 255
172 205 255
172 205 255
172 205 255
172 205 255
140 168 211
70 85 108
68 84 108
59 76 102
56 72 96
55 69 91
80 96 121
59 74 96
68 84 108
58 73 96
73 92 121
70 85 108
76 94 121
60 77 102
65 82 108
71 88 115
61 78 104
80 99 128
68 84 108
57 73 96
71 91 121
67 82 105
76 94 121
66 83 108
56 72 96
78 98 128
79 96 121
68 84 108
64 79 102
80 96 121
67 84 108
71 91 121
68 84 108
63 81 108
75 94 121
71 89 115
78 96 121
69 87 115
75 93 121
64 82 108
66 81 102
62 78 102
71 86 108
72 89 115
74 90 115
71 86 108
71 86 108
66 83 108
74 88 108
63 76 96
57 75 102
61 76 99
67 83 109
76 94 121
65 80 102
58 73 96
60 74 96
66 81 104
78 95 121
71 88 115
60 74 96
58 75 99
52 64 81
63 79 102
72 87 108
75 91 115
57 75 102
52 65 83
57 73 97
72 89 115
71 88 115
68 81 102
62 76 96
64 76 96
64 82 110
62 75 96
66 81 105
55 69 91
72 92 121
65 82 108
71 86 108
64 79 102
66 86 115
72 87 108
79 96 121
72 89 115
64 82 108
62 76 96
74 91 116
61 76 99
55 69 89
75 96 128
68 84 108
68 84 108
66 83 108
73 92 121
65 80 102
58 74 99
71 88 115
71 86 110
76 91 115
76 94 121
86 105 134
144 172 214
172 205 255
172 205 255
172 205 255
172 205 255
172 206 255
172 205 255
172 206 255
172 206 255
172 206 255
172 206 255
172 206 255
173 206 255
173 206 255
173 206 255
173 206 255
173 206 255
173 206 255
173 206 255
173 206 255
173 206 255
173 206 255
173 206 255
173 206 255
173 206 255
173 206 255
174 206 255
174 206 255
174 206 255
174 206 255
174 206 255
174 207 255
174 207 255
174 207 255
174 207 255
174 207 255
174 207 255
174 207 255
174 207 255
174 207 255
174 207 255
174 207 255
175 207 255
175 207 255
175 207 255
175 207 255
175 207 255
175 207 255
175 207 255
175 207 255
175 207 255
175 207 255
175 207 255
175 207 255
175 207 255
176 208 255
176 208 255
176 208 255
176 208 255
176 208 255
176 208 255
176 208 255
176 208 255
176 208 255
176 208 255
176 208 255
176 208 255
176 208 255
176 208 255
176 208 255
176 208 255
177 208 255
177 208 255
177 208 255
177 208 255
177 208 255
177 208 255
177 208 255
177 208 255
177 208 255
177 208 255
177 209 255
177 209 255
177 209 255
177 209 255
177 209 255
177 209 255
178 209 255
178 209 255
178 209 255
178 209 255
178 209 255
178 209 255
178 209 255
178 209 255
178 209 255
178 209 255
178 209 255
178 209 255
178 209 255
178 209 255
178 209 255
178 209 255
178 209 255
179 209 255
178 209 255
179 209 255
179 209 255
179 209 255
179 209 255
179 209 255
179 209 255
179 210 255
179 210 255
179 210 255
179 210 255
179 210 255
179 210 255
179 210 255
179 210 255
179 210 255
179 210 255
179 210 255
179 210 255
179 210 255
179 210 255
180 210 255
180 210 255
180 210 255
180 210 255
180 210 255
180 210 255
180 210 255
180 210 255
180 210 255
180 210 255
180 210 255
180 210 255
180 210 255
180 210 255
180 210 255
180 210 255
180 210 255
180 210 255
180 210 255
180 210 255
180 210 255
180 210 255
180 210 255
181 211 255
181 211 255
181 211 255
181 211 255
181 211 255
181 211 255
180 210 255
181 211 255
180 210 255
180 210 255
180 210 255
180 210 255
180 210 255
180 210 255
180 210 255
180 210 255
180 210 255
180 210 255
180 210 255
180 210 255
180 210 255
180 210 255
180 210 255
180 210 255
180 210 255
180 210 255
180 210 255
180 210 255
180 210 255
179 210 255
179 210 255
179 210 255
179 210 255
179 210 255
179 210 255
179 210 255
179 210 255
179 210 255
179 210 255
179 210 255
179 210 255
179 210 255
179 210 255
179 210 255
179 209 255
179 209 255
179 209 255
179 209 255
179 209 255
178 209 255
178 209 255
178 209 255
178 209 255
178 209 255
178 209 255
178 209 255
178 209 255
178 209 255
178 209 255
178 209 255
178 209 255
178 209 255
178 209 255
178 209 255
178 209 255
178 209 255
178 209 255
177 209 255
177 209 255
177 209 255
177 209 255
177 209 255
177 208 255
177 208 255
177 208 255
177 208 255
177 208 255
177 208 255
177 208 255
177 208 255
177 208 255
177 208 255
177 208 255
177 208 255
176 208 255
176 208 255
176 208 255
176 208 255
176 208 255
176 208 255
176 208 255
176 208 255
176 208 255
176 208 255
176 208 255
176 208 255
176 208 255
176 208 255
176 208 255
175 207 255
175 207 255
175 207 255
175 207 255
175 207 255
175 207 255
175 207 255
175 207 255
175 207 255
175 207 255
175 207 255
175 207 255
175 207 255
175 207 255
174 207 255
174 207 255
174 207 255
174 207 255
174 207 255
174 207 255
174 207 255
174 207 255
174 207 255
174 207 255
174 207 255
174 206 255
174 206 255
174 206 255
174 206 255
174 206 255
173 206 255
173 206 255
173 206 255
173 206 255
173 206 255
173 206 255
173 206 255
173 206 255
173 206 255
173 206 255
173 206 255
173 206 255
173 206 255
173 206 255
173 206 255
172 206 255
173 206 255
172 206 255
172 206 255
66 83 108
64 84 115
67 83 108
63 77 99
71 91 121
76 91 115
58 72 94
76 90 112
61 77 102
65 82 108
69 85 108
73 87 108
68 89 121
79 96 121
63 75 92
72 89 115
70 83 104
57 68 86
62 78 102
63 79 102
71 88 115
50 63 83
78 95 121
70 89 118
71 88 115
74 90 115
60 80 108
74 93 121
74 93 121
74 90 115
67 84 108
67 84 108
50 63 83
69 87 115
60 77 102
70 83 102
75 91 115
57 70 91
74 90 115
63 79 102
64 79 102
68 81 102
78 95 121
59 74 96
56 69 89
71 86 108
60 77 102
67 81 102
66 83 108
59 74 96
66 83 108
59 72 92
68 84 108
67 83 108
75 93 121
60 72 91
70 88 115
67 84 108
58 71 90
67 85 112
65 80 102
65 77 96
60 74 96
60 77 102
70 88 115
72 89 115
72 89 115
58 71 91
67 86 115
66 80 102
66 83 108
66 84 112
65 80 102
68 87 115
77 95 121
71 86 108
53 67 89
64 82 108
73 90 115
72 89 115
77 92 115
66 81 102
75 91 115
66 83 108
58 73 96
63 76 96
68 84 108
69 87 115
69 85 108
74 90 115
67 84 108
65 80 102
64 79 102
67 86 115
66 80 102
67 86 115
83 98 121
78 95 121
66 81 102
69 87 115
62 76 99
66 86 115
71 86 108
67 83 108
160 190 236
172 206 255
172 206 255
172 206 255
173 206 255
173 206 255
173 206 255
173 206 255
173 206 255
173 206 255
173 206 255
173 206 255
173 206 255
173 206 255
173 206 255
173 206 255
173 206 255
173 206 255
173 206 255
174 206 255
174 206 255
174 206 255
174 206 255
174 207 255
174 207 255
174 207 255
174 207 255
174 207 255
174 207 255
174 207 255
174 207 255
174 207 255
174 207 255
175 207 255
174 207 255
175 207 255
175 207 255
175 207 255
175 207 255
175 207 255
175 207 255
175 207 255
175 207 255
175 207 255
175 207 255
175 207 255
175 207 255
175 207 255
176 208 255
176 208 255
176 208 255
176 208 255
176 208 255
176 208 255
176 208 255
176 208 255
176 208 255
176 208 255
176 208 255
176 208 255
176 208 255
176 208 255
176 208 255
176 208 255
177 208 255
177 208 255
177 208 255
177 208 255
177 208 255
177 208 255
177 208 255
177 208 255
177 208 255
177 208 255
177 208 255
177 209 255
177 209 255
177 209 255
177 209 255
177 209 255
178 209 255
178 209 255
178 209 255
178 209 255
178 209 255
178 209 255
178 209 255
178 209 255
178 209 255
178 209 255
178 209 255
178 209 255
178 209 255
178 209 255
178 209 255
178 209 255
178 209 255
178 209 255
178 209 255
179 209 255
179 209 255
179 209 255
179 209 255
179 209 255
179 209 255
179 210 255
179 210 255
179 210 255
179 210 255
179 210 255
179 210 255
179 210 255
179 210 255
179 210 255
179 210 255
179 210 255
179 210 255
179 210 255
180 210 255
180 210 255
180 210 255
180 210 255
180 210 255
180 210 255
180 210 255
180 210 255
180 210 255
180 210 255
180 210 255
180 210 255
180 210 255
180 210 255
180 210 255
180 210 255
180 210 255
180 210 255
180 210 255
180 210 255
180 210 255
180 210 255
180 210 255
180 210 255
181 211 255
181 211 255
181 211 255
181 211 255
181 211 255
181 211 255
181 211 255
181 211 255
181 211 255
181 211 255
181 211 255
181 211 255
181 211 255
181 211 255
181 211 255
181 211 255
181 211 255
181 211 255
181 211 255
181 211 255
180 210 255
180 210 255
180 210 255
180 210 255
180 210 255
180 210 255
180 210 255
180 210 255
180 210 255
180 210 255
180 210 255
180 210 255
180 210 255
180 210 255
180 210 255
180 210 255
180 210 255
180 210 255
180 210 255
180 210 255
180 210 255
180 210 255
179 210 255
179 210 255
179 210 255
179 210 255
179 210 255
179 210 255
179 210 255
179 210 255
179 210 255
179 210 255
179 210 255
179 210 255
179 210 255
179 210 255
179 209 255
179 209 255
179 209 255
179 209 255
179 209 255
179 209 255
178 209 255
178 209 255
178 209 255
178 209 255
178 209 255
178 209 255
178 209 255
178 209 255
178 209 255
178 209 255
178 209 255
178 209 255
178 209 255
178 209 255
178 209 255
178 209 255
177 209 255
177 209 255
177 209 255
177 209 255
177 209 255
177 209 255
177 208 255
177 208 255
177 208 255
177 208 255
177 208 255
177 208 255
177 208 255
177 208 255
177 208 255
177 208 255
177 208 255
177 208 255
176 208 255
176 208 255
176 208 255
176 208 255
176 208 255
176 208 255
176 208 255
176 208 255
176 208 255
176 208 255
176 208 255
176 208 255
176 208 255
176 208 255
176 208 255
175 207 255
175 207 255
175 207 255
175 207 255
175 207 255
175 207 255
175 207 255
175 207 255
175 207 255
175 207 255
175 207 255
175 207 255
175 207 255
175 207 255
175 207 255
174 207 255
174 207 255
174 207 255
174 207 255
174 207 255
174 207 255
174 207 255
174 207 255
174 207 255
174 207 255
174 206 255
174 206 255
174 206 255
174 206 255
174 206 255
174 206 255
173 206 255
173 206 255
173 206 255
173 206 255
173 206 255
173 206 255
173 206 255
173 206 255
173 206 255
173 206 255
173 206 255
79 98 128
76 91 115
63 79 102
69 88 115
72 86 108
64 82 108
60 79 108
67 84 108
76 92 115
64 79 102
68 84 108
59 74 96
73 90 115
79 96 121
63 79 102
74 90 115
62 78 102
75 91 115
74 91 115
70 85 108
61 76 97
61 77 102
75 94 121
61 77 102
72 89 115
70 83 102
69 85 108
68 84 108
74 90 115
63 81 108
74 91 115
71 89 115
71 88 115
69 85 108
63 78 102
55 69 89
65 82 108
65 80 102
79 93 115
80 96 121
59 74 96
60 74 96
72 89 115
64 82 108
65 77 96
58 73 96
75 91 115
78 98 128
65 80 102
74 90 115
72 92 121
75 88 108
51 62 80
74 93 121
72 89 115
63 76 96
71 89 115
60 74 96
52 67 89
75 91 115
69 85 108
73 92 121
73 90 115
61 77 102
67 84 108
73 90 115
65 80 102
62 75 96
70 85 108
57 72 96
72 89 115
71 91 121
80 99 128
63 77 99
64 79 102
71 88 115
65 83 108
66 83 108
50 62 80
65 81 105
64 78 97
72 89 115
69 87 115
79 96 121
68 85 110
69 83 105
68 87 115
73 95 128
63 79 102
75 91 115
63 76 96
65 80 102
75 93 121
65 85 115
71 91 121
76 96 128
67 81 102
71 86 108
71 89 115
68 82 102
64 80 104
73 87 108
64 77 97
58 73 96
74 93 121
69 85 110
173 206 255
173 206 255
173 206 255
173 206 255
173 206 255
173 206 255
173 206 255
173 206 255
173 206 255
173 206 255
173 206 255
174 206 255
174 206 255
174 206 255
174 206 255
174 206 255
174 207 255
174 207 255
174 207 255
174 207 255
174 207 255
174 207 255
174 207 255
174 207 255
174 207 255
174 207 255
174 207 255
175 207 255
175 207 255
175 207 255
175 207 255
175 207 255
175 207 255
175 207 255
175 207 255
175 207 255
175 207 255
175 207 255
175 207 255
175 207 255
175 207 255
176 208 255
176 208 255
176 208 255
176 208 255
176 208 255
176 208 255
176 208 255
176 208 255
176 208 255
176 208 255
176 208 255
176 208 255
176 208 255
176 208 255
176 208 255
176 208 255
176 208 255
177 208 255
177 208 255
177 208 255
177 208 255
177 208 255
177 208 255
177 208 255
177 208 255
177 208 255
177 208 255
177 209 255
177 209 255
177 209 255
177 209 255
177 209 255
177 209 255
178 209 255
178 209 255
178 209 255
178 209 255
178 209 255
178 209 255
178 209 255
178 209 255
178 209 255
178 209 255
178 209 255
178 209 255
178 209 255
178 209 255
178 209 255
178 209 255
178 209 255
179 209 255
179 209 255
179 209 255
179 209 255
179 209 255
179 209 255
179 209 255
179 210 255
179 210 255
179 210 255
179 210 255
179 210 255
179 210 255
179 210 255
179 210 255
179 210 255
179 210 255
179 210 255
179 210 255
180 210 255
179 210 255
180 210 255
180 210 255
180 210 255
180 210 255
180 210 255
180 210 255
180 210 255
180 210 255
180 210 255
180 210 255
180 210 255
180 210 255
180 210 255
180 210 255
180 210 255
180 210 255
180 210 255
180 210 255
180 210 255
180 210 255
180 210 255
181 211 255
181 211 255
181 211 255
181 211 255
181 211 255
181 211 255
181 211 255
181 211 255
181 211 255
181 211 255
181 211 255
181 211 255
181 211 255
181 211 255
181 211 255
181 211 255
181 211 255
181 211 255
181 211 255
181 211 255
181 211 255
181 211 255
181 211 255
181 211 255
181 211 255
181 211 255
181 211 255
181 211 255
181 211 255
181 211 255
181 211 255
181 211 255
181 211 255
181 211 255
180 210 255
180 210 255
180 210 255
180 210 255
180 210 255
180 210 255
180 210 255
180 210 255
180 210 255
180 210 255
180 210 255
180 210 255
180 210 255
180 210 255
180 210 255
180 210 255
180 210 255
180 210 255
180 210 255
180 210 255
180 210 255
180 210 255
179 210 255
179 210 255
179 210 255
179 210 255
179 210 255
179 210 255
179 210 255
179 210 255
179 210 255
179 210 255
179 210 255
179 210 255
179 210 255
179 210 255
179 209 255
179 209 255
179 209 255
179 209 255
179 209 255
179 209 255
178 209 255
178 209 255
178 209 255
178 209 255
178 209 255
178 209 255
178 209 255
178 209 255
178 209 255
178 209 255
178 209 255
178 209 255
178 209 255
178 209 255
178 209 255
178 209 255
177 209 255
177 209 255
177 209 255
177 209 255
177 209 255
177 209 255
177 209 255
177 209 255
177 208 255
177 208 255
177 208 255
177 208 255
177 208 255
177 208 255
177 208 255
177 208 255
177 208 255
176 208 255
177 208 255
176 208 255
176 208 255
176 208 255
176 208 255
176 208 255
176 208 255
176 208 255
176 208 255
176 208 255
176 208 255
176 208 255
176 208 255
176 208 255
176 208 255
175 207 255
175 207 255
175 207 255
175 207 255
175 207 255
175 207 255
175 207 255
175 207 255
175 207 255
175 207 255
175 207 255
175 207 255
175 207 255
175 207 255
175 207 255
174 207 255
174 207 255
174 207 255
174 207 255
174 207 255
174 207 255
174 207 255
174 207 255
174 207 255
174 207 255
174 207 255
174 207 255
174 206 255
174 206 255
174 206 255
174 206 255
174 206 255
174 206 255
173 206 255
173 206 255
114 137 172
74 87 108
76 94 121
51 62 78
70 88 115
84 101 128
73 90 115
57 70 89
75 96 128
64 79 102
62 79 105
71 89 115
62 78 102
53 67 89
68 84 108
72 92 121
50 66 89
69 85 108
75 91 115
63 76 96
62 76 96
76 97 128
66 82 105
65 79 102
72 90 118
66 83 108
48 62 83
67 81 102
59 74 96
61 77 102
66 80 102
75 93 121
80 97 121
70 88 115
57 72 96
62 78 102
61 75 96
70 86 108
77 94 121
64 82 108
68 87 115
75 91 115
61 77 102
59 76 102
73 90 115
61 75 96
63 79 102
72 89 115
64 77 96
55 69 89
60 74 96
63 79 104
52 65 84
79 92 112
63 81 108
64 79 102
57 73 96
67 85 112
67 83 108
73 90 115
57 72 96
74 90 115
65 81 105
68 84 108
70 83 102
78 92 115
62 78 102
70 90 121
67 83 108
66 83 108
59 76 102
74 88 108
69 87 115
52 64 83
74 93 121
66 83 108
59 76 102
63 78 102
64 79 102
62 81 108
58 73 96
69 86 112
71 88 115
54 68 89
69 88 115
61 76 99
72 86 108
69 82 102
54 71 96
69 83 104
78 95 121
61 75 96
58 73 96
72 89 115
78 96 121
68 83 105
73 90 115
73 90 115
72 87 108
54 68 89
62 78 102
68 84 108
58 73 96
76 94 121
62 78 102
53 70 96
76 94 121
115 138 172
173 206 255
173 206 255
173 206 255
174 206 255
174 206 255
174 206 255
174 206 255
174 206 255
174 207 255
174 206 255
174 207 255
174 207 255
174 207 255
174 207 255
174 207 255
174 207 255
174 207 255
174 207 255
174 207 255
175 207 255
175 207 255
175 207 255
175 207 255
175 207 255
175 207 255
175 207 255
175 207 255
175 207 255
175 207 255
175 207 255
175 207 255
175 207 255
175 207 255
175 207 255
175 207 255
176 208 255
176 208 255
176 208 255
176 208 255
176 208 255
176 208 255
176 208 255
176 208 255
176 208 255
176 208 255
176 208 255
176 208 255
176 208 255
176 208 255
176 208 255
177 208 255
176 208 255
177 208 255
177 208 255
177 208 255
177 208 255
177 208 255
177 208 255
177 208 255
177 208 255
177 208 255
177 209 255
177 209 255
177 209 255
177 209 255
177 209 255
178 209 255
178 209 255
178 209 255
178 209 255
178 209 255
178 209 255
178 209 255
178 209 255
178 209 255
178 209 255
178 209 255
178 209 255
178 209 255
178 209 255
178 209 255
178 209 255
178 209 255
178 209 255
179 209 255
179 209 255
179 209 255
179 209 255
179 209 255
179 209 255
179 210 255
179 210 255
179 210 255
179 210 255
179 210 255
179 210 255
179 210 255
179 210 255
179 210 255
179 210 255
179 210 255
179 210 255
179 210 255
180 210 255
180 210 255
180 210 255
180 210 255
180 210 255
180 210 255
180 210 255
180 210 255
180 210 255
180 210 255
180 210 255
180 210 255
180 210 255
180 210 255
180 210 255
180 210 255
180 210 255
180 210 255
180 210 255
180 210 255
180 210 255
180 210 255
180 210 255
180 210 255
181 211 255
181 211 255
181 211 255
181 211 255
181 211 255
181 211 255
181 211 255
181 211 255
181 211 255
181 211 255
181 211 255
181 211 255
181 211 255
181 211 255
181 211 255
181 211 255
181 211 255
181 211 255
181 211 255
182 211 255
182 211 255
182 211 255
181 211 255
181 211 255
181 211 255
181 211 255
181 211 255
181 211 255
181 211 255
181 211 255
181 211 255
181 211 255
181 211 255
181 211 255
181 211 255
181 211 255
181 211 255
181 211 255
181 211 255
181 211 255
181 211 255
181 211 255
181 211 255
181 211 255
181 211 255
181 211 255
180 210 255
180 210 255
180 210 255
180 210 255
180 210 255
180 210 255
180 210 255
180 210 255
180 210 255
180 210 255
180 210 255
180 210 255
180 210 255
180 210 255
180 210 255
180 210 255
180 210 255
180 210 255
180 210 255
180 210 255
180 210 255
179 210 255
179 210 255
179 210 255
179 210 255
179 210 255
179 210 255
179 210 255
179 210 255
179 210 255
179 210 255
179 210 255
179 210 255
179 210 255
179 210 255
179 209 255
179 209 255
179 209 255
179 209 255
179 209 255
178 209 255
178 209 255
178 209 255
178 209 255
178 209 255
178 209 255
178 209 255
178 209 255
178 209 255
178 209 255
178 209 255
178 209 255
178 209 255
178 209 255
178 209 255
178 209 255
178 209 255
178 209 255
178 209 255
177 209 255
177 209 255
177 209 255
177 209 255
177 208 255
177 208 255
177 208 255
177 208 255
177 208 255
177 208 255
177 208 255
177 208 255
177 208 255
177 208 255
177 208 255
177 208 255
176 208 255
176 208 255
176 208 255
176 208 255
176 208 255
176 208 255
176 208 255
176 208 255
176 208 255
176 208 255
176 208 255
176 208 255
176 208 255
176 208 255
176 208 255
176 208 255
175 207 255
175 207 255
175 207 255
175 207 255
175 207 255
175 207 255
175 207 255
175 207 255
175 207 255
175 207 255
175 207 255
175 207 255
175 207 255
175 207 255
175 207 255
175 207 255
174 207 255
174 207 255
174 207 255
174 207 255
174 207 255
174 207 255
174 207 255
174 207 255
174 207 255
174 206 255
174 207 255
165 196 243
82 100 128
62 78 102
74 88 108
65 80 102
69 87 115
76 91 115
58 72 91
61 78 102
62 78 102
67 84 108
65 80 102
63 79 102
74 90 115
74 90 115
57 73 96
68 87 115
74 88 108
61 78 102
72 89 115
61 77 102
55 69 91
60 75 97
81 97 121
62 78 102
61 75 96
75 91 115
69 85 108
61 75 96
60 73 92
72 89 115
67 83 108
67 83 108
74 90 115
73 87 108
70 88 115
74 88 108
61 75 96
73 88 112
75 91 115
66 81 102
64 79 102
45 57 75
66 80 102
76 91 115
73 87 108
60 77 102
51 65 86
72 85 105
69 85 108
63 81 108
58 76 102
72 89 115
82 100 128
64 79 102
71 91 121
64 77 96
65 82 108
63 79 102
70 85 108
75 91 115
69 85 108
69 87 115
70 88 115
63 80 105
70 88 115
59 74 96
67 81 102
77 95 121
74 90 115
58 70 89
63 79 102
67 86 115
73 92 121
75 91 115
69 85 108
66 81 102
67 82 104
61 77 102
55 68 89
65 77 96
59 73 96
67 84 108
65 79 102
80 99 128
78 95 121
65 80 102
74 93 121
59 74 96
70 88 115
73 90 115
69 87 115
73 87 108
64 79 102
61 75 96
61 77 102
67 81 102
61 77 102
59 76 102
70 88 115
64 79 102
73 92 121
65 81 105
46 59 78
63 78 102
77 95 121
71 91 121
70 88 115
53 66 86
158 187 232
174 206 255
174 207 255
174 207 255
174 207 255
174 207 255
174 207 255
174 207 255
174 207 255
174 207 255
174 207 255
174 207 255
174 207 255
175 207 255
175 207 255
175 207 255
175 207 255
175 207 255
175 207 255
175 207 255
175 207 255
175 207 255
175 207 255
175 207 255
175 207 255
175 207 255
175 207 255
175 207 255
176 208 255
176 208 255
176 208 255
176 208 255
176 208 255
176 208 255
176 208 255
176 208 255
176 208 255
176 208 255
176 208 255
176 208 255
176 208 255
176 208 255
176 208 255
176 208 255
177 208 255
177 208 255
177 208 255
177 208 255
177 208 255
177 208 255
177 208 255
177 208 255
177 208 255
177 209 255
177 208 255
177 208 255
177 209 255
177 209 255
177 209 255
177 209 255
177 209 255
178 209 255
178 209 255
178 209 255
178 209 255
178 209 255
178 209 255
178 209 255
178 209 255
178 209 255
178 209 255
178 209 255
178 209 255
178 209 255
178 209 255
178 209 255
178 209 255
178 209 255
179 209 255
179 209 255
179 209 255
179 209 255
179 209 255
179 209 255
179 210 255
179 210 255
179 210 255
179 210 255
179 210 255
179 210 255
179 210 255
179 210 255
179 210 255
179 210 255
179 210 255
179 210 255
179 210 255
180 210 255
180 210 255
180 210 255
180 210 255
180 210 255
180 210 255
180 210 255
180 210 255
180 210 255
180 210 255
180 210 255
180 210 255
180 210 255
180 210 255
180 210 255
180 210 255
180 210 255
180 210 255
180 210 255
180 210 255
180 210 255
180 210 255
180 210 255
181 211 255
181 211 255
181 211 255
181 211 255
181 211 255
181 211 255
181 211 255
181 211 255
181 211 255
181 211 255
181 211 255
181 211 255
181 211 255
181 211 255
181 211 255
181 211 255
181 211 255
181 211 255
181 211 255
181 211 255
181 211 255
181 211 255
181 211 255
181 211 255
182 211 255
182 211 255
182 211 255
182 211 255
182 211 255
182 211 255
182 211 255
182 211 255
182 211 255
182 211 255
182 211 255
181 211 255
181 211 255
181 211 255
181 211 255
181 211 255
181 211 255
181 211 255
181 211 255
181 211 255
181 211 255
181 211 255
181 211 255
181 211 255
181 211 255
181 211 255
181 211 255
181 211 255
181 211 255
181 211 255
181 211 255
181 211 255
181 211 255
181 211 255
181 211 255
181 211 255
180 210 255
180 210 255
180 210 255
180 210 255
180 210 255
180 210 255
180 210 255
180 210 255
180 210 255
180 210 255
180 210 255
180 210 255
180 210 255
180 210 255
180 210 255
180 210 255
180 210 255
180 210 255
180 210 255
180 210 255
180 210 255
179 210 255
179 210 255
179 210 255
179 210 255
179 210 255
179 210 255
179 210 255
179 210 255
179 210 255
179 210 255
179 210 255
179 210 255
179 210 255
179 210 255
179 209 255
179 209 255
179 209 255
179 209 255
179 209 255
178 209 255
178 209 255
178 209 255
178 209 255
178 209 255
178 209 255
178 209 255
178 209 255
178 209 255
178 209 255
178 209 255
178 209 255
178 209 255
178 209 255
178 209 255
178 209 255
178 209 255
178 209 255
177 209 255
177 209 255
177 209 255
177 209 255
177 209 255
177 209 255
177 208 255
177 208 255
177 208 255
177 208 255
177 208 255
177 208 255
177 208 255
177 208 255
177 208 255
177 208 255
177 208 255
176 208 255
176 208 255
176 208 255
176 208 255
176 208 255
176 208 255
176 208 255
176 208 255
176 208 255
176 208 255
176 208 255
176 208 255
176 208 255
176 208 255
176 208 255
176 208 255
175 207 255
175 207 255
175 207 255
175 207 255
175 207 255
175 207 255
175 207 255
175 207 255
175 207 255
175 207 255
175 207 255
175 207 255
175 207 255
175 207 255
175 207 255
174 207 255
174 207 255
174 207 255
174 207 255
174 207 255
91 113 147
66 83 108
71 86 108
64 81 108
66 83 108
62 78 104
65 80 102
72 90 118
75 91 115
72 87 108
63 77 99
74 91 115
71 89 115
76 94 121
71 86 108
69 87 115
75 91 115
73 87 108
57 71 92
77 95 121
63 83 112
72 87 108
62 78 102
59 74 96
61 72 89
58 70 89
65 80 102
68 85 112
66 83 108
65 80 102
62 78 102
62 81 108
70 88 115
67 84 108
56 72 96
67 83 108
53 70 96
71 86 108
67 83 108
64 83 110
66 83 108
67 86 115
69 85 110
70 88 115
65 77 96
61 75 97
70 86 112
62 78 102
73 90 115
61 75 96
58 73 96
77 94 121
64 78 99
72 89 115
64 77 96
77 95 121
81 97 121
65 80 102
63 76 96
59 76 102
71 89 115
62 79 104
64 82 108
61 77 102
72 89 115
69 84 108
72 89 115
77 95 121
64 79 102
70 88 115
68 86 115
61 80 108
64 82 108
67 84 108
67 84 108
76 92 115
51 65 86
69 85 108
81 97 121
52 65 84
73 90 115
69 85 108
56 72 96
52 67 89
64 80 105
60 74 96
57 70 89
56 72 96
66 80 102
63 81 108
66 82 105
66 83 108
74 90 115
67 84 108
69 85 108
69 84 108
57 70 91
64 79 102
58 72 92
71 89 115
58 76 102
73 90 115
69 87 115
67 81 104
76 94 121
60 75 99
59 74 96
70 86 110
62 81 108
109 131 166
174 207 255
174 207 255
174 207 255
175 207 255
175 207 255
175 207 255
175 207 255
175 207 255
175 207 255
175 207 255
175 207 255
175 207 255
175 207 255
175 207 255
175 207 255
175 207 255
175 207 255
175 207 255
175 207 255
175 207 255
175 207 255
176 208 255
176 208 255
176 208 255
176 208 255
176 208 255
176 208 255
176 208 255
176 208 255
176 208 255
176 208 255
176 208 255
176 208 255
176 208 255
176 208 255
176 208 255
176 208 255
177 208 255
177 208 255
177 208 255
177 208 255
177 208 255
177 208 255
177 208 255
177 208 255
177 208 255
177 208 255
177 208 255
177 209 255
177 209 255
177 209 255
177 209 255
177 209 255
178 209 255
178 209 255
178 209 255
178 209 255
178 209 255
178 209 255
178 209 255
178 209 255
178 209 255
178 209 255
178 209 255
178 209 255
178 209 255
178 209 255
178 209 255
178 209 255
178 209 255
178 209 255
179 209 255
179 209 255
179 209 255
179 209 255
179 209 255
179 210 255
179 209 255
179 210 255
179 210 255
179 210 255
179 210 255
179 210 255
179 210 255
179 210 255
179 210 255
179 210 255
179 210 255
179 210 255
180 210 255
180 210 255
180 210 255
180 210 255
180 210 255
180 210 255
180 210 255
180 210 255
180 210 255
180 210 255
180 210 255
180 210 255
180 210 255
180 210 255
180 210 255
180 210 255
180 210 255
180 210 255
180 210 255
180 210 255
180 210 255
180 210 255
181 211 255
181 211 255
181 211 255
181 211 255
181 211 255
181 211 255
181 211 255
181 211 255
181 211 255
181 211 255
181 211 255
181 211 255
181 211 255
181 211 255
181 211 255
181 211 255
181 211 255
181 211 255
181 211 255
181 211 255
181 211 255
181 211 255
181 211 255
181 211 255
181 211 255
182 211 255
182 211 255
182 211 255
182 211 255
182 211 255
182 211 255
182 211 255
182 211 255
182 211 255
182 211 255
182 211 255
182 211 255
182 211 255
182 211 255
182 211 255
182 211 255
182 211 255
182 211 255
182 211 255
182 211 255
182 211 255
182 211 255
182 211 255
182 211 255
182 211 255
182 211 255
181 211 255
181 211 255
181 211 255
181 211 255
181 211 255
181 211 255
181 211 255
181 211 255
181 211 255
181 211 255
181 211 255
181 211 255
181 211 255
181 211 255
181 211 255
181 211 255
181 211 255
181 211 255
181 211 255
181 211 255
181 211 255
181 211 255
181 211 255
180 210 255
180 210 255
180 210 255
180 210 255
180 210 255
180 210 255
180 210 255
180 210 255
180 210 255
180 210 255
180 210 255
180 210 255
180 210 255
180 210 255
180 210 255
180 210 255
180 210 255
180 210 255
180 210 255
180 210 255
180 210 255
180 210 255
180 210 255
179 210 255
179 210 255
179 210 255
179 210 255
179 210 255
179 210 255
179 210 255
179 210 255
179 210 255
179 210 255
179 210 255
179 209 255
179 209 255
179 209 255
179 209 255
179 209 255
179 209 255
179 209 255
178 209 255
178 209 255
178 209 255
178 209 255
178 209 255
178 209 255
178 209 255
178 209 255
178 209 255
178 209 255
178 209 255
178 209 255
178 209 255
178 209 255
178 209 255
178 209 255
178 209 255
177 209 255
177 209 255
177 209 255
177 209 255
177 209 255
177 209 255
177 208 255
177 208 255
177 208 255
177 208 255
177 208 255
177 208 255
177 208 255
177 208 255
177 208 255
177 208 255
177 208 255
177 208 255
176 208 255
176 208 255
176 208 255
176 208 255
176 208 255
176 208 255
176 208 255
176 208 255
176 208 255
176 208 255
176 208 255
176 208 255
176 208 255
176 208 255
175 207 255
175 207 255
175 207 255
175 207 255
175 207 255
175 207 255
175 207 255
175 207 255
175 207 255
175 207 255
175 207 255
175 207 255
175 207 255
175 207 255
122 147 185
68 87 115
72 89 115
62 77 99
64 79 102
63 79 102
72 87 108
70 85 108
58 71 89
62 75 96
64 82 108
60 77 102
63 78 102
69 85 108
68 82 102
74 93 121
58 71 91
53 68 89
62 78 102
64 79 102
76 97 128
60 74 96
64 77 96
63 79 102
58 71 91
78 95 121
70 88 115
61 75 96
58 73 96
67 84 110
58 73 96
63 81 108
69 87 115
62 78 102
65 82 108
72 91 121
75 94 121
76 94 121
71 89 115
66 84 110
66 83 108
54 70 92
65 82 108
59 75 99
64 81 108
69 84 108
66 83 108
58 76 102
71 88 115
58 73 96
58 73 96
56 69 89
76 94 121
51 65 86
77 90 108
59 74 97
65 79 102
74 93 121
59 72 91
55 69 89
84 99 121
62 73 89
68 81 102
75 91 115
65 82 108
69 87 115
67 81 102
58 70 89
48 60 80
69 87 115
68 87 115
72 87 108
66 83 108
67 83 108
63 78 102
67 81 102
66 83 108
62 78 102
65 83 108
66 79 99
62 76 96
66 83 108
55 71 96
63 81 108
75 90 112
55 67 84
71 89 115
63 78 102
68 84 108
70 85 108
67 83 108
74 93 121
71 86 108
75 91 115
69 87 115
61 77 102
68 84 108
70 88 115
60 77 102
51 62 80
57 70 89
68 84 108
71 88 115
55 68 89
61 76 99
61 77 102
75 93 121
68 84 108
60 74 96
60 77 102
77 95 121
134 162 204
175 207 255
175 207 255
175 207 255
175 207 255
175 207 255
175 207 255
175 207 255
175 207 255
175 207 255
175 207 255
175 207 255
175 207 255
176 208 255
176 208 255
176 208 255
176 208 255
176 208 255
176 208 255
176 208 255
176 208 255
176 208 255
176 208 255
176 208 255
176 208 255
176 208 255
176 208 255
176 208 255
176 208 255
176 208 255
177 208 255
177 208 255
177 208 255
177 208 255
177 208 255
177 208 255
177 208 255
177 208 255
177 208 255
177 208 255
177 208 255
177 208 255
177 209 255
177 209 255
177 209 255
177 209 255
178 209 255
177 209 255
178 209 255
178 209 255
178 209 255
178 209 255
178 209 255
178 209 255
178 209 255
178 209 255
178 209 255
178 209 255
178 209 255
178 209 255
178 209 255
178 209 255
178 209 255
178 209 255
178 209 255
179 209 255
179 209 255
179 209 255
179 209 255
179 209 255
179 210 255
179 210 255
179 210 255
179 210 255
179 210 255
179 210 255
179 210 255
179 210 255
179 210 255
179 210 255
179 210 255
179 210 255
179 210 255
180 210 255
180 210 255
180 210 255
180 210 255
180 210 255
180 210 255
180 210 255
180 210 255
180 210 255
180 210 255
180 210 255
180 210 255
180 210 255
180 210 255
180 210 255
180 210 255
180 210 255
180 210 255
180 210 255
180 210 255
180 210 255
180 210 255
181 211 255
181 211 255
181 211 255
181 211 255
181 211 255
181 211 255
181 211 255
181 211 255
181 211 255
181 211 255
181 211 255
181 211 255
181 211 255
181 211 255
181 211 255
181 211 255
181 211 255
181 211 255
181 211 255
181 211 255
181 211 255
181 211 255
181 211 255
182 211 255
182 211 255
182 211 255
182 211 255
182 211 255
182 211 255
182 211 255
182 211 255
182 211 255
182 211 255
182 211 255
182 211 255
182 211 255
182 211 255
182 211 255
182 211 255
182 211 255
182 212 255
182 212 255
182 212 255
182 212 255
182 212 255
182 212 255
182 211 255
182 211 255
182 211 255
182 211 255
182 211 255
182 211 255
182 211 255
182 211 255
182 211 255
182 211 255
182 211 255
182 211 255
182 211 255
182 211 255
182 211 255
182 211 255
182 211 255
182 211 255
181 211 255
181 211 255
181 211 255
181 211 255
181 211 255
181 211 255
181 211 255
181 211 255
181 211 255
181 211 255
181 211 255
181 211 255
181 211 255
181 211 255
181 211 255
181 211 255
181 211 255
181 211 255
181 211 255
181 211 255
181 211 255
181 211 255
181 211 255
180 210 255
180 210 255
180 210 255
180 210 255
180 210 255
180 210 255
180 210 255
180 210 255
180 210 255
180 210 255
180 210 255
180 210 255
180 210 255
180 210 255
180 210 255
180 210 255
180 210 255
180 210 255
180 210 255
180 210 255
180 210 255
180 210 255
179 210 255
179 210 255
179 210 255
179 210 255
179 210 255
179 210 255
179 210 255
179 210 255
179 210 255
179 210 255
179 210 255
179 210 255
179 209 255
179 209 255
179 209 255
179 209 255
179 209 255
179 209 255
178 209 255
178 209 255
178 209 255
178 209 255
178 209 255
178 209 255
178 209 255
178 209 255
178 209 255
178 209 255
178 209 255
178 209 255
178 209 255
178 209 255
178 209 255
178 209 255
178 209 255
178 209 255
178 209 255
177 209 255
177 209 255
177 209 255
177 209 255
177 209 255
177 208 255
177 208 255
177 208 255
177 208 255
177 208 255
177 208 255
177 208 255
177 208 255
177 208 255
177 208 255
177 208 255
176 208 255
176 208 255
176 208 255
176 208 255
176 208 255
176 208 255
176 208 255
176 208 255
176 208 255
176 208 255
176 208 255
176 208 255
176 208 255
176 208 255
176 208 255
176 208 255
175 207 255
175 207 255
175 207 255
175 207 255
175 207 255
175 207 255
75 94 121
70 85 109
61 76 99
69 85 108
61 76 99
58 73 96
59 76 102
61 75 96
64 77 96
70 88 115
76 94 121
62 78 102
60 77 102
70 90 121
71 86 108
65 85 115
65 80 102
78 92 115
63 81 108
74 90 115
54 68 89
66 80 102
54 69 91
66 80 102
60 77 102
61 77 102
58 72 92
66 83 108
64 79 102
67 84 108
73 87 108
65 82 108
51 61 76
82 100 128
69 85 108
72 87 108
64 81 105
58 71 92
64 82 108
60 77 102
72 86 108
75 93 121
71 86 108
71 89 115
59 71 89
84 99 121
74 90 115
82 98 121
73 90 115
64 79 102
82 98 121
74 90 115
59 71 89
58 70 89
73 90 115
55 67 86
67 81 102
56 70 89
72 89 115
72 89 115
60 76 99
53 67 89
67 81 102
67 83 108
67 81 102
72 86 108
50 63 83
56 70 92
63 76 96
72 92 121
68 81 102
51 64 83
59 74 96
72 89 115
68 84 108
61 77 102
69 88 115
69 88 115
73 92 121
74 91 115
57 75 102
63 81 108
54 69 91
76 94 121
64 79 102
61 78 104
65 80 102
65 82 108
75 91 115
60 74 96
74 90 115
60 72 91
69 85 108
67 81 102
54 69 90
70 90 121
64 77 96
69 90 121
63 81 108
75 91 115
67 83 108
63 79 102
67 81 102
68 81 102
58 73 96
64 78 97
60 75 99
57 70 89
64 79 102
57 73 97
80 96 121
66 83 108
148 175 217
175 207 255
175 207 255
175 207 255
176 208 255
176 208 255
176 208 255
176 208 255
176 208 255
176 208 255
176 208 255
176 208 255
176 208 255
176 208 255
176 208 255
176 208 255
176 208 255
176 208 255
176 208 255
176 208 255
176 208 255
176 208 255
176 208 255
177 208 255
177 208 255
177 208 255
177 208 255
177 208 255
177 208 255
177 208 255
177 208 255
177 208 255
177 208 255
177 209 255
177 209 255
177 209 255
177 209 255
177 209 255
178 209 255
178 209 255
178 209 255
178 209 255
178 209 255
178 209 255
178 209 255
178 209 255
178 209 255
178 209 255
178 209 255
178 209 255
178 209 255
178 209 255
178 209 255
178 209 255
178 209 255
178 209 255
179 209 255
179 209 255
179 209 255
179 209 255
179 209 255
179 209 255
179 209 255
179 210 255
179 210 255
179 210 255
179 210 255
179 210 255
179 210 255
179 210 255
179 210 255
179 210 255
179 210 255
179 210 255
179 210 255
179 210 255
180 210 255
180 210 255
180 210 255
180 210 255
180 210 255
180 210 255
180 210 255
180 210 255
180 210 255
180 210 255
180 210 255
180 210 255
180 210 255
180 210 255
180 210 255
180 210 255
180 210 255
180 210 255
180 210 255
181 211 255
181 211 255
181 211 255
181 211 255
181 211 255
181 211 255
181 211 255
181 211 255
181 211 255
181 211 255
181 211 255
181 211 255
181 211 255
181 211 255
181 211 255
181 211 255
181 211 255
181 211 255
181 211 255
181 211 255
181 211 255
181 211 255
181 211 255
181 211 255
181 211 255
182 211 255
182 211 255
182 211 255
182 211 255
182 211 255
182 211 255
182 211 255
182 211 255
182 211 255
182 211 255
182 211 255
182 211 255
182 211 255
182 211 255
182 211 255
182 211 255
182 212 255
182 212 255
182 212 255
182 212 255
182 212 255
182 212 255
182 212 255
182 212 255
183 212 255
183 212 255
183 212 255
183 212 255
183 212 255
182 212 255
182 212 255
182 212 255
182 212 255
182 212 255
182 212 255
182 212 255
182 212 255
182 212 255
182 212 255
182 211 255
182 211 255
182 211 255
182 211 255
182 211 255
182 211 255
182 211 255
182 211 255
182 211 255
182 211 255
182 211 255
182 211 255
182 211 255
182 211 255
182 211 255
182 211 255
181 211 255
181 211 255
181 211 255
181 211 255
181 211 255
181 211 255
181 211 255
181 211 255
181 211 255
181 211 255
181 211 255
181 211 255
181 211 255
181 211 255
181 211 255
181 211 255
181 211 255
181 211 255
181 211 255
181 211 255
181 211 255
181 211 255
181 211 255
181 211 255
180 210 255
180 210 255
180 210 255
180 210 255
180 210 255
180 210 255
180 210 255
180 210 255
180 210 255
180 210 255
180 210 255
180 210 255
180 210 255
180 210 255
180 210 255
180 210 255
180 210 255
180 210 255
180 210 255
180 210 255
180 210 255
179 210 255
179 210 255
179 210 255
179 210 255
179 210 255
179 210 255
179 210 255
179 210 255
179 210 255
179 210 255
179 210 255
179 210 255
179 209 255
179 209 255
179 209 255
179 209 255
179 209 255
179 209 255
178 209 255
178 209 255
178 209 255
178 209 255
178 209 255
178 209 255
178 209 255
178 209 255
178 209 255
178 209 255
178 209 255
178 209 255
178 209 255
178 209 255
178 209 255
178 209 255
178 209 255
177 209 255
177 209 255
177 209 255
177 209 255
177 209 255
177 209 255
177 209 255
177 208 255
177 208 255
177 208 255
177 208 255
177 208 255
177 208 255
177 208 255
177 208 255
177 208 255
177 208 255
177 208 255
177 208 255
176 208 255
176 208 255
176 208 255
176 208 255
176 208 255
176 208 255
176 208 255
176 208 255
176 208 255
176 208 255
176 208 255
176 208 255
176 208 255
121 144 179
79 96 121
67 85 112
60 72 91
80 99 128
57 72 96
71 86 108
70 88 115
67 81 102
58 72 94
73 90 115
67 81 102
64 82 108
66 80 102
57 73 97
69 84 108
63 81 108
78 98 128
65 80 102
65 80 102
60 74 96
60 77 102
70 86 110
59 73 92
76 92 115
67 83 108
55 67 86
68 81 102
75 94 121
72 89 115
76 94 121
81 97 121
74 90 115
70 85 108
78 95 121
70 87 112
78 95 121
74 95 128
75 91 115
67 84 108
69 85 108
42 53 70
67 81 102
63 76 96
64 78 99
60 79 108
76 94 121
71 86 108
65 83 108
54 68 89
73 90 115
65 80 102
69 82 102
70 88 115
65 80 102
63 76 96
49 63 84
59 74 96
68 84 108
64 82 108
64 77 97
70 88 115
78 95 121
66 82 105
73 90 115
71 88 115
72 86 108
62 81 108
71 88 115
68 84 108
76 91 115
68 81 102
76 94 121
81 97 121
70 85 108
58 73 96
67 84 108
73 90 115
77 97 128
60 75 97
50 63 83
71 86 108
52 67 89
73 87 108
72 89 115
60 77 102
68 86 115
67 86 115
65 82 108
64 82 108
71 86 108
66 80 102
66 80 102
61 75 96
68 87 115
64 78 99
61 77 102
69 88 115
69 87 115
65 80 102
59 72 92
65 80 102
67 81 102
67 81 102
65 80 102
74 88 108
69 90 121
67 82 104
68 82 104
68 84 108
63 79 102
76 91 115
68 87 115
135 163 204
176 208 255
176 208 255
176 208 255
176 208 255
176 208 255
176 208 255
176 208 255
176 208 255
176 208 255
176 208 255
176 208 255
176 208 255
176 208 255
177 208 255
177 208 255
177 208 255
177 208 255
177 208 255
177 208 255
177 208 255
177 208 255
177 208 255
177 208 255
177 208 255
177 208 255
177 208 255
177 209 255
177 209 255
177 209 255
177 209 255
177 209 255
178 209 255
178 209 255
178 209 255
178 209 255
178 209 255
178 209 255
178 209 255
178 209 255
178 209 255
178 209 255
178 209 255
178 209 255
178 209 255
178 209 255
178 209 255
178 209 255
178 209 255
178 209 255
179 209 255
179 209 255
179 209 255
179 209 255
179 209 255
179 209 255
179 210 255
179 210 255
179 210 255
179 210 255
179 210 255
179 210 255
179 210 255
179 210 255
179 210 255
179 210 255
179 210 255
179 210 255
180 210 255
180 210 255
180 210 255
180 210 255
180 210 255
180 210 255
180 210 255
180 210 255
180 210 255
180 210 255
180 210 255
180 210 255
180 210 255
180 210 255
180 210 255
180 210 255
180 210 255
180 210 255
180 210 255
180 210 255
180 210 255
181 211 255
181 211 255
181 211 255
181 211 255
181 211 255
181 211 255
181 211 255
181 211 255
181 211 255
181 211 255
181 211 255
181 211 255
181 211 255
181 211 255
181 211 255
181 211 255
181 211 255
181 211 255
181 211 255
181 211 255
181 211 255
181 211 255
181 211 255
181 211 255
182 211 255
182 211 255
182 211 255
182 211 255
182 211 255
182 211 255
182 211 255
182 211 255
182 211 255
182 211 255
182 211 255
182 211 255
182 211 255
182 211 255
182 211 255
182 211 255
182 212 255
182 212 255
182 212 255
182 212 255
182 212 255
182 212 255
182 212 255
182 212 255
182 212 255
182 212 255
182 212 255
183 212 255
183 212 255
183 212 255
183 212 255
183 212 255
183 212 255
183 212 255
183 212 255
183 212 255
183 212 255
183 212 255
183 212 255
183 212 255
183 212 255
183 212 255
183 212 255
182 212 255
182 212 255
182 212 255
182 212 255
182 212 255
182 212 255
182 212 255
182 212 255
182 212 255
182 212 255
182 212 255
182 211 255
182 211 255
182 211 255
182 211 255
182 211 255
182 211 255
182 211 255
182 211 255
182 211 255
182 211 255
182 211 255
182 211 255
182 211 255
182 211 255
182 211 255
182 211 255
181 211 255
181 211 255
181 211 255
181 211 255
181 211 255
181 211 255
181 211 255
181 211 255
181 211 255
181 211 255
181 211 255
181 211 255
181 211 255
181 211 255
181 211 255
181 211 255
181 211 255
181 211 255
181 211 255
181 211 255
181 211 255
181 211 255
181 211 255
180 210 255
180 210 255
180 210 255
180 210 255
180 210 255
180 210 255
180 210 255
180 210 255
180 210 255
180 210 255
180 210 255
180 210 255
180 210 255
180 210 255
180 210 255
180 210 255
180 210 255
180 210 255
180 210 255
180 210 255
180 210 255
179 210 255
179 210 255
179 210 255
179 210 255
179 210 255
179 210 255
179 210 255
179 210 255
179 210 255
179 210 255
179 210 255
179 210 255
179 210 255
179 209 255
179 209 255
179 209 255
179 209 255
179 209 255
179 209 255
178 209 255
178 209 255
178 209 255
178 209 255
178 209 255
178 209 255
178 209 255
178 209 255
178 209 255
178 209 255
178 209 255
178 209 255
178 209 255
178 209 255
178 209 255
178 209 255
178 209 255
177 209 255
177 209 255
177 209 255
177 209 255
177 209 255
177 209 255
177 209 255
177 208 255
177 208 255
177 208 255
177 208 255
177 208 255
177 208 255
177 208 255
177 208 255
177 208 255
177 208 255
177 208 255
177 208 255
176 208 255
176 208 255
176 208 255
176 208 255
176 208 255
74 93 121
54 68 89
60 77 102
63 81 108
67 86 115
66 83 108
65 80 102
52 65 84
73 87 108
74 93 121
65 82 108
62 77 99
57 71 92
66 83 108
72 85 105
67 81 102
70 88 115
68 82 104
58 73 96
69 87 115
81 99 128
65 80 102
73 92 121
57 75 102
73 90 115
77 92 115
75 94 121
62 75 96
76 89 108
63 79 102
71 86 108
73 90 115
70 84 105
66 81 102
68 84 108
61 75 97
75 93 121
74 90 115
63 76 96
67 83 108
70 88 115
58 73 96
64 79 102
81 95 115
64 79 102
70 84 105
63 81 108
60 74 96
75 94 121
64 82 108
74 90 115
64 82 108
75 91 115
72 86 108
68 81 102
67 86 115
75 91 115
55 69 89
70 85 108
54 68 89
52 64 83
81 97 121
68 84 108
51 65 86
72 89 115
74 90 115
58 73 96
60 76 102
67 81 102
62 78 102
57 75 102
64 77 96
51 65 84
67 84 108
69 89 118
57 75 102
70 86 108
71 86 108
64 79 102
52 68 92
64 79 102
70 88 115
60 77 102
64 80 105
62 81 108
72 89 115
81 100 128
69 88 115
63 76 96
67 83 108
66 83 108
63 78 102
64 79 102
60 77 102
70 85 108
67 83 108
71 86 108
63 81 108
54 68 89
75 94 121
71 86 108
56 72 96
57 73 96
57 71 92
64 82 108
72 92 121
73 89 115
68 81 102
57 70 91
52 67 89
71 88 115
60 74 96
59 73 96
65 85 115
146 175 217
176 208 255
176 208 255
176 208 255
177 208 255
177 208 255
177 208 255
177 208 255
177 208 255
177 208 255
177 208 255
177 208 255
177 208 255
177 208 255
177 208 255
177 208 255
177 208 255
177 209 255
177 209 255
177 209 255
177 209 255
177 209 255
177 209 255
177 209 255
178 209 255
178 209 255
178 209 255
178 209 255
178 209 255
178 209 255
178 209 255
178 209 255
178 209 255
178 209 255
178 209 255
178 209 255
178 209 255
178 209 255
178 209 255
178 209 255
178 209 255
178 209 255
179 209 255
179 209 255
179 209 255
179 209 255
179 209 255
179 210 255
179 209 255
179 210 255
179 210 255
179 210 255
179 210 255
179 210 255
179 210 255
179 210 255
179 210 255
179 210 255
179 210 255
179 210 255
180 210 255
180 210 255
180 210 255
180 210 255
180 210 255
180 210 255
180 210 255
180 210 255
180 210 255
180 210 255
180 210 255
180 210 255
180 210 255
180 210 255
180 210 255
180 210 255
180 210 255
180 210 255
180 210 255
180 210 255
180 210 255
181 211 255
181 211 255
181 211 255
181 211 255
181 211 255
181 211 255
181 211 255
181 211 255
181 211 255
181 211 255
181 211 255
181 211 255
181 211 255
181 211 255
181 211 255
181 211 255
181 211 255
181 211 255
181 211 255
181 211 255
181 211 255
181 211 255
181 211 255
182 211 255
182 211 255
182 211 255
182 211 255
182 211 255
182 211 255
182 211 255
182 211 255
182 211 255
182 211 255
182 211 255
182 211 255
182 211 255
182 211 255
182 211 255
182 211 255
182 211 255
182 212 255
182 212 255
182 212 255
182 212 255
182 212 255
182 212 255
182 212 255
182 212 255
182 212 255
183 212 255
183 212 255
183 212 255
183 212 255
183 212 255
183 212 255
183 212 255
183 212 255
183 212 255
183 212 255
183 212 255
183 212 255
183 212 255
183 212 255
183 212 255
183 212 255
183 212 255
183 212 255
183 212 255
183 212 255
183 212 255
183 212 255
183 212 255
183 212 255
183 212 255
183 212 255
183 212 255
183 212 255
183 212 255
183 212 255
183 212 255
183 212 255
183 212 255
183 212 255
183 212 255
182 212 255
182 212 255
182 212 255
182 212 255
182 212 255
182 212 255
182 212 255
182 212 255
182 212 255
182 211 255
182 211 255
182 211 255
182 211 255
182 211 255
182 211 255
182 211 255
182 211 255
182 211 255
182 211 255
182 211 255
182 211 255
182 211 255
182 211 255
182 211 255
182 211 255
181 211 255
181 211 255
181 211 255
181 211 255
181 211 255
181 211 255
181 211 255
181 211 255
181 211 255
181 211 255
181 211 255
181 211 255
181 211 255
181 211 255
181 211 255
181 211 255
181 211 255
181 211 255
181 211 255
181 211 255
181 211 255
181 211 255
180 210 255
180 210 255
180 210 255
180 210 255
180 210 255
180 210 255
180 210 255
180 210 255
180 210 255
180 210 255
180 210 255
180 210 255
180 210 255
180 210 255
180 210 255
180 210 255
180 210 255
180 210 255
180 210 255
180 210 255
180 210 255
180 210 255
179 210 255
179 210 255
179 210 255
179 210 255
179 210 255
179 210 255
179 210 255
179 210 255
179 210 255
179 210 255
179 210 255
179 210 255
179 209 255
179 209 255
179 209 255
179 209 255
179 209 255
179 209 255
178 209 255
178 209 255
178 209 255
178 209 255
178 209 255
178 209 255
178 209 255
178 209 255
178 209 255
178 209 255
178 209 255
178 209 255
178 209 255
178 209 255
178 209 255
178 209 255
178 209 255
178 209 255
177 209 255
177 209 255
177 209 255
177 209 255
177 209 255
177 209 255
177 208 255
177 208 255
177 208 255
177 208 255
177 208 255
177 208 255
177 208 255
177 208 255
177 208 255
128 153 192
78 98 128
63 79 102
72 89 115
66 81 102
61 77 102
67 84 108
63 76 96
62 80 108
68 82 102
70 88 115
62 78 102
66 83 108
56 67 84
65 80 102
72 89 115
57 71 92
54 68 89
65 82 108
74 93 121
60 74 96
79 93 115
69 84 108
62 78 102
67 84 108
66 80 102
68 82 102
70 88 115
57 73 96
59 73 96
62 78 102
76 94 121
63 79 102
65 81 105
58 73 96
65 80 102
73 90 115
65 82 108
65 78 99
67 83 108
67 84 108
71 89 115
59 76 102
64 80 105
56 72 96
65 80 102
65 82 108
76 92 115
75 91 115
73 92 121
63 79 102
66 83 108
67 81 102
58 70 88
62 78 102
60 75 97
57 70 89
61 77 102
71 89 115
71 88 115
59 74 96
71 89 115
72 89 115
46 60 80
73 86 105
72 89 115
71 86 108
67 84 108
69 85 108
73 90 115
58 73 96
67 83 108
56 69 89
55 66 83
73 90 115
62 75 96
62 78 102
64 80 105
55 72 97
79 96 121
63 79 102
62 78 102
74 90 115
67 84 108
72 92 121
63 78 102
71 88 115
71 87 112
77 92 115
57 75 102
68 85 110
61 78 104
52 67 89
57 72 96
58 70 89
72 89 115
61 78 102
64 82 108
74 91 115
65 82 108
74 90 115
64 79 102
50 63 83
72 89 115
71 86 108
63 77 99
66 84 112
69 85 108
64 79 102
58 72 92
72 89 115
60 77 102
72 90 116
72 91 121
67 83 108
117 139 172
177 208 255
177 208 255
177 208 255
177 208 255
177 208 255
177 208 255
177 208 255
177 208 255
177 208 255
177 209 255
177 209 255
177 209 255
177 209 255
177 209 255
177 209 255
178 209 255
178 209 255
178 209 255
178 209 255
178 209 255
178 209 255
178 209 255
178 209 255
178 209 255
178 209 255
178 209 255
178 209 255
178 209 255
178 209 255
178 209 255
178 209 255
178 209 255
178 209 255
178 209 255
179 209 255
179 209 255
179 209 255
179 209 255
179 209 255
179 210 255
179 210 255
179 210 255
179 210 255
179 210 255
179 210 255
179 210 255
179 210 255
179 210 255
179 210 255
179 210 255
179 210 255
179 210 255
180 210 255
180 210 255
180 210 255
180 210 255
180 210 255
180 210 255
180 210 255
180 210 255
180 210 255
180 210 255
180 210 255
180 210 255
180 210 255
180 210 255
180 210 255
180 210 255
180 210 255
180 210 255
180 210 255
180 210 255
181 211 255
181 211 255
181 211 255
181 211 255
181 211 255
181 211 255
181 211 255
181 211 255
181 211 255
181 211 255
181 211 255
181 211 255
181 211 255
181 211 255
181 211 255
181 211 255
181 211 255
181 211 255
181 211 255
181 211 255
181 211 255
181 211 255
181 211 255
182 211 255
182 211 255
182 211 255
182 211 255
182 211 255
182 211 255
182 211 255
182 211 255
182 211 255
182 211 255
182 211 255
182 211 255
182 211 255
182 211 255
182 211 255
182 211 255
182 211 255
182 212 255
182 212 255
182 212 255
182 212 255
182 212 255
182 212 255
182 212 255
182 212 255
183 212 255
183 212 255
183 212 255
183 212 255
183 212 255
183 212 255
183 212 255
183 212 255
183 212 255
183 212 255
183 212 255
183 212 255
183 212 255
183 212 255
183 212 255
183 212 255
183 212 255
183 212 255
183 212 255
183 212 255
183 212 255
183 212 255
183 212 255
183 212 255
183 212 255
183 212 255
183 212 255
183 212 255
183 212 255
183 212 255
183 212 255
183 212 255
183 212 255
183 212 255
183 212 255
183 212 255
183 212 255
183 212 255
183 212 255
183 212 255
183 212 255
183 212 255
183 212 255
183 212 255
183 212 255
183 212 255
183 212 255
183 212 255
183 212 255
183 212 255
183 212 255
183 212 255
182 212 255
182 212 255
182 212 255
182 212 255
182 212 255
182 212 255
182 212 255
182 212 255
182 212 255
182 211 255
182 211 255
182 211 255
182 211 255
182 211 255
182 211 255
182 211 255
182 211 255
182 211 255
182 211 255
182 211 255
182 211 255
182 211 255
182 211 255
182 211 255
182 211 255
181 211 255
181 211 255
181 211 255
181 211 255
181 211 255
181 211 255
181 211 255
181 211 255
181 211 255
181 211 255
181 211 255
181 211 255
181 211 255
181 211 255
181 211 255
181 211 255
181 211 255
181 211 255
181 211 255
181 211 255
181 211 255
181 211 255
181 211 255
181 211 255
180 210 255
180 210 255
180 210 255
180 210 255
180 210 255
180 210 255
180 210 255
180 210 255
180 210 255
180 210 255
180 210 255
180 210 255
180 210 255
180 210 255
180 210 255
180 210 255
180 210 255
180 210 255
179 210 255
180 210 255
179 210 255
179 210 255
179 210 255
179 210 255
179 210 255
179 210 255
179 210 255
179 210 255
179 210 255
179 210 255
179 210 255
179 210 255
179 209 255
179 209 255
179 209 255
179 209 255
179 209 255
179 209 255
178 209 255
178 209 255
178 209 255
178 209 255
178 209 255
178 209 255
178 209 255
178 209 255
178 209 255
178 209 255
178 209 255
178 209 255
178 209 255
178 209 255
178 209 255
178 209 255
178 209 255
178 209 255
177 209 255
177 209 255
177 209 255
177 209 255
177 209 255
177 209 255
177 209 255
70 85 108
50 63 83
60 74 96
60 76 99
75 89 112
53 71 97
62 76 96
60 77 102
64 80 104
78 95 121
73 92 121
60 76 102
57 75 102
66 80 102
52 65 83
57 73 96
72 87 108
72 89 115
82 97 121
71 86 108
62 76 97
68 81 102
70 84 105
70 86 112
65 79 99
68 87 115
66 81 104
53 66 87
78 94 118
54 68 89
71 88 115
74 91 115
70 88 115
63 79 102
68 84 108
58 73 96
52 64 81
74 93 121
81 99 128
66 85 115
72 87 108
69 85 108
62 78 102
55 69 89
66 80 102
65 82 108
50 65 89
59 74 96
61 76 97
74 88 110
64 79 102
67 83 108
62 81 108
54 71 96
59 74 96
50 63 83
71 86 108
62 81 108
69 87 115
63 78 102
63 79 102
63 77 97
71 89 115
73 87 108
56 67 84
65 82 108
62 78 102
68 83 105
79 96 121
61 75 96
67 83 108
61 76 97
67 83 108
71 89 115
81 97 121
61 75 96
66 81 102
60 74 96
70 85 108
63 81 108
67 83 108
55 74 102
64 82 108
75 93 121
62 75 96
55 69 89
58 73 96
61 75 96
62 78 102
69 87 115
69 82 102
63 78 102
59 72 91
59 74 96
61 77 102
70 86 108
62 78 102
73 90 115
73 95 128
65 85 115
61 75 96
81 97 121
73 90 115
63 79 102
60 75 97
60 74 96
76 94 121
58 70 89
67 84 108
66 83 108
63 78 102
57 71 92
66 82 105
57 73 96
65 80 102
56 72 96
177 209 255
177 209 255
177 209 255
177 209 255
177 209 255
177 209 255
178 209 255
178 209 255
178 209 255
178 209 255
178 209 255
178 209 255
178 209 255
178 209 255
178 209 255
178 209 255
178 209 255
178 209 255
178 209 255
178 209 255
178 209 255
178 209 255
178 209 255
178 209 255
178 209 255
179 209 255
179 209 255
179 209 255
179 209 255
179 209 255
179 209 255
179 210 255
179 210 255
179 210 255
179 210 255
179 210 255
179 210 255
179 210 255
179 210 255
179 210 255
179 210 255
179 210 255
179 210 255
179 210 255
180 210 255
180 210 255
180 210 255
180 210 255
180 210 255
180 210 255
180 210 255
180 210 255
180 210 255
180 210 255
180 210 255
180 210 255
180 210 255
180 210 255
180 210 255
180 210 255
180 210 255
180 210 255
180 210 255
180 210 255
181 211 255
181 211 255
181 211 255
181 211 255
181 211 255
181 211 255
181 211 255
181 211 255
181 211 255
181 211 255
181 211 255
181 211 255
181 211 255
181 211 255
181 211 255
181 211 255
181 211 255
181 211 255
181 211 255
181 211 255
181 211 255
181 211 255
181 211 255
181 211 255
182 211 255
182 211 255
182 211 255
182 211 255
182 211 255
182 211 255
182 211 255
182 211 255
182 211 255
182 211 255
182 211 255
182 211 255
182 211 255
182 211 255
182 211 255
182 212 255
182 211 255
182 212 255
182 212 255
182 212 255
182 212 255
182 212 255
182 212 255
182 212 255
183 212 255
183 212 255
183 212 255
183 212 255
183 212 255
183 212 255
183 212 255
183 212 255
183 212 255
183 212 255
183 212 255
183 212 255
183 212 255
183 212 255
183 212 255
183 212 255
183 212 255
183 212 255
183 212 255
183 212 255
183 212 255
183 212 255
183 212 255
183 212 255
183 212 255
183 212 255
183 212 255
183 212 255
183 212 255
183 212 255
184 212 255
184 212 255
184 212 255
184 212 255
184 212 255
184 212 255
183 212 255
184 212 255
183 212 255
183 212 255
183 212 255
183 212 255
183 212 255
183 212 255
183 212 255
183 212 255
183 212 255
183 212 255
183 212 255
183 212 255
183 212 255
183 212 255
183 212 255
183 212 255
183 212 255
183 212 255
183 212 255
183 212 255
183 212 255
183 212 255
183 212 255
183 212 255
183 212 255
183 212 255
183 212 255
183 212 255
183 212 255
182 212 255
182 212 255
182 212 255
182 212 255
182 212 255
182 212 255
182 212 255
182 212 255
182 212 255
182 212 255
182 211 255
182 211 255
182 211 255
182 211 255
182 211 255
182 211 255
182 211 255
182 211 255
182 211 255
182 211 255
182 211 255
182 211 255
182 211 255
182 211 255
182 211 255
182 211 255
182 211 255
181 211 255
181 211 255
181 211 255
181 211 255
181 211 255
181 211 255
181 211 255
181 211 255
181 211 255
181 211 255
181 211 255
181 211 255
181 211 255
181 211 255
181 211 255
181 211 255
181 211 255
181 211 255
181 211 255
181 211 255
181 211 255
181 211 255
180 210 255
180 210 255
180 210 255
180 210 255
180 210 255
180 210 255
180 210 255
180 210 255
180 210 255
180 210 255
180 210 255
180 210 255
180 210 255
180 210 255
180 210 255
180 210 255
180 210 255
180 210 255
180 210 255
180 210 255
180 210 255
179 210 255
179 210 255
179 210 255
179 210 255
179 210 255
179 210 255
179 210 255
179 210 255
179 210 255
179 210 255
179 210 255
179 209 255
179 209 255
179 209 255
179 209 255
179 209 255
179 209 255
179 209 255
179 209 255
178 209 255
178 209 255
178 209 255
178 209 255
178 209 255
178 209 255
178 209 255
178 209 255
178 209 255
178 209 255
178 209 255
178 209 255
178 209 255
178 209 255
178 209 255
117 140 176
69 87 115
57 70 89
65 80 102
67 82 105
57 69 86
66 83 108
79 96 121
58 72 92
65 80 102
65 80 102
66 81 104
60 77 102
67 83 108
63 84 115
70 83 102
69 82 102
53 69 92
64 82 108
52 64 83
63 79 102
72 86 108
78 93 115
69 82 102
53 66 86
63 77 97
66 81 102
70 85 108
71 86 108
62 78 102
53 67 90
69 85 108
52 65 84
62 76 97
74 91 115
63 77 99
62 75 96
54 66 84
80 96 121
70 86 108
62 76 99
71 88 115
58 72 94
71 86 110
64 81 105
71 87 110
54 70 96
69 82 102
69 85 108
66 83 108
65 82 108
64 79 102
61 77 102
63 78 102
67 83 108
67 81 102
52 66 86
60 77 102
63 76 96
59 75 99
73 90 115
62 78 102
75 91 115
69 86 112
54 68 89
63 81 108
72 89 115
73 90 115
64 84 115
48 62 83
53 68 89
70 88 115
70 88 115
61 76 99
61 75 96
55 69 89
57 72 96
60 74 96
56 69 89
62 76 99
64 79 102
62 76 96
66 83 108
62 83 115
81 97 121
74 88 108
86 102 128
62 78 102
56 69 89
73 92 121
72 89 115
58 73 96
60 77 102
76 94 121
75 91 115
67 86 115
60 74 96
73 87 108
64 79 102
60 74 96
77 97 128
63 77 99
67 81 104
51 67 91
80 99 128
64 79 102
59 74 97
70 85 108
59 71 89
61 78 102
67 83 108
67 81 102
72 86 108
54 68 89
56 69 90
64 82 108
80 97 121
112 132 163
178 209 255
178 209 255
178 209 255
178 209 255
178 209 255
178 209 255
178 209 255
178 209 255
178 209 255
178 209 255
178 209 255
178 209 255
178 209 255
178 209 255
178 209 255
179 209 255
179 209 255
179 209 255
179 209 255
179 209 255
179 209 255
179 209 255
179 209 255
179 210 255
179 210 255
179 210 255
179 210 255
179 210 255
179 210 255
179 210 255
179 210 255
179 210 255
179 210 255
180 210 255
179 210 255
180 210 255
180 210 255
180 210 255
180 210 255
180 210 255
180 210 255
180 210 255
180 210 255
180 210 255
180 210 255
180 210 255
180 210 255
180 210 255
180 210 255
180 210 255
180 210 255
180 210 255
180 210 255
180 210 255
180 210 255
181 211 255
181 211 255
181 211 255
181 211 255
181 211 255
181 211 255
181 211 255
181 211 255
181 211 255
181 211 255
181 211 255
181 211 255
181 211 255
181 211 255
181 211 255
181 211 255
181 211 255
181 211 255
181 211 255
181 211 255
181 211 255
181 211 255
182 211 255
182 211 255
182 211 255
182 211 255
182 211 255
182 211 255
182 211 255
182 211 255
182 211 255
182 211 255
182 211 255
182 211 255
182 211 255
182 211 255
182 211 255
182 211 255
182 212 255
182 212 255
182 212 255
182 212 255
182 212 255
182 212 255
182 212 255
182 212 255
182 212 255
183 212 255
183 212 255
183 212 255
183 212 255
183 212 255
183 212 255
183 212 255
183 212 255
183 212 255
183 212 255
183 212 255
183 212 255
183 212 255
183 212 255
183 212 255
183 212 255
183 212 255
183 212 255
183 212 255
183 212 255
183 212 255
183 212 255
183 212 255
183 212 255
183 212 255
183 212 255
183 212 255
183 212 255
183 212 255
183 212 255
183 212 255
184 212 255
184 212 255
184 212 255
184 212 255
184 212 255
184 212 255
184 212 255
184 212 255
184 213 255
184 213 255
184 213 255
184 213 255
184 213 255
184 213 255
184 213 255
184 212 255
184 212 255
184 212 255
184 212 255
184 212 255
184 212 255
184 212 255
184 212 255
184 212 255
184 212 255
184 212 255
183 212 255
183 212 255
183 212 255
183 212 255
183 212 255
183 212 255
183 212 255
183 212 255
183 212 255
183 212 255
183 212 255
183 212 255
183 212 255
183 212 255
183 212 255
183 212 255
183 212 255
183 212 255
183 212 255
183 212 255
183 212 255
183 212 255
183 212 255
183 212 255
183 212 255
183 212 255
183 212 255
183 212 255
183 212 255
182 212 255
182 212 255
182 212 255
182 212 255
182 212 255
182 212 255
182 212 255
182 212 255
182 211 255
182 211 255
182 211 255
182 211 255
182 211 255
182 211 255
182 211 255
182 211 255
182 211 255
182 211 255
182 211 255
182 211 255
182 211 255
182 211 255
182 211 255
182 211 255
182 211 255
181 211 255
181 211 255
181 211 255
181 211 255
181 211 255
181 211 255
181 211 255
181 211 255
181 211 255
181 211 255
181 211 255
181 211 255
181 211 255
181 211 255
181 211 255
181 211 255
181 211 255
181 211 255
181 211 255
181 211 255
181 211 255
180 210 255
180 210 255
180 210 255
180 210 255
180 210 255
180 210 255
180 210 255
180 210 255
180 210 255
180 210 255
180 210 255
180 210 255
180 210 255
180 210 255
180 210 255
180 210 255
180 210 255
180 210 255
180 210 255
180 210 255
180 210 255
180 210 255
179 210 255
179 210 255
179 210 255
179 210 255
179 210 255
179 210 255
179 210 255
179 210 255
179 210 255
179 210 255
179 210 255
179 210 255
179 209 255
179 210 255
179 209 255
179 209 255
179 209 255
179 209 255
179 209 255
179 209 255
178 209 255
178 209 255
178 209 255
178 209 255
178 209 255
170 199 243
69 85 108
51 63 83
65 80 102
66 83 108
64 80 104
68 84 108
79 96 121
70 88 115
67 86 115
64 81 105
64 79 102
67 81 102
73 90 115
50 63 83
64 81 105
64 82 108
61 72 90
62 78 102
63 81 108
68 84 108
70 85 108
58 72 92
71 89 115
68 83 105
69 85 109
64 79 102
65 82 108
64 82 108
72 92 121
59 73 96
76 94 121
67 83 108
68 81 102
74 90 115
67 84 108
75 94 121
62 79 104
72 89 115
75 94 121
67 83 108
68 81 102
60 77 102
67 83 108
59 74 96
65 83 108
60 74 96
58 71 91
55 69 89
79 96 121
54 66 84
50 64 85
63 79 102
54 68 89
59 74 96
68 84 108
71 86 108
52 67 89
63 79 104
72 89 115
64 82 108
76 93 118
69 85 108
67 86 115
66 83 108
57 71 92
56 72 96
61 75 96
63 76 96
59 73 96
64 80 104
56 69 89
80 96 121
63 80 105
56 70 92
57 72 96
62 79 105
76 92 115
65 82 108
64 77 97
61 72 89
56 69 89
68 84 108
60 74 96
74 93 121
63 78 102
62 75 96
64 77 96
59 75 99
52 65 84
63 79 102
66 80 102
64 77 96
60 74 96
61 76 99
68 84 108
72 85 105
47 57 72
78 92 115
56 70 91
54 67 86
66 80 102
70 82 102
65 79 102
68 87 115
74 90 115
70 88 115
73 90 115
65 80 102
65 78 99
76 94 121
74 90 115
74 88 108
66 81 104
68 84 108
68 84 108
63 79 102
80 96 121
60 74 96
178 209 255
178 209 255
178 209 255
178 209 255
178 209 255
179 209 255
179 209 255
178 209 255
179 209 255
179 209 255
179 209 255
179 209 255
179 210 255
179 210 255
179 210 255
179 210 255
179 210 255
179 210 255
179 210 255
179 210 255
179 210 255
179 210 255
179 210 255
179 210 255
179 210 255
179 210 255
179 210 255
180 210 255
180 210 255
180 210 255
180 210 255
180 210 255
180 210 255
180 210 255
180 210 255
180 210 255
180 210 255
180 210 255
180 210 255
180 210 255
180 210 255
180 210 255
180 210 255
180 210 255
180 210 255
180 210 255
181 211 255
180 210 255
181 211 255
181 211 255
181 211 255
181 211 255
181 211 255
181 211 255
181 211 255
181 211 255
181 211 255
181 211 255
181 211 255
181 211 255
181 211 255
181 211 255
181 211 255
181 211 255
181 211 255
181 211 255
181 211 255
181 211 255
181 211 255
181 211 255
182 211 255
182 211 255
182 211 255
182 211 255
182 211 255
182 211 255
182 211 255
182 211 255
182 211 255
182 211 255
182 211 255
182 211 255
182 211 255
182 211 255
182 211 255
182 211 255
182 212 255
182 212 255
182 212 255
182 212 255
182 212 255
182 212 255
182 212 255
182 212 255
183 212 255
183 212 255
183 212 255
183 212 255
183 212 255
183 212 255
183 212 255
183 212 255
183 212 255
183 212 255
183 212 255
183 212 255
183 212 255
183 212 255
183 212 255
183 212 255
183 212 255
183 212 255
183 212 255
183 212 255
183 212 255
183 212 255
183 212 255
183 212 255
183 212 255
183 212 255
183 212 255
183 212 255
183 212 255
184 212 255
184 212 255
184 212 255
184 212 255
184 212 255
184 212 255
184 212 255
184 212 255
184 212 255
184 212 255
184 212 255
184 213 255
184 213 255
184 213 255
184 213 255
184 213 255
184 213 255
184 213 255
184 213 255
184 213 255
184 213 255
184 213 255
184 213 255
184 213 255
184 213 255
184 213 255
184 213 255
184 213 255
184 213 255
184 213 255
184 213 255
184 213 255
184 213 255
184 213 255
184 212 255
184 212 255
184 212 255
184 212 255
184 212 255
184 212 255
184 212 255
184 212 255
184 212 255
184 212 255
184 212 255
184 212 255
183 212 255
183 212 255
183 212 255
183 212 255
183 212 255
183 212 255
183 212 255
183 212 255
183 212 255
183 212 255
183 212 255
183 212 255
183 212 255
183 212 255
183 212 255
183 212 255
183 212 255
183 212 255
183 212 255
183 212 255
183 212 255
183 212 255
183 212 255
183 212 255
183 212 255
183 212 255
183 212 255
183 212 255
182 212 255
182 212 255
182 212 255
182 212 255
182 212 255
182 212 255
182 212 255
182 212 255
182 211 255
182 211 255
182 211 255
182 211 255
182 211 255
182 211 255
182 211 255
182 211 255
182 211 255
182 211 255
182 211 255
182 211 255
182 211 255
182 211 255
182 211 255
182 211 255
181 211 255
181 211 255
181 211 255
181 211 255
181 211 255
181 211 255
181 211 255
181 211 255
181 211 255
181 211 255
181 211 255
181 211 255
181 211 255
181 211 255
181 211 255
181 211 255
181 211 255
181 211 255
181 211 255
181 211 255
181 211 255
181 211 255
180 210 255
180 210 255
180 210 255
180 210 255
180 210 255
180 210 255
180 210 255
180 210 255
180 210 255
180 210 255
180 210 255
180 210 255
180 210 255
180 210 255
180 210 255
180 210 255
180 210 255
180 210 255
180 210 255
180 210 255
180 210 255
179 210 255
180 210 255
179 210 255
179 210 255
179 210 255
179 210 255
179 210 255
179 210 255
179 210 255
179 210 255
179 210 255
179 210 255
179 210 255
179 209 255
179 210 255
179 210 255
179 209 255
147 172 211
69 85 108
59 76 102
69 85 108
68 85 112
69 86 112
61 75 96
65 80 102
66 83 108
71 89 115
65 82 108
70 85 108
63 81 108
74 88 108
63 78 100
74 88 108
77 95 121
55 70 92
67 81 102
73 92 121
53 70 96
62 78 102
60 77 102
68 87 115
63 79 102
61 77 102
64 80 105
67 84 110
61 75 96
68 84 108
69 85 108
58 70 89
76 91 115
74 90 115
43 54 72
64 82 108
61 75 96
60 77 102
67 83 108
46 58 78
54 68 89
54 71 97
75 93 121
68 84 108
63 80 105
60 75 97
61 76 97
70 84 105
75 88 108
71 89 115
67 84 108
50 65 89
63 76 96
72 87 108
57 72 96
74 93 121
65 80 102
68 84 108
64 79 102
56 70 91
65 82 108
78 95 121
56 69 89
60 73 92
72 84 102
56 75 102
62 79 105
57 70 89
63 81 108
61 73 91
67 84 108
55 67 86
56 73 99
52 64 83
64 79 102
46 61 83
68 86 112
68 82 104
61 75 96
73 87 108
58 72 92
60 74 96
66 84 112
50 63 83
71 88 115
64 82 108
66 83 108
71 86 110
54 68 89
67 79 99
69 85 110
50 63 83
67 84 108
61 75 97
69 84 108
57 70 89
71 88 115
56 66 83
60 75 99
48 62 83
69 84 108
51 61 77
71 86 108
61 78 102
55 67 86
64 79 102
57 71 91
63 79 102
64 81 108
62 78 102
67 81 102
65 82 108
57 74 99
59 74 96
74 90 115
70 88 115
61 77 102
72 84 104
68 87 115
120 144 179
179 209 255
179 209 255
179 209 255
179 210 255
179 210 255
179 210 255
179 210 255
179 210 255
179 210 255
179 210 255
179 210 255
179 210 255
179 210 255
179 210 255
179 210 255
179 210 255
180 210 255
180 210 255
180 210 255
180 210 255
180 210 255
180 210 255
180 210 255
180 210 255
180 210 255
180 210 255
180 210 255
180 210 255
180 210 255
180 210 255
180 210 255
180 210 255
180 210 255
180 210 255
180 210 255
180 210 255
180 210 255
180 210 255
181 211 255
181 211 255
181 211 255
181 211 255
181 211 255
181 211 255
181 211 255
181 211 255
181 211 255
181 211 255
181 211 255
181 211 255
181 211 255
181 211 255
181 211 255
181 211 255
181 211 255
181 211 255
181 211 255
181 211 255
181 211 255
182 211 255
182 211 255
182 211 255
182 211 255
182 211 255
182 211 255
182 211 255
182 211 255
182 211 255
182 211 255
182 211 255
182 211 255
182 211 255
182 211 255
182 211 255
182 211 255
182 212 255
182 212 255
182 212 255
182 212 255
182 212 255
182 212 255
182 212 255
182 212 255
182 212 255
182 212 255
183 212 255
183 212 255
183 212 255
183 212 255
183 212 255
183 212 255
183 212 255
183 212 255
183 212 255
183 212 255
183 212 255
183 212 255
183 212 255
183 212 255
183 212 255
183 212 255
183 212 255
183 212 255
183 212 255
183 212 255
183 212 255
183 212 255
183 212 255
183 212 255
183 212 255
183 212 255
184 212 255
183 212 255
183 212 255
184 212 255
184 212 255
184 212 255
184 212 255
184 212 255
184 212 255
184 212 255
184 212 255
184 212 255
184 212 255
184 213 255
184 213 255
184 213 255
184 213 255
184 213 255
184 213 255
184 213 255
184 213 255
184 213 255
184 213 255
184 213 255
184 213 255
184 213 255
184 213 255
184 213 255
184 213 255
185 213 255
185 213 255
184 213 255
184 213 255
184 213 255
184 213 255
184 213 255
184 213 255
184 213 255
184 213 255
184 213 255
184 213 255
184 213 255
184 213 255
184 213 255
184 213 255
184 213 255
184 213 255
184 213 255
184 213 255
184 213 255
184 213 255
184 213 255
184 213 255
184 213 255
184 213 255
184 213 255
184 212 255
184 212 255
184 212 255
184 212 255
184 212 255
184 212 255
184 212 255
184 212 255
184 212 255
184 212 255
183 212 255
183 212 255
183 212 255
183 212 255
183 212 255
183 212 255
183 212 255
183 212 255
183 212 255
183 212 255
183 212 255
183 212 255
183 212 255
183 212 255
183 212 255
183 212 255
183 212 255
183 212 255
183 212 255
183 212 255
183 212 255
183 212 255
183 212 255
183 212 255
183 212 255
183 212 255
183 212 255
183 212 255
182 212 255
182 212 255
182 212 255
182 212 255
182 212 255
182 212 255
182 212 255
182 212 255
182 211 255
182 211 255
182 211 255
182 211 255
182 211 255
182 211 255
182 211 255
182 211 255
182 211 255
182 211 255
182 211 255
182 211 255
182 211 255
182 211 255
182 211 255
182 211 255
181 211 255
181 211 255
181 211 255
181 211 255
181 211 255
181 211 255
181 211 255
181 211 255
181 211 255
181 211 255
181 211 255
181 211 255
181 211 255
181 211 255
181 211 255
181 211 255
181 211 255
181 211 255
181 211 255
181 211 255
181 211 255
181 211 255
181 211 255
181 211 255
180 210 255
180 210 255
180 210 255
180 210 255
180 210 255
180 210 255
180 210 255
180 210 255
180 210 255
180 210 255
180 210 255
180 210 255
180 210 255
180 210 255
180 210 255
180 210 255
180 210 255
180 210 255
180 210 255
180 210 255
179 210 255
179 210 255
179 210 255
179 210 255
179 210 255
179 210 255
170 199 243
59 72 91
62 75 96
75 93 121
59 76 102
64 79 102
62 81 108
77 95 121
67 86 115
82 100 128
72 89 115
64 82 108
66 80 102
66 83 108
74 90 115
69 87 115
63 75 93
71 86 108
69 85 108
67 83 108
61 77 102
57 72 96
59 74 97
75 91 115
65 80 102
74 90 115
56 69 89
55 71 96
75 91 115
77 95 121
63 77 97
66 79 99
68 84 108
67 84 108
53 67 89
72 89 115
69 84 108
74 90 115
54 68 89
59 72 92
66 84 110
62 75 96
67 83 108
76 91 115
64 77 97
70 83 102
59 74 96
62 78 102
69 85 108
68 87 115
58 74 99
69 85 108
58 71 89
75 91 115
70 88 115
57 74 99
60 74 96
69 86 110
59 74 96
63 81 108
72 86 108
75 91 115
59 76 102
67 84 108
64 79 102
62 79 105
67 86 115
67 83 108
65 80 104
60 74 96
61 76 97
63 79 102
56 72 96
68 85 110
64 77 97
72 86 108
61 76 97
57 73 96
58 72 92
63 79 102
58 70 88
52 65 84
57 70 89
69 88 115
61 75 96
77 95 121
55 71 96
55 70 92
70 85 108
59 76 102
71 86 108
58 74 99
77 95 121
65 85 115
64 77 97
71 86 108
72 87 108
60 74 96
64 80 104
66 81 104
67 84 108
61 75 96
65 80 102
52 67 89
65 82 108
66 80 102
67 83 108
70 88 115
59 74 96
63 78 102
68 87 115
66 85 115
66 85 115
67 83 108
58 70 88
65 82 108
76 94 121
67 84 108
54 69 91
76 94 121
80 98 124
179 210 255
179 210 255
179 210 255
179 210 255
179 210 255
180 210 255
180 210 255
180 210 255
180 210 255
180 210 255
180 210 255
180 210 255
180 210 255
180 210 255
180 210 255
180 210 255
180 210 255
180 210 255
180 210 255
180 210 255
180 210 255
180 210 255
180 210 255
180 210 255
180 210 255
180 210 255
180 210 255
180 210 255
180 210 255
181 211 255
181 211 255
181 211 255
181 211 255
181 211 255
181 211 255
181 211 255
181 211 255
181 211 255
181 211 255
181 211 255
181 211 255
181 211 255
181 211 255
181 211 255
181 211 255
181 211 255
181 211 255
181 211 255
181 211 255
181 211 255
182 211 255
182 211 255
182 211 255
182 211 255
182 211 255
182 211 255
182 211 255
182 211 255
182 211 255
182 211 255
182 211 255
182 211 255
182 211 255
182 211 255
182 211 255
182 211 255
182 211 255
182 212 255
182 211 255
182 212 255
182 212 255
182 212 255
182 212 255
182 212 255
182 212 255
182 212 255
183 212 255
183 212 255
183 212 255
183 212 255
183 212 255
183 212 255
183 212 255
183 212 255
183 212 255
183 212 255
183 212 255
183 212 255
183 212 255
183 212 255
183 212 255
183 212 255
183 212 255
183 212 255
183 212 255
183 212 255
183 212 255
183 212 255
183 212 255
183 212 255
183 212 255
183 212 255
183 212 255
183 212 255
183 212 255
184 212 255
184 212 255
184 212 255
184 212 255
184 212 255
184 212 255
184 212 255
184 212 255
184 213 255
184 213 255
184 213 255
184 213 255
184 213 255
184 213 255
184 213 255
184 213 255
184 213 255
184 213 255
184 213 255
184 213 255
184 213 255
184 213 255
184 213 255
184 213 255
184 213 255
184 213 255
184 213 255
184 213 255
184 213 255
184 213 255
184 213 255
184 213 255
185 213 255
185 213 255
185 213 255
185 213 255
185 213 255
185 213 255
185 213 255
185 213 255
185 213 255
185 213 255
185 213 255
185 213 255
185 213 255
185 213 255
185 213 255
185 213 255
184 213 255
184 213 255
184 213 255
184 213 255
184 213 255
184 213 255
184 213 255
184 213 255
184 213 255
184 213 255
184 213 255
184 213 255
184 213 255
184 213 255
184 213 255
184 213 255
184 213 255
184 213 255
184 213 255
184 213 255
184 213 255
184 213 255
184 213 255
184 212 255
184 212 255
184 212 255
184 212 255
184 212 255
184 212 255
184 212 255
184 212 255
184 212 255
184 212 255
184 212 255
183 212 255
183 212 255
183 212 255
183 212 255
183 212 255
183 212 255
183 212 255
183 212 255
183 212 255
183 212 255
183 212 255
183 212 255
183 212 255
183 212 255
183 212 255
183 212 255
183 212 255
183 212 255
183 212 255
183 212 255
183 212 255
183 212 255
183 212 255
183 212 255
183 212 255
183 212 255
182 212 255
182 212 255
182 212 255
182 212 255
182 212 255
182 212 255
182 212 255
182 212 255
182 212 255
182 211 255
182 211 255
182 211 255
182 211 255
182 211 255
182 211 255
182 211 255
182 211 255
182 211 255
182 211 255
182 211 255
182 211 255
182 211 255
182 211 255
182 211 255
182 211 255
182 211 255
181 211 255
181 211 255
181 211 255
181 211 255
181 211 255
181 211 255
181 211 255
181 211 255
181 211 255
181 211 255
181 211 255
181 211 255
181 211 255
181 211 255
181 211 255
181 211 255
181 211 255
181 211 255
181 211 255
181 211 255
180 210 255
180 210 255
181 211 255
180 210 255
180 210 255
180 210 255
180 210 255
180 210 255
180 210 255
180 210 255
180 210 255
180 210 255
180 210 255
180 210 255
180 210 255
180 210 255
180 210 255
180 210 255
180 210 255
180 210 255
98 117 147
69 85 108
57 70 89
60 74 96
78 96 121
64 82 108
64 77 97
56 70 91
63 78 102
64 76 96
67 83 108
63 77 97
63 79 102
61 77 102
65 83 110
58 71 91
47 59 76
60 75 97
72 89 115
68 84 108
59 76 102
61 76 99
66 83 108
69 85 108
55 69 89
57 75 102
60 77 102
63 78 102
60 74 96
74 90 115
65 80 102
72 86 108
69 82 102
63 79 102
56 69 89
59 74 96
59 75 99
48 61 80
50 61 78
65 80 102
79 96 121
57 72 96
58 74 97
58 73 96
65 82 108
73 90 115
56 69 89
66 81 104
53 66 86
63 78 102
62 75 96
46 59 78
65 78 97
60 73 92
80 96 121
64 77 97
57 70 89
72 89 115
64 78 100
60 77 103
59 76 102
60 74 96
59 76 102
62 78 102
69 85 108
53 68 89
61 75 96
60 77 102
62 78 102
67 86 115
58 70 89
70 88 115
57 71 91
66 86 115
52 66 88
69 82 102
67 83 108
61 72 89
71 86 108
75 91 115
61 75 96
67 84 108
76 91 115
67 83 108
66 83 108
69 85 108
70 83 102
55 67 86
73 90 115
62 78 102
59 76 102
67 84 108
68 84 108
53 70 96
66 80 102
59 71 90
64 79 102
63 76 96
72 89 115
65 80 102
50 61 77
77 94 121
73 87 108
73 87 108
60 74 96
72 89 115
64 79 102
69 85 108
65 82 108
60 74 96
61 75 96
55 71 96
69 87 115
62 74 92
71 86 108
65 80 104
71 86 108
70 83 102
69 85 108
59 76 102
66 81 102
140 166 204
180 210 255
180 210 255
180 210 255
180 210 255
180 210 255
180 210 255
180 210 255
180 210 255
180 210 255
180 210 255
180 210 255
180 210 255
180 210 255
180 210 255
180 210 255
180 210 255
180 210 255
181 211 255
180 210 255
181 211 255
181 211 255
181 211 255
181 211 255
181 211 255
181 211 255
181 211 255
181 211 255
181 211 255
181 211 255
181 211 255
181 211 255
181 211 255
181 211 255
181 211 255
181 211 255
181 211 255
181 211 255
181 211 255
181 211 255
181 211 255
181 211 255
182 211 255
182 211 255
182 211 255
182 211 255
182 211 255
182 211 255
182 211 255
182 211 255
182 211 255
182 211 255
182 211 255
182 211 255
182 211 255
182 211 255
182 211 255
182 211 255
182 212 255
182 212 255
182 212 255
182 212 255
182 212 255
182 212 255
182 212 255
183 212 255
183 212 255
183 212 255
183 212 255
183 212 255
183 212 255
183 212 255
183 212 255
183 212 255
183 212 255
183 212 255
183 212 255
183 212 255
183 212 255
183 212 255
183 212 255
183 212 255
183 212 255
183 212 255
183 212 255
183 212 255
183 212 255
183 212 255
183 212 255
183 212 255
183 212 255
183 212 255
184 212 255
183 212 255
184 212 255
184 212 255
184 212 255
184 212 255
184 212 255
184 212 255
184 212 255
184 212 255
184 212 255
184 212 255
184 213 255
184 213 255
184 213 255
184 213 255
184 213 255
184 213 255
184 213 255
184 213 255
184 213 255
184 213 255
184 213 255
184 213 255
184 213 255
184 213 255
184 213 255
184 213 255
184 213 255
184 213 255
184 213 255
184 213 255
184 213 255
184 213 255
185 213 255
184 213 255
185 213 255
185 213 255
185 213 255
185 213 255
185 213 255
185 213 255
185 213 255
185 213 255
185 213 255
185 213 255
185 213 255
185 213 255
185 213 255
185 213 255
185 213 255
185 213 255
185 213 255
185 213 255
185 213 255
185 213 255
185 213 255
185 213 255
185 213 255
185 213 255
185 213 255
185 213 255
185 213 255
185 213 255
185 213 255
185 213 255
185 213 255
185 213 255
185 213 255
185 213 255
185 213 255
185 213 255
184 213 255
184 213 255
184 213 255
184 213 255
184 213 255
184 213 255
184 213 255
184 213 255
184 213 255
184 213 255
184 213 255
184 213 255
184 213 255
184 213 255
184 213 255
184 213 255
184 213 255
184 213 255
184 213 255
184 213 255
184 213 255
184 213 255
184 212 255
184 212 255
184 212 255
184 212 255
184 212 255
184 212 255
184 212 255
184 212 255
184 212 255
184 212 255
183 212 255
183 212 255
183 212 255
183 212 255
183 212 255
183 212 255
183 212 255
183 212 255
183 212 255
183 212 255
183 212 255
183 212 255
183 212 255
183 212 255
183 212 255
183 212 255
183 212 255
183 212 255
183 212 255
183 212 255
183 212 255
183 212 255
183 212 255
183 212 255
183 212 255
183 212 255
183 212 255
183 212 255
182 212 255
182 212 255
182 212 255
182 212 255
182 212 255
182 212 255
182 212 255
182 211 255
182 212 255
182 211 255
182 211 255
182 211 255
182 211 255
182 211 255
182 211 255
182 211 255
182 211 255
182 211 255
182 211 255
182 211 255
182 211 255
182 211 255
182 211 255
182 211 255
181 211 255
182 211 255
181 211 255
181 211 255
181 211 255
181 211 255
181 211 255
181 211 255
181 211 255
181 211 255
181 211 255
181 211 255
181 211 255
181 211 255
181 211 255
181 211 255
181 211 255
181 211 255
181 211 255
181 211 255
181 211 255
181 211 255
181 211 255
180 210 255
180 210 255
180 210 255
180 210 255
180 210 255
180 210 255
180 210 255
180 210 255
101 122 153
62 78 102
69 87 115
57 69 88
68 84 108
54 68 89
75 91 115
57 75 102
71 91 121
58 73 96
57 72 94
59 74 96
74 88 108
56 70 91
64 79 102
71 86 108
66 83 108
69 84 108
78 95 121
68 87 115
69 85 108
62 78 102
67 84 108
66 82 105
61 78 104
72 89 115
54 68 89
66 80 102
70 88 115
71 86 108
53 66 86
60 75 97
62 76 96
63 79 102
58 73 96
65 77 96
59 74 96
66 80 102
64 76 96
65 80 102
77 95 121
67 82 104
73 87 108
54 67 86
60 74 96
67 81 102
70 88 115
68 84 108
64 79 102
75 88 108
65 82 108
73 90 115
66 81 104
63 79 102
66 79 99
59 74 97
60 77 102
68 84 108
58 73 96
55 69 91
66 80 102
63 81 108
69 85 108
61 77 102
68 84 108
74 93 121
60 77 102
71 86 108
79 94 115
68 84 108
58 72 92
51 64 84
78 93 115
58 74 99
71 86 108
76 94 121
73 87 108
73 90 115
59 73 96
62 80 108
72 86 108
72 86 108
65 82 108
65 79 102
76 94 121
67 83 108
62 78 102
60 74 96
55 71 96
68 84 108
67 79 99
60 77 102
56 72 96
70 85 108
65 83 108
62 78 102
67 84 108
63 79 102
60 72 91
56 70 91
63 82 110
56 69 89
66 81 104
63 77 99
65 80 103
71 88 115
53 65 83
67 84 108
73 90 115
62 78 102
54 71 96
68 84 108
65 80 104
77 94 121
68 82 102
71 86 108
69 88 115
57 73 96
70 86 110
51 63 83
64 79 102
95 116 147
180 210 255
180 210 255
180 210 255
180 210 255
180 210 255
180 210 255
180 210 255
181 211 255
180 210 255
181 211 255
181 211 255
181 211 255
181 211 255
181 211 255
181 211 255
181 211 255
181 211 255
181 211 255
181 211 255
181 211 255
181 211 255
181 211 255
181 211 255
181 211 255
181 211 255
181 211 255
181 211 255
181 211 255
181 211 255
181 211 255
181 211 255
182 211 255
182 211 255
182 211 255
182 211 255
182 211 255
182 211 255
182 211 255
182 211 255
182 211 255
182 211 255
182 211 255
182 211 255
182 211 255
182 211 255
182 211 255
182 212 255
182 212 255
182 212 255
182 212 255
182 212 255
182 212 255
182 212 255
182 212 255
183 212 255
182 212 255
182 212 255
183 212 255
183 212 255
183 212 255
183 212 255
183 212 255
183 212 255
183 212 255
183 212 255
183 212 255
183 212 255
183 212 255
183 212 255
183 212 255
183 212 255
183 212 255
183 212 255
183 212 255
183 212 255
183 212 255
183 212 255
183 212 255
183 212 255
183 212 255
183 212 255
183 212 255
183 212 255
184 212 255
184 212 255
184 212 255
184 212 255
184 212 255
184 212 255
184 212 255
184 212 255
184 212 255
184 213 255
184 213 255
184 213 255
184 213 255
184 213 255
184 213 255
184 213 255
184 213 255
184 213 255
184 213 255
184 213 255
184 213 255
184 213 255
184 213 255
184 213 255
184 213 255
184 213 255
184 213 255
184 213 255
184 213 255
184 213 255
184 213 255
185 213 255
185 213 255
185 213 255
185 213 255
185 213 255
185 213 255
185 213 255
185 213 255
185 213 255
185 213 255
185 213 255
185 213 255
185 213 255
185 213 255
185 213 255
185 213 255
185 213 255
185 213 255
185 213 255
185 213 255
185 213 255
185 213 255
185 213 255
185 213 255
185 213 255
185 213 255
185 213 255
185 213 255
185 213 255
185 213 255
185 213 255
185 213 255
185 213 255
185 213 255
185 213 255
185 213 255
185 213 255
185 213 255
185 213 255
185 213 255
185 213 255
185 213 255
185 213 255
185 213 255
185 213 255
185 213 255
185 213 255
185 213 255
185 213 255
185 213 255
185 213 255
185 213 255
185 213 255
185 213 255
185 213 255
185 213 255
185 213 255
185 213 255
185 213 255
184 213 255
184 213 255
184 213 255
184 213 255
184 213 255
184 213 255
184 213 255
184 213 255
184 213 255
184 213 255
184 213 255
184 213 255
184 213 255
184 213 255
184 213 255
184 213 255
184 213 255
184 213 255
184 213 255
184 213 255
184 213 255
184 213 255
184 212 255
184 212 255
184 212 255
184 212 255
184 212 255
184 212 255
184 212 255
184 212 255
184 212 255
184 212 255
184 212 255
183 212 255
183 212 255
183 212 255
183 212 255
183 212 255
183 212 255
183 212 255
183 212 255
183 212 255
183 212 255
183 212 255
183 212 255
183 212 255
183 212 255
183 212 255
183 212 255
183 212 255
183 212 255
183 212 255
183 212 255
183 212 255
183 212 255
183 212 255
183 212 255
183 212 255
183 212 255
182 212 255
182 212 255
182 212 255
182 212 255
182 212 255
182 212 255
182 212 255
182 212 255
182 212 255
182 211 255
182 211 255
182 211 255
182 211 255
182 211 255
182 211 255
182 211 255
182 211 255
182 211 255
182 211 255
182 211 255
182 211 255
182 211 255
182 211 255
182 211 255
182 211 255
181 211 255
181 211 255
181 211 255
181 211 255
181 211 255
181 211 255
181 211 255
181 211 255
181 211 255
181 211 255
181 211 255
181 211 255
181 211 255
181 211 255
181 211 255
181 211 255
181 211 255
181 211 255
181 211 255
181 211 255
166 194 236
74 90 115
56 70 91
67 86 115
54 71 96
56 69 89
71 86 108
59 76 102
73 90 115
71 89 115
58 75 102
59 73 96
62 76 97
66 83 108
74 90 115
79 96 121
50 63 83
60 74 96
60 77 102
58 73 96
58 73 96
51 64 83
63 81 108
56 72 96
64 79 102
68 84 108
59 74 96
54 66 83
60 74 96
66 80 102
59 72 92
60 77 102
72 89 115
60 75 99
61 75 96
55 71 96
72 88 112
59 73 96
64 78 99
60 77 104
53 63 78
63 81 108
71 86 108
66 81 102
68 81 102
59 74 96
60 76 99
69 85 108
60 77 102
71 86 108
64 79 102
65 83 108
70 83 102
67 84 108
62 78 102
65 82 108
78 95 121
62 75 96
67 84 108
55 67 86
57 72 96
59 72 91
64 79 102
68 84 108
62 78 102
64 79 102
59 71 89
66 80 102
68 84 108
65 79 99
61 75 96
59 74 96
67 84 108
56 69 89
71 88 115
55 68 89
66 83 108
55 71 96
67 81 102
66 83 108
71 86 108
62 78 102
73 90 115
59 74 96
55 67 84
68 87 115
65 81 105
57 70 90
71 88 115
76 91 115
69 82 102
74 90 115
52 64 83
76 94 121
64 79 102
82 100 128
81 100 128
62 78 102
62 75 96
63 79 102
69 85 108
66 83 108
67 84 110
68 84 108
56 72 96
59 75 99
65 80 102
69 87 115
71 86 108
70 88 115
63 76 96
59 73 96
51 65 86
56 71 92
61 75 96
71 86 110
64 82 108
67 82 105
46 57 75
65 81 105
57 70 89
59 73 96
79 96 121
151 178 217
181 211 255
181 211 255
181 211 255
181 211 255
181 211 255
181 211 255
181 211 255
181 211 255
181 211 255
181 211 255
181 211 255
181 211 255
181 211 255
181 211 255
181 211 255
181 211 255
181 211 255
181 211 255
181 211 255
181 211 255
181 211 255
182 211 255
182 211 255
182 211 255
182 211 255
182 211 255
182 211 255
182 211 255
182 211 255
182 211 255
182 211 255
182 211 255
182 211 255
182 211 255
182 211 255
182 211 255
182 211 255
182 212 255
182 212 255
182 212 255
182 212 255
182 212 255
182 212 255
182 212 255
183 212 255
183 212 255
183 212 255
183 212 255
183 212 255
183 212 255
183 212 255
183 212 255
183 212 255
183 212 255
183 212 255
183 212 255
183 212 255
183 212 255
183 212 255
183 212 255
183 212 255
183 212 255
183 212 255
183 212 255
183 212 255
183 212 255
183 212 255
183 212 255
183 212 255
183 212 255
183 212 255
184 212 255
184 212 255
184 212 255
184 212 255
184 212 255
184 212 255
184 212 255
184 212 255
184 212 255
184 212 255
184 212 255
184 212 255
184 213 255
184 213 255
184 213 255
184 213 255
184 213 255
184 213 255
184 213 255
184 213 255
184 213 255
184 213 255
184 213 255
184 213 255
184 213 255
184 213 255
184 213 255
184 213 255
184 213 255
184 213 255
184 213 255
184 213 255
185 213 255
185 213 255
185 213 255
185 213 255
185 213 255
185 213 255
185 213 255
185 213 255
185 213 255
185 213 255
185 213 255
185 213 255
185 213 255
185 213 255
185 213 255
185 213 255
185 213 255
185 213 255
185 213 255
185 213 255
185 213 255
185 213 255
185 213 255
185 213 255
185 213 255
185 213 255
185 213 255
185 213 255
185 213 255
185 213 255
185 213 255
185 213 255
185 213 255
185 213 255
185 213 255
186 214 255
186 214 255
186 214 255
186 214 255
186 214 255
186 214 255
186 214 255
186 214 255
186 214 255
185 213 255
185 213 255
185 213 255
185 213 255
185 213 255
185 213 255
185 213 255
185 213 255
185 213 255
185 213 255
185 213 255
185 213 255
185 213 255
185 213 255
185 213 255
185 213 255
185 213 255
185 213 255
185 213 255
185 213 255
185 213 255
185 213 255
185 213 255
185 213 255
185 213 255
185 213 255
185 213 255
185 213 255
185 213 255
185 213 255
185 213 255
185 213 255
185 213 255
185 213 255
185 213 255
185 213 255
184 213 255
184 213 255
184 213 255
184 213 255
184 213 255
184 213 255
184 213 255
184 213 255
184 213 255
184 213 255
184 213 255
184 213 255
184 213 255
184 213 255
184 213 255
184 213 255
184 213 255
184 213 255
184 213 255
184 213 255
184 213 255
184 213 255
184 213 255
184 212 255
184 212 255
184 212 255
184 212 255
184 212 255
184 212 255
184 212 255
184 212 255
184 212 255
183 212 255
183 212 255
183 212 255
183 212 255
183 212 255
183 212 255
183 212 255
183 212 255
183 212 255
183 212 255
183 212 255
183 212 255
183 212 255
183 212 255
183 212 255
183 212 255
183 212 255
183 212 255
183 212 255
183 212 255
183 212 255
183 212 255
183 212 255
183 212 255
183 212 255
183 212 255
183 212 255
182 212 255
182 212 255
182 212 255
182 212 255
182 212 255
182 212 255
182 212 255
182 212 255
182 211 255
182 211 255
182 211 255
182 211 255
182 211 255
182 211 255
182 211 255
182 211 255
182 211 255
182 211 255
182 211 255
182 211 255
182 211 255
182 211 255
182 211 255
182 211 255
182 211 255
182 211 255
181 211 255
181 211 255
181 211 255
181 211 255
181 211 255
181 211 255
181 211 255
181 211 255
137 160 196
75 93 121
69 87 115
71 91 121
63 80 105
71 88 115
62 79 105
77 92 115
70 86 108
58 73 96
62 76 96
73 90 115
75 94 121
66 80 102
44 58 80
59 75 99
71 89 115
71 86 108
68 84 108
65 80 102
67 83 108
66 79 99
66 80 102
57 71 92
61 75 96
63 78 102
72 87 108
69 85 108
71 86 108
77 92 115
72 87 108
60 72 89
63 77 97
60 74 96
66 79 99
74 89 112
64 79 102
66 80 102
68 82 102
62 78 102
63 78 102
76 94 121
67 83 108
68 86 115
68 85 112
67 81 102
58 71 91
54 68 89
59 76 102
47 60 80
68 87 115
65 82 108
55 70 92
69 87 115
68 87 115
67 81 102
62 75 96
55 70 92
67 83 108
78 95 121
60 74 96
65 80 102
51 63 81
66 81 102
57 68 84
50 63 81
52 63 80
66 81 104
65 80 102
57 70 89
62 75 96
71 89 115
61 78 102
82 95 115
71 86 108
54 70 92
60 74 96
64 77 97
59 74 96
71 89 115
59 71 90
57 72 96
57 72 96
65 85 115
70 86 108
53 68 89
53 63 78
61 77 102
70 88 115
77 92 115
82 100 128
66 83 108
64 79 102
71 84 102
49 62 83
63 79 102
67 84 108
73 90 115
58 74 97
69 82 102
59 70 86
59 72 92
66 81 102
82 100 128
50 64 84
60 74 96
68 87 115
72 84 102
66 80 102
57 72 96
57 67 83
76 91 115
57 73 97
73 87 108
65 79 102
60 77 102
57 70 89
66 83 108
51 65 84
68 84 108
63 78 102
74 93 121
62 77 99
133 156 192
181 211 255
181 211 255
181 211 255
181 211 255
181 211 255
181 211 255
181 211 255
181 211 255
182 211 255
182 211 255
182 211 255
182 211 255
182 211 255
182 211 255
182 211 255
182 211 255
182 211 255
182 211 255
182 211 255
182 211 255
182 211 255
182 211 255
182 211 255
182 211 255
182 211 255
182 212 255
182 212 255
182 212 255
182 212 255
182 212 255
182 212 255
182 212 255
182 212 255
182 212 255
183 212 255
183 212 255
183 212 255
183 212 255
183 212 255
183 212 255
183 212 255
183 212 255
183 212 255
183 212 255
183 212 255
183 212 255
183 212 255
183 212 255
183 212 255
183 212 255
183 212 255
183 212 255
183 212 255
183 212 255
183 212 255
183 212 255
183 212 255
183 212 255
183 212 255
183 212 255
183 212 255
184 212 255
184 212 255
184 212 255
184 212 255
184 212 255
184 212 255
184 212 255
184 212 255
184 212 255
184 212 255
184 213 255
184 213 255
184 213 255
184 213 255
184 213 255
184 213 255
184 213 255
184 213 255
184 213 255
184 213 255
184 213 255
184 213 255
184 213 255
184 213 255
184 213 255
184 213 255
184 213 255
184 213 255
184 213 255
185 213 255
184 213 255
184 213 255
185 213 255
185 213 255
185 213 255
185 213 255
185 213 255
185 213 255
185 213 255
185 213 255
185 213 255
185 213 255
185 213 255
185 213 255
185 213 255
185 213 255
185 213 255
185 213 255
185 213 255
185 213 255
185 213 255
185 213 255
185 213 255
185 213 255
185 213 255
185 213 255
185 213 255
185 213 255
185 213 255
185 213 255
185 213 255
185 213 255
185 213 255
185 213 255
185 213 255
185 213 255
185 213 255
185 213 255
185 213 255
186 214 255
186 214 255
186 214 255
186 214 255
186 214 255
186 214 255
186 214 255
186 214 255
186 214 255
186 214 255
186 214 255
186 214 255
186 214 255
186 214 255
186 214 255
186 214 255
186 214 255
186 214 255
186 214 255
186 214 255
186 214 255
186 214 255
186 214 255
186 214 255
186 214 255
186 214 255
186 214 255
185 213 255
185 213 255
185 213 255
185 213 255
185 213 255
185 213 255
185 213 255
185 213 255
185 213 255
185 213 255
185 213 255
185 213 255
185 213 255
185 213 255
185 213 255
185 213 255
185 213 255
185 213 255
185 213 255
185 213 255
185 213 255
185 213 255
185 213 255
185 213 255
185 213 255
185 213 255
185 213 255
185 213 255
185 213 255
185 213 255
185 213 255
185 213 255
185 213 255
185 213 255
185 213 255
185 213 255
185 213 255
185 213 255
184 213 255
184 213 255
184 213 255
184 213 255
184 213 255
184 213 255
184 213 255
184 213 255
184 213 255
184 213 255
184 213 255
184 213 255
184 213 255
184 213 255
184 213 255
184 213 255
184 213 255
184 213 255
184 213 255
184 213 255
184 212 255
184 213 255
184 212 255
184 212 255
184 212 255
184 212 255
184 212 255
184 212 255
184 212 255
184 212 255
184 212 255
183 212 255
183 212 255
183 212 255
183 212 255
183 212 255
183 212 255
183 212 255
183 212 255
183 212 255
183 212 255
183 212 255
183 212 255
183 212 255
183 212 255
183 212 255
183 212 255
183 212 255
183 212 255
183 212 255
183 212 255
183 212 255
183 212 255
183 212 255
183 212 255
183 212 255
183 212 255
183 212 255
182 212 255
182 212 255
182 212 255
182 212 255
182 212 255
182 212 255
182 212 255
182 212 255
182 212 255
182 211 255
182 211 255
182 211 255
182 211 255
182 211 255
182 211 255
182 211 255
182 211 255
182 211 255
182 211 255
182 211 255
182 211 255
182 211 255
182 211 255
73 91 118
55 66 83
68 81 102
75 94 121
72 87 108
72 87 108
65 80 102
70 86 108
67 82 104
67 83 108
70 88 115
72 89 115
66 83 108
65 85 115
65 77 96
63 76 96
69 85 108
68 84 108
56 70 90
51 65 86
69 83 104
54 68 89
62 78 102
71 89 115
59 74 96
78 95 121
67 81 102
70 85 108
80 96 121
71 89 115
48 60 80
63 81 108
68 84 108
57 73 96
63 79 102
58 75 102
67 83 108
62 81 108
73 90 115
63 79 104
58 71 89
53 67 89
45 58 78
75 93 121
74 90 115
61 77 102
62 76 96
64 79 102
77 92 115
54 66 84
62 78 102
74 90 115
60 72 91
55 69 91
47 59 76
78 95 121
67 84 108
71 89 115
54 68 89
68 84 108
61 75 96
74 90 115
66 80 102
63 76 96
65 80 102
67 81 102
64 79 102
71 91 121
60 73 92
69 85 108
71 86 108
60 74 96
61 75 97
71 89 115
58 70 89
65 82 108
65 83 108
58 70 89
69 83 105
58 73 96
69 85 108
58 73 96
69 85 108
61 75 96
67 81 102
67 83 108
58 70 89
58 73 96
63 79 102
58 74 97
64 79 102
50 62 80
73 90 115
64 77 97
72 86 108
71 89 115
59 74 96
45 58 78
71 86 108
73 90 115
54 68 91
60 77 102
63 76 96
57 75 102
70 85 108
71 88 115
59 71 89
67 84 108
72 85 105
72 87 108
60 74 96
72 89 115
56 70 91
59 74 96
64 79 102
65 80 102
65 79 99
71 86 108
60 77 102
74 90 115
58 73 96
77 92 115
58 68 83
71 86 108
182 211 255
182 211 255
182 211 255
182 211 255
182 211 255
182 211 255
182 211 255
182 211 255
182 211 255
182 211 255
182 211 255
182 211 255
182 211 255
182 211 255
182 212 255
182 212 255
182 212 255
182 212 255
182 212 255
182 212 255
182 212 255
182 212 255
182 212 255
183 212 255
183 212 255
183 212 255
183 212 255
183 212 255
183 212 255
183 212 255
183 212 255
183 212 255
183 212 255
183 212 255
183 212 255
183 212 255
183 212 255
183 212 255
183 212 255
183 212 255
183 212 255
183 212 255
183 212 255
183 212 255
183 212 255
183 212 255
183 212 255
183 212 255
183 212 255
183 212 255
184 212 255
184 212 255
184 212 255
184 212 255
184 212 255
184 212 255
184 212 255
184 212 255
184 212 255
184 213 255
184 213 255
184 213 255
184 213 255
184 213 255
184 213 255
184 213 255
184 213 255
184 213 255
184 213 255
184 213 255
184 213 255
184 213 255
184 213 255
184 213 255
184 213 255
184 213 255
184 213 255
184 213 255
184 213 255
184 213 255
185 213 255
185 213 255
185 213 255
185 213 255
185 213 255
185 213 255
185 213 255
185 213 255
185 213 255
185 213 255
185 213 255
185 213 255
185 213 255
185 213 255
185 213 255
185 213 255
185 213 255
185 213 255
185 213 255
185 213 255
185 213 255
185 213 255
185 213 255
185 213 255
185 213 255
185 213 255
185 213 255
185 213 255
185 213 255
185 213 255
185 213 255
185 213 255
185 213 255
185 213 255
185 213 255
185 213 255
185 213 255
185 213 255
186 214 255
185 213 255
186 214 255
186 214 255
186 214 255
186 214 255
186 214 255
186 214 255
186 214 255
186 214 255
186 214 255
186 214 255
186 214 255
186 214 255
186 214 255
186 214 255
186 214 255
186 214 255
186 214 255
186 214 255
186 214 255
186 214 255
186 214 255
186 214 255
186 214 255
186 214 255
186 214 255
186 214 255
186 214 255
186 214 255
186 214 255
186 214 255
186 214 255
186 214 255
186 214 255
186 214 255
186 214 255
186 214 255
186 214 255
186 214 255
186 214 255
186 214 255
186 214 255
186 214 255
186 214 255
186 214 255
186 214 255
186 214 255
186 214 255
186 214 255
186 214 255
186 214 255
185 213 255
186 214 255
185 213 255
185 213 255
185 213 255
185 213 255
185 213 255
185 213 255
185 213 255
185 213 255
185 213 255
185 213 255
185 213 255
185 213 255
185 213 255
185 213 255
185 213 255
185 213 255
185 213 255
185 213 255
185 213 255
185 213 255
185 213 255
185 213 255
185 213 255
185 213 255
185 213 255
185 213 255
185 213 255
185 213 255
185 213 255
185 213 255
185 213 255
185 213 255
185 213 255
185 213 255
184 213 255
184 213 255
184 213 255
184 213 255
184 213 255
184 213 255
184 213 255
184 213 255
184 213 255
184 213 255
184 213 255
184 213 255
184 213 255
184 213 255
184 213 255
184 213 255
184 213 255
184 213 255
184 213 255
184 213 255
184 213 255
184 213 255
184 213 255
184 212 255
184 212 255
184 212 255
184 212 255
184 212 255
184 212 255
184 212 255
184 212 255
183 212 255
184 212 255
183 212 255
183 212 255
183 212 255
183 212 255
183 212 255
183 212 255
183 212 255
183 212 255
183 212 255
183 212 255
183 212 255
183 212 255
183 212 255
183 212 255
183 212 255
183 212 255
183 212 255
183 212 255
183 212 255
183 212 255
183 212 255
183 212 255
183 212 255
183 212 255
183 212 255
183 212 255
182 212 255
182 212 255
182 212 255
182 212 255
182 212 255
182 212 255
182 212 255
182 212 255
182 212 255
182 212 255
157 183 224
71 88 115
77 95 121
52 65 84
73 92 121
63 81 108
65 82 108
68 84 108
63 79 102
59 76 102
65 82 108
70 85 108
45 58 78
60 74 96
70 88 115
62 79 104
68 87 115
54 65 83
56 72 96
56 69 88
62 78 102
57 71 92
56 71 92
55 68 89
77 95 121
62 80 108
68 84 108
58 73 96
74 91 115
75 91 115
55 69 89
59 74 96
58 73 96
56 72 96
57 75 102
64 77 96
70 85 108
69 85 108
76 97 128
68 81 102
65 83 108
56 73 99
63 80 105
69 87 115
51 62 78
78 95 121
64 79 102
55 71 96
63 74 91
55 69 89
65 81 105
62 78 102
73 88 110
66 83 108
67 86 115
69 85 108
48 60 78
60 73 92
55 69 89
60 74 96
69 85 108
69 82 102
67 83 108
60 74 96
63 80 105
59 75 99
50 63 83
68 84 108
66 81 102
63 78 102
57 72 96
59 71 89
61 75 96
70 88 115
42 53 71
65 82 108
74 90 115
68 84 108
65 81 105
64 79 102
69 82 102
67 84 108
54 66 84
60 77 102
65 80 102
58 75 102
70 83 102
64 79 102
50 63 83
66 83 108
68 84 108
60 72 89
64 82 108
54 66 84
59 76 102
71 86 108
72 89 115
73 87 108
78 96 121
61 77 102
66 81 104
73 92 121
65 82 108
79 93 115
65 80 104
73 86 105
61 76 99
64 79 102
74 90 115
64 82 108
71 88 115
67 84 108
68 82 102
64 79 102
68 87 115
64 80 104
57 70 89
59 73 96
54 68 89
65 77 96
53 65 84
70 85 108
52 66 88
68 84 108
61 75 96
161 188 230
182 212 255
182 212 255
182 212 255
182 212 255
182 212 255
182 212 255
182 212 255
182 212 255
183 212 255
182 212 255
183 212 255
183 212 255
183 212 255
183 212 255
183 212 255
183 212 255
183 212 255
183 212 255
183 212 255
183 212 255
183 212 255
183 212 255
183 212 255
183 212 255
183 212 255
183 212 255
183 212 255
183 212 255
183 212 255
183 212 255
183 212 255
183 212 255
183 212 255
183 212 255
183 212 255
183 212 255
183 212 255
184 212 255
184 212 255
184 212 255
184 212 255
184 212 255
184 212 255
184 212 255
184 212 255
184 212 255
184 212 255
184 213 255
184 213 255
184 213 255
184 213 255
184 213 255
184 213 255
184 213 255
184 213 255
184 213 255
184 213 255
184 213 255
184 213 255
184 213 255
184 213 255
184 213 255
184 213 255
184 213 255
184 213 255
184 213 255
184 213 255
185 213 255
184 213 255
185 213 255
185 213 255
185 213 255
185 213 255
185 213 255
185 213 255
185 213 255
185 213 255
185 213 255
185 213 255
185 213 255
185 213 255
185 213 255
185 213 255
185 213 255
185 213 255
185 213 255
185 213 255
185 213 255
185 213 255
185 213 255
185 213 255
185 213 255
185 213 255
185 213 255
185 213 255
185 213 255
185 213 255
185 213 255
185 213 255
185 213 255
185 213 255
185 213 255
185 213 255
185 213 255
185 213 255
186 214 255
186 214 255
186 214 255
186 214 255
186 214 255
186 214 255
186 214 255
186 214 255
186 214 255
186 214 255
186 214 255
186 214 255
186 214 255
186 214 255
186 214 255
186 214 255
186 214 255
186 214 255
186 214 255
186 214 255
186 214 255
186 214 255
186 214 255
186 214 255
186 214 255
186 214 255
186 214 255
186 214 255
186 214 255
186 214 255
186 214 255
186 214 255
187 214 255
186 214 255
186 214 255
186 214 255
186 214 255
186 214 255
186 214 255
186 214 255
186 214 255
186 214 255
186 214 255
186 214 255
186 214 255
186 214 255
186 214 255
186 214 255
186 214 255
186 214 255
186 214 255
186 214 255
186 214 255
186 214 255
186 214 255
186 214 255
186 214 255
186 214 255
186 214 255
186 214 255
186 214 255
186 214 255
186 214 255
186 214 255
186 214 255
186 214 255
186 214 255
186 214 255
186 214 255
186 214 255
186 214 255
186 214 255
186 214 255
186 214 255
186 214 255
186 214 255
186 214 255
186 214 255
185 213 255
185 213 255
185 213 255
185 213 255
185 213 255
185 213 255
185 213 255
185 213 255
185 213 255
185 213 255
185 213 255
185 213 255
185 213 255
185 213 255
185 213 255
185 213 255
185 213 255
185 213 255
185 213 255
185 213 255
185 213 255
185 213 255
185 213 255
185 213 255
185 213 255
185 213 255
185 213 255
185 213 255
185 213 255
185 213 255
185 213 255
185 213 255
185 213 255
185 213 255
185 213 255
184 213 255
184 213 255
184 213 255
184 213 255
184 213 255
184 213 255
184 213 255
184 213 255
184 213 255
184 213 255
184 213 255
184 213 255
184 213 255
184 213 255
184 213 255
184 213 255
184 213 255
184 213 255
184 213 255
184 213 255
184 212 255
184 212 255
184 212 255
184 212 255
184 212 255
184 212 255
184 212 255
184 212 255
184 212 255
183 212 255
184 212 255
183 212 255
183 212 255
183 212 255
183 212 255
183 212 255
183 212 255
183 212 255
183 212 255
183 212 255
183 212 255
183 212 255
183 212 255
183 212 255
183 212 255
183 212 255
183 212 255
183 212 255
183 212 255
183 212 255
183 212 255
183 212 255
183 212 255
183 212 255
183 212 255
183 212 255
125 147 179
59 74 96
59 71 90
78 98 128
67 83 108
60 77 102
63 81 108
67 84 108
72 87 108
63 76 96
72 87 108
58 70 89
68 84 108
49 60 76
68 87 115
65 85 115
71 89 115
61 75 96
68 84 108
69 88 115
66 80 102
72 89 115
64 79 102
62 78 104
62 75 96
57 73 97
62 75 96
70 88 115
54 71 96
62 78 102
68 84 108
65 77 96
64 79 102
75 94 121
61 75 98
55 69 89
72 89 115
57 74 99
59 74 96
52 70 96
59 71 89
69 84 108
70 85 108
69 81 99
62 73 91
55 68 89
63 81 108
74 90 115
71 86 108
69 87 115
74 88 108
56 72 96
57 72 96
51 65 87
70 86 108
60 75 97
67 84 108
69 85 108
68 84 108
69 85 108
72 87 108
67 81 102
55 68 86
68 84 108
61 75 96
55 66 83
65 80 102
55 66 83
59 74 96
58 73 96
66 83 108
80 96 121
67 84 108
72 89 115
65 80 102
59 74 96
59 72 91
65 79 99
68 87 115
69 85 108
64 79 102
58 72 92
75 91 115
55 68 89
61 75 96
63 81 108
73 89 115
71 87 112
59 74 96
59 71 91
56 69 89
60 77 102
69 83 104
64 80 104
58 73 97
70 86 108
67 82 105
60 74 96
62 76 97
64 79 102
55 68 86
67 84 108
65 80 102
52 67 89
76 92 115
65 83 108
65 83 108
63 79 104
56 69 89
58 71 91
67 86 115
68 82 104
54 67 86
73 92 121
52 68 91
65 80 102
62 74 92
67 81 102
60 77 102
60 74 96
44 58 80
62 78 102
62 78 102
79 96 121
70 86 108
107 128 160
183 212 255
183 212 255
183 212 255
183 212 255
183 212 255
183 212 255
183 212 255
183 212 255
183 212 255
183 212 255
183 212 255
183 212 255
183 212 255
183 212 255
183 212 255
183 212 255
183 212 255
183 212 255
183 212 255
183 212 255
183 212 255
183 212 255
183 212 255
183 212 255
183 212 255
184 212 255
184 212 255
184 212 255
184 212 255
184 212 255
184 212 255
184 212 255
184 212 255
184 212 255
184 212 255
184 213 255
184 213 255
184 213 255
184 213 255
184 213 255
184 213 255
184 213 255
184 213 255
184 213 255
184 213 255
184 213 255
184 213 255
184 213 255
184 213 255
184 213 255
184 213 255
184 213 255
184 213 255
184 213 255
184 213 255
184 213 255
184 213 255
185 213 255
185 213 255
185 213 255
185 213 255
185 213 255
185 213 255
185 213 255
185 213 255
185 213 255
185 213 255
185 213 255
185 213 255
185 213 255
185 213 255
185 213 255
185 213 255
185 213 255
185 213 255
185 213 255
185 213 255
185 213 255
185 213 255
185 213 255
185 213 255
185 213 255
185 213 255
185 213 255
185 213 255
185 213 255
185 213 255
185 213 255
185 213 255
185 213 255
185 213 255
185 213 255
186 214 255
186 214 255
186 214 255
186 214 255
186 214 255
186 214 255
186 214 255
186 214 255
186 214 255
186 214 255
186 214 255
186 214 255
186 214 255
186 214 255
186 214 255
186 214 255
186 214 255
186 214 255
186 214 255
186 214 255
186 214 255
186 214 255
186 214 255
186 214 255
186 214 255
186 214 255
186 214 255
186 214 255
186 214 255
186 214 255
186 214 255
186 214 255
186 214 255
186 214 255
186 214 255
186 214 255
186 214 255
186 214 255
186 214 255
186 214 255
186 214 255
186 214 255
186 214 255
186 214 255
186 214 255
187 214 255
187 214 255
187 214 255
187 214 255
187 214 255
187 214 255
187 214 255
187 214 255
187 214 255
187 214 255
187 214 255
187 214 255
187 214 255
187 214 255
187 214 255
187 214 255
186 214 255
187 214 255
186 214 255
186 214 255
186 214 255
186 214 255
186 214 255
186 214 255
186 214 255
186 214 255
186 214 255
186 214 255
186 214 255
186 214 255
186 214 255
186 214 255
186 214 255
186 214 255
186 214 255
186 214 255
186 214 255
186 214 255
186 214 255
186 214 255
186 214 255
186 214 255
186 214 255
186 214 255
186 214 255
186 214 255
186 214 255
186 214 255
186 214 255
186 214 255
186 214 255
186 214 255
186 214 255
186 214 255
186 214 255
186 214 255
186 214 255
186 214 255
186 214 255
185 213 255
185 213 255
185 213 255
185 213 255
185 213 255
185 213 255
185 213 255
185 213 255
185 213 255
185 213 255
185 213 255
185 213 255
185 213 255
185 213 255
185 213 255
185 213 255
185 213 255
185 213 255
185 213 255
185 213 255
185 213 255
185 213 255
185 213 255
185 213 255
185 213 255
185 213 255
185 213 255
185 213 255
185 213 255
185 213 255
185 213 255
185 213 255
185 213 255
185 213 255
185 213 255
184 213 255
185 213 255
184 213 255
184 213 255
184 213 255
184 213 255
184 213 255
184 213 255
184 213 255
184 213 255
184 213 255
184 213 255
184 213 255
184 213 255
184 213 255
184 213 255
184 213 255
184 213 255
184 213 255
184 213 255
184 212 255
184 213 255
184 212 255
184 212 255
184 212 255
184 212 255
184 212 255
184 212 255
184 212 255
184 212 255
184 212 255
184 212 255
183 212 255
183 212 255
183 212 255
183 212 255
183 212 255
183 212 255
183 212 255
183 212 255
183 212 255
183 212 255
183 212 255
81 97 121
63 81 108
49 60 78
64 79 102
63 78 102
58 73 96
69 85 110
52 64 83
60 75 97
70 85 108
63 79 102
56 68 86
57 72 96
61 76 97
60 74 96
71 86 108
73 87 108
71 89 115
46 56 71
65 80 102
71 84 104
75 93 121
71 89 115
63 76 96
56 67 84
78 94 118
75 93 121
71 86 108
55 69 89
55 69 91
65 80 102
57 72 96
83 98 121
63 79 102
62 78 102
72 89 115
71 83 102
73 90 115
55 69 90
84 101 128
62 76 96
70 85 108
66 80 102
57 73 96
56 69 89
60 73 92
44 57 76
60 75 96
65 83 108
51 65 86
66 84 112
67 84 108
75 88 108
71 84 105
61 75 96
75 94 121
63 78 102
71 86 108
60 71 88
53 67 89
74 90 115
50 63 83
68 84 108
63 76 96
59 71 89
68 84 108
52 69 94
49 61 78
61 78 102
71 91 121
64 80 104
61 77 102
74 90 115
58 71 91
77 92 115
71 88 115
61 76 99
69 82 102
55 67 86
67 83 108
68 83 105
64 79 102
52 66 86
62 74 92
62 78 102
60 72 91
59 71 90
60 75 97
60 74 96
65 80 102
75 91 115
60 73 92
61 78 104
71 86 108
67 81 102
62 75 96
74 93 121
65 82 108
63 79 102
71 88 115
58 76 102
65 80 102
61 75 96
60 72 89
69 82 102
52 63 80
52 64 81
59 71 91
56 72 96
62 78 102
82 97 121
50 64 86
64 79 102
66 83 108
76 89 108
59 71 89
63 78 102
58 70 89
63 76 96
63 76 96
74 90 115
75 93 121
60 79 108
70 85 108
67 81 102
111 131 161
183 212 255
183 212 255
183 212 255
183 212 255
183 212 255
183 212 255
183 212 255
183 212 255
183 212 255
183 212 255
183 212 255
184 212 255
184 212 255
184 212 255
184 212 255
184 212 255
184 212 255
184 212 255
184 212 255
184 212 255
184 212 255
184 212 255
184 212 255
184 213 255
184 213 255
184 213 255
184 213 255
184 213 255
184 213 255
184 213 255
184 213 255
184 213 255
184 213 255
184 213 255
184 213 255
184 213 255
184 213 255
184 213 255
184 213 255
184 213 255
184 213 255
185 213 255
184 213 255
184 213 255
185 213 255
185 213 255
185 213 255
185 213 255
185 213 255
185 213 255
185 213 255
185 213 255
185 213 255
185 213 255
185 213 255
185 213 255
185 213 255
185 213 255
185 213 255
185 213 255
185 213 255
185 213 255
185 213 255
185 213 255
185 213 255
185 213 255
185 213 255
185 213 255
185 213 255
185 213 255
185 213 255
185 213 255
185 213 255
185 213 255
185 213 255
185 213 255
185 213 255
185 213 255
186 214 255
186 214 255
186 214 255
186 214 255
186 214 255
186 214 255
186 214 255
186 214 255
186 214 255
186 214 255
186 214 255
186 214 255
186 214 255
186 214 255
186 214 255
186 214 255
186 214 255
186 214 255
186 214 255
186 214 255
186 214 255
186 214 255
186 214 255
186 214 255
186 214 255
186 214 255
186 214 255
186 214 255
186 214 255
186 214 255
186 214 255
186 214 255
186 214 255
186 214 255
186 214 255
186 214 255
186 214 255
186 214 255
186 214 255
186 214 255
186 214 255
186 214 255
187 214 255
186 214 255
187 214 255
187 214 255
187 214 255
187 214 255
187 214 255
187 214 255
187 214 255
187 214 255
187 214 255
187 214 255
187 214 255
187 214 255
187 214 255
187 214 255
187 214 255
187 214 255
187 214 255
187 214 255
187 214 255
187 214 255
187 214 255
187 214 255
187 214 255
187 214 255
187 214 255
187 214 255
187 214 255
187 214 255
187 214 255
187 214 255
187 214 255
187 214 255
187 214 255
187 214 255
187 214 255
187 214 255
187 214 255
187 214 255
187 214 255
187 214 255
187 214 255
187 214 255
186 214 255
187 214 255
186 214 255
186 214 255
186 214 255
186 214 255
186 214 255
186 214 255
186 214 255
186 214 255
186 214 255
186 214 255
186 214 255
186 214 255
186 214 255
186 214 255
186 214 255
186 214 255
186 214 255
186 214 255
186 214 255
186 214 255
186 214 255
186 214 255
186 214 255
186 214 255
186 214 255
186 214 255
186 214 255
186 214 255
186 214 255
186 214 255
186 214 255
186 214 255
186 214 255
186 214 255
186 214 255
186 214 255
186 214 255
186 214 255
186 214 255
186 214 255
186 214 255
186 214 255
186 214 255
186 214 255
185 213 255
185 213 255
185 213 255
185 213 255
185 213 255
185 213 255
185 213 255
185 213 255
185 213 255
185 213 255
185 213 255
185 213 255
185 213 255
185 213 255
185 213 255
185 213 255
185 213 255
185 213 255
185 213 255
185 213 255
185 213 255
185 213 255
185 213 255
185 213 255
185 213 255
185 213 255
185 213 255
185 213 255
185 213 255
185 213 255
185 213 255
185 213 255
185 213 255
185 213 255
185 213 255
184 213 255
184 213 255
184 213 255
184 213 255
184 213 255
184 213 255
184 213 255
184 213 255
184 213 255
184 213 255
184 213 255
184 213 255
184 213 255
184 213 255
184 213 255
184 213 255
184 213 255
184 213 255
184 213 255
184 213 255
184 212 255
184 213 255
184 212 255
184 212 255
184 212 255
184 212 255
184 212 255
184 212 255
184 212 255
59 79 108
53 68 89
57 70 89
66 80 102
63 79 102
67 81 102
70 85 108
70 86 108
69 85 108
69 85 108
63 78 102
82 97 121
68 82 102
58 71 90
66 83 108
67 81 102
52 65 86
54 69 91
48 62 83
57 70 89
60 74 96
57 69 86
60 75 99
53 68 89
55 66 83
58 70 89
67 82 104
64 79 102
58 73 96
57 70 89
68 87 115
76 94 121
66 81 102
52 68 91
58 76 102
57 73 96
59 74 96
54 68 88
69 85 108
61 77 102
62 75 96
54 65 83
63 76 96
58 72 92
58 71 90
63 76 96
56 69 89
63 79 102
51 64 83
71 89 115
60 75 97
63 78 102
53 64 80
62 73 89
59 74 96
69 84 108
67 81 102
66 80 102
56 71 93
71 86 108
65 80 102
84 101 128
67 81 102
66 81 104
65 80 102
63 76 96
67 83 108
73 90 115
66 83 110
60 72 91
59 74 97
59 72 91
46 59 80
56 70 91
60 77 102
52 67 89
61 75 96
59 76 102
64 79 102
77 92 115
63 77 97
66 83 108
65 80 102
61 76 97
61 75 96
65 82 108
56 70 91
65 80 102
69 85 108
65 82 108
69 85 108
63 76 96
76 91 115
68 84 108
59 74 96
58 70 89
80 96 121
69 85 108
77 95 121
57 70 89
73 87 108
61 73 91
61 75 96
61 75 96
62 75 96
79 93 115
70 85 108
68 84 108
64 82 109
54 64 80
64 82 108
68 84 108
63 77 97
65 83 108
71 86 110
63 77 97
61 75 96
64 77 97
63 79 102
60 72 89
58 73 96
66 83 108
74 90 115
63 79 102
64 79 103
53 68 89
184 212 255
184 212 255
184 212 255
184 212 255
184 212 255
184 212 255
184 212 255
184 213 255
184 213 255
184 213 255
184 213 255
184 213 255
184 213 255
184 213 255
184 213 255
184 213 255
184 213 255
184 213 255
184 213 255
184 213 255
184 213 255
184 213 255
184 213 255
184 213 255
184 213 255
184 213 255
184 213 255
184 213 255
185 213 255
184 213 255
185 213 255
185 213 255
185 213 255
185 213 255
185 213 255
185 213 255
185 213 255
185 213 255
185 213 255
185 213 255
185 213 255
185 213 255
185 213 255
185 213 255
185 213 255
185 213 255
185 213 255
185 213 255
185 213 255
185 213 255
185 213 255
185 213 255
185 213 255
185 213 255
185 213 255
185 213 255
185 213 255
185 213 255
185 213 255
185 213 255
185 213 255
185 213 255
185 213 255
185 213 255
186 214 255
186 214 255
186 214 255
186 214 255
186 214 255
186 214 255
186 214 255
186 214 255
186 214 255
186 214 255
186 214 255
186 214 255
186 214 255
186 214 255
186 214 255
186 214 255
186 214 255
186 214 255
186 214 255
186 214 255
186 214 255
186 214 255
186 214 255
186 214 255
186 214 255
186 214 255
186 214 255
186 214 255
186 214 255
186 214 255
186 214 255
186 214 255
186 214 255
186 214 255
186 214 255
186 214 255
186 214 255
186 214 255
186 214 255
186 214 255
186 214 255
186 214 255
186 214 255
186 214 255
186 214 255
187 214 255
187 214 255
187 214 255
187 214 255
187 214 255
187 214 255
187 214 255
187 214 255
187 214 255
187 214 255
187 214 255
187 214 255
187 214 255
187 214 255
187 214 255
187 214 255
187 214 255
187 214 255
187 214 255
187 214 255
187 214 255
187 214 255
187 214 255
187 214 255
187 214 255
187 214 255
187 214 255
187 214 255
187 215 255
187 215 255
187 215 255
187 215 255
187 215 255
187 215 255
187 215 255
187 215 255
187 215 255
187 215 255
187 214 255
187 214 255
187 214 255
187 214 255
187 214 255
187 214 255
187 214 255
187 214 255
187 214 255
187 214 255
187 214 255
187 214 255
187 214 255
187 214 255
187 214 255
187 214 255
187 214 255
187 214 255
187 214 255
187 214 255
187 214 255
187 214 255
187 214 255
187 214 255
187 214 255
187 214 255
187 214 255
187 214 255
187 214 255
187 214 255
187 214 255
187 214 255
187 214 255
187 214 255
186 214 255
186 214 255
186 214 255
186 214 255
186 214 255
186 214 255
186 214 255
186 214 255
186 214 255
186 214 255
186 214 255
186 214 255
186 214 255
186 214 255
186 214 255
186 214 255
186 214 255
186 214 255
186 214 255
186 214 255
186 214 255
186 214 255
186 214 255
186 214 255
186 214 255
186 214 255
186 214 255
186 214 255
186 214 255
186 214 255
186 214 255
186 214 255
186 214 255
186 214 255
186 214 255
186 214 255
186 214 255
186 214 255
186 214 255
186 214 255
186 214 255
186 214 255
185 213 255
185 213 255
185 213 255
185 213 255
185 213 255
185 213 255
185 213 255
185 213 255
185 213 255
185 213 255
185 213 255
185 213 255
185 213 255
185 213 255
185 213 255
185 213 255
185 213 255
185 213 255
185 213 255
185 213 255
185 213 255
185 213 255
185 213 255
185 213 255
185 213 255
185 213 255
185 213 255
185 213 255
185 213 255
185 213 255
185 213 255
185 213 255
185 213 255
185 213 255
185 213 255
185 213 255
184 213 255
184 213 255
184 213 255
184 213 255
184 213 255
184 213 255
184 213 255
184 213 255
184 213 255
184 213 255
184 213 255
184 213 255
184 213 255
184 213 255
147 170 204
65 80 102
67 84 109
67 81 102
63 79 102
61 77 102
58 73 96
54 68 89
68 80 99
60 77 102
73 90 115
72 89 115
53 68 89
50 60 76
58 71 89
55 66 83
63 78 102
62 76 96
66 82 105
53 68 89
58 73 96
54 68 89
58 72 92
50 64 86
56 70 92
74 90 115
61 75 97
65 80 102
73 87 108
57 70 89
66 80 102
74 90 115
67 81 102
43 57 76
63 76 96
62 78 102
49 62 83
69 82 102
65 80 102
58 70 89
67 83 108
56 70 89
62 81 108
57 71 91
63 78 102
66 83 108
62 75 96
73 90 115
71 86 108
70 86 108
58 72 92
58 73 96
61 75 96
73 91 118
63 78 102
59 76 102
76 94 121
62 78 102
64 82 108
52 67 89
57 70 89
77 92 115
62 78 102
65 77 96
50 63 83
69 86 112
62 78 102
64 82 108
59 71 89
66 83 109
66 83 108
70 85 108
66 83 108
67 85 112
59 70 86
51 66 89
61 75 97
67 84 108
72 87 108
52 67 89
63 76 96
52 64 83
62 78 102
56 69 89
75 88 108
56 71 94
75 94 121
60 74 96
64 79 102
72 92 121
60 74 96
62 78 102
67 81 102
71 88 115
71 86 108
79 96 121
58 73 96
49 63 84
57 70 89
57 72 96
67 81 102
68 84 108
57 70 89
67 81 102
60 77 102
74 91 115
59 74 96
67 84 108
62 75 96
70 86 108
71 86 110
59 76 102
67 79 97
59 72 91
58 70 89
69 85 108
71 85 105
71 88 115
54 66 83
68 80 99
64 78 99
67 84 108
67 81 102
64 82 108
50 63 83
45 56 73
60 72 89
162 186 224
184 213 255
184 213 255
184 213 255
184 213 255
184 213 255
184 213 255
184 213 255
184 213 255
184 213 255
184 213 255
184 213 255
184 213 255
184 213 255
184 213 255
185 213 255
185 213 255
185 213 255
185 213 255
185 213 255
185 213 255
185 213 255
185 213 255
185 213 255
185 213 255
185 213 255
185 213 255
185 213 255
185 213 255
185 213 255
185 213 255
185 213 255
185 213 255
185 213 255
185 213 255
185 213 255
185 213 255
185 213 255
185 213 255
185 213 255
185 213 255
185 213 255
185 213 255
185 213 255
185 213 255
185 213 255
185 213 255
185 213 255
185 213 255
185 213 255
186 214 255
186 214 255
186 214 255
186 214 255
186 214 255
186 214 255
186 214 255
186 214 255
186 214 255
186 214 255
186 214 255
186 214 255
186 214 255
186 214 255
186 214 255
186 214 255
186 214 255
186 214 255
186 214 255
186 214 255
186 214 255
186 214 255
186 214 255
186 214 255
186 214 255
186 214 255
186 214 255
186 214 255
186 214 255
186 214 255
186 214 255
186 214 255
186 214 255
186 214 255
186 214 255
186 214 255
186 214 255
186 214 255
186 214 255
186 214 255
186 214 255
186 214 255
187 214 255
187 214 255
187 214 255
187 214 255
187 214 255
187 214 255
187 214 255
187 214 255
187 214 255
187 214 255
187 214 255
187 214 255
187 214 255
187 214 255
187 214 255
187 214 255
187 214 255
187 214 255
187 214 255
187 214 255
187 214 255
187 214 255
187 214 255
187 214 255
187 214 255
187 214 255
187 214 255
187 214 255
187 214 255
187 214 255
187 214 255
187 214 255
187 214 255
187 214 255
187 214 255
187 214 255
187 214 255
187 215 255
187 215 255
187 215 255
187 215 255
187 215 255
187 215 255
187 215 255
187 215 255
188 215 255
188 215 255
188 215 255
188 215 255
188 215 255
188 215 255
188 215 255
187 215 255
187 215 255
187 215 255
187 215 255
187 215 255
187 215 255
187 215 255
187 215 255
187 215 255
187 215 255
187 215 255
187 215 255
187 215 255
187 215 255
187 215 255
187 215 255
187 215 255
187 215 255
187 215 255
187 215 255
187 215 255
187 215 255
187 214 255
187 214 255
187 214 255
187 214 255
187 214 255
187 214 255
187 214 255
187 214 255
187 214 255
187 214 255
187 214 255
187 214 255
187 214 255
187 214 255
187 214 255
187 214 255
187 214 255
187 214 255
187 214 255
187 214 255
187 214 255
187 214 255
187 214 255
187 214 255
187 214 255
187 214 255
187 214 255
187 214 255
187 214 255
187 214 255
187 214 255
186 214 255
186 214 255
186 214 255
186 214 255
186 214 255
186 214 255
186 214 255
186 214 255
186 214 255
186 214 255
186 214 255
186 214 255
186 214 255
186 214 255
186 214 255
186 214 255
186 214 255
186 214 255
186 214 255
186 214 255
186 214 255
186 214 255
186 214 255
186 214 255
186 214 255
186 214 255
186 214 255
186 214 255
186 214 255
186 214 255
186 214 255
186 214 255
186 214 255
186 214 255
186 214 255
186 214 255
186 214 255
186 214 255
186 214 255
186 214 255
186 214 255
186 214 255
185 213 255
185 213 255
185 213 255
185 213 255
185 213 255
185 213 255
185 213 255
185 213 255
185 213 255
185 213 255
185 213 255
185 213 255
185 213 255
185 213 255
185 213 255
185 213 255
185 213 255
185 213 255
185 213 255
185 213 255
185 213 255
185 213 255
185 213 255
185 213 255
185 213 255
185 213 255
185 213 255
185 213 255
185 213 255
185 213 255
185 213 255
185 213 255
185 213 255
185 213 255
159 185 224
55 69 89
65 80 102
67 83 108
66 80 102
73 92 121
52 68 91
70 88 115
68 82 102
61 78 102
58 73 96
58 70 89
50 61 78
73 89 115
63 79 102
59 74 96
72 86 109
57 70 89
71 88 115
61 77 102
55 67 84
52 68 91
61 77 102
56 72 97
56 72 96
67 86 115
69 85 108
65 80 102
67 81 102
63 78 102
66 80 102
63 76 96
47 57 74
65 81 105
59 76 102
81 95 115
52 67 89
58 73 96
70 86 108
63 79 102
71 91 121
66 83 108
68 81 102
79 93 115
60 74 96
45 58 78
73 89 115
60 74 96
70 86 108
60 75 99
64 79 102
79 99 128
61 78 102
66 83 108
64 79 102
68 87 115
65 77 96
64 79 102
47 59 77
66 80 102
70 88 115
65 82 108
61 72 89
66 81 104
53 66 84
75 91 115
68 84 108
65 80 102
54 69 91
61 77 102
61 75 96
64 77 96
56 68 84
68 84 108
61 76 99
55 69 89
71 88 115
59 72 91
57 70 89
54 66 83
58 73 96
76 91 115
65 77 96
70 85 108
71 84 102
71 86 108
67 82 105
64 77 96
66 80 102
59 75 99
58 73 96
79 96 121
54 67 86
65 83 108
50 63 83
62 75 96
67 81 102
56 69 89
69 87 115
57 70 89
56 68 86
60 72 91
60 76 99
70 86 108
65 80 104
57 71 92
71 87 112
70 88 115
62 78 104
65 81 105
69 85 108
57 72 96
66 83 108
64 80 104
57 70 89
57 70 89
59 76 102
63 78 102
65 78 99
54 68 89
60 74 96
62 75 96
62 78 102
45 58 78
66 85 115
55 70 91
68 83 105
111 133 166
185 213 255
185 213 255
185 213 255
185 213 255
185 213 255
185 213 255
185 213 255
185 213 255
185 213 255
185 213 255
185 213 255
185 213 255
185 213 255
185 213 255
185 213 255
185 213 255
185 213 255
185 213 255
185 213 255
185 213 255
185 213 255
185 213 255
185 213 255
185 213 255
185 213 255
185 213 255
185 213 255
185 213 255
185 213 255
185 213 255
186 214 255
185 213 255
186 214 255
185 213 255
186 214 255
186 214 255
186 214 255
186 214 255
186 214 255
186 214 255
186 214 255
186 214 255
186 214 255
186 214 255
186 214 255
186 214 255
186 214 255
186 214 255
186 214 255
186 214 255
186 214 255
186 214 255
186 214 255
186 214 255
186 214 255
186 214 255
186 214 255
186 214 255
186 214 255
186 214 255
186 214 255
186 214 255
186 214 255
186 214 255
186 214 255
186 214 255
186 214 255
186 214 255
186 214 255
186 214 255
186 214 255
186 214 255
186 214 255
186 214 255
187 214 255
187 214 255
187 214 255
187 214 255
187 214 255
187 214 255
187 214 255
187 214 255
187 214 255
187 214 255
187 214 255
187 214 255
187 214 255
187 214 255
187 214 255
187 214 255
187 214 255
187 214 255
187 214 255
187 214 255
187 214 255
187 214 255
187 214 255
187 214 255
187 214 255
187 214 255
187 214 255
187 214 255
187 214 255
187 214 255
187 214 255
187 214 255
187 214 255
187 214 255
187 214 255
187 215 255
187 215 255
187 215 255
187 215 255
187 215 255
187 215 255
187 215 255
187 215 255
187 215 255
187 215 255
187 215 255
187 215 255
187 215 255
187 215 255
187 215 255
187 215 255
187 215 255
187 215 255
187 215 255
188 215 255
187 215 255
188 215 255
188 215 255
188 215 255
188 215 255
188 215 255
188 215 255
188 215 255
188 215 255
188 215 255
188 215 255
188 215 255
188 215 255
188 215 255
188 215 255
188 215 255
188 215 255
188 215 255
188 215 255
188 215 255
188 215 255
188 215 255
188 215 255
188 215 255
188 215 255
188 215 255
188 215 255
188 215 255
188 215 255
187 215 255
188 215 255
187 215 255
187 215 255
188 215 255
187 215 255
187 215 255
187 215 255
187 215 255
187 215 255
187 215 255
187 215 255
187 215 255
187 215 255
187 215 255
187 215 255
187 215 255
187 215 255
187 215 255
187 215 255
187 215 255
187 215 255
187 215 255
187 214 255
187 215 255
187 214 255
187 214 255
187 214 255
187 214 255
187 214 255
187 214 255
187 214 255
187 214 255
187 214 255
187 214 255
187 214 255
187 214 255
187 214 255
187 214 255
187 214 255
187 214 255
187 214 255
187 214 255
187 214 255
187 214 255
187 214 255
187 214 255
187 214 255
187 214 255
187 214 255
187 214 255
187 214 255
187 214 255
187 214 255
187 214 255
186 214 255
187 214 255
186 214 255
186 214 255
186 214 255
186 214 255
186 214 255
186 214 255
186 214 255
186 214 255
186 214 255
186 214 255
186 214 255
186 214 255
186 214 255
186 214 255
186 214 255
186 214 255
186 214 255
186 214 255
186 214 255
186 214 255
186 214 255
186 214 255
186 214 255
186 214 255
186 214 255
186 214 255
186 214 255
186 214 255
186 214 255
186 214 255
186 214 255
186 214 255
186 214 255
186 214 255
186 214 255
186 214 255
186 214 255
186 214 255
185 213 255
185 213 255
186 214 255
186 214 255
185 213 255
185 213 255
185 213 255
185 213 255
185 213 255
185 213 255
185 213 255
185 213 255
185 213 255
185 213 255
185 213 255
185 213 255
185 213 255
185 213 255
185 213 255
99 118 147
85 102 128
65 82 108
69 87 115
60 74 96
63 76 96
61 76 97
68 82 102
56 70 91
56 70 91
59 71 89
69 85 108
55 71 96
58 70 89
65 82 108
61 75 96
54 69 91
65 82 108
58 73 96
62 76 96
74 91 115
68 87 115
62 81 108
67 83 108
59 72 91
50 63 83
63 77 97
65 82 108
70 85 108
58 74 97
53 65 83
73 90 115
63 79 102
55 67 86
51 63 80
60 75 97
58 70 89
52 65 84
57 71 92
65 80 102
54 66 85
49 61 80
68 82 102
67 81 102
52 65 84
68 84 108
62 76 96
65 80 102
60 74 96
53 67 89
55 69 89
66 81 102
72 87 108
60 72 91
58 68 83
58 71 91
72 86 108
70 85 108
59 72 92
64 82 108
68 82 102
75 93 121
69 85 110
61 77 102
54 65 83
61 75 96
51 64 84
66 80 102
61 75 96
60 75 97
64 79 102
71 86 108
68 87 115
67 84 110
67 81 102
69 85 108
64 79 102
66 80 102
50 63 83
70 86 110
68 84 108
72 89 115
51 64 84
55 69 89
61 73 91
76 94 121
64 79 102
55 68 89
55 69 89
77 92 115
62 76 96
55 69 91
72 87 108
56 70 92
57 72 96
59 77 104
63 78 102
66 83 108
61 78 102
58 74 99
67 82 105
73 85 104
64 82 108
66 83 108
78 93 115
63 78 102
60 74 96
67 83 108
55 71 96
65 78 99
65 80 102
66 81 102
70 85 107
60 74 96
54 68 89
51 64 83
59 73 92
62 76 97
71 86 108
59 74 96
67 81 102
65 80 102
56 69 89
72 92 121
65 83 108
69 87 115
69 85 109
108 129 160
185 213 255
185 213 255
185 213 255
185 213 255
185 213 255
185 213 255
185 213 255
185 213 255
185 213 255
185 213 255
185 213 255
185 213 255
185 213 255
185 213 255
185 213 255
185 213 255
186 214 255
186 214 255
186 214 255
186 214 255
186 214 255
186 214 255
186 214 255
186 214 255
186 214 255
186 214 255
186 214 255
186 214 255
186 214 255
186 214 255
186 214 255
186 214 255
186 214 255
186 214 255
186 214 255
186 214 255
186 214 255
186 214 255
186 214 255
186 214 255
186 214 255
186 214 255
186 214 255
186 214 255
186 214 255
186 214 255
186 214 255
186 214 255
186 214 255
186 214 255
186 214 255
186 214 255
186 214 255
186 214 255
186 214 255
186 214 255
186 214 255
186 214 255
187 214 255
187 214 255
187 214 255
187 214 255
187 214 255
187 214 255
187 214 255
187 214 255
187 214 255
187 214 255
187 214 255
187 214 255
187 214 255
187 214 255
187 214 255
187 214 255
187 214 255
187 214 255
187 214 255
187 214 255
187 214 255
187 214 255
187 214 255
187 214 255
187 214 255
187 214 255
187 214 255
187 214 255
187 214 255
187 214 255
187 214 255
187 215 255
187 214 255
187 214 255
187 215 255
187 215 255
187 215 255
187 215 255
187 215 255
187 215 255
187 215 255
187 215 255
187 215 255
187 215 255
187 215 255
187 215 255
187 215 255
187 215 255
187 215 255
187 215 255
187 215 255
187 215 255
188 215 255
187 215 255
188 215 255
188 215 255
188 215 255
188 215 255
188 215 255
188 215 255
188 215 255
188 215 255
188 215 255
188 215 255
188 215 255
188 215 255
188 215 255
188 215 255
188 215 255
188 215 255
188 215 255
188 215 255
188 215 255
188 215 255
188 215 255
188 215 255
188 215 255
188 215 255
188 215 255
188 215 255
188 215 255
188 215 255
188 215 255
188 215 255
188 215 255
188 215 255
188 215 255
188 215 255
188 215 255
188 215 255
188 215 255
188 215 255
188 215 255
188 215 255
188 215 255
188 215 255
188 215 255
188 215 255
188 215 255
188 215 255
188 215 255
188 215 255
188 215 255
188 215 255
188 215 255
188 215 255
188 215 255
188 215 255
188 215 255
188 215 255
188 215 255
188 215 255
188 215 255
188 215 255
188 215 255
188 215 255
188 215 255
188 215 255
188 215 255
188 215 255
187 215 255
188 215 255
188 215 255
188 215 255
188 215 255
188 215 255
187 215 255
187 215 255
187 215 255
187 215 255
187 215 255
187 215 255
187 215 255
187 215 255
187 215 255
187 215 255
187 215 255
187 215 255
187 215 255
187 215 255
187 215 255
187 215 255
187 214 255
187 214 255
187 215 255
187 214 255
187 214 255
187 214 255
187 214 255
187 214 255
187 214 255
187 214 255
187 214 255
187 214 255
187 214 255
187 214 255
187 214 255
187 214 255
187 214 255
187 214 255
187 214 255
187 214 255
187 214 255
187 214 255
187 214 255
187 214 255
187 214 255
187 214 255
187 214 255
187 214 255
187 214 255
187 214 255
187 214 255
187 214 255
187 214 255
186 214 255
186 214 255
186 214 255
186 214 255
186 214 255
186 214 255
186 214 255
186 214 255
186 214 255
186 214 255
186 214 255
186 214 255
186 214 255
186 214 255
186 214 255
186 214 255
186 214 255
186 214 255
186 214 255
186 214 255
186 214 255
186 214 255
186 214 255
186 214 255
186 214 255
186 214 255
186 214 255
186 214 255
186 214 255
186 214 255
186 214 255
186 214 255
186 214 255
186 214 255
186 214 255
186 214 255
186 214 255
186 214 255
186 214 255
74 91 115
74 88 108
60 74 96
70 85 108
41 52 70
69 88 115
66 81 102
57 70 89
79 96 121
78 93 115
66 83 108
71 84 104
58 69 86
58 71 91
49 60 76
64 82 108
72 86 108
75 91 115
73 92 121
59 74 96
61 75 96
72 89 115
73 90 115
75 91 115
63 76 96
63 79 102
55 70 92
66 81 102
71 86 108
63 79 102
65 79 102
51 65 84
64 81 108
58 73 96
65 78 99
53 67 89
65 82 108
75 91 115
64 79 102
69 85 108
66 80 102
51 61 75
63 78 102
69 85 108
66 80 102
66 82 105
56 69 89
56 73 97
57 70 90
68 82 102
68 84 108
59 74 96
80 99 128
64 84 115
72 87 108
72 86 108
66 83 108
62 75 96
55 69 91
66 83 108
54 69 91
61 78 102
68 81 102
68 84 108
61 77 102
60 75 99
57 70 89
64 79 102
54 68 89
47 59 78
59 73 96
69 82 102
56 69 89
65 83 108
63 78 102
60 72 91
61 75 96
56 67 83
40 51 67
63 79 102
41 49 62
60 75 96
64 79 102
59 74 96
59 73 94
72 89 115
56 71 94
55 69 91
81 97 121
67 81 102
64 78 99
64 82 108
59 74 96
64 79 102
64 78 99
56 72 96
61 75 96
52 64 83
61 75 96
75 88 108
63 78 102
70 85 108
69 88 115
55 72 97
55 67 86
55 67 84
66 85 115
60 74 96
70 85 108
63 79 102
67 81 102
64 80 104
78 93 115
74 90 115
68 82 102
75 88 108
63 81 108
71 86 108
61 77 102
75 91 115
59 72 92
70 85 108
71 88 115
51 61 76
60 74 96
72 87 110
43 57 76
66 79 99
186 214 255
186 214 255
186 214 255
186 214 255
186 214 255
186 214 255
186 214 255
186 214 255
186 214 255
186 214 255
186 214 255
186 214 255
186 214 255
186 214 255
186 214 255
186 214 255
186 214 255
186 214 255
186 214 255
186 214 255
186 214 255
186 214 255
186 214 255
186 214 255
186 214 255
186 214 255
186 214 255
186 214 255
186 214 255
186 214 255
186 214 255
186 214 255
186 214 255
186 214 255
186 214 255
186 214 255
186 214 255
186 214 255
186 214 255
186 214 255
187 214 255
187 214 255
187 214 255
187 214 255
187 214 255
187 214 255
187 214 255
187 214 255
187 214 255
187 214 255
187 214 255
187 214 255
187 214 255
187 214 255
187 214 255
187 214 255
187 214 255
187 214 255
187 214 255
187 214 255
187 214 255
187 214 255
187 214 255
187 214 255
187 214 255
187 214 255
187 214 255
187 214 255
187 214 255
187 214 255
187 214 255
187 215 255
187 215 255
187 214 255
187 214 255
187 215 255
187 215 255
187 215 255
187 215 255
187 215 255
187 215 255
187 215 255
187 215 255
187 215 255
187 215 255
187 215 255
187 215 255
187 215 255
187 215 255
187 215 255
188 215 255
187 215 255
187 215 255
188 215 255
188 215 255
188 215 255
188 215 255
188 215 255
188 215 255
188 215 255
188 215 255
188 215 255
188 215 255
188 215 255
188 215 255
188 215 255
188 215 255
188 215 255
188 215 255
188 215 255
188 215 255
188 215 255
188 215 255
188 215 255
188 215 255
188 215 255
188 215 255
188 215 255
188 215 255
188 215 255
188 215 255
188 215 255
188 215 255
188 215 255
188 215 255
188 215 255
188 215 255
188 215 255
188 215 255
188 215 255
188 215 255
188 215 255
188 215 255
188 215 255
188 215 255
188 215 255
188 215 255
188 215 255
188 215 255
188 215 255
188 215 255
188 215 255
188 215 255
188 215 255
188 215 255
188 215 255
188 215 255
188 215 255
188 215 255
188 215 255
188 215 255
188 215 255
188 215 255
188 215 255
188 215 255
188 215 255
188 215 255
188 215 255
188 215 255
188 215 255
188 215 255
188 215 255
188 215 255
188 215 255
188 215 255
188 215 255
188 215 255
188 215 255
188 215 255
188 215 255
188 215 255
188 215 255
188 215 255
188 215 255
188 215 255
188 215 255
188 215 255
188 215 255
188 215 255
188 215 255
188 215 255
188 215 255
188 215 255
188 215 255
188 215 255
188 215 255
188 215 255
188 215 255
188 215 255
188 215 255
188 215 255
188 215 255
188 215 255
188 215 255
188 215 255
188 215 255
188 215 255
188 215 255
188 215 255
188 215 255
187 215 255
187 215 255
187 215 255
187 215 255
187 215 255
187 215 255
187 215 255
187 215 255
187 215 255
187 215 255
187 215 255
187 215 255
187 215 255
187 215 255
187 215 255
187 215 255
187 215 255
187 215 255
187 214 255
187 215 255
187 214 255
187 214 255
187 214 255
187 214 255
187 214 255
187 214 255
187 214 255
187 214 255
187 214 255
187 214 255
187 214 255
187 214 255
187 214 255
187 214 255
187 214 255
187 214 255
187 214 255
187 214 255
187 214 255
187 214 255
187 214 255
187 214 255
187 214 255
187 214 255
187 214 255
187 214 255
187 214 255
187 214 255
186 214 255
187 214 255
186 214 255
186 214 255
187 214 255
187 214 255
186 214 255
186 214 255
186 214 255
186 214 255
186 214 255
186 214 255
186 214 255
186 214 255
186 214 255
186 214 255
186 214 255
186 214 255
186 214 255
186 214 255
186 214 255
186 214 255
186 214 255
186 214 255
73 87 108
64 79 102
63 76 96
55 66 83
59 74 96
69 85 108
71 83 102
72 89 115
55 69 89
66 81 102
59 74 96
55 71 96
53 68 89
62 77 99
51 66 89
71 86 108
65 82 108
67 84 108
70 83 102
70 83 102
59 71 88
62 75 96
79 93 115
75 88 108
65 76 94
43 56 75
71 86 108
60 74 96
63 79 102
46 58 76
64 79 102
76 97 128
59 74 96
60 74 96
66 81 104
61 75 96
57 70 91
69 85 109
53 67 89
74 91 115
64 78 99
82 98 121
60 73 92
76 94 121
65 80 102
65 80 104
70 85 108
63 77 97
68 84 108
66 80 102
67 84 108
63 82 112
57 70 91
67 84 108
51 61 76
59 71 89
53 65 83
70 86 108
66 80 102
66 83 108
53 66 84
58 73 96
55 69 89
68 87 115
63 79 102
67 84 108
44 56 73
59 74 97
57 70 89
57 72 96
66 78 97
60 72 89
61 75 96
69 88 115
55 69 91
72 89 115
60 74 96
50 62 80
62 78 102
67 81 102
64 80 104
60 74 96
60 74 96
65 80 102
52 65 84
69 88 115
64 79 102
52 64 83
78 93 115
59 74 96
52 64 83
59 72 92
59 74 96
77 97 128
70 85 108
74 90 115
65 82 108
68 83 105
57 75 102
55 69 89
71 86 108
60 72 91
56 69 89
75 94 121
67 84 108
56 69 89
57 72 96
78 98 128
73 90 115
54 66 84
70 88 115
64 77 96
56 72 96
59 76 102
75 91 115
74 90 115
73 87 108
53 65 83
59 71 89
49 60 76
66 80 102
66 80 102
60 75 99
62 78 102
67 82 105
68 84 108
57 74 99
60 77 102
186 214 255
186 214 255
186 214 255
186 214 255
186 214 255
186 214 255
186 214 255
186 214 255
186 214 255
186 214 255
186 214 255
186 214 255
186 214 255
186 214 255
186 214 255
186 214 255
186 214 255
186 214 255
186 214 255
187 214 255
186 214 255
186 214 255
187 214 255
187 214 255
187 214 255
187 214 255
187 214 255
187 214 255
187 214 255
187 214 255
187 214 255
187 214 255
187 214 255
187 214 255
187 214 255
187 214 255
187 214 255
187 214 255
187 214 255
187 214 255
187 214 255
187 214 255
187 214 255
187 214 255
187 214 255
187 214 255
187 214 255
187 214 255
187 214 255
187 214 255
187 214 255
187 214 255
187 214 255
187 215 255
187 215 255
187 215 255
187 215 255
187 215 255
187 215 255
187 215 255
187 215 255
187 215 255
187 215 255
187 215 255
187 215 255
187 215 255
187 215 255
187 215 255
187 215 255
187 215 255
187 215 255
188 215 255
188 215 255
188 215 255
188 215 255
188 215 255
188 215 255
188 215 255
188 215 255
188 215 255
188 215 255
188 215 255
188 215 255
188 215 255
188 215 255
188 215 255
188 215 255
188 215 255
188 215 255
188 215 255
188 215 255
188 215 255
188 215 255
188 215 255
188 215 255
188 215 255
188 215 255
188 215 255
188 215 255
188 215 255
188 215 255
188 215 255
188 215 255
188 215 255
188 215 255
188 215 255
188 215 255
188 215 255
188 215 255
188 215 255
188 215 255
188 215 255
188 215 255
188 215 255
188 215 255
188 215 255
188 215 255
188 215 255
188 215 255
188 215 255
188 215 255
188 215 255
188 215 255
188 215 255
188 215 255
188 215 255
188 215 255
188 215 255
188 215 255
188 215 255
188 215 255
188 215 255
188 215 255
188 215 255
188 215 255
188 215 255
189 215 255
189 215 255
189 215 255
189 215 255
189 215 255
189 215 255
189 215 255
189 215 255
189 215 255
189 215 255
189 215 255
189 215 255
189 215 255
189 215 255
189 215 255
189 215 255
189 215 255
188 215 255
189 215 255
188 215 255
189 215 255
188 215 255
188 215 255
188 215 255
188 215 255
188 215 255
188 215 255
188 215 255
188 215 255
188 215 255
188 215 255
188 215 255
188 215 255
188 215 255
188 215 255
188 215 255
188 215 255
188 215 255
188 215 255
188 215 255
188 215 255
188 215 255
188 215 255
188 215 255
188 215 255
188 215 255
188 215 255
188 215 255
188 215 255
188 215 255
188 215 255
188 215 255
188 215 255
188 215 255
188 215 255
188 215 255
188 215 255
188 215 255
188 215 255
188 215 255
188 215 255
188 215 255
188 215 255
188 215 255
188 215 255
188 215 255
188 215 255
188 215 255
188 215 255
188 215 255
188 215 255
188 215 255
188 215 255
188 215 255
188 215 255
188 215 255
188 215 255
188 215 255
188 215 255
188 215 255
188 215 255
188 215 255
188 215 255
188 215 255
188 215 255
188 215 255
187 215 255
187 215 255
187 215 255
187 215 255
187 215 255
187 215 255
187 215 255
187 215 255
187 215 255
187 215 255
187 215 255
187 215 255
187 215 255
187 215 255
187 215 255
187 215 255
187 215 255
187 215 255
187 215 255
187 215 255
187 215 255
187 214 255
187 214 255
187 214 255
187 214 255
187 214 255
187 214 255
187 214 255
187 214 255
187 214 255
187 214 255
187 214 255
187 214 255
187 214 255
187 214 255
187 214 255
187 214 255
187 214 255
187 214 255
187 214 255
187 214 255
187 214 255
187 214 255
187 214 255
187 214 255
187 214 255
187 214 255
187 214 255
187 214 255
146 169 204
60 74 96
59 76 102
64 77 96
59 71 89
67 83 108
67 84 108
67 81 102
65 80 102
53 68 89
65 80 102
55 67 86
69 87 115
77 92 115
71 86 108
61 75 96
69 88 115
66 83 108
64 79 102
54 71 96
63 81 108
59 72 91
64 77 96
51 64 83
60 72 91
68 84 108
59 74 96
61 75 96
69 87 115
58 71 92
56 70 91
68 87 115
71 87 112
59 72 92
69 83 104
73 90 115
53 68 91
66 81 104
63 81 108
70 85 108
70 88 115
61 75 96
66 80 102
57 71 92
55 71 96
69 85 108
54 67 86
66 80 102
71 85 105
49 59 73
63 81 108
76 91 115
52 64 83
72 89 115
76 91 115
58 73 96
68 84 108
57 72 96
69 87 115
53 66 84
65 77 96
65 79 102
64 79 102
56 69 89
69 85 108
71 88 115
53 67 89
52 67 89
69 85 108
79 96 121
63 76 96
69 85 108
69 88 115
46 56 72
66 83 108
63 76 96
76 91 115
67 84 108
48 59 76
69 82 102
75 91 115
73 87 108
58 73 96
74 88 108
62 78 102
61 75 96
53 68 89
67 81 104
70 88 115
58 73 96
55 68 86
59 71 89
47 59 78
75 93 121
69 88 116
63 76 97
67 81 102
63 76 96
69 85 110
63 78 102
62 78 102
63 78 102
71 86 108
60 72 89
49 61 80
58 72 92
59 73 96
54 67 86
66 86 115
75 91 115
73 90 115
65 80 104
59 74 97
68 81 102
47 60 78
64 80 104
60 77 102
66 80 102
54 69 91
58 71 89
59 74 96
45 57 76
68 87 116
69 83 105
54 68 89
60 74 96
61 77 102
56 69 90
58 70 89
164 191 230
187 214 255
187 214 255
187 214 255
187 214 255
187 214 255
187 214 255
187 214 255
187 214 255
187 214 255
187 214 255
187 214 255
187 214 255
187 214 255
187 214 255
187 214 255
187 214 255
187 214 255
187 214 255
187 214 255
187 214 255
187 214 255
187 214 255
187 214 255
187 214 255
187 214 255
187 214 255
187 214 255
187 214 255
187 214 255
187 214 255
187 215 255
187 215 255
187 214 255
187 215 255
187 215 255
187 215 255
187 215 255
187 215 255
187 215 255
187 215 255
187 215 255
187 215 255
187 215 255
187 215 255
187 215 255
187 215 255
187 215 255
187 215 255
188 215 255
188 215 255
187 215 255
188 215 255
188 215 255
188 215 255
188 215 255
188 215 255
188 215 255
188 215 255
188 215 255
188 215 255
188 215 255
188 215 255
188 215 255
188 215 255
188 215 255
188 215 255
188 215 255
188 215 255
188 215 255
188 215 255
188 215 255
188 215 255
188 215 255
188 215 255
188 215 255
188 215 255
188 215 255
188 215 255
188 215 255
188 215 255
188 215 255
188 215 255
188 215 255
188 215 255
188 215 255
188 215 255
188 215 255
188 215 255
188 215 255
188 215 255
188 215 255
188 215 255
188 215 255
188 215 255
188 215 255
188 215 255
188 215 255
188 215 255
188 215 255
188 215 255
188 215 255
188 215 255
188 215 255
188 215 255
188 215 255
188 215 255
188 215 255
188 215 255
188 215 255
188 215 255
188 215 255
188 215 255
188 215 255
188 215 255
188 215 255
188 215 255
188 215 255
188 215 255
189 215 255
189 215 255
189 215 255
189 215 255
189 215 255
189 215 255
189 215 255
189 215 255
189 215 255
189 215 255
189 215 255
189 215 255
189 215 255
189 215 255
189 215 255
189 215 255
189 215 255
189 216 255
189 216 255
189 216 255
189 216 255
189 216 255
189 216 255
189 216 255
189 216 255
189 216 255
189 216 255
189 216 255
189 216 255
189 216 255
189 215 255
189 216 255
189 216 255
189 215 255
189 216 255
189 215 255
189 215 255
189 215 255
189 215 255
189 215 255
189 215 255
189 215 255
189 215 255
189 215 255
189 215 255
189 215 255
189 215 255
189 215 255
189 215 255
189 215 255
189 215 255
189 215 255
189 215 255
189 215 255
189 215 255
189 215 255
189 215 255
189 215 255
189 215 255
188 215 255
189 215 255
188 215 255
189 215 255
189 215 255
188 215 255
188 215 255
188 215 255
188 215 255
188 215 255
188 215 255
188 215 255
188 215 255
188 215 255
188 215 255
188 215 255
188 215 255
188 215 255
188 215 255
188 215 255
188 215 255
188 215 255
188 215 255
188 215 255
188 215 255
188 215 255
188 215 255
188 215 255
188 215 255
188 215 255
188 215 255
188 215 255
188 215 255
188 215 255
188 215 255
188 215 255
188 215 255
188 215 255
188 215 255
188 215 255
188 215 255
188 215 255
188 215 255
188 215 255
188 215 255
188 215 255
188 215 255
188 215 255
188 215 255
188 215 255
188 215 255
188 215 255
188 215 255
188 215 255
188 215 255
188 215 255
188 215 255
188 215 255
188 215 255
188 215 255
188 215 255
188 215 255
188 215 255
188 215 255
188 215 255
188 215 255
188 215 255
188 215 255
188 215 255
187 215 255
187 215 255
187 215 255
187 215 255
187 215 255
187 215 255
187 215 255
187 215 255
187 215 255
187 215 255
187 215 255
187 215 255
187 215 255
187 215 255
187 215 255
187 215 255
187 215 255
187 215 255
187 214 255
187 214 255
187 215 255
187 214 255
187 214 255
187 214 255
151 177 217
65 80 104
60 74 96
47 60 78
69 85 108
71 87 110
60 72 91
73 92 121
65 78 97
52 64 83
54 65 81
68 87 115
63 79 104
57 72 96
74 90 115
68 82 102
61 72 89
54 68 89
54 65 83
70 85 108
70 88 115
72 89 115
64 79 102
57 69 86
56 69 89
69 85 108
74 93 121
53 64 81
56 71 94
54 66 84
59 74 96
71 89 115
64 79 102
59 74 96
70 83 102
65 80 104
55 67 84
60 72 91
60 75 97
57 70 91
46 58 76
63 76 96
68 84 108
72 89 115
50 63 83
69 87 115
59 74 97
73 90 115
57 68 86
63 78 102
62 78 102
54 68 89
62 75 94
54 68 89
52 65 84
65 80 102
58 71 92
57 73 97
62 78 102
75 91 115
63 76 96
68 84 108
58 76 102
60 74 96
61 75 96
61 75 96
57 71 91
63 81 108
72 89 115
59 74 96
68 84 108
62 78 102
57 71 91
61 76 99
62 78 102
72 87 110
58 73 96
70 85 108
60 75 97
66 80 102
69 85 108
63 81 108
71 88 115
52 63 81
61 72 89
67 81 102
71 89 115
71 88 115
72 92 121
65 80 102
64 80 104
54 66 84
60 74 96
57 72 96
58 71 89
54 68 89
60 73 92
59 73 96
56 67 84
66 80 102
71 86 108
70 85 108
58 72 92
50 66 90
57 69 88
62 76 97
55 69 91
55 67 86
56 69 89
72 86 108
75 94 121
52 63 80
73 87 108
60 73 92
63 76 96
57 73 96
61 75 96
68 84 108
83 101 128
70 84 105
55 69 89
54 68 89
56 70 91
73 90 115
56 70 89
71 86 108
61 78 104
54 69 91
66 81 104
143 168 204
187 214 255
187 214 255
187 214 255
187 214 255
187 214 255
187 215 255
187 214 255
187 215 255
187 215 255
187 215 255
187 215 255
187 215 255
187 215 255
187 215 255
187 215 255
187 215 255
187 215 255
187 215 255
187 215 255
187 215 255
187 215 255
187 215 255
187 215 255
187 215 255
188 215 255
188 215 255
188 215 255
188 215 255
188 215 255
188 215 255
188 215 255
188 215 255
188 215 255
188 215 255
188 215 255
188 215 255
188 215 255
188 215 255
188 215 255
188 215 255
188 215 255
188 215 255
188 215 255
188 215 255
188 215 255
188 215 255
188 215 255
188 215 255
188 215 255
188 215 255
188 215 255
188 215 255
188 215 255
188 215 255
188 215 255
188 215 255
188 215 255
188 215 255
188 215 255
188 215 255
188 215 255
188 215 255
188 215 255
188 215 255
188 215 255
188 215 255
188 215 255
188 215 255
188 215 255
188 215 255
188 215 255
188 215 255
188 215 255
188 215 255
188 215 255
188 215 255
188 215 255
188 215 255
188 215 255
188 215 255
188 215 255
188 215 255
188 215 255
188 215 255
188 215 255
188 215 255
188 215 255
189 215 255
188 215 255
188 215 255
189 215 255
189 215 255
189 215 255
189 215 255
189 215 255
189 215 255
189 215 255
189 215 255
189 215 255
189 215 255
189 215 255
189 215 255
189 215 255
189 215 255
189 215 255
189 215 255
189 215 255
189 215 255
189 215 255
189 215 255
189 215 255
189 215 255
189 215 255
189 215 255
189 215 255
189 215 255
189 216 255
189 215 255
189 216 255
189 216 255
189 216 255
189 215 255
189 216 255
189 216 255
189 216 255
189 216 255
189 216 255
189 216 255
189 216 255
189 216 255
189 216 255
189 216 255
189 216 255
189 216 255
189 216 255
189 216 255
189 216 255
189 216 255
189 216 255
189 216 255
189 216 255
189 216 255
189 216 255
189 216 255
189 216 255
189 216 255
189 216 255
189 216 255
189 216 255
189 216 255
189 216 255
189 216 255
189 216 255
189 216 255
189 216 255
189 216 255
189 216 255
189 216 255
189 216 255
189 216 255
189 216 255
189 216 255
189 216 255
189 216 255
189 216 255
189 216 255
189 216 255
189 216 255
189 216 255
189 216 255
189 216 255
189 216 255
189 216 255
189 216 255
189 216 255
189 216 255
189 216 255
189 216 255
189 216 255
189 215 255
189 216 255
189 215 255
189 215 255
189 215 255
189 215 255
189 215 255
189 215 255
189 215 255
189 215 255
189 215 255
189 215 255
189 215 255
189 215 255
189 215 255
189 215 255
189 215 255
189 215 255
189 215 255
189 215 255
189 215 255
189 215 255
189 215 255
189 215 255
189 215 255
189 215 255
189 215 255
189 215 255
189 215 255
188 215 255
188 215 255
188 215 255
188 215 255
188 215 255
188 215 255
188 215 255
188 215 255
188 215 255
188 215 255
188 215 255
188 215 255
188 215 255
188 215 255
188 215 255
188 215 255
188 215 255
188 215 255
188 215 255
188 215 255
188 215 255
188 215 255
188 215 255
188 215 255
188 215 255
188 215 255
188 215 255
188 215 255
188 215 255
188 215 255
188 215 255
188 215 255
188 215 255
188 215 255
188 215 255
188 215 255
188 215 255
188 215 255
188 215 255
188 215 255
188 215 255
188 215 255
188 215 255
188 215 255
188 215 255
188 215 255
188 215 255
188 215 255
188 215 255
188 215 255
188 215 255
188 215 255
188 215 255
188 215 255
188 215 255
188 215 255
188 215 255
188 215 255
188 215 255
188 215 255
188 215 255
188 215 255
126 147 179
56 71 94
57 70 89
59 71 89
65 82 108
76 97 128
68 84 108
60 77 102
58 73 96
57 72 96
69 84 108
59 74 96
60 77 102
61 75 96
50 64 86
68 81 102
64 77 96
57 72 96
76 94 121
50 60 75
76 91 115
64 76 96
67 81 102
64 79 102
49 60 76
66 80 102
67 84 108
70 88 115
70 83 102
61 75 96
56 68 86
63 76 96
59 74 97
74 88 108
54 68 89
50 62 81
62 75 96
54 69 92
69 80 97
59 73 96
71 86 108
75 91 115
52 64 83
63 77 97
57 70 89
53 64 80
71 89 115
58 72 92
64 77 96
59 74 96
74 90 115
73 89 115
64 79 102
73 90 115
63 77 97
57 70 89
52 64 83
70 87 112
57 70 89
70 88 115
65 79 102
73 87 108
55 68 88
54 69 91
72 89 115
54 68 90
55 69 91
70 86 108
57 70 89
63 78 102
71 86 108
61 76 99
85 102 128
66 83 108
62 75 96
76 89 108
66 80 102
53 68 89
50 62 80
55 68 89
55 68 89
68 84 108
71 86 108
64 82 108
64 79 102
48 63 84
61 77 102
69 83 104
49 61 78
70 85 108
51 62 80
47 60 80
70 85 108
77 94 121
71 89 115
58 74 97
53 66 84
60 75 99
57 70 89
59 74 96
66 83 108
63 78 102
72 87 108
65 80 102
84 99 121
77 94 121
62 78 102
60 74 96
72 86 108
54 66 84
49 61 80
58 73 96
63 79 102
72 89 115
51 64 83
71 89 115
74 90 115
48 60 78
59 72 91
59 73 96
61 77 102
48 59 76
75 88 108
71 91 121
72 91 121
59 74 96
68 84 108
61 78 102
63 77 99
138 159 192
188 215 255
188 215 255
188 215 255
188 215 255
188 215 255
188 215 255
188 215 255
188 215 255
188 215 255
188 215 255
188 215 255
188 215 255
188 215 255
188 215 255
188 215 255
188 215 255
188 215 255
188 215 255
188 215 255
188 215 255
188 215 255
188 215 255
188 215 255
188 215 255
188 215 255
188 215 255
188 215 255
188 215 255
188 215 255
188 215 255
188 215 255
188 215 255
188 215 255
188 215 255
188 215 255
188 215 255
188 215 255
188 215 255
188 215 255
188 215 255
188 215 255
188 215 255
188 215 255
188 215 255
188 215 255
188 215 255
188 215 255
188 215 255
188 215 255
188 215 255
188 215 255
188 215 255
188 215 255
188 215 255
188 215 255
188 215 255
188 215 255
188 215 255
188 215 255
188 215 255
188 215 255
188 215 255
189 215 255
189 215 255
189 215 255
189 215 255
189 215 255
189 215 255
189 215 255
189 215 255
189 215 255
189 215 255
189 215 255
189 215 255
189 215 255
189 215 255
189 215 255
189 215 255
189 215 255
189 215 255
189 215 255
189 215 255
189 215 255
189 215 255
189 215 255
189 215 255
189 215 255
189 215 255
189 215 255
189 215 255
189 215 255
189 216 255
189 216 255
189 216 255
189 216 255
189 216 255
189 216 255
189 216 255
189 216 255
189 216 255
189 216 255
189 216 255
189 216 255
189 216 255
189 216 255
189 216 255
189 216 255
189 216 255
189 216 255
189 216 255
189 216 255
189 216 255
189 216 255
189 216 255
189 216 255
189 216 255
189 216 255
189 216 255
189 216 255
189 216 255
189 216 255
189 216 255
189 216 255
189 216 255
189 216 255
189 216 255
189 216 255
189 216 255
189 216 255
189 216 255
189 216 255
189 216 255
189 216 255
189 216 255
189 216 255
190 216 255
190 216 255
190 216 255
189 216 255
189 216 255
189 216 255
189 216 255
190 216 255
189 216 255
189 216 255
189 216 255
190 216 255
189 216 255
189 216 255
189 216 255
189 216 255
189 216 255
189 216 255
189 216 255
189 216 255
189 216 255
189 216 255
189 216 255
189 216 255
189 216 255
189 216 255
189 216 255
189 216 255
189 216 255
189 216 255
189 216 255
189 216 255
189 216 255
189 216 255
189 216 255
189 216 255
189 216 255
189 216 255
189 216 255
189 216 255
189 216 255
189 216 255
189 216 255
189 216 255
189 216 255
189 216 255
189 216 255
189 216 255
189 216 255
189 216 255
189 216 255
189 216 255
189 216 255
189 216 255
189 216 255
189 216 255
189 216 255
189 216 255
189 216 255
189 216 255
189 216 255
189 216 255
189 216 255
189 216 255
189 216 255
189 216 255
189 216 255
189 216 255
189 216 255
189 216 255
189 216 255
189 216 255
189 216 255
189 216 255
189 215 255
189 215 255
189 215 255
189 215 255
189 215 255
189 215 255
189 215 255
189 215 255
189 215 255
189 215 255
189 215 255
189 215 255
189 215 255
189 215 255
189 215 255
189 215 255
189 215 255
189 215 255
189 215 255
189 215 255
189 215 255
189 215 255
189 215 255
189 215 255
189 215 255
189 215 255
189 215 255
189 215 255
189 215 255
188 215 255
189 215 255
188 215 255
188 215 255
188 215 255
188 215 255
188 215 255
188 215 255
188 215 255
188 215 255
188 215 255
188 215 255
188 215 255
188 215 255
188 215 255
188 215 255
188 215 255
188 215 255
188 215 255
188 215 255
188 215 255
188 215 255
188 215 255
188 215 255
188 215 255
188 215 255
188 215 255
188 215 255
188 215 255
188 215 255
188 215 255
188 215 255
95 110 134
59 72 91
60 77 102
64 80 104
63 81 108
68 84 108
58 72 92
67 81 102
69 87 115
58 70 89
56 70 92
59 71 89
51 61 76
52 65 84
62 75 96
63 76 96
69 85 108
71 89 115
58 73 96
70 85 108
68 82 102
54 66 84
75 91 115
57 72 96
68 84 108
59 72 92
40 51 67
51 64 83
54 68 89
63 78 102
63 79 102
62 78 102
72 89 115
65 77 96
56 69 89
65 80 102
75 91 115
63 79 102
69 85 108
59 75 99
68 82 102
65 80 104
71 86 108
55 69 89
61 76 99
65 80 102
59 74 96
63 79 102
71 91 121
58 71 90
49 61 80
59 74 96
58 72 93
61 75 96
65 79 99
68 83 105
52 64 83
65 77 96
64 77 96
61 75 96
61 75 96
68 84 108
61 76 99
61 75 96
65 80 102
55 69 89
59 74 96
71 86 108
66 81 104
52 64 83
56 70 92
66 80 102
58 70 89
62 81 108
55 69 89
66 80 102
60 74 96
65 82 108
64 81 105
64 79 102
74 88 110
66 81 102
64 79 102
67 84 108
51 66 89
66 86 115
59 74 97
73 90 115
62 78 102
55 70 91
57 73 96
54 67 86
54 69 91
76 91 115
76 91 115
53 65 83
57 70 89
62 74 92
72 87 108
57 70 89
73 90 115
52 67 89
72 89 115
65 79 102
52 64 83
61 80 108
63 79 102
71 86 108
61 78 102
54 68 89
64 79 102
60 76 99
59 72 91
62 75 96
57 71 92
60 71 89
68 84 108
65 82 108
54 68 90
67 81 102
55 70 92
58 73 96
53 67 89
55 68 89
75 94 121
54 68 89
45 55 72
56 68 86
47 58 73
137 159 192
188 215 255
188 215 255
188 215 255
188 215 255
188 215 255
188 215 255
188 215 255
188 215 255
188 215 255
188 215 255
188 215 255
188 215 255
188 215 255
188 215 255
188 215 255
188 215 255
188 215 255
188 215 255
188 215 255
188 215 255
188 215 255
188 215 255
188 215 255
188 215 255
188 215 255
188 215 255
188 215 255
188 215 255
188 215 255
188 215 255
189 215 255
188 215 255
188 215 255
188 215 255
188 215 255
189 215 255
189 215 255
189 215 255
189 215 255
189 215 255
189 215 255
189 215 255
189 215 255
189 215 255
189 215 255
189 215 255
189 215 255
189 215 255
189 215 255
189 215 255
189 215 255
189 215 255
189 215 255
189 215 255
189 215 255
189 215 255
189 215 255
189 215 255
189 216 255
189 215 255
189 216 255
189 216 255
189 216 255
189 216 255
189 216 255
189 216 255
189 216 255
189 216 255
189 216 255
189 216 255
189 216 255
189 216 255
189 216 255
189 216 255
189 216 255
189 216 255
189 216 255
189 216 255
189 216 255
189 216 255
189 216 255
189 216 255
189 216 255
189 216 255
189 216 255
189 216 255
189 216 255
189 216 255
189 216 255
189 216 255
189 216 255
189 216 255
189 216 255
189 216 255
189 216 255
189 216 255
189 216 255
189 216 255
189 216 255
189 216 255
189 216 255
189 216 255
189 216 255
189 216 255
189 216 255
189 216 255
189 216 255
189 216 255
189 216 255
189 216 255
189 216 255
189 216 255
189 216 255
189 216 255
189 216 255
189 216 255
189 216 255
189 216 255
189 216 255
189 216 255
189 216 255
189 216 255
189 216 255
190 216 255
190 216 255
189 216 255
189 216 255
189 216 255
189 216 255
190 216 255
190 216 255
189 216 255
190 216 255
190 216 255
190 216 255
190 216 255
190 216 255
190 216 255
190 216 255
190 216 255
190 216 255
190 216 255
190 216 255
190 216 255
190 216 255
190 216 255
190 216 255
190 216 255
190 216 255
190 216 255
190 216 255
190 216 255
190 216 255
190 216 255
190 216 255
190 216 255
190 216 255
190 216 255
190 216 255
190 216 255
190 216 255
190 216 255
190 216 255
190 216 255
190 216 255
190 216 255
190 216 255
190 216 255
190 216 255
190 216 255
190 216 255
190 216 255
190 216 255
190 216 255
190 216 255
189 216 255
190 216 255
189 216 255
190 216 255
190 216 255
189 216 255
189 216 255
189 216 255
189 216 255
189 216 255
189 216 255
189 216 255
189 216 255
189 216 255
189 216 255
189 216 255
189 216 255
189 216 255
189 216 255
189 216 255
189 216 255
189 216 255
189 216 255
189 216 255
189 216 255
189 216 255
189 216 255
189 216 255
189 216 255
189 216 255
189 216 255
189 216 255
189 216 255
189 216 255
189 216 255
189 216 255
189 216 255
189 216 255
189 216 255
189 216 255
189 216 255
189 216 255
189 216 255
189 216 255
189 216 255
189 216 255
189 216 255
189 216 255
189 216 255
189 216 255
189 216 255
189 216 255
189 216 255
189 216 255
189 216 255
189 216 255
189 216 255
189 216 255
189 216 255
189 216 255
189 216 255
189 216 255
189 216 255
189 216 255
189 216 255
189 216 255
189 215 255
189 215 255
189 216 255
189 216 255
189 216 255
189 215 255
189 215 255
189 215 255
189 215 255
189 215 255
189 215 255
189 215 255
189 215 255
189 215 255
189 215 255
189 215 255
189 215 255
189 215 255
189 215 255
189 215 255
189 215 255
189 215 255
189 215 255
189 215 255
189 215 255
189 215 255
189 215 255
189 215 255
189 215 255
93 112 140
78 92 115
59 74 97
69 86 110
63 77 97
66 83 108
75 91 115
69 82 102
60 77 102
54 68 89
57 70 89
61 77 102
51 64 83
51 64 83
56 72 96
46 57 73
60 74 96
44 55 72
64 75 92
49 63 84
71 86 108
62 80 108
53 69 92
66 83 108
56 69 89
46 59 78
57 70 89
53 68 89
62 78 102
65 82 108
74 93 121
71 86 108
71 86 108
55 66 83
66 83 108
60 77 102
50 62 80
49 61 79
61 76 99
59 73 94
60 74 96
48 61 81
73 87 108
64 77 96
63 79 102
54 68 89
68 82 102
55 69 89
59 71 89
59 74 97
60 74 96
63 81 108
74 90 115
76 91 115
73 87 108
71 86 108
59 73 96
76 91 115
62 79 104
66 80 102
55 69 89
50 63 83
79 96 121
57 70 90
68 82 102
65 82 108
63 79 102
58 73 96
65 82 108
45 56 73
62 76 97
57 70 89
67 83 108
59 72 92
72 89 115
67 84 108
67 84 108
67 82 105
78 95 121
66 80 102
65 80 102
65 80 104
72 89 115
57 71 92
67 84 108
45 57 74
56 70 89
62 76 96
70 85 108
45 56 72
71 86 108
57 71 91
76 94 121
64 77 97
56 67 84
50 64 84
58 70 89
67 86 115
59 72 92
53 67 89
57 68 86
48 62 83
51 61 77
47 60 80
58 73 96
69 82 102
64 79 102
74 90 115
71 86 108
54 68 88
67 84 108
55 68 86
53 65 83
57 70 89
61 76 99
54 69 91
54 68 89
62 78 102
50 66 89
72 89 115
55 68 89
66 80 102
62 78 102
67 78 96
53 65 84
59 77 104
50 63 83
61 75 97
70 88 115
145 166 198
189 215 255
189 215 255
189 215 255
189 215 255
189 215 255
189 215 255
189 215 255
189 215 255
189 215 255
189 215 255
189 215 255
189 215 255
189 215 255
189 215 255
189 215 255
189 215 255
189 215 255
189 215 255
189 215 255
189 215 255
189 215 255
189 215 255
189 215 255
189 215 255
189 216 255
189 216 255
189 216 255
189 216 255
189 216 255
189 216 255
189 216 255
189 216 255
189 216 255
189 216 255
189 216 255
189 216 255
189 216 255
189 216 255
189 216 255
189 216 255
189 216 255
189 216 255
189 216 255
189 216 255
189 216 255
189 216 255
189 216 255
189 216 255
189 216 255
189 216 255
189 216 255
189 216 255
189 216 255
189 216 255
189 216 255
189 216 255
189 216 255
189 216 255
189 216 255
189 216 255
189 216 255
189 216 255
189 216 255
189 216 255
189 216 255
189 216 255
189 216 255
189 216 255
189 216 255
189 216 255
189 216 255
189 216 255
189 216 255
189 216 255
189 216 255
189 216 255
189 216 255
189 216 255
189 216 255
189 216 255
189 216 255
189 216 255
189 216 255
189 216 255
189 216 255
189 216 255
189 216 255
189 216 255
189 216 255
189 216 255
190 216 255
190 216 255
189 216 255
189 216 255
189 216 255
190 216 255
190 216 255
190 216 255
190 216 255
190 216 255
190 216 255
190 216 255
190 216 255
190 216 255
190 216 255
190 216 255
190 216 255
190 216 255
190 216 255
190 216 255
190 216 255
190 216 255
190 216 255
190 216 255
190 216 255
190 216 255
190 216 255
190 216 255
190 216 255
190 216 255
190 216 255
190 216 255
190 216 255
190 216 255
190 216 255
190 216 255
190 216 255
190 216 255
190 216 255
190 216 255
190 216 255
190 216 255
190 216 255
190 216 255
190 216 255
190 216 255
190 216 255
190 216 255
190 216 255
190 216 255
190 216 255
190 216 255
190 216 255
190 216 255
190 216 255
190 216 255
190 216 255
190 216 255
190 216 255
190 216 255
190 216 255
190 216 255
190 216 255
190 216 255
190 216 255
190 216 255
190 216 255
190 216 255
190 216 255
190 216 255
190 216 255
190 216 255
190 216 255
190 216 255
190 216 255
190 216 255
190 216 255
190 216 255
190 216 255
190 216 255
190 216 255
190 216 255
190 216 255
190 216 255
190 216 255
190 216 255
190 216 255
190 216 255
190 216 255
190 216 255
190 216 255
190 216 255
190 216 255
190 216 255
190 216 255
190 216 255
190 216 255
190 216 255
190 216 255
190 216 255
190 216 255
190 216 255
190 216 255
190 216 255
190 216 255
190 216 255
190 216 255
190 216 255
190 216 255
190 216 255
190 216 255
190 216 255
190 216 255
190 216 255
190 216 255
190 216 255
190 216 255
190 216 255
190 216 255
190 216 255
190 216 255
190 216 255
190 216 255
190 216 255
190 216 255
189 216 255
190 216 255
190 216 255
190 216 255
189 216 255
190 216 255
190 216 255
189 216 255
190 216 255
189 216 255
189 216 255
189 216 255
189 216 255
189 216 255
189 216 255
189 216 255
189 216 255
189 216 255
189 216 255
189 216 255
189 216 255
189 216 255
189 216 255
189 216 255
189 216 255
189 216 255
189 216 255
189 216 255
189 216 255
189 216 255
189 216 255
189 216 255
189 216 255
189 216 255
189 216 255
189 216 255
189 216 255
189 216 255
189 216 255
189 216 255
189 216 255
189 216 255
189 216 255
189 216 255
189 216 255
189 216 255
189 216 255
189 216 255
189 216 255
189 216 255
189 216 255
189 216 255
189 216 255
189 216 255
189 216 255
89 104 128
61 75 96
61 73 91
75 93 121
67 81 104
62 80 108
69 82 102
61 73 91
48 59 76
61 75 96
72 87 110
62 74 92
73 88 112
61 75 97
63 79 102
67 84 108
62 75 96
50 63 83
60 73 92
66 82 105
67 84 110
65 80 102
55 66 83
47 59 77
65 80 102
52 62 78
63 78 102
73 87 108
61 78 102
67 81 102
49 62 80
62 77 99
64 79 102
62 78 102
78 93 115
69 85 108
68 85 110
62 75 96
68 84 108
63 74 92
65 82 108
63 78 102
48 61 80
54 66 84
71 86 108
68 84 108
46 61 84
64 82 108
60 73 92
63 79 104
45 56 72
50 64 84
73 90 115
69 87 115
68 85 110
71 86 108
72 86 108
61 80 108
70 85 108
63 76 96
66 81 104
62 81 108
54 68 89
68 84 108
53 68 90
69 83 104
49 59 75
57 72 96
54 67 86
56 69 89
84 99 121
62 78 102
62 78 102
65 79 100
49 60 76
56 72 96
60 74 96
57 71 92
74 93 121
65 79 102
56 72 96
77 95 121
57 69 88
49 63 83
61 75 96
49 63 83
58 73 96
67 84 108
69 83 105
69 82 102
65 82 108
72 87 108
59 74 97
65 80 102
63 76 96
65 80 104
70 86 108
51 64 83
61 77 102
67 84 108
60 74 96
72 86 108
53 65 84
64 82 108
57 72 96
66 83 108
68 84 108
50 64 84
66 83 108
70 88 115
77 95 121
73 87 108
53 64 81
53 66 86
64 79 102
47 60 78
59 74 96
62 77 99
43 57 76
63 81 108
65 83 108
66 83 108
68 84 108
75 91 115
68 81 102
67 81 102
72 92 121
77 95 121
71 86 108
124 146 179
189 216 255
189 216 255
189 216 255
189 216 255
189 216 255
189 216 255
189 216 255
189 216 255
189 216 255
189 216 255
189 216 255
189 216 255
189 216 255
189 216 255
189 216 255
189 216 255
189 216 255
189 216 255
189 216 255
189 216 255
189 216 255
189 216 255
189 216 255
189 216 255
189 216 255
189 216 255
189 216 255
189 216 255
189 216 255
189 216 255
189 216 255
189 216 255
189 216 255
189 216 255
189 216 255
189 216 255
189 216 255
189 216 255
189 216 255
189 216 255
189 216 255
189 216 255
189 216 255
189 216 255
189 216 255
189 216 255
189 216 255
189 216 255
189 216 255
189 216 255
190 216 255
190 216 255
190 216 255
190 216 255
190 216 255
190 216 255
190 216 255
190 216 255
190 216 255
190 216 255
190 216 255
190 216 255
190 216 255
190 216 255
190 216 255
190 216 255
190 216 255
190 216 255
190 216 255
190 216 255
190 216 255
190 216 255
190 216 255
190 216 255
190 216 255
190 216 255
190 216 255
190 216 255
190 216 255
190 216 255
190 216 255
190 216 255
190 216 255
190 216 255
190 216 255
190 216 255
190 216 255
190 216 255
190 216 255
190 216 255
190 216 255
190 216 255
190 216 255
190 216 255
190 216 255
190 216 255
190 216 255
190 216 255
190 216 255
190 216 255
190 216 255
190 216 255
190 216 255
190 216 255
190 216 255
190 216 255
190 216 255
190 216 255
190 216 255
190 216 255
190 216 255
190 216 255
190 216 255
190 216 255
190 216 255
190 216 255
190 216 255
190 216 255
190 216 255
190 216 255
190 216 255
190 216 255
190 216 255
190 216 255
190 216 255
190 216 255
190 216 255
190 216 255
190 216 255
190 216 255
190 216 255
190 216 255
190 216 255
190 216 255
190 216 255
190 216 255
190 216 255
190 216 255
190 216 255
190 216 255
190 216 255
190 216 255
190 216 255
190 216 255
190 216 255
190 216 255
190 216 255
190 216 255
190 216 255
190 216 255
190 216 255
190 216 255
190 216 255
190 216 255
190 216 255
190 216 255
190 216 255
190 216 255
190 216 255
190 216 255
190 216 255
190 216 255
190 216 255
190 216 255
190 216 255
190 216 255
190 216 255
190 216 255
190 216 255
190 216 255
190 216 255
190 216 255
190 216 255
190 216 255
190 216 255
190 216 255
190 216 255
190 216 255
190 216 255
190 216 255
190 216 255
190 216 255
190 216 255
190 216 255
190 216 255
190 216 255
190 216 255
190 216 255
190 216 255
190 216 255
190 216 255
190 216 255
190 216 255
190 216 255
190 216 255
190 216 255
190 216 255
190 216 255
190 216 255
190 216 255
190 216 255
190 216 255
190 216 255
190 216 255
190 216 255
190 216 255
190 216 255
190 216 255
190 216 255
190 216 255
190 216 255
190 216 255
190 216 255
190 216 255
190 216 255
190 216 255
190 216 255
190 216 255
190 216 255
190 216 255
190 216 255
190 216 255
190 216 255
190 216 255
190 216 255
190 216 255
190 216 255
190 216 255
190 216 255
190 216 255
190 216 255
190 216 255
190 216 255
190 216 255
190 216 255
190 216 255
190 216 255
190 216 255
190 216 255
190 216 255
190 216 255
190 216 255
190 216 255
190 216 255
190 216 255
190 216 255
190 216 255
190 216 255
190 216 255
190 216 255
190 216 255
190 216 255
190 216 255
190 216 255
190 216 255
190 216 255
190 216 255
190 216 255
190 216 255
190 216 255
190 216 255
190 216 255
190 216 255
190 216 255
190 216 255
190 216 255
190 216 255
190 216 255
190 216 255
190 216 255
88 102 123
54 71 96
62 80 108
78 92 115
50 63 83
72 89 115
67 82 105
54 68 89
64 79 102
60 74 96
49 62 83
68 84 108
69 87 115
70 85 108
65 80 102
64 77 97
69 82 102
59 74 96
66 83 108
78 93 115
63 78 102
50 63 81
72 89 115
68 82 102
53 63 80
66 79 99
71 89 115
60 77 102
71 86 108
58 73 96
64 79 102
56 70 91
53 65 83
61 75 96
59 74 97
58 71 91
59 74 96
66 80 102
64 79 102
63 79 102
67 81 102
40 52 70
50 61 78
68 84 108
72 89 115
65 78 97
55 69 89
58 73 96
59 74 96
42 51 66
64 79 102
55 69 89
62 75 96
59 74 96
65 81 105
64 79 102
72 89 115
67 83 108
59 74 96
55 68 88
69 82 102
68 83 105
57 68 86
67 86 115
53 67 88
62 78 102
62 75 96
60 76 99
56 71 92
57 70 89
60 76 100
55 67 85
64 79 102
69 82 102
60 74 96
66 81 102
64 81 105
65 82 108
57 68 86
61 77 102
69 82 102
64 79 102
69 85 108
65 81 105
43 54 70
69 90 121
62 78 102
77 92 115
58 71 89
50 60 77
68 84 108
66 78 97
56 68 86
65 80 102
61 77 102
57 72 96
65 79 102
77 92 115
59 74 97
73 92 121
53 65 83
48 61 80
73 92 121
56 72 96
56 70 91
53 67 89
77 92 115
52 67 89
68 86 112
64 77 96
54 66 84
62 80 105
49 60 78
67 81 102
61 75 96
61 75 96
57 72 96
63 77 97
72 87 108
63 77 97
55 67 84
57 70 89
66 83 108
71 89 115
74 90 115
65 80 104
62 76 97
63 79 102
77 94 121
75 88 108
190 216 255
189 216 255
189 216 255
190 216 255
190 216 255
190 216 255
190 216 255
190 216 255
190 216 255
190 216 255
190 216 255
190 216 255
190 216 255
190 216 255
190 216 255
190 216 255
190 216 255
190 216 255
190 216 255
190 216 255
190 216 255
190 216 255
190 216 255
190 216 255
190 216 255
190 216 255
190 216 255
190 216 255
190 216 255
190 216 255
190 216 255
190 216 255
190 216 255
190 216 255
190 216 255
190 216 255
190 216 255
190 216 255
190 216 255
190 216 255
190 216 255
190 216 255
190 216 255
190 216 255
190 216 255
190 216 255
190 216 255
190 216 255
190 216 255
190 216 255
190 216 255
190 216 255
190 216 255
190 216 255
190 216 255
190 216 255
190 216 255
190 216 255
190 216 255
190 216 255
190 216 255
190 216 255
190 216 255
190 216 255
190 216 255
190 216 255
190 216 255
190 216 255
190 216 255
190 216 255
190 216 255
190 216 255
190 216 255
190 216 255
190 216 255
190 216 255
190 216 255
190 216 255
190 216 255
190 216 255
190 216 255
190 216 255
190 216 255
190 216 255
190 216 255
190 216 255
190 216 255
190 216 255
190 216 255
190 216 255
190 216 255
190 216 255
190 216 255
190 216 255
190 216 255
190 216 255
190 216 255
190 216 255
190 216 255
190 216 255
190 216 255
190 216 255
190 216 255
190 216 255
190 216 255
190 216 255
190 216 255
190 216 255
190 216 255
190 216 255
190 216 255
190 216 255
190 216 255
190 216 255
190 216 255
190 216 255
190 216 255
190 216 255
190 216 255
190 216 255
190 216 255
190 216 255
190 216 255
190 216 255
190 216 255
190 216 255
190 216 255
190 216 255
190 216 255
190 216 255
190 216 255
190 216 255
190 216 255
190 216 255
190 216 255
191 217 255
191 217 255
191 217 255
191 217 255
191 217 255
191 217 255
191 217 255
191 217 255
191 217 255
191 217 255
191 217 255
191 217 255
191 217 255
191 217 255
191 217 255
191 217 255
191 217 255
191 217 255
191 217 255
191 217 255
191 217 255
191 217 255
191 217 255
191 217 255
191 217 255
191 217 255
191 217 255
191 217 255
191 217 255
191 217 255
191 217 255
191 217 255
191 217 255
191 217 255
190 216 255
190 216 255
191 217 255
191 217 255
191 217 255
191 217 255
190 216 255
190 216 255
191 217 255
190 216 255
191 217 255
190 216 255
190 216 255
191 217 255
191 217 255
190 216 255
190 216 255
191 217 255
190 216 255
190 216 255
190 216 255
190 216 255
190 216 255
190 216 255
190 216 255
190 216 255
190 216 255
190 216 255
190 216 255
190 216 255
190 216 255
190 216 255
190 216 255
190 216 255
190 216 255
190 216 255
190 216 255
190 216 255
190 216 255
190 216 255
190 216 255
190 216 255
190 216 255
190 216 255
190 216 255
190 216 255
190 216 255
190 216 255
190 216 255
190 216 255
190 216 255
190 216 255
190 216 255
190 216 255
190 216 255
190 216 255
190 216 255
190 216 255
190 216 255
190 216 255
190 216 255
190 216 255
190 216 255
190 216 255
190 216 255
190 216 255
190 216 255
190 216 255
190 216 255
190 216 255
190 216 255
190 216 255
190 216 255
190 216 255
190 216 255
190 216 255
190 216 255
190 216 255
190 216 255
190 216 255
190 216 255
190 216 255
190 216 255
190 216 255
190 216 255
190 216 255
190 216 255
190 216 255
190 216 255
190 216 255
190 216 255
190 216 255
190 216 255
190 216 255
190 216 255
190 216 255
190 216 255
190 216 255
190 216 255
190 216 255
190 216 255
122 142 172
66 83 108
64 79 102
58 70 89
71 88 115
56 67 84
60 77 102
59 74 96
63 81 108
52 66 86
66 83 108
54 68 89
51 62 78
72 87 109
48 60 78
56 68 86
67 81 102
66 81 104
70 85 108
58 73 96
54 69 90
73 89 115
68 81 102
51 63 83
60 74 96
66 80 102
62 78 102
72 92 121
64 77 96
61 76 97
51 63 81
64 82 108
75 91 115
64 79 102
59 74 96
63 77 97
62 79 104
55 69 91
57 73 96
66 80 102
67 83 108
60 74 96
59 74 96
56 69 89
62 78 102
55 66 84
56 69 90
47 61 83
63 78 102
71 86 108
55 70 92
55 67 84
53 65 84
64 79 102
60 73 92
59 74 96
72 87 108
68 84 108
53 66 84
60 75 97
66 83 108
53 68 89
56 71 92
47 59 78
59 73 96
73 87 108
64 81 105
61 75 97
65 78 97
72 87 108
60 77 102
64 79 102
61 77 102
64 78 99
50 62 80
56 69 89
58 73 96
56 70 91
60 74 96
63 79 102
63 77 97
64 77 96
64 80 104
62 76 96
67 81 102
64 79 102
62 75 96
62 81 108
63 77 97
53 68 90
60 73 92
75 91 115
71 89 115
69 85 108
70 85 108
61 76 99
58 70 88
64 79 102
57 70 89
56 68 86
58 72 92
66 79 99
70 85 108
73 90 115
53 65 83
59 77 104
49 61 80
59 73 96
63 78 102
54 66 84
72 86 108
64 79 102
62 78 102
56 67 84
49 60 76
49 60 76
68 82 102
64 79 102
51 64 83
66 83 108
50 63 83
66 80 102
68 81 102
61 76 99
60 74 96
56 67 84
55 68 86
56 70 91
53 66 86
82 98 121
190 216 255
190 216 255
190 216 255
190 216 255
190 216 255
190 216 255
190 216 255
190 216 255
190 216 255
190 216 255
190 216 255
190 216 255
190 216 255
190 216 255
190 216 255
190 216 255
190 216 255
190 216 255
190 216 255
190 216 255
190 216 255
190 216 255
190 216 255
190 216 255
190 216 255
190 216 255
190 216 255
190 216 255
190 216 255
190 216 255
190 216 255
190 216 255
190 216 255
190 216 255
190 216 255
190 216 255
190 216 255
190 216 255
190 216 255
190 216 255
190 216 255
190 216 255
190 216 255
190 216 255
190 216 255
190 216 255
190 216 255
190 216 255
190 216 255
190 216 255
190 216 255
190 216 255
190 216 255
190 216 255
190 216 255
190 216 255
190 216 255
190 216 255
190 216 255
190 216 255
190 216 255
190 216 255
190 216 255
190 216 255
190 216 255
190 216 255
190 216 255
190 216 255
190 216 255
190 216 255
190 216 255
190 216 255
190 216 255
190 216 255
190 216 255
190 216 255
191 217 255
190 216 255
190 216 255
190 216 255
190 216 255
191 217 255
190 216 255
190 216 255
190 216 255
190 216 255
190 216 255
190 216 255
190 216 255
191 217 255
190 216 255
191 217 255
190 216 255
190 216 255
190 216 255
191 217 255
191 217 255
191 217 255
190 216 255
191 217 255
191 217 255
191 217 255
191 217 255
191 217 255
191 217 255
191 217 255
191 217 255
191 217 255
191 217 255
191 217 255
191 217 255
191 217 255
191 217 255
191 217 255
191 217 255
191 217 255
191 217 255
191 217 255
191 217 255
191 217 255
191 217 255
191 217 255
191 217 255
191 217 255
191 217 255
191 217 255
191 217 255
191 217 255
191 217 255
191 217 255
191 217 255
191 217 255
191 217 255
191 217 255
191 217 255
191 217 255
191 217 255
191 217 255
191 217 255
191 217 255
191 217 255
191 217 255
191 217 255
191 217 255
191 217 255
191 217 255
191 217 255
191 217 255
191 217 255
191 217 255
191 217 255
191 217 255
191 217 255
191 217 255
191 217 255
191 217 255
191 217 255
191 217 255
191 217 255
191 217 255
191 217 255
191 217 255
191 217 255
191 217 255
191 217 255
191 217 255
191 217 255
191 217 255
191 217 255
191 217 255
191 217 255
191 217 255
191 217 255
191 217 255
191 217 255
191 217 255
191 217 255
191 217 255
191 217 255
191 217 255
191 217 255
191 217 255
191 217 255
191 217 255
191 217 255
191 217 255
191 217 255
191 217 255
191 217 255
191 217 255
191 217 255
191 217 255
191 217 255
191 217 255
191 217 255
191 217 255
191 217 255
191 217 255
191 217 255
191 217 255
191 217 255
191 217 255
191 217 255
191 217 255
191 217 255
191 217 255
191 217 255
191 217 255
191 217 255
191 217 255
191 217 255
191 217 255
191 217 255
191 217 255
191 217 255
191 217 255
191 217 255
191 217 255
191 217 255
191 217 255
191 217 255
191 217 255
191 217 255
191 217 255
191 217 255
191 217 255
191 217 255
191 217 255
191 217 255
191 217 255
191 217 255
191 217 255
191 217 255
191 217 255
191 217 255
191 217 255
191 217 255
191 217 255
191 217 255
191 217 255
191 217 255
191 217 255
191 217 255
191 217 255
191 217 255
191 217 255
191 217 255
191 217 255
191 217 255
191 217 255
191 217 255
191 217 255
191 217 255
191 217 255
191 217 255
191 217 255
191 217 255
191 217 255
191 217 255
191 217 255
191 217 255
191 217 255
190 216 255
191 217 255
191 217 255
191 217 255
191 217 255
191 217 255
190 216 255
191 217 255
78 94 118
60 72 89
63 79 104
57 70 89
49 61 79
51 64 84
63 79 102
62 78 102
63 76 96
61 75 96
62 75 96
64 77 96
57 70 89
50 64 85
55 69 89
64 75 92
66 81 104
62 74 92
51 66 88
58 70 89
65 81 104
55 67 85
71 86 108
60 72 90
79 94 115
60 77 102
53 65 83
69 85 108
56 69 89
46 58 76
53 66 86
68 82 102
60 72 91
51 65 86
62 79 104
66 83 108
67 81 102
62 73 89
55 68 89
52 63 80
61 77 102
74 90 115
63 76 96
65 81 105
73 87 108
68 82 102
58 73 96
53 66 84
68 82 102
57 67 83
53 67 89
51 63 83
59 74 96
75 93 121
68 83 105
71 86 108
60 73 92
47 62 83
73 90 115
65 77 96
67 81 102
43 56 76
62 75 96
64 79 102
47 60 80
61 77 102
39 50 67
80 97 121
56 72 96
65 80 102
51 64 83
55 66 83
65 77 96
60 77 102
67 81 102
64 76 96
67 84 108
56 68 84
70 85 108
55 69 89
51 61 76
77 92 115
57 71 92
79 96 121
51 63 80
56 72 96
63 79 102
65 77 96
57 70 89
72 86 108
58 73 96
54 69 91
65 77 96
65 80 102
74 87 108
49 63 83
57 73 96
64 79 102
61 75 96
69 87 115
70 86 110
67 84 110
67 81 102
61 78 102
61 78 102
54 66 84
67 84 108
63 76 96
65 80 102
61 74 92
69 85 108
54 69 92
69 87 115
65 77 96
65 77 96
59 73 96
66 83 108
61 74 92
57 73 97
52 66 86
64 79 102
62 78 102
41 51 65
62 78 102
71 86 108
66 83 108
62 76 97
64 79 102
69 87 115
73 90 115
191 217 255
190 216 255
191 217 255
191 217 255
191 217 255
190 216 255
191 217 255
191 217 255
191 217 255
191 217 255
191 217 255
191 217 255
191 217 255
191 217 255
191 217 255
191 217 255
191 217 255
191 217 255
191 217 255
191 217 255
191 217 255
191 217 255
191 217 255
191 217 255
191 217 255
191 217 255
191 217 255
191 217 255
191 217 255
191 217 255
191 217 255
191 217 255
191 217 255
191 217 255
191 217 255
191 217 255
191 217 255
191 217 255
191 217 255
191 217 255
191 217 255
191 217 255
191 217 255
191 217 255
191 217 255
191 217 255
191 217 255
191 217 255
191 217 255
191 217 255
191 217 255
191 217 255
191 217 255
191 217 255
191 217 255
191 217 255
191 217 255
191 217 255
191 217 255
191 217 255
191 217 255
191 217 255
191 217 255
191 217 255
191 217 255
191 217 255
191 217 255
191 217 255
191 217 255
191 217 255
191 217 255
191 217 255
191 217 255
191 217 255
191 217 255
191 217 255
191 217 255
191 217 255
191 217 255
191 217 255
191 217 255
191 217 255
191 217 255
191 217 255
191 217 255
191 217 255
191 217 255
191 217 255
191 217 255
191 217 255
191 217 255
191 217 255
191 217 255
191 217 255
191 217 255
191 217 255
191 217 255
191 217 255
191 217 255
191 217 255
191 217 255
191 217 255
191 217 255
191 217 255
191 217 255
191 217 255
191 217 255
191 217 255
191 217 255
191 217 255
191 217 255
191 217 255
191 217 255
191 217 255
191 217 255
191 217 255
191 217 255
191 217 255
191 217 255
191 217 255
191 217 255
191 217 255
191 217 255
191 217 255
191 217 255
191 217 255
191 217 255
191 217 255
191 217 255
191 217 255
191 217 255
191 217 255
191 217 255
191 217 255
191 217 255
191 217 255
191 217 255
191 217 255
191 217 255
191 217 255
191 217 255
191 217 255
191 217 255
191 217 255
191 217 255
191 217 255
191 217 255
191 217 255
191 217 255
191 217 255
191 217 255
191 217 255
191 217 255
191 217 255
191 217 255
191 217 255
191 217 255
191 217 255
191 217 255
191 217 255
191 217 255
191 217 255
191 217 255
191 217 255
191 217 255
191 217 255
191 217 255
191 217 255
191 217 255
191 217 255
191 217 255
191 217 255
191 217 255
191 217 255
191 217 255
191 217 255
191 217 255
191 217 255
191 217 255
191 217 255
191 217 255
191 217 255
191 217 255
191 217 255
191 217 255
191 217 255
191 217 255
191 217 255
191 217 255
191 217 255
191 217 255
191 217 255
191 217 255
191 217 255
191 217 255
191 217 255
191 217 255
191 217 255
191 217 255
191 217 255
191 217 255
191 217 255
191 217 255
191 217 255
191 217 255
191 217 255
191 217 255
191 217 255
191 217 255
191 217 255
191 217 255
191 217 255
191 217 255
191 217 255
191 217 255
191 217 255
191 217 255
191 217 255
191 217 255
191 217 255
191 217 255
191 217 255
191 217 255
191 217 255
191 217 255
191 217 255
191 217 255
191 217 255
191 217 255
191 217 255
191 217 255
191 217 255
191 217 255
191 217 255
191 217 255
191 217 255
191 217 255
191 217 255
191 217 255
191 217 255
191 217 255
191 217 255
191 217 255
191 217 255
191 217 255
191 217 255
191 217 255
191 217 255
191 217 255
191 217 255
191 217 255
191 217 255
191 217 255
191 217 255
191 217 255
191 217 255
191 217 255
191 217 255
191 217 255
191 217 255
191 217 255
191 217 255
191 217 255
191 217 255
191 217 255
191 217 255
191 217 255
191 217 255
191 217 255
191 217 255
60 77 104
60 74 96
73 92 121
69 85 108
64 78 99
73 89 115
55 68 89
50 63 83
67 82 105
74 87 105
71 89 115
67 84 108
58 73 96
58 73 96
68 82 102
53 68 91
61 76 97
39 49 65
69 84 108
59 75 99
81 100 128
59 74 96
62 75 96
58 71 90
66 80 102
61 75 96
62 78 102
65 80 102
60 74 96
68 81 102
57 75 102
72 91 121
63 78 102
57 70 89
42 54 72
54 68 89
56 68 84
57 73 96
71 86 108
51 64 83
63 77 99
71 88 115
55 66 83
60 77 102
70 85 108
55 69 89
66 79 99
51 64 84
60 74 96
60 74 96
73 90 115
59 72 91
55 68 89
62 81 108
65 80 102
61 75 96
66 80 102
69 84 108
55 66 83
72 89 115
56 68 86
72 87 108
61 75 96
62 78 102
62 78 102
65 82 108
58 69 86
62 78 102
62 74 92
63 76 96
72 87 108
67 83 108
63 76 97
63 79 102
63 79 102
57 71 92
54 68 89
56 68 86
70 88 115
66 83 108
69 83 105
66 80 102
59 72 91
62 76 99
53 65 83
61 75 97
66 80 102
78 95 121
64 79 102
73 90 115
72 89 115
66 79 97
48 61 80
74 90 115
57 71 92
63 77 99
56 70 91
64 82 108
51 65 86
74 93 121
74 91 115
53 66 86
70 83 104
56 68 86
48 62 83
64 79 102
55 69 89
57 72 96
66 80 102
58 70 89
63 76 96
67 81 102
65 80 102
67 83 108
58 73 96
70 86 108
61 75 96
51 66 89
69 85 108
66 83 108
42 50 64
54 64 80
40 52 70
69 85 108
68 84 108
74 90 115
49 63 84
69 85 108
48 62 83
98 115 140
191 217 255
191 217 255
191 217 255
191 217 255
191 217 255
191 217 255
191 217 255
191 217 255
191 217 255
191 217 255
191 217 255
191 217 255
191 217 255
191 217 255
191 217 255
191 217 255
191 217 255
191 217 255
191 217 255
191 217 255
191 217 255
191 217 255
191 217 255
191 217 255
191 217 255
191 217 255
191 217 255
191 217 255
191 217 255
191 217 255
191 217 255
191 217 255
191 217 255
191 217 255
191 217 255
191 217 255
191 217 255
191 217 255
191 217 255
191 217 255
191 217 255
191 217 255
191 217 255
191 217 255
191 217 255
191 217 255
191 217 255
191 217 255
191 217 255
191 217 255
191 217 255
191 217 255
191 217 255
191 217 255
191 217 255
191 217 255
191 217 255
191 217 255
191 217 255
191 217 255
191 217 255
191 217 255
191 217 255
191 217 255
191 217 255
191 217 255
191 217 255
191 217 255
191 217 255
191 217 255
191 217 255
191 217 255
191 217 255
191 217 255
191 217 255
191 217 255
191 217 255
191 217 255
191 217 255
191 217 255
191 217 255
191 217 255
191 217 255
191 217 255
191 217 255
191 217 255
191 217 255
191 217 255
191 217 255
191 217 255
191 217 255
191 217 255
191 217 255
191 217 255
191 217 255
191 217 255
191 217 255
191 217 255
191 217 255
191 217 255
191 217 255
191 217 255
191 217 255
191 217 255
191 217 255
191 217 255
191 217 255
191 217 255
191 217 255
191 217 255
191 217 255
191 217 255
191 217 255
191 217 255
191 217 255
191 217 255
191 217 255
191 217 255
191 217 255
191 217 255
191 217 255
191 217 255
191 217 255
191 217 255
191 217 255
191 217 255
191 217 255
191 217 255
191 217 255
191 217 255
191 217 255
191 217 255
191 217 255
191 217 255
191 217 255
192 217 255
191 217 255
191 217 255
192 217 255
192 217 255
191 217 255
191 217 255
191 217 255
192 217 255
191 217 255
192 217 255
192 217 255
192 217 255
191 217 255
192 217 255
191 217 255
192 217 255
192 217 255
192 217 255
192 217 255
191 217 255
191 217 255
191 217 255
191 217 255
191 217 255
191 217 255
191 217 255
191 217 255
191 217 255
191 217 255
191 217 255
191 217 255
192 217 255
191 217 255
191 217 255
192 217 255
191 217 255
192 217 255
191 217 255
192 217 255
191 217 255
191 217 255
191 217 255
192 217 255
191 217 255
192 217 255
191 217 255
191 217 255
191 217 255
192 217 255
191 217 255
192 217 255
191 217 255
191 217 255
192 217 255
192 217 255
192 217 255
192 217 255
192 217 255
191 217 255
191 217 255
191 217 255
191 217 255
192 217 255
192 217 255
192 217 255
192 217 255
191 217 255
192 217 255
191 217 255
192 217 255
192 217 255
192 217 255
192 217 255
192 217 255
191 217 255
191 217 255
192 217 255
192 217 255
191 217 255
191 217 255
191 217 255
192 217 255
192 217 255
191 217 255
191 217 255
192 217 255
192 217 255
192 217 255
192 217 255
192 217 255
191 217 255
191 217 255
191 217 255
191 217 255
191 217 255
191 217 255
191 217 255
191 217 255
191 217 255
191 217 255
191 217 255
191 217 255
192 217 255
191 217 255
192 217 255
192 217 255
192 217 255
192 217 255
192 217 255
191 217 255
192 217 255
191 217 255
192 217 255
192 217 255
192 217 255
191 217 255
191 217 255
191 217 255
192 217 255
191 217 255
192 217 255
192 217 255
192 217 255
191 217 255
192 217 255
192 217 255
191 217 255
192 217 255
191 217 255
191 217 255
191 217 255
192 217 255
192 217 255
191 217 255
73 87 109
56 68 86
64 79 102
64 79 102
61 73 92
60 75 97
62 75 96
64 79 102
58 71 91
51 64 83
58 71 91
65 78 97
69 85 108
53 65 83
76 91 115
60 72 91
75 93 121
60 72 89
53 65 83
68 84 108
41 53 72
51 64 83
65 79 99
58 73 96
56 70 92
50 61 78
70 85 108
63 76 96
63 79 102
64 79 102
58 73 96
63 81 108
68 84 108
49 63 83
71 86 108
66 80 102
70 85 108
61 78 102
71 88 115
63 76 96
64 77 97
69 84 106
51 64 84
45 57 76
66 80 102
69 85 108
72 87 108
70 88 115
75 93 121
72 89 115
59 73 96
58 73 96
62 78 102
55 67 86
55 71 94
66 83 108
61 76 99
63 76 96
50 62 81
61 73 91
63 79 102
64 79 102
50 60 75
55 71 96
53 63 78
75 89 110
57 73 96
52 63 80
56 69 89
72 86 108
71 89 115
49 63 83
68 84 108
61 75 96
63 76 97
54 69 91
46 58 75
62 75 96
69 85 108
54 66 83
64 82 108
78 93 115
62 78 102
60 72 89
54 69 92
67 83 108
61 75 96
64 79 102
81 97 121
54 67 86
83 98 121
62 76 96
64 82 108
56 69 89
70 85 108
53 68 89
61 75 97
63 77 97
70 85 108
57 74 99
44 55 70
58 72 92
67 81 102
72 86 108
66 83 108
39 49 64
61 72 89
69 85 108
70 85 108
61 77 102
72 89 115
52 64 83
75 91 115
62 79 104
62 76 97
59 73 96
61 74 92
48 60 78
58 68 84
65 79 99
59 76 102
71 87 112
52 65 84
68 82 104
73 87 108
61 75 96
64 79 102
59 74 97
56 71 92
105 121 147
192 217 255
192 217 255
191 217 255
192 217 255
191 217 255
191 217 255
191 217 255
191 217 255
191 217 255
191 217 255
191 217 255
192 217 255
191 217 255
192 217 255
192 217 255
191 217 255
191 217 255
191 217 255
192 217 255
191 217 255
191 217 255
191 217 255
191 217 255
191 217 255
191 217 255
191 217 255
191 217 255
192 217 255
192 217 255
191 217 255
192 217 255
192 217 255
191 217 255
192 217 255
191 217 255
192 217 255
191 217 255
192 217 255
191 217 255
192 217 255
192 217 255
191 217 255
191 217 255
192 217 255
191 217 255
191 217 255
192 217 255
191 217 255
192 217 255
191 217 255
191 217 255
192 217 255
192 217 255
192 217 255
192 217 255
192 217 255
191 217 255
192 217 255
192 217 255
191 217 255
192 217 255
191 217 255
191 217 255
191 217 255
192 217 255
192 217 255
191 217 255
192 217 255
191 217 255
191 217 255
192 217 255
192 217 255
191 217 255
191 217 255
191 217 255
192 217 255
192 217 255
191 217 255
192 217 255
192 217 255
191 217 255
191 217 255
191 217 255
192 217 255
191 217 255
192 217 255
192 217 255
191 217 255
192 217 255
191 217 255
191 217 255
191 217 255
192 217 255
192 217 255
192 217 255
192 217 255
191 217 255
192 217 255
191 217 255
191 217 255
191 217 255
192 217 255
192 217 255
191 217 255
192 217 255
191 217 255
191 217 255
192 217 255
191 217 255
192 217 255
192 217 255
192 217 255
192 217 255
192 217 255
191 217 255
191 217 255
191 217 255
192 217 255
192 217 255
192 217 255
191 217 255
191 217 255
191 217 255
192 217 255
192 217 255
192 217 255
191 217 255
192 217 255
191 217 255
192 217 255
192 217 255
191 217 255
191 217 255
192 217 255
192 217 255
192 217 255
192 217 255
192 217 255
192 217 255
192 217 255
192 217 255
192 217 255
192 217 255
192 217 255
192 217 255
192 217 255
192 217 255
192 217 255
192 217 255
192 217 255
192 217 255
192 217 255
192 217 255
192 217 255
192 217 255
192 217 255
192 217 255
192 217 255
192 217 255
192 217 255
192 217 255
192 217 255
192 217 255
192 217 255
192 217 255
192 217 255
192 217 255
192 217 255
192 217 255
192 217 255
192 217 255
192 217 255
192 217 255
192 217 255
192 217 255
192 217 255
192 217 255
192 217 255
192 217 255
192 217 255
192 217 255
192 217 255
192 217 255
192 217 255
192 217 255
192 217 255
192 217 255
192 217 255
192 217 255
192 217 255
192 217 255
192 217 255
192 217 255
192 217 255
192 217 255
192 217 255
192 217 255
192 217 255
192 217 255
192 217 255
192 217 255
192 217 255
192 217 255
192 217 255
192 217 255
192 217 255
192 217 255
192 217 255
192 217 255
192 217 255
192 217 255
192 217 255
192 217 255
192 217 255
192 217 255
192 217 255
192 217 255
192 217 255
192 217 255
192 217 255
192 217 255
192 217 255
192 217 255
192 217 255
192 217 255
192 217 255
192 217 255
192 217 255
192 217 255
192 217 255
192 217 255
192 217 255
192 217 255
192 217 255
192 217 255
192 217 255
192 217 255
192 217 255
192 217 255
192 217 255
192 217 255
192 217 255
192 217 255
192 217 255
192 217 255
192 217 255
192 217 255
192 217 255
192 217 255
192 217 255
192 217 255
192 217 255
192 217 255
192 217 255
192 217 255
192 217 255
192 217 255
192 217 255
192 217 255
192 217 255
192 217 255
192 217 255
192 217 255
192 217 255
192 217 255
192 217 255
192 217 255
192 217 255
192 217 255
192 217 255
59 74 97
53 70 96
54 68 89
66 86 115
60 74 96
66 80 102
58 70 89
61 75 96
75 91 115
61 74 92
77 90 108
65 76 92
61 78 102
42 53 68
69 84 108
44 57 75
59 72 91
58 72 92
61 75 96
63 78 102
61 75 96
70 88 115
51 64 83
64 79 102
74 90 115
70 85 108
56 67 84
43 54 70
57 70 89
48 60 78
68 82 102
75 91 115
56 69 89
65 80 104
61 75 96
69 85 108
55 68 89
70 85 108
55 65 80
67 80 99
75 91 115
62 75 96
56 69 89
57 71 92
61 75 96
67 81 102
56 69 89
63 80 105
54 67 86
70 84 105
67 81 102
51 62 80
60 75 96
59 76 102
66 85 115
61 78 102
63 78 100
63 77 98
60 74 96
55 69 89
72 87 108
69 85 108
66 81 102
65 82 108
58 70 89
67 82 105
68 84 108
62 78 102
67 83 108
58 76 102
55 68 86
55 69 89
55 69 89
52 64 83
75 89 108
65 80 102
71 88 115
67 81 102
65 80 102
55 66 83
72 88 112
68 84 108
68 87 115
54 67 86
54 66 83
48 60 79
53 63 77
61 75 96
70 86 108
58 73 96
56 68 86
53 63 80
62 77 99
60 74 96
57 70 89
63 78 102
61 75 96
59 74 96
66 83 108
54 69 91
77 92 115
62 76 96
52 64 83
79 96 121
68 81 102
50 62 80
70 85 108
65 83 108
57 70 89
59 74 96
72 89 115
69 85 108
67 84 108
52 65 84
71 86 108
68 84 108
66 83 108
62 73 91
71 89 115
65 83 108
65 77 96
68 83 105
61 77 102
56 72 96
49 63 83
61 77 102
71 86 108
60 72 89
55 68 88
68 79 97
192 217 255
192 217 255
192 217 255
192 217 255
192 217 255
192 217 255
192 217 255
192 217 255
192 217 255
192 217 255
192 217 255
192 217 255
192 217 255
192 217 255
192 217 255
192 217 255
192 217 255
192 217 255
192 217 255
192 217 255
192 217 255
192 217 255
192 217 255
192 217 255
192 217 255
192 217 255
192 217 255
192 217 255
192 217 255
192 217 255
192 217 255
192 217 255
192 217 255
192 217 255
192 217 255
192 217 255
192 217 255
192 217 255
192 217 255
192 217 255
192 217 255
192 217 255
192 217 255
192 217 255
192 217 255
192 217 255
192 217 255
192 217 255
192 217 255
192 217 255
192 217 255
192 217 255
192 217 255
192 217 255
192 217 255
192 217 255
192 217 255
192 217 255
192 217 255
192 217 255
192 217 255
192 217 255
192 217 255
192 217 255
192 217 255
192 217 255
192 217 255
192 217 255
192 217 255
192 217 255
192 217 255
192 217 255
192 217 255
192 217 255
192 217 255
192 217 255
192 217 255
192 217 255
192 217 255
192 217 255
192 217 255
192 217 255
192 217 255
192 217 255
192 217 255
192 217 255
192 217 255
192 217 255
192 217 255
192 217 255
192 217 255
192 217 255
192 217 255
192 217 255
192 217 255
192 217 255
192 217 255
192 217 255
192 217 255
192 217 255
192 217 255
192 217 255
192 217 255
192 217 255
192 217 255
192 217 255
192 217 255
192 217 255
192 217 255
192 217 255
192 217 255
192 217 255
192 217 255
192 217 255
192 217 255
192 217 255
192 217 255
192 217 255
192 217 255
192 217 255
192 217 255
192 217 255
192 217 255
192 217 255
192 217 255
192 217 255
192 217 255
192 217 255
192 217 255
192 217 255
192 217 255
192 217 255
192 217 255
192 217 255
192 217 255
192 217 255
192 217 255
192 217 255
192 217 255
192 217 255
192 217 255
192 217 255
192 217 255
192 217 255
192 217 255
192 217 255
192 217 255
192 217 255
192 217 255
192 217 255
192 217 255
192 217 255
192 217 255
192 217 255
192 217 255
192 217 255
192 217 255
192 217 255
192 217 255
192 217 255
192 217 255
192 217 255
192 217 255
192 217 255
192 218 255
192 217 255
192 217 255
192 217 255
192 217 255
192 217 255
192 217 255
192 217 255
192 217 255
192 217 255
192 217 255
192 218 255
192 217 255
192 218 255
192 217 255
192 218 255
192 217 255
192 218 255
192 217 255
192 218 255
192 218 255
192 218 255
192 218 255
192 218 255
192 218 255
192 217 255
192 218 255
192 218 255
192 218 255
192 217 255
192 218 255
192 218 255
192 218 255
192 218 255
192 218 255
192 218 255
192 218 255
192 218 255
192 218 255
192 218 255
192 218 255
192 218 255
192 218 255
192 218 255
192 218 255
192 218 255
192 218 255
192 218 255
192 218 255
192 218 255
192 218 255
192 218 255
192 218 255
192 218 255
192 218 255
192 218 255
192 218 255
192 218 255
192 218 255
192 218 255
192 218 255
192 218 255
192 218 255
192 218 255
192 218 255
192 218 255
192 218 255
192 218 255
192 218 255
192 218 255
192 218 255
192 218 255
192 218 255
192 218 255
192 218 255
192 218 255
192 218 255
192 218 255
192 218 255
192 218 255
192 218 255
192 218 255
192 218 255
192 218 255
192 218 255
192 218 255
192 218 255
192 218 255
192 218 255
192 218 255
192 218 255
192 218 255
192 218 255
192 218 255
192 218 255
192 218 255
192 218 255
192 218 255
192 218 255
192 218 255
192 218 255
193 218 255
192 218 255
192 218 255
192 218 255
192 218 255
57 71 92
43 53 68
60 72 91
63 76 96
46 59 78
55 69 89
62 78 102
73 87 108
57 70 89
62 78 102
75 88 108
65 78 99
67 83 108
67 84 108
58 73 96
49 60 78
63 77 97
69 85 108
71 89 115
64 79 102
65 80 102
44 53 66
56 72 96
67 81 102
74 91 115
66 83 108
54 66 83
69 85 108
47 59 76
52 63 80
62 75 96
58 73 96
54 68 89
60 75 97
62 76 96
65 80 104
68 84 108
61 72 89
57 70 89
73 86 105
55 69 89
63 77 99
76 91 115
65 80 102
73 87 108
56 69 89
65 80 102
67 84 108
64 79 102
65 80 102
45 56 73
66 80 102
71 88 115
65 79 102
69 88 116
66 80 102
54 66 86
50 62 81
64 79 102
60 74 96
62 75 96
61 75 96
61 75 97
58 73 96
48 62 83
56 69 89
52 66 86
52 65 84
56 68 86
57 72 96
57 71 92
61 76 97
60 71 89
73 89 112
53 68 91
54 68 89
61 78 102
57 70 89
58 71 89
57 73 96
68 82 102
68 84 108
59 74 96
69 82 102
45 59 80
53 66 84
58 70 89
45 58 76
59 70 86
59 74 96
46 56 70
45 58 77
60 74 96
61 75 96
61 75 96
49 61 78
44 54 68
49 65 89
62 76 96
58 76 102
72 87 108
64 75 92
66 79 99
68 84 108
60 74 96
58 69 86
62 75 96
67 81 102
54 65 83
59 74 96
62 73 89
66 83 108
51 62 80
51 63 81
68 81 102
67 81 102
66 80 102
66 80 102
66 80 102
55 70 92
74 90 115
52 67 89
53 68 89
70 86 108
62 78 102
70 84 104
58 69 86
57 68 84
75 91 115
52 65 86
193 218 255
193 218 255
193 218 255
192 218 255
192 218 255
192 218 255
192 218 255
192 218 255
192 218 255
192 218 255
192 218 255
192 218 255
192 218 255
192 218 255
192 218 255
192 218 255
192 218 255
192 218 255
192 218 255
192 218 255
192 218 255
192 218 255
192 218 255
192 218 255
192 218 255
192 218 255
192 218 255
192 218 255
192 218 255
192 218 255
192 218 255
192 218 255
192 218 255
192 218 255
192 218 255
192 218 255
192 218 255
192 218 255
192 218 255
192 218 255
192 218 255
192 218 255
192 218 255
192 218 255
192 218 255
192 218 255
192 218 255
192 218 255
192 218 255
192 218 255
192 218 255
192 218 255
192 218 255
192 218 255
192 218 255
192 218 255
192 218 255
192 218 255
192 218 255
192 218 255
192 218 255
192 218 255
192 218 255
192 218 255
192 218 255
192 218 255
192 218 255
192 218 255
192 218 255
192 218 255
192 218 255
192 218 255
192 218 255
192 218 255
192 218 255
192 218 255
192 218 255
192 218 255
192 218 255
192 218 255
192 218 255
192 218 255
192 218 255
192 218 255
192 218 255
192 218 255
192 218 255
192 218 255
192 218 255
192 217 255
192 217 255
192 218 255
192 217 255
192 217 255
192 217 255
192 217 255
192 217 255
192 218 255
192 218 255
192 217 255
192 217 255
192 217 255
192 217 255
192 217 255
192 217 255
192 217 255
192 217 255
192 217 255
192 217 255
192 217 255
192 217 255
192 217 255
192 217 255
192 217 255
192 217 255
192 217 255
192 217 255
192 217 255
192 217 255
192 217 255
192 217 255
192 217 255
192 217 255
192 217 255
192 217 255
192 217 255
192 217 255
192 217 255
192 217 255
192 217 255
192 217 255
192 217 255
192 217 255
192 217 255
192 217 255
192 218 255
192 218 255
192 218 255
192 218 255
192 218 255
192 218 255
192 218 255
192 218 255
192 218 255
192 218 255
192 218 255
192 218 255
192 218 255
192 218 255
192 218 255
192 218 255
192 218 255
192 218 255
192 218 255
192 218 255
192 218 255
192 218 255
192 218 255
192 218 255
192 218 255
192 218 255
192 218 255
192 218 255
192 218 255
192 218 255
192 218 255
192 218 255
192 218 255
192 218 255
192 218 255
192 218 255
192 218 255
192 218 255
192 218 255
192 218 255
192 218 255
192 218 255
192 218 255
192 218 255
193 218 255
192 218 255
193 218 255
192 218 255
192 218 255
193 218 255
193 218 255
193 218 255
193 218 255
193 218 255
193 218 255
193 218 255
193 218 255
193 218 255
193 218 255
193 218 255
193 218 255
193 218 255
193 218 255
193 218 255
193 218 255
193 218 255
193 218 255
193 218 255
193 218 255
193 218 255
193 218 255
193 218 255
193 218 255
193 218 255
193 218 255
193 218 255
193 218 255
193 218 255
193 218 255
193 218 255
193 218 255
193 218 255
193 218 255
193 218 255
193 218 255
193 218 255
193 218 255
193 218 255
193 218 255
193 218 255
193 218 255
193 218 255
193 218 255
193 218 255
193 218 255
193 218 255
193 218 255
193 218 255
193 218 255
193 218 255
193 218 255
193 218 255
193 218 255
193 218 255
193 218 255
193 218 255
193 218 255
193 218 255
193 218 255
193 218 255
193 218 255
193 218 255
193 218 255
193 218 255
193 218 255
193 218 255
193 218 255
193 218 255
193 218 255
193 218 255
193 218 255
193 218 255
193 218 255
193 218 255
193 218 255
193 218 255
193 218 255
193 218 255
193 218 255
193 218 255
193 218 255
193 218 255
193 218 255
193 218 255
193 218 255
85 102 128
69 85 108
62 76 96
62 76 96
59 72 92
60 74 96
55 69 89
61 80 108
49 61 78
55 71 96
75 94 121
66 81 102
49 61 80
61 78 102
60 77 102
66 83 108
69 87 115
56 70 92
67 81 102
70 84 105
64 77 96
61 75 96
61 72 89
63 76 96
53 66 84
53 65 83
64 77 97
52 64 83
72 85 105
58 70 89
58 73 96
72 86 108
67 83 105
58 73 96
59 72 91
61 75 96
67 81 102
62 76 96
69 87 115
80 97 121
58 71 89
66 82 105
67 81 102
63 76 96
66 79 97
63 78 102
79 93 115
49 62 81
67 83 108
45 58 76
64 79 102
69 82 102
54 66 83
57 68 84
50 63 83
56 69 89
72 86 108
74 93 121
65 82 108
71 86 110
67 83 108
64 77 97
70 85 108
54 68 89
49 62 83
51 64 83
64 79 102
53 65 83
66 81 102
66 80 102
62 75 96
61 77 102
79 96 121
72 89 115
53 66 86
67 81 102
62 75 96
53 64 80
75 89 110
76 91 115
44 55 72
39 50 66
64 77 96
57 70 90
60 74 96
61 78 102
53 66 86
56 72 96
76 91 115
55 66 83
60 75 97
61 76 97
67 81 102
67 81 102
52 65 84
68 84 108
52 62 77
49 60 76
68 81 102
60 73 92
69 85 108
63 76 96
63 78 102
44 55 72
53 65 81
64 79 102
62 75 96
60 74 96
53 66 85
51 64 83
59 71 91
48 62 83
60 74 96
54 65 81
64 79 102
61 75 96
56 72 96
60 77 102
55 67 84
67 81 102
62 76 96
58 73 96
60 72 89
57 70 89
64 81 108
49 60 76
68 81 102
57 70 89
67 81 102
69 82 102
193 218 255
193 218 255
193 218 255
193 218 255
193 218 255
193 218 255
193 218 255
193 218 255
193 218 255
193 218 255
193 218 255
193 218 255
193 218 255
193 218 255
193 218 255
193 218 255
193 218 255
193 218 255
193 218 255
193 218 255
193 218 255
193 218 255
193 218 255
193 218 255
193 218 255
193 218 255
193 218 255
193 218 255
193 218 255
193 218 255
193 218 255
193 218 255
193 218 255
193 218 255
193 218 255
193 218 255
193 218 255
193 218 255
193 218 255
193 218 255
193 218 255
193 218 255
193 218 255
193 218 255
193 218 255
193 218 255
193 218 255
193 218 255
193 218 255
193 218 255
193 218 255
193 218 255
193 218 255
193 218 255
193 218 255
193 218 255
193 218 255
193 218 255
193 218 255
193 218 255
193 218 255
193 218 255
193 218 255
193 218 255
193 218 255
193 218 255
193 218 255
193 218 255
193 218 255
193 218 255
193 218 255
193 218 255
193 218 255
193 218 255
193 218 255
193 218 255
193 218 255
193 218 255
193 218 255
193 218 255
193 218 255
193 218 255
193 218 255
193 218 255
193 218 255
193 218 255
193 218 255
192 218 255
192 218 255
193 218 255
193 218 255
193 218 255
192 218 255
192 218 255
192 218 255
192 218 255
192 218 255
192 218 255
192 218 255
192 218 255
192 218 255
192 218 255
192 218 255
192 218 255
192 218 255
192 218 255
192 218 255
192 218 255
192 218 255
192 218 255
192 218 255
192 218 255
192 218 255
192 218 255
192 218 255
192 218 255
192 218 255
192 218 255
192 218 255
192 218 255
192 218 255
192 218 255
192 218 255
192 218 255
192 218 255
192 218 255
192 218 255
192 218 255
192 218 255
192 218 255
192 218 255
192 218 255
192 218 255
192 218 255
192 218 255
193 218 255
193 218 255
193 218 255
193 218 255
193 218 255
193 218 255
193 218 255
193 218 255
193 218 255
193 218 255
193 218 255
193 218 255
193 218 255
193 218 255
193 218 255
193 218 255
193 218 255
193 218 255
193 218 255
193 218 255
193 218 255
193 218 255
193 218 255
193 218 255
193 218 255
193 218 255
193 218 255
193 218 255
193 218 255
193 218 255
193 218 255
193 218 255
193 218 255
193 218 255
193 218 255
193 218 255
193 218 255
193 218 255
193 218 255
193 218 255
193 218 255
193 218 255
193 218 255
193 218 255
193 218 255
193 218 255
193 218 255
193 218 255
193 218 255
193 218 255
193 218 255
193 218 255
193 218 255
193 218 255
193 218 255
193 218 255
193 218 255
193 218 255
193 218 255
193 218 255
193 218 255
193 218 255
193 218 255
193 218 255
193 218 255
193 218 255
193 218 255
193 218 255
193 218 255
193 218 255
193 218 255
193 218 255
193 218 255
193 218 255
193 218 255
193 218 255
193 218 255
193 218 255
193 218 255
193 218 255
193 218 255
193 218 255
193 218 255
193 218 255
193 218 255
193 218 255
193 218 255
193 218 255
193 218 255
193 218 255
193 218 255
193 218 255
193 218 255
193 218 255
193 218 255
193 218 255
193 218 255
193 218 255
193 218 255
193 218 255
193 218 255
193 218 255
193 218 255
193 218 255
193 218 255
193 218 255
193 218 255
193 218 255
193 218 255
193 218 255
193 218 255
193 218 255
193 218 255
193 218 255
193 218 255
193 218 255
193 218 255
193 218 255
193 218 255
193 218 255
193 218 255
193 218 255
193 218 255
193 218 255
193 218 255
193 218 255
193 218 255
193 218 255
193 218 255
193 218 255
193 218 255
193 218 255
193 218 255
193 218 255
193 218 255
66 81 104
66 83 108
59 74 96
52 64 83
72 89 115
67 81 102
69 85 108
50 61 77
57 73 96
62 78 102
55 69 89
47 57 72
56 67 84
68 84 108
58 69 86
60 72 91
52 65 86
55 67 85
57 68 86
60 77 102
62 75 96
42 52 67
55 65 81
61 75 96
54 64 78
67 84 108
61 73 91
65 80 102
62 76 96
58 71 91
74 90 115
67 84 108
54 65 83
63 81 108
56 68 86
69 85 108
53 64 81
60 74 96
56 69 89
68 84 108
60 74 96
51 62 80
65 80 102
65 83 108
62 76 96
73 90 115
58 70 89
68 84 108
61 76 97
68 82 103
49 63 83
65 80 102
50 61 76
67 81 102
63 78 102
70 85 108
54 68 89
51 63 83
59 74 96
59 73 96
67 81 104
54 67 86
55 69 91
55 69 89
60 74 96
68 84 108
68 83 105
65 80 102
53 65 83
69 87 115
53 63 77
48 60 76
48 59 76
68 81 102
59 74 96
57 73 96
63 79 102
56 71 94
63 76 96
55 68 89
61 76 99
46 56 72
71 88 115
55 69 91
54 68 89
66 80 102
60 74 96
71 88 115
66 80 102
46 59 78
69 82 102
58 73 96
66 81 104
57 70 89
66 80 102
64 79 102
50 63 83
66 80 102
63 77 99
66 78 97
62 76 97
58 71 91
65 81 105
50 62 80
59 74 96
63 79 102
68 82 102
65 77 96
60 74 96
62 78 102
62 73 91
61 75 96
66 80 102
56 67 84
59 74 96
54 66 83
60 75 97
56 68 86
59 73 96
62 75 96
50 61 78
55 69 89
58 73 96
60 77 102
70 85 108
57 70 90
66 83 108
56 70 91
63 78 102
67 84 108
193 218 255
193 218 255
193 218 255
193 218 255
193 218 255
193 218 255
194 218 255
193 218 255
193 218 255
193 218 255
193 218 255
193 218 255
193 218 255
193 218 255
193 218 255
193 218 255
193 218 255
193 218 255
193 218 255
193 218 255
193 218 255
193 218 255
193 218 255
193 218 255
193 218 255
193 218 255
193 218 255
193 218 255
193 218 255
193 218 255
193 218 255
193 218 255
193 218 255
193 218 255
193 218 255
193 218 255
193 218 255
193 218 255
193 218 255
193 218 255
193 218 255
193 218 255
193 218 255
193 218 255
193 218 255
193 218 255
193 218 255
193 218 255
193 218 255
193 218 255
193 218 255
193 218 255
193 218 255
193 218 255
193 218 255
193 218 255
193 218 255
193 218 255
193 218 255
193 218 255
193 218 255
193 218 255
193 218 255
193 218 255
193 218 255
193 218 255
193 218 255
193 218 255
193 218 255
193 218 255
193 218 255
193 218 255
193 218 255
193 218 255
193 218 255
193 218 255
193 218 255
193 218 255
193 218 255
193 218 255
193 218 255
193 218 255
193 218 255
193 218 255
193 218 255
193 218 255
193 218 255
193 218 255
193 218 255
193 218 255
193 218 255
193 218 255
193 218 255
193 218 255
193 218 255
193 218 255
193 218 255
193 218 255
193 218 255
193 218 255
193 218 255
193 218 255
193 218 255
193 218 255
193 218 255
193 218 255
193 218 255
193 218 255
193 218 255
193 218 255
193 218 255
193 218 255
193 218 255
193 218 255
193 218 255
193 218 255
193 218 255
193 218 255
193 218 255
193 218 255
193 218 255
193 218 255
193 218 255
193 218 255
193 218 255
193 218 255
193 218 255
193 218 255
193 218 255
193 218 255
193 218 255
193 218 255
193 218 255
193 218 255
193 218 255
193 218 255
193 218 255
193 218 255
193 218 255
193 218 255
193 218 255
193 218 255
193 218 255
193 218 255
193 218 255
193 218 255
193 218 255
193 218 255
193 218 255
193 218 255
193 218 255
193 218 255
193 218 255
193 218 255
193 218 255
193 218 255
193 218 255
193 218 255
193 218 255
193 218 255
193 218 255
193 218 255
193 218 255
193 218 255
193 218 255
193 218 255
193 218 255
193 218 255
193 218 255
193 218 255
193 218 255
193 218 255
193 218 255
193 218 255
193 218 255
193 218 255
193 218 255
193 218 255
193 218 255
193 218 255
193 218 255
193 218 255
193 218 255
193 218 255
193 218 255
193 218 255
193 218 255
193 218 255
193 218 255
193 218 255
193 218 255
193 218 255
193 218 255
193 218 255
193 218 255
193 218 255
193 218 255
193 218 255
193 218 255
193 218 255
193 218 255
193 218 255
193 218 255
193 218 255
193 218 255
193 218 255
193 218 255
193 218 255
193 218 255
193 218 255
193 218 255
193 218 255
193 218 255
193 218 255
193 218 255
193 218 255
193 218 255
193 218 255
193 218 255
193 218 255
193 218 255
193 218 255
194 218 255
194 218 255
194 218 255
194 218 255
194 218 255
194 218 255
194 218 255
194 218 255
194 218 255
194 218 255
194 218 255
194 218 255
194 218 255
194 218 255
194 218 255
194 218 255
194 218 255
194 218 255
194 218 255
194 218 255
194 218 255
194 218 255
194 218 255
194 218 255
194 218 255
194 218 255
194 218 255
194 218 255
194 218 255
194 218 255
194 219 255
194 218 255
194 218 255
194 218 255
194 219 255
194 219 255
194 218 255
194 219 255
194 219 255
194 219 255
194 219 255
194 219 255
194 219 255
194 219 255
194 219 255
194 219 255
194 219 255
194 219 255
88 106 134
57 70 91
52 64 83
76 92 115
66 80 102
37 46 60
60 77 102
71 86 108
64 79 102
54 66 83
70 86 108
56 71 92
67 83 108
63 79 102
62 78 102
59 74 96
56 70 91
70 85 108
70 83 102
54 68 90
61 75 96
54 68 89
49 59 75
70 88 115
56 69 89
69 87 115
54 68 89
69 81 99
46 61 83
67 81 102
55 67 86
60 74 96
65 80 102
57 68 84
56 68 86
56 69 89
78 95 121
63 79 102
56 71 92
57 72 96
55 66 83
69 82 102
59 72 92
63 77 97
68 84 108
61 78 102
45 56 72
57 70 89
74 90 115
55 68 89
63 77 99
58 76 102
82 100 128
47 59 78
65 80 102
56 68 86
70 85 108
58 70 89
67 83 108
46 58 76
69 85 108
64 77 96
55 68 86
44 55 72
58 69 86
53 67 89
60 74 96
66 80 102
64 79 102
57 74 99
60 74 96
79 93 115
63 76 96
59 76 102
60 74 96
63 76 96
52 65 84
62 78 102
65 78 97
62 77 99
55 67 86
65 82 108
50 61 78
63 81 108
47 59 78
64 76 96
60 74 96
71 84 104
45 58 76
62 77 99
53 65 83
68 87 115
61 77 102
60 77 102
60 74 96
59 74 96
73 87 108
53 68 89
66 80 102
65 80 102
53 68 89
67 81 102
58 71 89
68 81 102
58 70 89
56 69 89
61 75 96
51 64 84
60 75 97
70 85 108
73 87 108
57 69 86
68 82 102
59 71 91
52 65 83
76 89 108
64 79 102
67 80 99
69 85 108
54 66 84
65 79 102
55 69 91
65 77 96
53 66 84
68 82 104
68 84 108
60 73 92
67 79 97
53 69 92
117 133 156
194 219 255
194 219 255
194 219 255
194 219 255
194 219 255
194 219 255
194 219 255
194 219 255
194 219 255
194 218 255
194 219 255
194 218 255
194 218 255
194 219 255
194 218 255
194 219 255
194 218 255
194 218 255
194 218 255
194 218 255
194 218 255
194 218 255
194 218 255
194 219 255
194 218 255
194 218 255
194 218 255
194 218 255
194 218 255
194 218 255
194 218 255
194 218 255
194 218 255
194 218 255
194 218 255
194 218 255
194 218 255
194 218 255
194 218 255
194 218 255
194 218 255
193 218 255
194 218 255
194 218 255
194 218 255
194 218 255
194 218 255
194 218 255
194 218 255
194 218 255
194 218 255
194 218 255
194 218 255
193 218 255
193 218 255
194 218 255
193 218 255
193 218 255
193 218 255
193 218 255
193 218 255
193 218 255
193 218 255
193 218 255
193 218 255
193 218 255
193 218 255
193 218 255
193 218 255
193 218 255
193 218 255
193 218 255
193 218 255
193 218 255
193 218 255
193 218 255
193 218 255
193 218 255
193 218 255
193 218 255
193 218 255
193 218 255
193 218 255
193 218 255
193 218 255
193 218 255
193 218 255
193 218 255
193 218 255
193 218 255
193 218 255
193 218 255
193 218 255
193 218 255
193 218 255
193 218 255
193 218 255
193 218 255
193 218 255
193 218 255
193 218 255
193 218 255
193 218 255
193 218 255
193 218 255
193 218 255
193 218 255
193 218 255
193 218 255
193 218 255
193 218 255
193 218 255
193 218 255
193 218 255
193 218 255
193 218 255
193 218 255
193 218 255
193 218 255
193 218 255
193 218 255
193 218 255
193 218 255
193 218 255
193 218 255
193 218 255
193 218 255
193 218 255
193 218 255
193 218 255
193 218 255
193 218 255
193 218 255
193 218 255
193 218 255
193 218 255
193 218 255
193 218 255
193 218 255
193 218 255
193 218 255
193 218 255
193 218 255
193 218 255
193 218 255
193 218 255
193 218 255
193 218 255
193 218 255
193 218 255
193 218 255
193 218 255
193 218 255
193 218 255
193 218 255
193 218 255
193 218 255
193 218 255
193 218 255
193 218 255
193 218 255
193 218 255
193 218 255
193 218 255
193 218 255
193 218 255
193 218 255
193 218 255
193 218 255
193 218 255
193 218 255
193 218 255
193 218 255
193 218 255
193 218 255
193 218 255
194 218 255
193 218 255
194 218 255
194 218 255
193 218 255
193 218 255
194 218 255
194 218 255
194 218 255
194 218 255
194 218 255
194 218 255
194 218 255
194 218 255
194 218 255
194 218 255
194 218 255
194 218 255
194 218 255
194 218 255
194 218 255
194 218 255
194 218 255
194 218 255
194 218 255
194 218 255
194 218 255
194 218 255
194 218 255
194 218 255
194 218 255
194 218 255
194 218 255
194 218 255
194 218 255
194 218 255
194 219 255
194 219 255
194 218 255
194 218 255
194 219 255
194 219 255
194 219 255
194 219 255
194 219 255
194 219 255
194 219 255
194 219 255
194 219 255
194 219 255
194 219 255
194 219 255
194 219 255
194 219 255
194 219 255
194 219 255
194 219 255
194 219 255
194 219 255
194 219 255
194 219 255
194 219 255
194 219 255
194 219 255
194 219 255
194 219 255
194 219 255
194 219 255
194 219 255
194 219 255
194 219 255
194 219 255
194 219 255
194 219 255
194 219 255
194 219 255
194 219 255
194 219 255
194 219 255
194 219 255
194 219 255
194 219 255
194 219 255
194 219 255
194 219 255
194 219 255
194 219 255
194 219 255
194 219 255
194 219 255
194 219 255
194 219 255
194 219 255
194 219 255
108 126 153
56 68 86
58 71 91
60 74 96
55 71 96
69 83 105
71 86 108
71 86 108
63 76 96
64 75 92
55 69 89
65 80 102
55 66 83
64 79 102
72 89 115
76 92 115
56 71 92
59 74 96
57 75 102
56 71 92
53 65 84
56 69 88
53 66 84
54 67 86
57 70 89
59 71 91
60 74 96
67 84 108
47 58 73
51 62 80
54 68 89
58 73 96
69 83 104
53 68 89
58 71 89
59 75 99
60 72 90
66 83 108
54 66 84
70 83 104
56 69 89
61 76 99
60 74 96
59 74 96
74 90 115
57 70 89
53 68 91
70 88 115
47 61 83
67 82 105
65 80 102
53 68 90
56 69 89
57 73 96
63 79 102
59 74 97
59 77 104
59 73 96
59 74 96
51 63 80
55 69 89
74 93 121
55 68 88
56 72 96
72 86 108
62 81 108
39 49 66
78 95 121
59 71 89
73 90 115
69 84 105
58 72 92
68 82 102
60 74 96
71 84 105
68 84 108
66 83 108
62 76 97
66 80 102
59 71 89
55 69 89
57 70 89
66 80 102
62 78 102
55 68 88
81 97 121
68 82 104
70 86 108
66 80 102
62 74 92
62 74 91
46 57 73
56 72 96
50 64 84
60 77 102
48 60 78
71 91 121
72 86 108
59 71 89
63 76 96
66 80 102
49 61 78
56 70 91
58 73 96
55 69 89
67 79 97
62 75 96
57 69 86
60 75 97
55 66 83
49 60 76
66 80 102
60 77 102
64 79 102
68 85 110
65 83 109
61 75 96
54 67 86
58 70 89
62 75 96
66 83 108
64 78 99
66 80 102
67 83 108
58 73 96
51 64 83
57 71 92
55 68 86
52 64 83
93 109 134
194 219 255
194 219 255
194 219 255
194 219 255
194 219 255
194 219 255
194 219 255
194 219 255
194 219 255
194 219 255
194 219 255
194 219 255
194 219 255
194 219 255
194 219 255
194 219 255
194 219 255
194 219 255
194 219 255
194 219 255
194 219 255
194 219 255
194 219 255
194 219 255
194 219 255
194 219 255
194 219 255
194 219 255
194 219 255
194 219 255
194 219 255
194 219 255
194 219 255
194 219 255
194 219 255
194 219 255
194 219 255
194 219 255
194 219 255
194 219 255
194 219 255
194 219 255
194 219 255
194 219 255
194 219 255
194 219 255
194 219 255
194 219 255
194 219 255
194 219 255
194 219 255
194 219 255
194 219 255
194 218 255
194 218 255
194 218 255
194 218 255
194 218 255
194 218 255
194 218 255
194 218 255
194 218 255
194 218 255
194 218 255
194 218 255
194 218 255
194 218 255
194 218 255
194 218 255
194 218 255
194 218 255
194 218 255
194 218 255
194 218 255
194 218 255
194 218 255
194 218 255
194 218 255
194 218 255
194 218 255
194 218 255
194 218 255
194 218 255
194 218 255
194 218 255
194 218 255
194 218 255
194 218 255
194 218 255
194 218 255
193 218 255
193 218 255
193 218 255
193 218 255
193 218 255
193 218 255
193 218 255
193 218 255
193 218 255
193 218 255
193 218 255
193 218 255
193 218 255
193 218 255
193 218 255
193 218 255
193 218 255
193 218 255
193 218 255
193 218 255
193 218 255
193 218 255
193 218 255
193 218 255
193 218 255
193 218 255
193 218 255
193 218 255
193 218 255
193 218 255
193 218 255
193 218 255
193 218 255
193 218 255
193 218 255
193 218 255
193 218 255
193 218 255
193 218 255
193 218 255
193 218 255
193 218 255
193 218 255
193 218 255
193 218 255
193 218 255
193 218 255
193 218 255
193 218 255
193 218 255
193 218 255
194 218 255
193 218 255
194 218 255
194 218 255
194 218 255
194 218 255
194 218 255
194 218 255
194 218 255
194 218 255
194 218 255
194 218 255
194 218 255
194 218 255
194 218 255
194 218 255
194 218 255
194 218 255
194 218 255
194 218 255
194 218 255
194 218 255
194 218 255
194 218 255
194 218 255
194 218 255
194 218 255
194 218 255
194 218 255
194 218 255
194 218 255
194 218 255
194 218 255
194 218 255
194 218 255
194 218 255
194 219 255
194 218 255
194 219 255
194 219 255
194 218 255
194 219 255
194 219 255
194 219 255
194 219 255
194 219 255
194 219 255
194 219 255
194 219 255
194 219 255
194 219 255
194 219 255
194 219 255
194 219 255
194 219 255
194 219 255
194 219 255
194 219 255
194 219 255
194 219 255
194 219 255
194 219 255
194 219 255
194 219 255
194 219 255
194 219 255
194 219 255
194 219 255
194 219 255
194 219 255
194 219 255
194 219 255
194 219 255
194 219 255
194 219 255
194 219 255
194 219 255
194 219 255
194 219 255
194 219 255
194 219 255
194 219 255
194 219 255
194 219 255
194 219 255
194 219 255
194 219 255
194 219 255
194 219 255
194 219 255
194 219 255
194 219 255
194 219 255
194 219 255
195 219 255
195 219 255
194 219 255
195 219 255
195 219 255
195 219 255
195 219 255
195 219 255
195 219 255
195 219 255
195 219 255
195 219 255
195 219 255
195 219 255
195 219 255
195 219 255
195 219 255
195 219 255
195 219 255
195 219 255
195 219 255
195 219 255
195 219 255
195 219 255
195 219 255
195 219 255
195 219 255
195 219 255
195 219 255
195 219 255
195 219 255
195 219 255
195 219 255
195 219 255
195 219 255
110 127 153
64 79 102
71 86 108
62 76 96
60 72 89
40 50 65
72 86 108
59 76 102
54 65 81
68 84 108
48 58 73
58 71 89
61 75 96
61 75 96
60 74 96
60 74 96
67 82 104
48 59 76
76 94 121
36 45 59
56 69 89
60 74 96
67 83 107
66 80 102
69 85 108
44 57 76
49 60 77
70 88 115
60 70 86
77 95 121
58 71 91
57 70 89
54 66 84
77 91 112
79 93 115
64 80 102
70 85 108
55 68 87
72 86 108
68 82 102
75 91 116
59 72 92
73 90 115
61 75 96
68 84 108
53 65 83
62 78 102
55 69 89
55 69 89
66 78 97
44 55 72
57 71 92
51 66 89
54 66 83
37 49 68
51 65 86
59 71 89
53 68 89
54 65 83
54 70 92
44 57 77
78 95 121
62 78 102
62 76 96
59 74 96
56 69 88
64 76 96
61 75 96
65 80 102
75 93 121
65 80 102
60 74 96
71 88 115
61 73 91
56 69 89
43 54 72
73 88 110
79 96 121
66 83 109
49 62 83
66 83 108
66 81 104
52 64 83
57 70 89
64 79 102
60 74 96
59 74 96
67 86 115
56 70 91
62 76 96
61 75 97
71 83 102
50 64 84
64 78 99
62 79 104
60 75 96
47 60 80
64 77 96
67 84 108
52 65 83
62 79 104
57 71 92
61 72 89
71 86 108
58 69 86
50 63 83
47 59 77
56 72 96
64 78 99
64 79 102
61 75 96
60 74 96
45 58 76
65 80 102
72 89 115
61 72 89
63 82 112
73 92 121
65 80 102
67 81 102
63 78 102
63 78 102
61 76 97
70 85 108
55 68 89
60 77 102
64 79 102
50 64 84
68 84 108
99 115 140
195 219 255
195 219 255
195 219 255
195 219 255
195 219 255
195 219 255
195 219 255
195 219 255
195 219 255
195 219 255
195 219 255
195 219 255
195 219 255
195 219 255
195 219 255
195 219 255
195 219 255
195 219 255
195 219 255
195 219 255
195 219 255
195 219 255
195 219 255
195 219 255
195 219 255
195 219 255
195 219 255
195 219 255
195 219 255
194 219 255
195 219 255
195 219 255
195 219 255
195 219 255
194 219 255
195 219 255
194 219 255
194 219 255
194 219 255
194 219 255
194 219 255
194 219 255
194 219 255
194 219 255
194 219 255
194 219 255
194 219 255
194 219 255
194 219 255
194 219 255
194 219 255
194 219 255
194 219 255
194 219 255
194 219 255
194 219 255
194 219 255
194 219 255
194 219 255
194 219 255
194 219 255
194 219 255
194 219 255
194 219 255
194 219 255
194 219 255
194 219 255
194 219 255
194 219 255
194 219 255
194 219 255
194 219 255
194 219 255
194 219 255
194 219 255
194 219 255
194 219 255
194 219 255
194 219 255
194 219 255
194 219 255
194 219 255
194 219 255
194 219 255
194 219 255
194 219 255
194 219 255
194 219 255
194 219 255
194 219 255
194 218 255
194 218 255
194 218 255
194 218 255
194 218 255
194 218 255
194 218 255
194 218 255
194 218 255
194 218 255
194 218 255
194 218 255
194 218 255
194 218 255
194 218 255
194 218 255
194 218 255
194 218 255
194 218 255
194 218 255
194 218 255
194 218 255
194 218 255
194 218 255
194 218 255
194 218 255
194 218 255
194 218 255
194 218 255
194 218 255
194 218 255
194 218 255
194 218 255
194 218 255
193 218 255
194 218 255
194 218 255
193 218 255
193 218 255
194 218 255
193 218 255
193 218 255
193 218 255
193 218 255
193 218 255
194 218 255
194 218 255
194 218 255
194 218 255
194 218 255
194 218 255
194 218 255
194 218 255
194 218 255
194 219 255
194 219 255
194 218 255
194 218 255
194 219 255
194 219 255
194 219 255
194 219 255
194 219 255
194 219 255
194 219 255
194 219 255
194 219 255
194 219 255
194 219 255
194 219 255
194 219 255
194 219 255
194 219 255
194 219 255
194 219 255
194 219 255
194 219 255
194 219 255
194 219 255
194 219 255
194 219 255
194 219 255
194 219 255
194 219 255
194 219 255
194 219 255
194 219 255
194 219 255
194 219 255
194 219 255
194 219 255
194 219 255
194 219 255
194 219 255
194 219 255
194 219 255
194 219 255
194 219 255
194 219 255
194 219 255
194 219 255
194 219 255
194 219 255
194 219 255
194 219 255
194 219 255
194 219 255
194 219 255
194 219 255
194 219 255
195 219 255
194 219 255
194 219 255
194 219 255
194 219 255
194 219 255
194 219 255
195 219 255
195 219 255
195 219 255
195 219 255
194 219 255
195 219 255
195 219 255
195 219 255
195 219 255
195 219 255
195 219 255
195 219 255
195 219 255
195 219 255
195 219 255
195 219 255
195 219 255
195 219 255
195 219 255
195 219 255
195 219 255
195 219 255
195 219 255
195 219 255
195 219 255
195 219 255
195 219 255
195 219 255
195 219 255
195 219 255
195 219 255
195 219 255
195 219 255
195 219 255
195 219 255
195 219 255
195 219 255
195 219 255
195 219 255
195 219 255
195 219 255
195 219 255
195 219 255
195 219 255
195 219 255
195 219 255
195 219 255
195 219 255
195 219 255
195 219 255
195 219 255
195 219 255
195 219 255
195 219 255
195 219 255
195 219 255
195 219 255
195 219 255
195 219 255
195 219 255
195 219 255
195 219 255
195 219 255
95 113 140
68 81 102
47 60 80
58 71 92
56 68 86
60 77 102
68 81 102
72 89 115
51 62 80
58 69 86
56 70 91
71 86 108
60 74 96
56 66 83
57 72 96
55 65 80
47 60 80
62 78 102
47 60 80
75 90 112
67 78 96
67 81 102
62 78 102
59 74 96
76 94 121
70 85 108
60 71 89
68 82 102
60 74 96
64 79 102
57 71 92
64 80 104
65 78 97
71 89 115
54 68 90
63 76 96
55 67 86
68 81 102
50 63 83
57 70 91
57 71 92
63 76 96
52 63 80
49 63 84
59 72 91
48 60 77
59 72 91
52 67 89
59 75 97
76 91 115
79 93 115
66 82 105
51 65 84
66 82 105
69 85 108
47 57 72
51 64 83
69 82 102
66 83 108
73 90 115
35 44 57
50 64 84
62 79 104
60 74 96
57 71 91
69 85 108
58 72 92
78 93 115
69 83 104
74 91 115
79 93 115
65 80 102
58 71 90
51 65 86
66 83 108
56 67 83
62 76 97
55 67 86
60 72 90
57 73 96
63 79 102
51 66 89
69 85 108
56 69 89
70 83 102
69 82 102
42 53 70
58 73 96
65 77 96
62 75 96
60 72 89
57 70 89
62 75 96
71 86 108
73 92 121
62 75 96
66 81 104
57 72 96
60 70 85
72 87 109
63 74 91
55 67 84
64 79 102
46 57 73
57 69 88
56 70 91
60 74 96
70 85 108
53 65 83
69 85 108
66 81 102
62 78 102
52 65 84
61 78 102
68 82 102
59 71 89
78 92 115
61 71 88
49 62 83
53 68 89
61 76 97
54 66 84
64 76 96
69 85 108
60 74 96
62 78 102
52 64 83
68 82 104
69 87 115
111 131 160
195 219 255
195 219 255
195 219 255
195 219 255
195 219 255
195 219 255
195 219 255
195 219 255
195 219 255
195 219 255
195 219 255
195 219 255
195 219 255
195 219 255
195 219 255
195 219 255
195 219 255
195 219 255
195 219 255
195 219 255
195 219 255
195 219 255
195 219 255
195 219 255
195 219 255
195 219 255
195 219 255
195 219 255
195 219 255
195 219 255
195 219 255
195 219 255
195 219 255
195 219 255
195 219 255
195 219 255
195 219 255
195 219 255
195 219 255
195 219 255
195 219 255
195 219 255
195 219 255
195 219 255
195 219 255
195 219 255
195 219 255
195 219 255
195 219 255
195 219 255
195 219 255
195 219 255
195 219 255
195 219 255
195 219 255
195 219 255
195 219 255
195 219 255
195 219 255
195 219 255
195 219 255
195 219 255
194 219 255
194 219 255
194 219 255
195 219 255
194 219 255
195 219 255
194 219 255
194 219 255
194 219 255
194 219 255
194 219 255
194 219 255
194 219 255
194 219 255
194 219 255
194 219 255
194 219 255
194 219 255
194 219 255
194 219 255
194 219 255
194 219 255
194 219 255
194 219 255
194 219 255
194 219 255
194 219 255
194 219 255
194 219 255
194 219 255
194 219 255
194 219 255
194 219 255
194 219 255
194 219 255
194 219 255
194 219 255
194 219 255
194 219 255
194 219 255
194 219 255
194 219 255
194 219 255
194 219 255
194 219 255
194 219 255
194 219 255
194 219 255
194 219 255
194 219 255
194 219 255
194 219 255
194 219 255
194 219 255
194 219 255
194 219 255
194 219 255
194 219 255
194 219 255
194 219 255
194 219 255
194 218 255
194 218 255
194 219 255
194 218 255
194 218 255
194 218 255
194 218 255
194 218 255
194 218 255
194 218 255
194 218 255
194 218 255
194 219 255
194 219 255
194 219 255
194 219 255
194 219 255
194 219 255
194 219 255
194 219 255
194 219 255
194 219 255
194 219 255
194 219 255
194 219 255
194 219 255
194 219 255
194 219 255
194 219 255
194 219 255
194 219 255
194 219 255
194 219 255
194 219 255
194 219 255
194 219 255
194 219 255
194 219 255
194 219 255
194 219 255
194 219 255
194 219 255
194 219 255
194 219 255
194 219 255
194 219 255
194 219 255
194 219 255
194 219 255
194 219 255
194 219 255
194 219 255
194 219 255
194 219 255
194 219 255
194 219 255
195 219 255
195 219 255
195 219 255
195 219 255
195 219 255
195 219 255
195 219 255
195 219 255
195 219 255
195 219 255
195 219 255
195 219 255
195 219 255
195 219 255
195 219 255
195 219 255
195 219 255
195 219 255
195 219 255
195 219 255
195 219 255
195 219 255
195 219 255
195 219 255
195 219 255
195 219 255
195 219 255
195 219 255
195 219 255
195 219 255
195 219 255
195 219 255
195 219 255
195 219 255
195 219 255
195 219 255
195 219 255
195 219 255
195 219 255
195 219 255
195 219 255
195 219 255
195 219 255
195 219 255
195 219 255
195 219 255
195 219 255
195 219 255
195 219 255
195 219 255
195 219 255
195 219 255
195 219 255
195 219 255
195 219 255
195 219 255
195 219 255
195 219 255
195 219 255
195 219 255
195 219 255
195 219 255
195 219 255
195 219 255
195 219 255
196 220 255
196 220 255
196 220 255
196 220 255
196 220 255
196 220 255
196 220 255
196 220 255
196 220 255
196 220 255
196 220 255
196 220 255
196 220 255
196 220 255
196 220 255
196 220 255
196 220 255
196 220 255
196 220 255
196 220 255
196 220 255
196 220 255
196 220 255
196 220 255
196 220 255
196 220 255
168 190 224
60 74 96
57 70 89
70 85 108
50 63 83
59 72 92
57 70 89
62 78 102
64 82 108
66 80 102
69 85 108
64 82 108
75 91 115
59 73 96
53 66 86
55 66 83
38 46 59
84 101 128
54 69 91
68 84 108
66 81 102
61 75 96
60 77 102
54 68 89
61 75 96
67 81 102
48 59 76
52 65 86
64 79 102
65 80 102
48 62 83
60 73 92
55 67 86
51 64 83
65 80 102
39 50 65
69 84 108
62 76 97
68 83 105
71 86 108
51 65 86
58 71 91
58 72 92
63 78 102
60 74 96
63 76 96
61 77 102
67 84 108
46 58 76
76 93 118
58 72 92
58 71 89
65 80 102
48 60 78
63 76 96
58 70 89
60 75 97
67 81 102
54 68 89
73 90 115
64 79 102
56 70 91
63 77 97
62 75 96
58 75 99
58 72 92
49 65 89
60 74 96
77 95 121
59 75 99
62 74 92
51 63 81
74 87 108
64 76 96
67 83 108
57 70 89
61 73 91
65 80 104
68 84 108
64 78 99
57 73 96
55 69 89
52 67 89
68 82 102
73 88 112
59 71 90
58 73 96
64 80 104
67 84 108
55 68 89
53 63 79
55 66 83
62 75 96
59 73 96
60 74 96
78 91 112
57 69 88
73 90 115
65 80 102
69 83 104
73 87 108
71 86 108
62 78 102
70 83 102
49 63 83
53 68 89
65 83 108
57 70 89
57 70 89
56 69 89
69 82 102
46 57 75
72 86 108
74 90 115
57 70 89
60 75 97
67 82 105
60 74 96
62 77 99
61 77 102
74 90 115
48 62 83
56 72 96
59 72 91
72 89 115
73 87 108
47 59 77
56 72 96
51 64 83
155 177 211
196 220 255
196 220 255
196 220 255
196 220 255
196 220 255
196 220 255
196 220 255
196 220 255
196 220 255
196 220 255
196 220 255
196 220 255
196 220 255
196 220 255
196 220 255
196 220 255
196 220 255
196 220 255
196 220 255
196 220 255
196 220 255
196 220 255
196 220 255
195 219 255
196 220 255
195 219 255
195 219 255
195 219 255
195 219 255
195 219 255
195 219 255
195 219 255
195 219 255
195 219 255
195 219 255
195 219 255
195 219 255
195 219 255
195 219 255
195 219 255
195 219 255
195 219 255
195 219 255
195 219 255
195 219 255
195 219 255
195 219 255
195 219 255
195 219 255
195 219 255
195 219 255
195 219 255
195 219 255
195 219 255
195 219 255
195 219 255
195 219 255
195 219 255
195 219 255
195 219 255
195 219 255
195 219 255
195 219 255
195 219 255
195 219 255
195 219 255
195 219 255
195 219 255
195 219 255
195 219 255
195 219 255
195 219 255
195 219 255
195 219 255
195 219 255
195 219 255
195 219 255
195 219 255
195 219 255
195 219 255
195 219 255
195 219 255
195 219 255
195 219 255
195 219 255
195 219 255
195 219 255
195 219 255
195 219 255
194 219 255
195 219 255
194 219 255
194 219 255
194 219 255
194 219 255
194 219 255
194 219 255
194 219 255
194 219 255
194 219 255
194 219 255
194 219 255
194 219 255
194 219 255
194 219 255
194 219 255
194 219 255
194 219 255
194 219 255
194 219 255
194 219 255
194 219 255
194 219 255
194 219 255
194 219 255
194 219 255
194 219 255
194 219 255
194 219 255
194 219 255
194 219 255
194 219 255
194 219 255
194 219 255
194 219 255
194 219 255
194 219 255
194 219 255
194 219 255
194 219 255
194 219 255
194 219 255
194 219 255
194 219 255
194 219 255
194 219 255
194 219 255
194 219 255
194 219 255
194 219 255
194 219 255
194 219 255
194 219 255
194 219 255
194 219 255
194 219 255
194 219 255
194 219 255
194 219 255
194 219 255
194 219 255
194 219 255
194 219 255
195 219 255
194 219 255
195 219 255
195 219 255
195 219 255
195 219 255
195 219 255
195 219 255
195 219 255
195 219 255
195 219 255
195 219 255
195 219 255
195 219 255
195 219 255
195 219 255
195 219 255
195 219 255
195 219 255
195 219 255
195 219 255
195 219 255
195 219 255
195 219 255
195 219 255
195 219 255
195 219 255
195 219 255
195 219 255
195 219 255
195 219 255
195 219 255
195 219 255
195 219 255
195 219 255
195 219 255
195 219 255
195 219 255
195 219 255
195 219 255
195 219 255
195 219 255
195 219 255
195 219 255
195 219 255
195 219 255
195 219 255
195 219 255
195 219 255
195 219 255
195 219 255
195 219 255
195 219 255
195 219 255
195 219 255
195 219 255
195 219 255
195 219 255
195 219 255
195 219 255
195 219 255
195 219 255
195 219 255
195 219 255
195 219 255
195 219 255
195 219 255
195 219 255
195 219 255
195 219 255
196 220 255
196 220 255
196 220 255
196 220 255
196 220 255
196 220 255
196 220 255
196 220 255
196 220 255
196 220 255
196 220 255
196 220 255
196 220 255
196 220 255
196 220 255
196 220 255
196 220 255
196 220 255
196 220 255
196 220 255
196 220 255
196 220 255
196 220 255
196 220 255
196 220 255
196 220 255
196 220 255
196 220 255
196 220 255
196 220 255
196 220 255
196 220 255
196 220 255
196 220 255
196 220 255
196 220 255
196 220 255
196 220 255
196 220 255
196 220 255
196 220 255
196 220 255
196 220 255
196 220 255
196 220 255
196 220 255
196 220 255
183 207 243
77 89 108
58 69 86
61 75 96
57 70 89
41 51 67
67 83 108
46 59 77
68 84 108
58 70 89
57 73 96
64 76 96
53 66 84
59 71 89
60 72 90
61 77 102
73 87 108
66 83 108
61 75 96
56 69 89
66 80 102
75 91 115
66 80 102
57 68 86
48 59 76
51 64 83
77 95 121
69 85 108
58 70 89
57 70 89
59 74 96
55 67 86
60 74 96
65 79 99
55 69 89
57 70 89
63 76 96
54 66 84
57 70 89
48 59 76
69 85 108
51 64 83
60 74 96
56 72 96
56 70 91
64 82 108
56 71 92
69 85 108
55 68 89
72 84 102
60 74 96
61 75 97
65 79 102
62 76 97
53 66 86
47 59 77
60 71 89
68 84 108
52 65 84
62 75 96
64 81 108
67 83 108
56 70 91
54 67 88
50 63 83
65 80 102
65 77 96
67 81 102
52 65 84
65 80 102
71 86 108
61 75 97
65 80 104
55 69 89
46 58 76
61 75 97
64 79 102
65 80 104
63 77 97
68 84 108
59 70 86
69 84 108
59 76 102
55 67 85
50 63 83
65 81 105
70 85 108
69 82 102
52 64 83
69 87 115
76 89 108
65 77 96
63 75 92
63 77 99
49 61 78
61 77 102
56 68 86
66 83 108
61 75 97
72 86 108
74 88 108
65 83 108
48 63 84
67 81 102
53 66 86
65 81 104
56 69 88
59 72 91
57 70 89
51 63 80
64 79 102
52 63 78
68 85 110
53 65 83
63 77 97
56 68 86
66 80 102
61 77 102
63 76 96
64 79 102
57 70 89
63 80 105
53 65 83
66 79 99
59 73 94
42 54 72
53 66 84
64 79 102
63 76 96
164 185 217
196 220 255
196 220 255
196 220 255
196 220 255
196 220 255
196 220 255
196 220 255
196 220 255
196 220 255
196 220 255
196 220 255
196 220 255
196 220 255
196 220 255
196 220 255
196 220 255
196 220 255
196 220 255
196 220 255
196 220 255
196 220 255
196 220 255
196 220 255
196 220 255
196 220 255
196 220 255
196 220 255
196 220 255
196 220 255
196 220 255
196 220 255
196 220 255
196 220 255
196 220 255
196 220 255
196 220 255
196 220 255
196 220 255
196 220 255
196 220 255
196 220 255
196 220 255
196 220 255
196 220 255
196 220 255
196 220 255
196 220 255
196 220 255
195 219 255
195 219 255
195 219 255
195 219 255
195 219 255
195 219 255
195 219 255
195 219 255
195 219 255
195 219 255
195 219 255
195 219 255
195 219 255
195 219 255
195 219 255
195 219 255
195 219 255
195 219 255
195 219 255
195 219 255
195 219 255
195 219 255
195 219 255
195 219 255
195 219 255
195 219 255
195 219 255
195 219 255
195 219 255
195 219 255
195 219 255
195 219 255
195 219 255
195 219 255
195 219 255
195 219 255
195 219 255
195 219 255
195 219 255
195 219 255
195 219 255
195 219 255
195 219 255
195 219 255
195 219 255
195 219 255
195 219 255
195 219 255
195 219 255
195 219 255
195 219 255
195 219 255
195 219 255
195 219 255
195 219 255
195 219 255
195 219 255
195 219 255
195 219 255
195 219 255
195 219 255
195 219 255
195 219 255
195 219 255
195 219 255
195 219 255
195 219 255
194 219 255
194 219 255
194 219 255
194 219 255
194 219 255
194 219 255
194 219 255
194 219 255
194 219 255
194 219 255
194 219 255
194 219 255
194 219 255
194 219 255
194 219 255
194 219 255
194 219 255
194 219 255
194 219 255
194 219 255
195 219 255
195 219 255
195 219 255
195 219 255
195 219 255
195 219 255
195 219 255
195 219 255
195 219 255
195 219 255
195 219 255
195 219 255
195 219 255
195 219 255
195 219 255
195 219 255
195 219 255
195 219 255
195 219 255
195 219 255
195 219 255
195 219 255
195 219 255
195 219 255
195 219 255
195 219 255
195 219 255
195 219 255
195 219 255
195 219 255
195 219 255
195 219 255
195 219 255
195 219 255
195 219 255
195 219 255
195 219 255
195 219 255
195 219 255
195 219 255
195 219 255
195 219 255
195 219 255
195 219 255
195 219 255
195 219 255
195 219 255
195 219 255
195 219 255
195 219 255
195 219 255
195 219 255
195 219 255
195 219 255
195 219 255
195 219 255
195 219 255
195 219 255
195 219 255
195 219 255
195 219 255
195 219 255
195 219 255
195 219 255
196 220 255
196 220 255
196 220 255
196 220 255
196 220 255
196 220 255
196 220 255
196 220 255
196 220 255
196 220 255
196 220 255
196 220 255
196 220 255
196 220 255
196 220 255
196 220 255
196 220 255
196 220 255
196 220 255
196 220 255
196 220 255
196 220 255
196 220 255
196 220 255
196 220 255
196 220 255
196 220 255
196 220 255
196 220 255
196 220 255
196 220 255
196 220 255
196 220 255
196 220 255
196 220 255
196 220 255
196 220 255
196 220 255
196 220 255
196 220 255
196 220 255
196 220 255
196 220 255
196 220 255
196 220 255
196 220 255
196 220 255
196 220 255
196 220 255
196 220 255
196 220 255
196 220 255
196 220 255
196 220 255
197 220 255
197 220 255
197 220 255
197 220 255
197 220 255
197 220 255
197 220 255
197 220 255
197 220 255
197 220 255
197 220 255
197 220 255
197 220 255
197 220 255
197 220 255
197 220 255
197 220 255
181 203 236
56 69 88
78 95 121
60 72 90
62 78 102
63 76 96
60 73 92
66 80 102
63 76 96
70 88 115
69 85 108
68 82 102
62 75 96
59 72 92
62 78 102
64 79 102
76 94 121
61 75 96
60 74 96
66 80 102
60 76 99
50 61 78
50 61 78
54 68 89
63 79 102
67 81 102
59 72 91
56 72 96
67 82 104
65 80 102
56 67 84
58 73 96
64 79 102
65 77 96
56 72 96
55 67 86
53 68 91
48 59 75
54 68 89
66 81 102
67 83 108
62 76 96
57 70 90
59 76 102
72 86 108
66 83 108
40 52 68
65 80 102
64 79 102
57 70 89
70 83 102
53 65 83
65 82 108
58 73 96
56 69 89
60 75 97
60 77 102
51 60 75
53 65 83
55 69 91
66 81 105
54 67 86
53 65 83
60 70 86
68 81 102
58 71 89
47 59 76
51 62 80
63 76 96
67 84 108
49 61 80
47 59 76
55 67 86
56 68 86
73 87 108
51 64 83
59 72 91
54 65 83
49 61 78
49 62 83
47 60 80
54 67 86
64 76 96
62 78 102
55 69 89
44 55 70
72 87 108
60 73 92
62 76 97
55 69 89
55 68 88
66 80 102
44 55 72
50 62 80
64 78 99
62 78 102
63 76 96
60 74 96
58 70 89
53 66 86
48 60 78
62 78 102
68 84 108
60 73 92
57 71 91
51 65 84
69 85 108
67 84 108
66 80 102
63 78 102
61 75 96
76 92 115
54 65 83
63 76 96
41 50 62
65 81 105
59 71 89
67 81 102
59 71 89
51 61 76
72 89 115
63 79 102
38 50 68
71 86 108
63 76 96
58 71 91
74 90 115
50 64 84
66 83 108
182 204 236
197 220 255
197 220 255
197 220 255
197 220 255
197 220 255
197 220 255
197 220 255
197 220 255
197 220 255
197 220 255
197 220 255
197 220 255
197 220 255
197 220 255
197 220 255
197 220 255
197 220 255
196 220 255
197 220 255
196 220 255
196 220 255
197 220 255
196 220 255
196 220 255
196 220 255
196 220 255
196 220 255
196 220 255
196 220 255
196 220 255
196 220 255
196 220 255
196 220 255
196 220 255
196 220 255
196 220 255
196 220 255
196 220 255
196 220 255
196 220 255
196 220 255
196 220 255
196 220 255
196 220 255
196 220 255
196 220 255
196 220 255
196 220 255
196 220 255
196 220 255
196 220 255
196 220 255
196 220 255
196 220 255
196 220 255
196 220 255
196 220 255
196 220 255
196 220 255
196 220 255
196 220 255
196 220 255
196 220 255
196 220 255
196 220 255
196 220 255
196 220 255
196 220 255
196 220 255
195 219 255
195 219 255
195 219 255
195 219 255
195 219 255
195 219 255
195 219 255
195 219 255
195 219 255
195 219 255
195 219 255
195 219 255
195 219 255
195 219 255
195 219 255
195 219 255
195 219 255
195 219 255
195 219 255
195 219 255
195 219 255
195 219 255
195 219 255
195 219 255
195 219 255
195 219 255
195 219 255
195 219 255
195 219 255
195 219 255
195 219 255
195 219 255
195 219 255
195 219 255
195 219 255
195 219 255
195 219 255
195 219 255
195 219 255
195 219 255
195 219 255
195 219 255
195 219 255
195 219 255
195 219 255
195 219 255
195 219 255
195 219 255
195 219 255
195 219 255
195 219 255
195 219 255
195 219 255
195 219 255
195 219 255
195 219 255
195 219 255
195 219 255
195 219 255
195 219 255
195 219 255
195 219 255
195 219 255
195 219 255
195 219 255
195 219 255
195 219 255
195 219 255
195 219 255
195 219 255
195 219 255
195 219 255
195 219 255
195 219 255
195 219 255
195 219 255
195 219 255
195 219 255
195 219 255
195 219 255
195 219 255
195 219 255
195 219 255
195 219 255
195 219 255
195 219 255
195 219 255
195 219 255
195 219 255
195 219 255
195 219 255
195 219 255
195 219 255
195 219 255
195 219 255
195 219 255
195 219 255
195 219 255
195 219 255
195 219 255
195 219 255
195 219 255
195 219 255
195 219 255
195 219 255
195 219 255
195 219 255
195 219 255
195 219 255
196 220 255
196 220 255
196 220 255
196 220 255
196 220 255
196 220 255
196 220 255
196 220 255
196 220 255
196 220 255
196 220 255
196 220 255
196 220 255
196 220 255
196 220 255
196 220 255
196 220 255
196 220 255
196 220 255
196 220 255
196 220 255
196 220 255
196 220 255
196 220 255
196 220 255
196 220 255
196 220 255
196 220 255
196 220 255
196 220 255
196 220 255
196 220 255
196 220 255
196 220 255
196 220 255
196 220 255
196 220 255
196 220 255
196 220 255
196 220 255
196 220 255
196 220 255
196 220 255
196 220 255
196 220 255
196 220 255
196 220 255
196 220 255
196 220 255
196 220 255
196 220 255
196 220 255
196 220 255
197 220 255
197 220 255
196 220 255
197 220 255
197 220 255
197 220 255
197 220 255
197 220 255
197 220 255
197 220 255
197 220 255
197 220 255
197 220 255
197 220 255
197 220 255
197 220 255
197 220 255
197 220 255
197 220 255
197 220 255
197 220 255
197 220 255
197 220 255
197 220 255
197 220 255
197 220 255
197 220 255
197 220 255
197 220 255
174 197 230
186 209 243
142 162 192
162 184 217
174 196 230
186 209 243
139 160 192
160 183 217
161 183 217
125 147 179
138 159 192
52 65 84
60 73 92
53 67 89
56 69 89
77 91 112
74 90 115
61 75 96
62 75 96
55 69 91
53 67 89
44 55 72
48 60 78
53 65 84
55 67 86
71 86 108
61 76 99
43 55 73
56 69 89
59 74 96
64 77 97
66 80 102
48 61 80
70 88 115
67 81 102
52 62 78
48 60 78
58 71 91
62 78 102
53 66 86
72 86 108
61 75 96
46 58 75
62 78 102
72 89 115
44 56 75
69 82 102
57 74 99
48 60 78
71 86 108
61 73 92
54 66 84
69 85 108
71 86 108
59 73 96
68 84 108
56 67 84
64 80 104
59 72 91
57 70 89
47 59 77
46 56 72
60 74 96
63 78 102
57 73 96
60 74 96
77 92 115
73 87 108
49 62 83
57 73 96
64 79 102
60 74 96
51 65 86
55 67 86
46 59 78
55 69 89
60 73 92
69 85 108
50 60 75
53 68 89
54 67 86
63 75 92
59 74 96
52 64 81
55 66 84
55 70 91
72 89 115
60 74 96
53 65 84
60 76 99
55 69 91
60 74 96
54 66 83
61 75 97
50 62 80
70 85 108
56 69 88
59 74 96
64 77 96
61 75 96
60 72 91
63 77 99
68 81 102
57 70 91
59 74 96
59 73 96
68 84 108
69 85 108
64 79 102
59 71 89
48 60 76
62 76 97
55 66 81
54 67 86
40 49 62
73 87 108
58 73 96
74 90 115
63 79 102
58 70 88
69 87 115
69 82 102
55 69 89
70 86 108
66 81 102
57 71 92
52 66 86
62 78 102
82 97 121
64 82 108
64 79 102
49 61 80
56 69 89
52 67 91
64 79 102
61 75 97
55 65 80
68 82 102
68 85 110
103 123 153
142 162 192
175 197 230
128 148 179
185 208 243
141 161 192
139 160 192
185 208 243
174 197 230
173 196 230
197 220 255
197 220 255
197 220 255
197 220 255
197 220 255
197 220 255
197 220 255
197 220 255
197 220 255
197 220 255
197 220 255
197 220 255
197 220 255
197 220 255
197 220 255
197 220 255
197 220 255
197 220 255
197 220 255
197 220 255
197 220 255
197 220 255
197 220 255
197 220 255
197 220 255
197 220 255
197 220 255
197 220 255
197 220 255
196 220 255
197 220 255
196 220 255
196 220 255
196 220 255
196 220 255
196 220 255
196 220 255
196 220 255
196 220 255
196 220 255
196 220 255
196 220 255
196 220 255
196 220 255
196 220 255
196 220 255
196 220 255
196 220 255
196 220 255
196 220 255
196 220 255
196 220 255
196 220 255
196 220 255
196 220 255
196 220 255
196 220 255
196 220 255
196 220 255
196 220 255
196 220 255
196 220 255
196 220 255
196 220 255
196 220 255
196 220 255
196 220 255
196 220 255
196 220 255
196 220 255
196 220 255
196 220 255
196 220 255
196 220 255
196 220 255
196 220 255
196 220 255
196 220 255
196 220 255
196 220 255
195 219 255
195 219 255
196 220 255
195 219 255
195 219 255
195 219 255
195 219 255
195 219 255
195 219 255
195 219 255
195 219 255
195 219 255
195 219 255
195 219 255
195 219 255
195 219 255
195 219 255
195 219 255
195 219 255
195 219 255
195 219 255
195 219 255
195 219 255
195 219 255
195 219 255
195 219 255
195 219 255
195 219 255
195 219 255
195 219 255
195 219 255
195 219 255
195 219 255
195 219 255
195 219 255
195 219 255
195 219 255
195 219 255
195 219 255
195 219 255
195 219 255
195 219 255
195 219 255
195 219 255
195 219 255
195 219 255
195 219 255
195 219 255
195 219 255
195 219 255
195 219 255
195 219 255
195 219 255
195 219 255
195 219 255
195 219 255
195 219 255
195 219 255
195 219 255
195 219 255
195 219 255
195 219 255
195 219 255
195 219 255
195 219 255
195 219 255
195 219 255
195 219 255
196 220 255
195 219 255
195 219 255
195 219 255
196 220 255
196 220 255
196 220 255
196 220 255
196 220 255
196 220 255
196 220 255
196 220 255
196 220 255
196 220 255
196 220 255
196 220 255
196 220 255
196 220 255
196 220 255
196 220 255
196 220 255
196 220 255
196 220 255
196 220 255
196 220 255
196 220 255
196 220 255
196 220 255
196 220 255
196 220 255
196 220 255
196 220 255
196 220 255
196 220 255
196 220 255
196 220 255
196 220 255
196 220 255
196 220 255
196 220 255
196 220 255
196 220 255
196 220 255
196 220 255
196 220 255
196 220 255
196 220 255
196 220 255
196 220 255
196 220 255
196 220 255
196 220 255
196 220 255
196 220 255
196 220 255
196 220 255
197 220 255
197 220 255
196 220 255
197 220 255
197 220 255
197 220 255
197 220 255
197 220 255
197 220 255
197 220 255
197 220 255
197 220 255
197 220 255
197 220 255
197 220 255
197 220 255
197 220 255
197 220 255
197 220 255
197 220 255
197 220 255
197 220 255
197 220 255
197 220 255
197 220 255
197 220 255
197 220 255
197 220 255
197 221 255
197 220 255
197 221 255
186 209 243
184 207 243
172 195 230
174 197 230
173 196 230
161 183 217
144 163 192
116 136 166
140 160 192
136 158 192
115 135 166
114 135 166
89 110 140
93 112 140
82 100 128
89 109 140
81 100 128
78 98 128
85 102 128
79 98 128
82 100 128
83 101 128
74 96 128
82 100 128
79 98 128
81 100 128
81 99 128
65 78 99
52 64 83
67 81 102
64 80 104
63 75 92
62 76 97
62 75 96
61 75 96
65 80 102
58 71 91
57 68 84
43 53 69
62 78 102
75 91 115
55 67 84
66 80 102
63 79 102
74 90 115
76 94 121
59 72 91
48 62 83
55 69 89
72 87 108
66 80 102
65 80 102
63 76 96
59 75 99
61 77 102
63 78 102
58 70 89
73 87 108
60 74 96
53 65 83
59 73 96
63 79 102
53 64 81
51 65 86
51 64 83
50 63 83
45 58 77
53 65 83
65 80 102
70 86 108
60 74 96
66 79 99
55 71 96
51 63 81
54 65 81
65 79 102
59 70 85
69 85 108
65 82 108
56 69 90
78 94 118
59 68 83
57 70 89
49 60 78
50 61 78
54 66 83
60 73 92
63 79 102
62 79 105
62 75 96
51 65 85
49 61 80
65 82 108
62 76 96
69 82 102
63 76 96
59 74 96
51 63 80
69 85 110
52 63 78
76 92 115
61 73 89
63 78 102
79 94 115
73 87 108
60 76 100
51 62 78
70 87 112
61 73 91
66 80 102
52 64 83
62 75 96
50 63 83
44 55 72
69 85 108
73 89 115
64 79 102
55 67 84
66 80 102
62 76 96
57 73 96
45 54 68
53 65 84
61 75 96
70 88 115
62 74 92
60 73 92
38 48 64
59 71 89
59 72 91
62 74 92
54 68 89
57 71 92
76 91 115
62 73 89
56 67 83
71 86 108
52 67 89
57 71 91
39 50 66
76 92 115
53 63 78
65 80 102
71 84 104
48 60 78
71 86 108
60 74 96
60 71 88
69 85 108
53 66 84
63 74 91
66 83 108
66 83 108
60 70 86
59 74 96
77 97 128
83 101 128
83 101 128
82 100 128
77 97 128
78 98 128
76 97 128
80 99 128
79 98 128
77 97 128
77 97 128
80 99 128
80 99 128
82 105 140
86 108 140
106 125 153
120 139 166
110 133 166
125 146 179
140 160 192
151 173 204
162 184 217
161 183 217
187 209 243
176 198 230
161 183 217
197 221 255
197 221 255
197 220 255
197 221 255
197 220 255
197 221 255
197 220 255
197 220 255
197 220 255
197 220 255
197 220 255
197 220 255
197 220 255
197 220 255
197 220 255
197 220 255
197 220 255
197 220 255
197 220 255
197 220 255
197 220 255
197 220 255
197 220 255
197 220 255
197 220 255
197 220 255
197 220 255
197 220 255
197 220 255
197 220 255
197 220 255
196 220 255
196 220 255
196 220 255
196 220 255
196 220 255
196 220 255
196 220 255
196 220 255
196 220 255
196 220 255
196 220 255
196 220 255
196 220 255
196 220 255
196 220 255
196 220 255
196 220 255
196 220 255
196 220 255
196 220 255
196 220 255
196 220 255
196 220 255
196 220 255
196 220 255
196 220 255
196 220 255
196 220 255
196 220 255
196 220 255
196 220 255
196 220 255
196 220 255
196 220 255
196 220 255
196 220 255
196 220 255
196 220 255
196 220 255
196 220 255
196 220 255
196 220 255
196 220 255
196 220 255
196 220 255
196 220 255
196 220 255
196 220 255
196 220 255
195 219 255
196 220 255
196 220 255
196 220 255
196 220 255
196 220 255
195 219 255
195 219 255
195 219 255
195 219 255
195 219 255
195 219 255
195 219 255
195 219 255
195 219 255
195 219 255
195 219 255
195 219 255
195 219 255
195 219 255
195 219 255
195 219 255
195 219 255
195 219 255
195 219 255
195 219 255
195 219 255
195 219 255
195 219 255
195 219 255
195 219 255
195 219 255
195 219 255
195 219 255
196 220 255
195 219 255
195 219 255
196 220 255
196 220 255
196 220 255
196 220 255
196 220 255
196 220 255
196 220 255
196 220 255
196 220 255
196 220 255
196 220 255
196 220 255
196 220 255
196 220 255
196 220 255
196 220 255
196 220 255
196 220 255
196 220 255
196 220 255
196 220 255
196 220 255
196 220 255
196 220 255
196 220 255
196 220 255
196 220 255
196 220 255
196 220 255
196 220 255
196 220 255
196 220 255
196 220 255
196 220 255
196 220 255
196 220 255
196 220 255
196 220 255
196 220 255
196 220 255
196 220 255
196 220 255
196 220 255
196 220 255
196 220 255
196 220 255
196 220 255
196 220 255
196 220 255
196 220 255
196 220 255
196 220 255
196 220 255
197 220 255
197 220 255
197 220 255
197 220 255
197 220 255
197 220 255
197 220 255
197 220 255
197 220 255
197 220 255
197 220 255
197 220 255
197 220 255
197 220 255
197 220 255
197 220 255
197 220 255
197 220 255
197 220 255
197 220 255
197 220 255
197 220 255
197 220 255
197 220 255
197 220 255
197 220 255
197 220 255
197 220 255
197 220 255
197 221 255
197 221 255
197 221 255
197 221 255
197 221 255
185 208 243
151 172 204
162 184 217
162 184 217
173 196 230
99 121 153
161 183 217
125 147 179
106 125 153
101 122 153
96 113 140
104 124 153
80 99 128
76 96 128
77 97 128
82 100 128
80 99 128
76 96 128
84 101 128
82 100 128
81 99 128
76 97 128
78 98 128
80 99 128
77 97 128
73 91 118
76 97 128
81 100 128
78 98 128
77 97 128
85 102 128
81 100 128
84 102 128
77 97 128
83 101 128
82 100 128
76 97 128
81 99 128
76 97 128
79 98 128
82 100 128
81 100 128
65 82 108
67 82 104
55 68 86
53 65 83
57 69 86
53 66 86
73 90 115
62 78 102
65 79 99
62 76 96
48 60 78
54 66 83
61 75 96
77 92 115
50 62 80
51 64 84
72 84 102
58 71 89
74 88 108
51 64 84
57 72 96
72 89 115
68 84 108
51 64 83
60 74 96
59 71 91
83 101 128
54 68 89
59 71 89
61 75 96
63 79 102
63 76 96
65 80 102
61 77 102
66 78 97
56 70 91
55 71 96
48 57 72
80 94 115
84 101 128
59 71 89
75 91 115
62 74 91
60 72 90
61 73 92
68 84 108
77 94 121
62 76 97
57 71 92
55 67 84
52 64 83
70 83 102
60 74 96
61 78 102
53 65 83
69 85 108
61 75 96
68 84 108
59 74 96
65 81 104
49 60 76
63 76 96
49 63 84
56 68 86
64 76 96
76 91 115
62 78 102
60 72 91
39 49 64
48 61 80
68 81 102
55 69 91
63 77 97
49 60 78
68 82 102
56 72 96
70 88 115
60 74 96
64 76 96
66 80 102
40 50 66
40 49 64
60 73 92
65 80 104
46 56 72
61 75 96
66 81 102
57 68 84
61 75 96
60 71 89
62 76 96
56 67 83
53 68 89
63 76 96
63 76 96
71 86 108
59 70 86
46 58 77
58 71 91
54 68 89
52 65 84
58 68 84
62 76 97
57 70 89
58 73 96
79 93 115
71 86 108
47 57 70
61 75 96
52 65 83
54 69 92
70 86 108
63 76 96
66 81 102
48 58 72
53 65 83
64 76 96
57 70 89
70 86 108
47 59 76
61 73 91
71 88 115
50 62 80
64 79 102
46 59 80
49 62 83
49 61 80
70 88 115
80 99 128
79 98 128
74 95 128
85 102 128
82 100 128
80 99 128
80 99 128
80 99 128
75 96 128
79 99 128
82 100 128
76 97 128
71 93 128
80 99 128
78 98 128
75 96 128
83 101 128
77 97 128
78 98 128
80 99 128
79 98 128
79 99 128
82 100 128
85 102 128
79 98 128
81 100 128
78 98 128
79 99 128
82 100 128
106 125 153
104 123 153
124 146 179
139 160 192
115 135 166
130 150 179
119 138 166
162 184 217
134 157 192
174 197 230
175 197 230
186 209 243
186 209 243
197 221 255
197 221 255
197 221 255
197 221 255
197 220 255
197 220 255
197 220 255
197 220 255
197 220 255
197 220 255
197 220 255
197 220 255
197 220 255
197 220 255
197 220 255
197 220 255
197 220 255
197 220 255
197 220 255
197 220 255
197 220 255
197 220 255
197 220 255
197 220 255
197 220 255
197 220 255
197 220 255
197 220 255
197 220 255
197 220 255
197 220 255
196 220 255
196 220 255
196 220 255
196 220 255
196 220 255
196 220 255
196 220 255
196 220 255
196 220 255
196 220 255
196 220 255
196 220 255
196 220 255
196 220 255
196 220 255
196 220 255
196 220 255
196 220 255
196 220 255
196 220 255
196 220 255
196 220 255
196 220 255
196 220 255
196 220 255
196 220 255
196 220 255
196 220 255
196 220 255
196 220 255
196 220 255
196 220 255
196 220 255
196 220 255
196 220 255
196 220 255
196 220 255
196 220 255
196 220 255
196 220 255
196 220 255
196 220 255
196 220 255
196 220 255
196 220 255
196 220 255
196 220 255
196 220 255
196 220 255
196 220 255
196 220 255
196 220 255
196 220 255
196 220 255
196 220 255
195 219 255
196 220 255
195 219 255
195 219 255
195 219 255
195 219 255
195 219 255
195 219 255
196 220 255
196 220 255
196 220 255
196 220 255
196 220 255
196 220 255
196 220 255
196 220 255
196 220 255
196 220 255
196 220 255
196 220 255
196 220 255
196 220 255
196 220 255
196 220 255
196 220 255
196 220 255
196 220 255
196 220 255
196 220 255
196 220 255
196 220 255
196 220 255
196 220 255
196 220 255
196 220 255
196 220 255
196 220 255
196 220 255
196 220 255
196 220 255
196 220 255
196 220 255
196 220 255
196 220 255
196 220 255
196 220 255
196 220 255
196 220 255
196 220 255
196 220 255
196 220 255
196 220 255
196 220 255
197 220 255
197 220 255
197 220 255
197 220 255
197 220 255
197 220 255
197 220 255
197 220 255
197 220 255
197 220 255
197 220 255
197 220 255
197 220 255
197 220 255
197 220 255
197 220 255
197 220 255
197 220 255
197 220 255
197 220 255
197 220 255
197 220 255
197 220 255
197 220 255
197 220 255
197 220 255
197 220 255
197 220 255
197 221 255
197 221 255
197 220 255
197 220 255
197 221 255
197 221 255
197 221 255
197 221 255
175 197 230
174 196 230
185 208 243
160 183 217
120 138 166
149 171 204
161 184 217
104 124 153
113 134 166
90 110 140
109 129 160
94 112 140
76 96 128
82 100 128
81 99 128
73 95 128
81 100 128
79 98 128
79 99 128
79 98 128
78 98 128
77 97 128
77 97 128
80 99 128
76 96 128
79 99 128
80 99 128
84 101 128
82 100 128
79 98 128
78 98 128
79 98 128
83 101 128
78 98 128
70 89 118
72 94 128
78 98 128
80 99 128
79 98 128
79 98 128
76 97 128
84 101 128
72 94 128
79 98 128
83 101 128
79 98 128
77 97 128
82 100 128
78 98 128
77 97 128
81 100 128
79 98 128
78 98 128
82 100 128
77 97 128
73 88 112
50 59 73
65 77 96
49 63 84
64 76 96
52 64 81
76 92 115
59 73 96
61 78 102
56 67 84
65 80 102
60 76 102
76 91 115
51 63 80
65 80 102
62 76 96
61 75 96
54 69 91
49 61 78
50 60 75
67 79 96
57 70 89
58 71 89
64 79 102
50 60 76
55 68 89
62 76 96
50 63 83
54 65 83
58 70 89
55 68 86
54 66 83
51 61 76
69 85 108
78 96 121
59 74 96
58 74 97
57 70 90
72 87 108
50 61 77
54 65 83
62 77 99
52 63 80
64 79 102
65 80 102
38 48 64
57 71 91
65 80 102
59 71 88
61 75 96
48 62 84
68 82 102
60 74 96
63 80 105
62 73 89
52 64 83
57 72 96
55 67 84
76 91 115
70 88 115
64 77 96
54 64 80
56 69 89
63 78 102
54 67 86
74 87 108
49 63 84
49 63 83
56 69 89
60 73 93
45 56 72
58 71 91
52 67 89
59 74 96
53 67 89
77 92 115
65 81 105
65 81 105
56 68 86
56 67 83
69 84 105
47 57 73
59 72 92
68 81 102
54 68 88
61 75 96
63 73 89
53 66 86
64 79 102
61 75 96
68 82 102
73 87 109
74 90 115
70 89 116
69 85 108
53 66 84
67 84 108
47 59 76
62 77 99
61 72 89
57 72 94
74 90 115
65 80 102
52 64 83
61 75 96
53 64 80
63 79 102
57 70 91
56 69 89
70 85 108
60 72 90
56 72 96
54 68 89
65 78 99
61 73 91
58 73 96
55 69 89
56 66 83
51 64 83
64 79 102
61 72 89
65 80 102
57 70 89
72 89 115
51 64 84
62 76 96
43 54 70
82 100 128
81 100 128
80 99 128
83 101 128
78 98 128
75 96 128
73 95 128
76 96 128
83 101 128
79 99 128
79 98 128
79 98 128
82 100 128
77 97 128
78 98 128
71 91 121
82 100 128
78 98 128
82 100 128
79 98 128
82 100 128
77 97 128
79 98 128
80 99 128
80 99 128
77 97 128
77 97 128
77 97 128
80 99 128
86 103 128
83 101 128
78 98 128
79 98 128
81 100 128
78 98 128
80 99 128
78 98 128
81 100 128
77 97 128
84 101 128
80 99 128
82 100 128
76 96 128
74 92 118
76 97 128
105 124 153
119 138 166
113 134 166
114 135 166
126 147 179
160 183 217
175 197 230
160 183 217
175 197 230
165 186 217
197 221 255
184 208 243
186 208 243
197 221 255
197 221 255
197 221 255
197 221 255
197 220 255
197 221 255
197 221 255
197 220 255
197 220 255
197 220 255
197 220 255
197 220 255
197 220 255
197 220 255
197 220 255
197 220 255
197 220 255
197 220 255
197 220 255
197 220 255
197 220 255
197 220 255
197 220 255
197 220 255
197 220 255
197 220 255
197 220 255
197 220 255
197 220 255
197 220 255
197 220 255
197 220 255
197 220 255
197 220 255
196 220 255
197 220 255
196 220 255
196 220 255
196 220 255
196 220 255
196 220 255
196 220 255
196 220 255
196 220 255
196 220 255
196 220 255
196 220 255
196 220 255
196 220 255
196 220 255
196 220 255
196 220 255
196 220 255
196 220 255
196 220 255
196 220 255
196 220 255
196 220 255
196 220 255
196 220 255
196 220 255
196 220 255
196 220 255
196 220 255
196 220 255
196 220 255
196 220 255
196 220 255
196 220 255
196 220 255
196 220 255
196 220 255
196 220 255
196 220 255
196 220 255
196 220 255
196 220 255
196 220 255
196 220 255
196 220 255
196 220 255
196 220 255
196 220 255
196 220 255
196 220 255
196 220 255
196 220 255
196 220 255
196 220 255
196 220 255
196 220 255
196 220 255
196 220 255
196 220 255
196 220 255
196 220 255
196 220 255
196 220 255
196 220 255
196 220 255
196 220 255
196 220 255
196 220 255
196 220 255
196 220 255
196 220 255
196 220 255
196 220 255
196 220 255
197 220 255
197 220 255
197 220 255
197 220 255
197 220 255
197 220 255
197 220 255
197 220 255
197 220 255
197 220 255
197 220 255
197 220 255
197 220 255
197 220 255
197 220 255
197 220 255
197 220 255
197 220 255
197 220 255
197 220 255
197 220 255
197 220 255
197 220 255
197 220 255
197 220 255
197 220 255
197 220 255
197 220 255
197 220 255
197 221 255
197 220 255
197 221 255
197 221 255
197 221 255
197 221 255
197 221 255
185 208 243
161 184 217
173 196 230
153 173 204
186 208 243
186 208 243
152 173 204
115 135 166
126 147 179
112 133 166
97 114 140
90 110 140
95 113 140
77 97 128
83 101 128
85 102 128
84 102 128
82 100 128
82 100 128
82 100 128
76 96 128
76 97 128
80 99 128
75 96 128
82 100 128
82 100 128
82 100 128
76 97 128
75 96 128
76 97 128
87 103 128
81 100 128
78 98 128
83 101 128
79 98 128
79 98 128
76 97 128
81 99 128
79 99 128
82 100 128
74 90 115
74 96 128
74 95 128
79 98 128
77 97 128
77 97 128
81 99 128
81 99 128
84 101 128
83 101 128
82 100 128
82 100 128
82 100 128
80 99 128
79 98 128
82 100 128
79 99 128
77 97 128
82 100 128
76 94 121
80 99 128
72 94 128
79 99 128
82 100 128
75 96 128
80 99 128
72 91 118
80 99 128
81 100 128
75 96 128
76 97 128
53 66 86
63 79 102
45 56 73
60 74 96
57 73 96
50 62 80
55 67 84
55 69 89
52 62 76
58 71 89
55 69 89
52 66 88
63 77 99
75 91 115
74 90 115
63 76 96
48 60 78
72 89 115
62 79 105
81 97 121
55 66 83
59 73 96
65 82 108
53 66 84
47 59 76
60 71 89
58 73 96
55 70 91
68 82 104
50 64 85
71 86 108
52 65 86
68 84 108
62 77 99
69 85 108
51 62 79
69 85 108
56 69 88
65 80 104
69 85 108
56 67 84
64 79 102
61 75 96
51 62 78
50 61 77
60 75 97
57 70 89
57 71 92
63 77 97
56 69 89
61 76 99
53 67 89
47 59 78
66 80 102
64 79 102
61 73 91
49 63 83
61 75 96
62 78 102
57 71 91
58 73 96
64 78 99
69 87 115
54 69 91
68 87 115
60 72 89
56 69 89
64 78 97
45 56 73
66 78 96
50 61 77
67 78 96
58 73 96
57 71 91
69 85 108
56 70 91
50 61 78
58 74 99
63 79 104
62 74 92
75 88 108
71 86 108
55 69 90
56 69 89
50 62 80
55 67 84
50 63 83
62 78 102
52 65 84
50 62 80
42 51 65
56 67 84
74 90 115
60 76 99
74 90 115
64 78 99
55 68 86
63 78 102
63 74 92
72 87 108
56 69 89
66 80 102
69 85 108
71 86 108
74 93 121
62 75 96
69 87 115
56 66 83
76 92 115
66 80 102
55 66 83
62 75 96
54 65 81
60 74 96
66 83 108
55 69 89
72 87 108
57 70 89
68 81 102
55 69 89
58 70 88
64 80 104
56 66 81
49 61 80
57 70 89
54 69 92
77 97 128
79 98 128
78 98 128
80 99 128
81 100 128
79 99 128
85 102 128
72 94 128
75 96 128
78 98 128
75 96 128
85 102 128
77 97 128
75 96 128
82 100 128
82 100 128
77 97 128
75 96 128
79 99 128
79 98 128
79 99 128
76 96 128
79 99 128
79 99 128
79 98 128
81 100 128
83 101 128
86 103 128
80 99 128
75 96 128
82 100 128
75 96 128
79 98 128
82 100 128
77 97 128
82 100 128
85 102 128
79 99 128
82 100 128
77 97 128
80 99 128
80 99 128
80 99 128
78 98 128
75 96 128
80 99 128
77 97 128
83 101 128
81 99 128
79 98 128
80 99 128
78 98 128
75 96 128
84 101 128
80 99 128
74 95 128
74 96 128
79 98 128
90 110 140
101 122 153
97 114 140
105 124 153
111 133 166
130 149 179
161 184 217
112 134 166
137 159 192
173 196 230
130 149 179
175 197 230
197 221 255
197 221 255
197 221 255
197 221 255
197 221 255
197 221 255
197 221 255
197 221 255
197 220 255
197 220 255
197 220 255
197 220 255
197 220 255
197 220 255
197 220 255
197 220 255
197 220 255
197 220 255
197 220 255
197 220 255
197 220 255
197 220 255
197 220 255
197 220 255
197 220 255
197 220 255
197 220 255
197 220 255
197 220 255
197 220 255
197 220 255
197 220 255
197 220 255
197 220 255
197 220 255
197 220 255
196 220 255
197 220 255
197 220 255
196 220 255
196 220 255
196 220 255
196 220 255
196 220 255
196 220 255
196 220 255
196 220 255
196 220 255
196 220 255
196 220 255
196 220 255
196 220 255
196 220 255
196 220 255
196 220 255
196 220 255
196 220 255
196 220 255
196 220 255
196 220 255
196 220 255
196 220 255
196 220 255
196 220 255
196 220 255
196 220 255
196 220 255
196 220 255
196 220 255
196 220 255
196 220 255
196 220 255
196 220 255
196 220 255
196 220 255
196 220 255
196 220 255
196 220 255
196 220 255
196 220 255
197 220 255
196 220 255
197 220 255
197 220 255
197 220 255
197 220 255
197 220 255
197 220 255
197 220 255
197 220 255
197 220 255
197 220 255
197 220 255
197 220 255
197 220 255
197 220 255
197 220 255
197 220 255
197 220 255
197 220 255
197 220 255
197 220 255
197 220 255
197 220 255
197 220 255
197 220 255
197 220 255
197 220 255
197 220 255
197 220 255
197 220 255
197 220 255
197 220 255
197 221 255
197 221 255
197 221 255
197 221 255
197 221 255
197 221 255
197 221 255
197 221 255
185 208 243
173 196 230
137 159 192
163 185 217
115 135 166
138 159 192
136 158 192
115 135 166
120 138 166
76 94 121
76 97 128
81 99 128
78 98 128
81 100 128
79 99 128
82 100 128
77 97 128
80 99 128
75 93 121
77 97 128
83 101 128
85 102 128
81 100 128
81 99 128
79 98 128
79 99 128
81 100 128
81 100 128
77 97 128
78 98 128
78 98 128
81 100 128
80 99 128
82 100 128
79 98 128
76 97 128
77 97 128
74 95 128
81 99 128
84 102 128
81 99 128
85 102 128
79 98 128
77 97 128
80 99 128
77 97 128
76 97 128
73 91 118
78 95 121
75 96 128
78 98 128
82 100 128
80 99 128
81 99 128
83 101 128
81 99 128
79 99 128
73 95 128
76 97 128
80 99 128
78 98 128
77 97 128
78 98 128
79 98 128
79 99 128
82 100 128
80 99 128
81 100 128
79 98 128
76 97 128
78 98 128
74 92 118
76 97 128
75 96 128
74 93 121
76 94 121
81 100 128
79 98 128
83 101 128
79 98 128
77 97 128
75 93 121
86 103 128
49 61 78
65 80 102
45 58 76
70 85 108
59 73 92
54 65 83
64 76 96
61 75 96
51 61 77
69 87 115
56 69 89
59 74 96
58 73 96
71 86 108
65 79 99
47 58 75
47 58 73
60 73 92
65 80 102
56 70 91
57 72 96
65 78 97
61 75 96
55 69 89
66 81 102
66 80 102
57 70 89
59 74 97
44 55 72
65 77 96
66 81 104
51 64 83
57 70 89
62 74 91
64 79 102
64 74 89
62 76 96
54 68 89
63 79 102
56 69 89
63 79 102
70 85 108
66 80 102
56 69 90
69 85 108
48 61 80
60 74 96
51 64 83
62 78 103
54 68 89
40 49 64
50 63 83
47 59 77
57 72 96
51 60 75
60 77 102
51 65 84
54 66 83
66 80 102
59 71 89
52 68 91
61 75 96
66 79 99
59 74 96
67 82 105
59 73 96
74 88 109
48 57 71
55 68 86
64 79 102
45 55 70
50 63 83
58 71 91
53 65 83
68 82 102
54 67 86
57 71 91
59 74 96
51 62 80
72 87 108
43 55 73
64 79 102
57 70 89
49 63 84
65 80 102
48 59 76
48 59 76
62 75 96
63 74 91
55 67 86
67 81 102
57 72 96
50 64 84
68 81 102
57 68 84
51 61 77
60 73 91
58 73 96
67 81 102
61 74 92
61 74 94
62 75 96
49 61 78
55 67 86
66 80 102
47 59 76
59 71 89
61 77 100
53 65 83
54 66 83
50 62 80
61 78 104
59 74 96
59 74 96
52 64 83
57 73 96
58 73 96
56 67 84
60 74 96
59 73 96
70 83 102
68 82 102
62 73 91
59 72 91
75 89 108
67 81 102
77 97 128
76 97 128
81 100 128
83 101 128
84 102 128
72 90 118
81 100 128
79 98 128
85 102 128
79 98 128
73 92 121
79 99 128
69 88 118
76 97 128
75 96 128
82 100 128
82 100 128
85 102 128
81 99 128
85 102 128
86 102 128
80 99 128
83 101 128
77 97 128
76 97 128
78 98 128
84 101 128
80 99 128
78 98 128
81 99 128
75 96 128
76 97 128
82 100 128
81 100 128
79 98 128
80 99 128
76 96 128
76 97 128
83 101 128
76 97 128
85 102 128
81 100 128
75 96 128
84 102 128
79 98 128
83 101 128
80 99 128
84 101 128
79 98 128
81 100 128
81 99 128
78 98 128
81 99 128
81 100 128
81 100 128
80 99 128
80 99 128
80 99 128
84 102 128
73 95 128
77 97 128
80 99 128
77 97 128
80 99 128
82 100 128
80 99 128
80 99 128
79 98 128
79 99 128
81 100 128
79 98 128
79 98 128
79 98 128
77 97 128
114 135 166
140 161 192
121 144 179
103 123 153
150 172 204
148 170 204
166 186 217
162 184 217
197 221 255
197 221 255
197 221 255
197 221 255
197 221 255
197 221 255
197 221 255
197 221 255
197 220 255
197 220 255
197 220 255
197 220 255
197 220 255
197 220 255
197 220 255
197 220 255
197 220 255
197 220 255
197 220 255
197 220 255
197 220 255
197 220 255
197 220 255
197 220 255
197 220 255
197 220 255
197 220 255
197 220 255
197 220 255
197 220 255
197 220 255
197 220 255
197 220 255
197 220 255
197 220 255
197 220 255
197 220 255
197 220 255
196 220 255
197 220 255
197 220 255
196 220 255
196 220 255
196 220 255
196 220 255
196 220 255
196 220 255
196 220 255
196 220 255
196 220 255
196 220 255
196 220 255
196 220 255
196 220 255
196 220 255
196 220 255
197 220 255
197 220 255
197 220 255
197 220 255
197 220 255
197 220 255
197 220 255
197 220 255
197 220 255
197 220 255
197 220 255
197 220 255
197 220 255
197 220 255
197 220 255
197 220 255
197 220 255
197 220 255
197 220 255
197 220 255
197 220 255
197 220 255
197 220 255
197 220 255
197 220 255
197 220 255
197 220 255
197 220 255
197 220 255
197 220 255
197 221 255
197 221 255
197 221 255
197 221 255
197 221 255
197 221 255
197 221 255
197 221 255
197 221 255
197 221 255
197 221 255
173 196 230
160 183 217
164 185 217
151 172 204
136 158 192
162 184 217
139 160 192
118 137 166
94 112 140
89 109 140
76 96 128
79 99 128
80 99 128
79 98 128
80 99 128
75 96 128
76 97 128
79 98 128
79 98 128
76 97 128
75 96 128
81 100 128
80 99 128
76 96 128
77 97 128
79 98 128
74 95 128
83 101 128
78 98 128
83 101 128
76 97 128
76 97 128
82 100 128
78 98 128
81 100 128
79 98 128
79 98 128
80 99 128
80 99 128
88 104 128
78 98 128
83 101 128
82 100 128
81 99 128
78 98 128
84 101 128
82 100 128
78 98 128
81 99 128
73 90 116
80 99 128
80 99 128
81 100 128
81 99 128
74 91 118
85 102 128
80 99 128
76 97 128
76 97 128
83 101 128
77 97 128
76 97 128
74 95 128
78 98 128
80 99 128
80 99 128
84 102 128
81 100 128
82 100 128
72 94 128
80 99 128
79 98 128
81 100 128
77 97 128
83 101 128
80 99 128
81 100 128
80 99 128
79 98 128
82 100 128
74 95 128
80 99 128
71 90 118
78 98 128
80 99 128
80 99 128
76 97 128
77 97 128
70 89 118
81 100 128
71 90 118
83 101 128
82 100 128
87 103 128
81 100 128
54 71 96
44 54 70
49 60 76
58 71 89
59 71 89
46 59 78
50 61 76
64 79 102
55 71 96
55 67 84
57 70 89
83 98 121
73 87 108
63 78 102
47 59 77
65 80 102
67 82 105
57 73 97
54 67 86
70 83 104
54 64 80
51 60 75
60 74 96
48 60 78
56 68 86
52 63 80
67 83 108
41 53 71
74 90 115
61 72 89
59 74 96
65 80 102
59 71 91
58 73 96
46 59 78
56 70 89
58 73 96
61 75 96
55 69 89
62 75 96
54 67 86
63 78 102
68 84 108
55 66 83
54 68 89
73 90 115
53 65 84
63 78 102
59 74 96
62 75 96
61 75 96
61 75 96
72 92 121
61 75 96
61 75 96
54 66 85
63 79 102
60 72 91
48 62 83
45 56 73
51 64 84
51 64 83
63 76 96
66 83 108
68 84 108
60 77 102
58 73 96
74 90 115
58 71 91
61 75 96
54 68 89
47 57 72
48 59 75
62 77 99
80 97 121
59 72 92
56 70 92
69 82 102
62 73 91
54 68 89
54 68 89
60 77 102
66 83 108
61 75 96
63 75 92
74 90 115
50 60 77
54 65 83
50 61 78
61 75 96
48 60 78
74 86 105
52 65 83
43 55 72
68 82 102
62 75 96
59 70 86
63 77 99
63 79 102
58 70 89
75 91 115
59 72 92
51 64 83
56 69 89
53 65 83
59 69 86
51 62 78
60 72 91
63 76 96
58 71 91
65 80 102
39 50 67
68 84 108
62 76 97
41 52 68
67 83 108
60 75 97
59 74 96
56 70 89
53 68 89
66 81 102
61 75 96
55 68 89
67 81 104
51 62 80
78 95 121
85 102 128
77 97 128
80 99 128
84 102 128
78 98 128
78 98 128
82 100 128
79 99 128
75 92 118
79 98 128
77 97 128
85 102 128
84 101 128
84 101 128
75 96 128
80 99 128
81 100 128
82 100 128
81 100 128
78 98 128
81 100 128
74 95 128
82 100 128
80 99 128
79 99 128
79 99 128
78 98 128
81 99 128
81 99 128
75 96 128
79 98 128
86 102 128
79 98 128
74 96 128
82 100 128
83 101 128
82 100 128
85 102 128
83 101 128
80 99 128
81 100 128
80 99 128
80 99 128
77 97 128
80 99 128
80 99 128
80 99 128
79 98 128
76 97 128
74 95 128
76 97 128
80 99 128
75 96 128
79 99 128
77 94 121
83 101 128
79 99 128
75 96 128
80 99 128
80 99 128
84 101 128
79 96 121
80 99 128
76 97 128
77 97 128
82 100 128
80 99 128
80 99 128
78 98 128
82 100 128
80 99 128
78 98 128
76 97 128
81 99 128
75 96 128
83 101 128
84 101 128
76 97 128
76 96 128
83 101 128
82 100 128
77 97 128
77 97 128
79 99 128
76 97 128
107 125 153
80 99 128
117 136 166
126 147 179
140 161 192
138 159 192
163 185 217
185 208 243
141 161 192
186 208 243
197 221 255
197 221 255
197 221 255
197 221 255
197 221 255
197 221 255
197 221 255
197 221 255
197 221 255
197 220 255
197 221 255
197 220 255
197 220 255
197 220 255
197 220 255
197 220 255
197 220 255
197 220 255
197 220 255
197 220 255
197 220 255
197 220 255
197 220 255
197 220 255
197 220 255
197 220 255
197 220 255
197 220 255
197 220 255
197 220 255
197 220 255
197 220 255
197 220 255
197 220 255
197 220 255
197 220 255
197 220 255
197 220 255
197 220 255
197 220 255
197 220 255
197 220 255
197 220 255
197 220 255
197 220 255
197 220 255
197 220 255
197 220 255
197 220 255
197 220 255
197 220 255
197 220 255
197 220 255
197 220 255
197 220 255
197 220 255
197 220 255
197 220 255
197 220 255
197 220 255
197 220 255
197 220 255
197 221 255
197 221 255
197 221 255
197 221 255
197 221 255
197 221 255
197 221 255
197 221 255
197 221 255
187 209 243
176 197 230
172 195 230
115 136 166
140 161 192
138 159 192
112 134 166
137 159 192
114 135 166
80 99 128
89 110 140
83 101 128
81 99 128
79 99 128
77 97 128
77 97 128
77 97 128
81 100 128
78 98 128
77 97 128
78 98 128
74 91 118
87 103 128
78 98 128
82 100 128
82 100 128
86 102 128
81 99 128
77 97 128
77 97 128
82 100 128
77 97 128
77 97 128
82 100 128
80 99 128
75 96 128
76 97 128
78 98 128
80 99 128
82 100 128
79 98 128
80 99 128
78 98 128
79 98 128
81 100 128
79 99 128
78 95 121
80 99 128
82 100 128
82 100 128
75 96 128
81 100 128
81 99 128
83 101 128
80 99 128
71 89 118
80 99 128
83 101 128
78 98 128
79 98 128
75 96 128
79 98 128
81 100 128
78 98 128
79 98 128
76 94 121
74 95 128
78 98 128
74 96 128
73 95 128
80 99 128
79 98 128
79 98 128
79 98 128
77 97 128
80 99 128
83 101 128
82 100 128
80 99 128
75 94 121
77 95 121
80 99 128
80 99 128
80 99 128
81 99 128
79 98 128
79 98 128
75 96 128
78 98 128
80 99 128
74 91 118
70 90 121
82 100 128
78 98 128
76 97 128
78 98 128
75 96 128
80 99 128
78 98 128
82 100 128
76 96 128
78 98 128
76 97 128
82 100 128
82 100 128
80 99 128
71 90 118
81 100 128
83 101 128
60 74 96
62 73 91
53 65 83
66 83 108
67 79 99
67 80 99
64 77 96
51 64 83
62 76 97
58 73 96
70 85 108
61 75 97
51 63 83
56 69 89
58 71 89
54 65 83
63 76 96
50 61 77
59 74 96
61 76 97
48 59 76
60 73 92
54 66 83
53 63 78
58 73 97
55 69 89
59 71 89
58 73 96
68 82 102
53 67 88
62 76 96
65 80 102
46 58 76
44 55 72
45 55 70
63 76 96
62 76 97
61 75 96
50 61 78
73 84 102
49 63 83
59 71 91
67 79 97
64 79 102
69 85 108
55 71 96
61 72 89
55 69 91
62 76 96
52 67 89
71 86 108
67 84 108
66 80 102
69 85 108
45 55 70
56 70 91
61 75 96
60 77 102
57 71 91
66 80 102
64 79 102
64 78 99
48 57 72
62 75 96
62 77 99
51 65 86
70 85 108
58 69 86
52 64 83
57 71 91
62 76 97
48 60 80
56 69 89
75 91 115
50 63 83
48 60 76
55 69 89
60 73 91
57 68 84
65 80 102
59 71 89
59 73 96
72 84 102
69 82 102
45 55 70
66 81 104
49 61 78
42 52 67
75 88 108
54 68 91
41 52 67
53 65 84
63 78 102
44 55 72
50 63 83
45 57 76
54 68 89
55 67 86
43 53 67
62 75 96
69 85 108
64 77 96
56 69 89
56 69 89
45 55 70
60 74 96
59 71 89
58 71 89
61 72 89
60 73 91
48 59 76
56 67 84
50 64 84
51 65 86
75 91 116
61 75 96
61 75 96
53 69 93
53 64 80
64 77 98
59 74 96
47 59 77
63 76 97
53 63 80
83 101 128
80 99 128
84 102 128
85 102 128
79 98 128
73 95 128
78 98 128
80 99 128
78 98 128
71 90 118
75 96 128
86 103 128
79 98 128
79 98 128
78 98 128
80 99 128
73 95 128
79 99 128
78 95 121
84 102 128
77 97 128
81 99 128
73 91 118
84 102 128
84 101 128
79 98 128
82 100 128
83 101 128
80 99 128
81 100 128
79 98 128
77 97 128
82 100 128
74 95 128
81 100 128
83 101 128
82 100 128
80 99 128
79 98 128
79 98 128
83 101 128
73 92 121
79 98 128
82 100 128
76 97 128
83 98 121
78 98 128
78 98 128
77 95 121
81 100 128
79 98 128
78 98 128
76 97 128
82 100 128
74 95 128
79 99 128
81 99 128
75 96 128
80 99 128
82 100 128
75 96 128
74 96 128
79 98 128
80 99 128
76 97 128
78 98 128
80 99 128
77 97 128
78 98 128
80 99 128
80 99 128
78 98 128
79 98 128
77 97 128
78 98 128
82 100 128
74 93 121
79 98 128
80 99 128
77 97 128
76 96 128
81 100 128
79 98 128
79 98 128
82 100 128
79 98 128
82 100 128
89 104 128
85 102 128
80 99 128
81 100 128
79 98 128
78 95 121
78 98 128
78 98 128
76 97 128
82 100 128
79 99 128
78 98 128
87 108 140
102 123 153
91 111 140
116 136 166
140 160 192
143 162 192
147 170 204
161 183 217
185 208 243
185 208 243
197 221 255
197 221 255
197 221 255
197 221 255
197 221 255
197 221 255
197 221 255
197 221 255
197 221 255
197 220 255
197 220 255
197 220 255
197 220 255
197 220 255
197 220 255
197 220 255
197 220 255
197 220 255
197 220 255
197 220 255
197 220 255
197 220 255
197 220 255
197 220 255
197 220 255
197 220 255
197 220 255
197 220 255
197 220 255
197 220 255
197 220 255
197 220 255
197 220 255
197 220 255
197 221 255
197 221 255
197 221 255
197 221 255
197 221 255
197 221 255
197 221 255
197 221 255
197 221 255
197 221 255
197 221 255
197 221 255
197 221 255
197 221 255
152 173 204
174 196 230
139 160 192
175 197 230
148 170 204
173 195 230
127 148 179
143 162 192
91 111 140
96 114 140
80 99 128
85 102 128
83 101 128
83 101 128
76 92 118
82 100 128
84 101 128
81 99 128
79 98 128
78 98 128
79 95 118
81 99 128
79 99 128
82 100 128
76 96 128
80 99 128
80 99 128
80 99 128
82 100 128
77 97 128
82 100 128
83 101 128
80 99 128
76 97 128
77 97 128
79 98 128
77 97 128
79 98 128
81 100 128
83 101 128
78 98 128
79 98 128
78 98 128
81 99 128
81 99 128
82 100 128
76 97 128
86 103 128
77 97 128
81 100 128
79 99 128
80 99 128
74 95 128
78 98 128
76 97 128
76 97 128
82 100 128
82 100 128
81 99 128
75 96 128
79 98 128
86 103 128
74 95 128
81 100 128
84 101 128
74 95 128
75 96 128
81 100 128
81 99 128
78 98 128
78 98 128
78 98 128
75 93 121
73 91 118
83 101 128
78 98 128
79 98 128
76 97 128
81 100 128
75 96 128
83 101 128
80 99 128
79 98 128
81 99 128
83 101 128
80 99 128
70 91 121
78 98 128
89 105 128
78 98 128
75 94 121
75 96 128
80 99 128
77 97 128
77 97 128
83 101 128
81 99 128
83 101 128
81 100 128
77 97 128
82 100 128
79 98 128
79 99 128
81 99 128
81 100 128
80 99 128
78 98 128
81 100 128
83 101 128
77 97 128
76 94 121
82 100 128
76 97 128
80 99 128
72 92 121
79 99 128
77 97 128
81 99 128
78 98 128
46 55 68
74 90 115
46 58 76
65 80 102
53 65 84
54 66 84
67 81 102
74 90 115
55 69 91
50 62 80
59 71 90
53 65 83
75 91 115
63 81 108
58 70 89
59 72 91
60 74 96
55 69 89
61 73 91
48 59 76
51 64 83
61 75 96
46 58 76
46 58 76
65 78 99
56 67 83
62 77 99
67 84 108
38 47 61
47 59 76
58 74 99
66 81 104
55 66 84
38 47 60
62 78 100
70 83 102
45 58 78
57 70 90
64 79 102
58 71 91
53 66 86
54 66 84
64 77 96
65 80 102
69 85 108
53 66 86
56 71 92
64 77 97
51 62 78
59 72 92
45 56 73
63 76 96
65 79 102
52 63 80
64 77 97
54 68 89
63 77 99
64 78 99
46 58 75
53 68 89
60 74 96
53 65 83
46 58 76
71 84 104
71 85 105
68 82 102
54 66 84
70 83 102
57 70 89
51 62 79
58 71 91
59 74 96
59 71 89
62 75 96
55 66 83
68 82 102
56 69 89
45 57 74
56 69 89
63 76 96
60 74 96
65 77 96
43 55 73
63 79 102
39 49 65
68 84 108
61 76 99
70 85 108
61 76 99
42 51 64
56 68 86
53 65 83
50 61 78
61 75 96
45 55 70
71 86 108
61 76 99
57 71 92
68 82 104
73 87 108
59 72 91
53 65 83
64 79 102
52 63 78
60 73 92
52 67 89
81 97 121
53 67 89
75 91 115
63 75 92
55 67 84
73 90 115
73 90 115
54 65 83
50 63 83
32 41 54
60 72 91
60 74 96
60 74 96
66 78 96
48 60 76
57 72 96
52 64 83
50 62 80
81 97 121
85 102 128
73 93 121
79 99 128
79 98 128
81 99 128
72 91 118
78 98 128
83 101 128
80 99 128
76 92 116
75 96 128
78 98 128
83 101 128
78 98 128
75 92 118
80 99 128
81 100 128
80 99 128
76 97 128
87 103 128
85 102 128
83 101 128
83 101 128
82 100 128
81 100 128
74 96 128
77 97 128
82 100 128
79 98 128
82 100 128
75 93 121
83 101 128
83 101 128
82 100 128
77 97 128
75 96 128
80 99 128
78 98 128
85 102 128
84 102 128
80 99 128
79 99 128
80 99 128
78 98 128
78 98 128
82 100 128
78 98 128
84 101 128
87 103 128
82 100 128
78 98 128
81 100 128
74 92 118
82 100 128
82 100 128
76 96 128
77 97 128
77 97 128
77 97 128
82 100 128
78 98 128
76 97 128
80 99 128
81 99 128
83 101 128
78 95 121
78 98 128
80 99 128
76 94 121
78 98 128
80 99 128
82 100 128
79 98 128
78 98 128
76 96 128
87 103 128
80 99 128
78 98 128
84 102 128
77 97 128
83 101 128
81 100 128
84 101 128
77 97 128
81 99 128
84 101 128
72 94 128
82 100 128
82 100 128
80 99 128
74 93 121
78 98 128
78 98 128
82 100 128
82 100 128
76 94 121
75 96 128
80 99 128
77 97 128
81 100 128
78 98 128
75 96 128
73 95 128
84 102 128
83 101 128
80 99 128
84 101 128
82 100 128
83 101 128
89 110 140
112 133 166
105 124 153
145 164 192
127 147 179
175 197 230
139 160 192
149 171 204
163 185 217
186 209 243
197 221 255
197 221 255
197 221 255
197 221 255
197 221 255
197 221 255
197 221 255
197 221 255
197 221 255
197 221 255
197 221 255
197 220 255
197 221 255
197 220 255
197 220 255
197 220 255
197 220 255
197 220 255
197 221 255
197 221 255
197 221 255
197 221 255
197 221 255
197 221 255
198 221 255
149 171 204
172 195 230
138 160 192
177 198 230
114 135 166
115 135 166
101 122 153
101 122 153
80 99 128
80 99 128
73 95 128
82 100 128
82 100 128
79 98 128
77 97 128
80 99 128
84 102 128
80 99 128
84 102 128
84 101 128
80 99 128
79 99 128
75 96 128
77 97 128
75 96 128
76 97 128
76 96 128
72 94 128
78 98 128
80 99 128
81 100 128
77 97 128
81 99 128
78 98 128
82 100 128
80 99 128
79 99 128
81 100 128
79 99 128
78 98 128
80 99 128
83 101 128
87 103 128
76 97 128
75 96 128
77 97 128
74 95 128
76 94 121
80 99 128
79 98 128
82 100 128
79 99 128
81 100 128
83 101 128
82 100 128
79 98 128
75 96 128
81 99 128
78 98 128
79 99 128
75 96 128
78 98 128
79 98 128
74 95 128
81 100 128
83 101 128
82 100 128
78 98 128
83 101 128
81 100 128
78 98 128
77 97 128
83 101 128
77 97 128
81 100 128
81 100 128
77 97 128
77 94 121
77 95 121
80 99 128
80 99 128
78 98 128
77 97 128
81 99 128
81 100 128
80 99 128
81 100 128
80 99 128
81 99 128
84 101 128
76 97 128
77 97 128
76 97 128
70 89 118
81 100 128
80 96 121
74 93 121
82 100 128
77 97 128
85 102 128
76 96 128
84 101 128
77 97 128
83 101 128
80 99 128
75 96 128
78 98 128
77 97 128
81 100 128
80 99 128
72 89 116
84 101 128
76 94 121
80 99 128
74 95 128
82 100 128
83 101 128
76 97 128
80 99 128
80 99 128
73 92 121
80 99 128
78 98 128
71 90 118
78 98 128
77 97 128
78 98 128
64 82 108
78 98 128
84 101 128
70 89 118
68 84 108
62 77 99
55 69 91
64 79 102
57 70 89
47 59 78
56 70 91
44 54 70
56 69 89
47 57 72
59 71 89
60 72 91
59 74 96
56 69 88
63 78 99
64 80 104
43 54 70
71 84 102
50 61 78
52 65 84
49 60 77
45 57 75
52 66 86
66 78 97
61 76 99
62 75 96
59 74 96
65 77 96
67 82 104
55 69 91
46 57 75
58 70 89
61 74 92
64 76 96
56 70 91
58 72 92
51 62 78
54 67 86
62 77 99
60 74 96
55 69 90
72 86 108
52 65 84
58 69 84
64 77 96
57 70 89
59 71 90
72 89 115
67 81 102
58 71 90
60 71 89
58 71 91
52 65 83
69 85 108
61 75 96
49 59 73
55 68 88
40 51 68
59 71 89
47 59 76
60 74 96
58 73 96
60 74 96
51 64 84
60 77 102
46 55 69
54 66 84
70 84 105
57 69 86
69 82 102
55 68 86
42 52 67
54 65 81
69 85 108
52 64 83
48 59 76
60 73 92
71 88 115
58 70 89
43 55 73
67 82 105
62 73 91
60 74 96
60 75 97
50 62 80
56 71 92
76 91 115
48 61 81
52 68 91
40 49 64
54 68 90
57 71 91
57 69 88
64 76 96
51 64 83
53 65 83
49 60 76
50 59 72
67 81 102
58 74 97
50 61 76
57 67 83
50 62 80
55 67 86
67 81 104
55 69 90
65 79 102
61 75 96
77 95 121
57 68 84
59 71 89
60 74 94
55 65 80
63 76 96
62 76 96
61 73 89
61 74 92
65 77 96
63 77 97
67 78 96
52 65 84
49 60 78
41 52 68
72 92 121
78 98 128
82 100 128
78 98 128
74 93 121
80 99 128
69 89 118
74 93 121
68 84 108
78 98 128
77 97 128
72 92 121
82 100 128
79 98 128
78 95 121
79 98 128
82 100 128
77 97 128
81 97 121
70 93 128
82 100 128
79 98 128
79 98 128
84 101 128
83 101 128
82 100 128
80 99 128
78 98 128
80 99 128
76 97 128
82 98 121
71 89 116
81 100 128
77 97 128
80 99 128
73 91 118
81 100 128
77 97 128
73 95 128
80 99 128
80 99 128
84 101 128
77 97 128
76 97 128
74 95 128
78 98 128
80 99 128
79 98 128
78 98 128
78 98 128
75 96 128
81 100 128
85 102 128
82 100 128
76 97 128
76 94 121
82 100 128
79 98 128
79 98 128
82 100 128
83 101 128
80 99 128
80 99 128
82 100 128
85 102 128
82 100 128
76 97 128
77 97 128
75 96 128
80 99 128
80 99 128
80 99 128
77 97 128
72 91 118
76 97 128
79 98 128
77 97 128
80 99 128
80 99 128
83 101 128
79 96 121
80 99 128
79 98 128
79 99 128
80 99 128
82 100 128
77 97 128
77 97 128
77 97 128
82 100 128
78 98 128
84 101 128
77 97 128
78 98 128
81 99 128
74 95 128
77 97 128
83 101 128
82 100 128
80 99 128
80 99 128
80 99 128
81 100 128
78 98 128
75 96 128
78 98 128
76 97 128
82 100 128
77 97 128
77 97 128
79 98 128
75 96 128
83 101 128
78 98 128
77 97 128
81 100 128
76 97 128
82 100 128
79 99 128
85 102 128
83 101 128
78 98 128
80 99 128
105 124 153
91 111 140
106 125 153
137 159 192
115 136 166
173 196 230
149 171 204
161 183 217
197 221 255
176 197 230
197 221 255
197 221 255
197 221 255
197 221 255
197 221 255
197 221 255
139 160 192
113 134 166
86 102 128
124 146 179
92 111 140
77 97 128
77 97 128
78 98 128
74 95 128
78 98 128
80 99 128
82 100 128
80 99 128
77 97 128
78 98 128
78 98 128
78 98 128
78 98 128
77 97 128
77 97 128
79 99 128
78 98 128
78 98 128
82 100 128
77 97 128
82 100 128
77 97 128
76 97 128
81 99 128
78 98 128
82 100 128
78 98 128
78 98 128
80 99 128
78 98 128
73 95 128
80 99 128
71 91 121
83 101 128
81 100 128
80 99 128
79 98 128
80 99 128
81 100 128
82 100 128
83 101 128
82 100 128
81 99 128
79 99 128
81 99 128
77 97 128
79 98 128
74 96 128
82 100 128
80 99 128
77 97 128
77 97 128
79 99 128
77 97 128
77 97 128
73 95 128
82 100 128
85 102 128
72 91 121
81 99 128
80 99 128
76 97 128
76 97 128
80 99 128
81 100 128
82 100 128
77 95 121
79 99 128
74 95 128
82 100 128
79 98 128
77 97 128
80 99 128
79 98 128
77 97 128
80 99 128
78 98 128
77 97 128
81 100 128
81 99 128
79 98 128
79 98 128
78 98 128
81 100 128
82 100 128
78 98 128
79 99 128
83 101 128
80 99 128
82 100 128
78 98 128
69 88 118
73 95 128
77 97 128
77 97 128
75 94 121
80 99 128
81 100 128
82 100 128
76 96 128
76 97 128
79 99 128
70 93 128
80 99 128
78 95 121
76 94 121
80 99 128
77 97 128
79 98 128
77 97 128
77 94 118
74 95 128
83 101 128
77 97 128
79 98 128
79 98 128
71 89 118
82 100 128
80 99 128
75 94 121
81 100 128
79 98 128
75 94 121
75 93 121
75 93 121
76 96 128
82 100 128
79 98 128
79 98 128
80 99 128
77 97 128
81 100 128
79 98 128
76 94 121
65 80 102
57 72 96
52 64 81
63 79 102
52 63 81
63 77 97
59 72 91
43 54 70
53 65 83
68 80 99
54 69 92
50 62 80
55 69 91
57 68 84
58 68 84
54 68 89
56 71 92
54 66 83
57 69 86
60 73 93
55 67 86
47 58 73
59 74 96
65 80 102
55 69 91
49 62 81
59 74 96
58 73 96
41 51 67
69 85 108
70 86 108
66 82 105
40 48 61
68 81 102
50 61 78
60 75 97
44 55 70
55 68 89
59 71 89
69 82 102
69 85 108
55 69 91
63 78 102
50 61 78
51 65 84
65 77 96
78 95 121
68 81 102
46 58 76
56 66 83
43 54 70
45 56 72
59 72 91
52 67 89
64 79 102
63 76 96
67 81 102
68 84 108
51 62 78
65 80 102
50 60 75
67 83 108
65 80 102
68 82 102
52 65 85
57 69 86
67 84 108
69 82 102
57 70 89
68 82 102
47 58 74
48 60 78
67 84 109
49 61 78
54 68 89
54 69 91
58 71 92
59 70 86
67 83 108
49 63 83
54 66 84
53 63 78
50 61 78
42 52 67
52 65 83
73 90 115
51 65 86
58 71 89
72 86 108
61 73 91
51 62 80
64 80 104
69 85 108
50 64 84
64 77 96
65 80 102
37 46 60
51 64 83
39 50 65
43 55 72
60 75 97
63 76 96
60 74 96
72 87 108
59 73 94
76 91 115
64 77 97
49 63 84
61 72 89
51 64 83
54 64 80
58 73 96
36 44 56
58 73 96
65 80 102
60 74 96
67 81 102
65 80 102
53 63 79
69 81 99
66 80 102
55 69 91
62 78 102
78 95 121
77 97 128
75 96 128
81 100 128
78 98 128
82 100 128
80 99 128
87 103 128
81 100 128
76 97 128
72 92 121
64 78 99
76 97 128
76 94 121
76 97 128
75 93 121
82 100 128
73 95 128
77 97 128
80 99 128
82 100 128
72 94 128
76 96 128
79 98 128
80 99 128
78 98 128
83 101 128
80 99 128
77 97 128
80 99 128
78 98 128
76 97 128
81 99 128
81 100 128
83 101 128
84 101 128
75 94 121
78 98 128
81 99 128
76 97 128
74 92 118
84 101 128
85 102 128
75 96 128
80 99 128
76 97 128
85 102 128
78 98 128
78 98 128
77 97 128
70 89 118
78 98 128
84 102 128
74 96 128
84 102 128
74 95 128
76 97 128
80 99 128
76 97 128
69 86 112
78 98 128
84 102 128
76 97 128
83 101 128
78 98 128
78 98 128
81 99 128
79 99 128
85 102 128
79 99 128
82 100 128
83 101 128
80 99 128
79 99 128
80 99 128
81 100 128
81 100 128
75 96 128
83 101 128
75 96 128
81 100 128
77 97 128
76 97 128
74 95 128
82 100 128
85 102 128
76 97 128
82 100 128
78 98 128
81 100 128
79 98 128
79 98 128
74 95 128
79 98 128
74 93 121
77 97 128
84 101 128
79 99 128
81 99 128
77 97 128
73 95 128
78 98 128
78 98 128
78 98 128
76 97 128
81 100 128
78 98 128
74 96 128
81 100 128
79 99 128
82 100 128
81 99 128
81 100 128
77 97 128
78 98 128
74 95 128
79 98 128
77 97 128
84 101 128
77 95 121
79 98 128
76 96 128
84 101 128
78 98 128
76 97 128
80 99 128
80 99 128
78 98 128
80 99 128
79 98 128
76 97 128
81 99 128
81 100 128
102 123 153
80 99 128
104 124 153
140 160 192
102 122 153
83 101 128
79 98 128
85 102 128
82 100 128
79 98 128
75 96 128
87 103 128
83 101 128
80 99 128
85 102 128
82 100 128
80 99 128
80 99 128
84 101 128
82 100 128
86 103 128
77 97 128
81 99 128
76 97 128
76 96 128
79 98 128
82 100 128
84 101 128
66 82 107
84 102 128
73 95 128
82 100 128
76 96 128
77 97 128
81 100 128
71 89 116
80 99 128
77 97 128
78 98 128
78 98 128
74 96 128
80 99 128
79 98 128
84 102 128
78 98 128
81 99 128
82 100 128
78 98 128
79 98 128
80 99 128
83 101 128
81 100 128
80 99 128
81 100 128
83 101 128
75 96 128
81 100 128
80 99 128
77 97 128
74 96 128
79 98 128
80 99 128
75 96 128
83 101 128
80 99 128
82 100 128
77 97 128
76 96 128
84 101 128
81 100 128
81 100 128
70 93 128
83 101 128
77 97 128
75 92 116
82 100 128
78 98 128
76 97 128
78 98 128
83 101 128
82 100 128
84 101 128
75 96 128
80 99 128
76 97 128
77 93 118
82 100 128
85 102 128
75 96 128
80 99 128
77 97 128
73 92 121
80 99 128
76 97 128
74 95 128
78 98 128
77 97 128
77 97 128
81 99 128
81 99 128
79 98 128
76 94 121
79 98 128
77 97 128
78 96 121
73 95 128
81 100 128
78 98 128
79 99 128
79 99 128
80 99 128
81 100 128
72 90 118
66 83 108
84 102 128
73 95 128
73 95 128
78 98 128
79 98 128
79 98 128
71 90 118
81 100 128
84 102 128
81 97 121
78 98 128
77 97 128
79 98 128
71 94 128
75 96 128
72 92 121
79 98 128
81 100 128
75 94 121
85 102 128
79 98 128
77 95 121
77 97 128
74 93 121
80 95 118
76 97 128
76 97 128
86 102 128
81 100 128
76 94 121
53 66 86
54 68 89
48 59 77
67 81 103
60 77 102
57 70 91
48 57 70
72 87 108
74 88 108
53 66 86
60 74 96
70 86 108
51 64 83
69 82 102
42 52 65
46 55 70
77 92 115
49 60 76
56 69 89
58 70 88
54 68 90
55 69 89
55 67 84
67 81 102
48 58 73
68 84 108
37 46 61
60 73 91
58 69 86
71 87 110
64 79 102
46 59 78
53 66 84
75 91 115
58 69 86
59 74 96
65 80 102
48 59 77
55 69 89
64 79 102
52 65 84
57 70 91
55 70 92
64 79 102
47 57 73
61 76 99
60 75 97
40 51 67
50 60 75
56 67 83
60 73 92
52 64 83
54 66 83
69 85 108
50 63 83
65 80 104
50 62 80
62 76 97
49 63 84
71 86 108
53 66 84
70 88 115
69 82 102
70 84 105
51 64 83
53 68 91
67 81 102
65 80 104
64 75 92
64 78 97
49 59 73
65 80 102
57 68 86
48 56 68
68 81 102
47 59 76
63 78 102
51 62 80
68 87 115
66 83 108
54 65 81
58 71 91
71 86 108
54 66 84
67 84 108
48 60 78
56 68 86
49 60 76
59 72 91
57 70 89
70 83 102
58 70 89
43 53 68
68 81 102
64 79 102
53 65 83
61 73 91
46 56 72
65 78 97
58 69 85
42 54 72
49 60 76
60 74 96
58 71 92
46 57 75
47 59 78
64 76 96
51 62 78
52 65 84
39 49 65
52 65 83
60 73 92
61 73 89
66 81 102
68 82 104
56 69 90
45 56 72
41 49 62
65 80 102
52 64 83
68 82 102
61 75 96
73 95 128
79 98 128
75 96 128
81 100 128
76 97 128
76 91 115
80 99 128
76 97 128
72 89 115
79 99 128
77 97 128
80 99 128
70 88 115
75 96 128
81 100 128
74 95 128
84 102 128
79 99 128
73 95 128
73 95 128
84 101 128
77 97 128
80 96 121
78 98 128
83 101 128
82 100 128
78 98 128
79 98 128
79 98 128
80 99 128
75 96 128
80 99 128
75 96 128
77 97 128
80 99 128
84 101 128
79 99 128
80 99 128
82 100 128
82 100 128
73 95 128
79 98 128
83 101 128
75 96 128
86 102 128
85 102 128
83 101 128
79 98 128
75 94 121
77 95 121
80 99 128
81 100 128
75 96 128
78 98 128
70 91 121
80 99 128
79 98 128
76 97 128
76 96 128
85 102 128
80 99 128
78 98 128
75 96 128
83 101 128
82 100 128
80 99 128
78 98 128
81 99 128
80 99 128
82 100 128
81 99 128
79 99 128
78 98 128
82 100 128
80 99 128
72 92 121
86 102 128
79 98 128
79 96 121
79 98 128
77 97 128
76 97 128
76 96 128
81 100 128
82 100 128
80 99 128
79 98 128
79 99 128
78 98 128
75 96 128
77 97 128
78 98 128
80 99 128
83 101 128
79 98 128
76 96 128
75 96 128
77 97 128
76 97 128
77 97 128
85 102 128
77 97 128
79 98 128
78 98 128
84 101 128
79 99 128
77 97 128
81 99 128
76 97 128
77 97 128
79 96 121
80 99 128
79 98 128
81 100 128
81 100 128
85 102 128
74 96 128
80 99 128
77 97 128
82 100 128
84 101 128
79 98 128
81 99 128
81 100 128
75 96 128
81 100 128
79 98 128
76 97 128
80 99 128
79 99 128
83 101 128
71 90 118
83 101 128
81 99 128
80 99 128
81 99 128
79 98 128
84 102 128
81 100 128
84 101 128
79 98 128
77 97 128
79 98 128
77 97 128
78 98 128
81 100 128
85 102 128
80 99 128
88 104 128
82 100 128
80 99 128
76 97 128
74 93 121
76 97 128
77 97 128
81 100 128
75 96 128
79 98 128
76 96 128
79 98 128
77 97 128
83 101 128
77 97 128
83 101 128
81 99 128
79 99 128
83 101 128
80 99 128
77 97 128
75 96 128
77 97 128
85 102 128
80 99 128
79 99 128
78 98 128
81 100 128
79 99 128
83 101 128
78 98 128
81 100 128
84 101 128
76 96 128
82 100 128
81 99 128
81 100 128
81 99 128
77 97 128
75 96 128
81 100 128
81 99 128
85 102 128
84 101 128
78 98 128
80 99 128
79 99 128
75 96 128
80 99 128
82 100 128
75 96 128
79 98 128
80 99 128
81 100 128
74 93 121
77 97 128
79 99 128
75 96 128
75 96 128
76 97 128
81 100 128
76 97 128
76 97 128
78 98 128
80 99 128
86 102 128
74 91 116
83 101 128
81 100 128
73 90 116
76 97 128
83 101 128
80 99 128
82 100 128
85 102 128
75 96 128
81 99 128
75 96 128
83 101 128
80 99 128
87 103 128
81 100 128
83 101 128
80 99 128
73 95 128
77 97 128
76 96 128
77 97 128
84 101 128
75 92 118
79 99 128
78 98 128
71 89 116
77 97 128
77 97 128
71 91 121
82 100 128
73 95 128
76 96 128
82 100 128
79 99 128
82 100 128
80 99 128
80 99 128
87 103 128
79 98 128
81 99 128
76 97 128
77 97 128
79 99 128
78 98 128
76 97 128
76 97 128
78 98 128
82 100 128
80 99 128
81 100 128
80 99 128
84 101 128
81 99 128
75 96 128
82 100 128
78 98 128
78 98 128
79 98 128
75 94 121
74 95 128
79 99 128
77 97 128
78 95 121
76 94 121
47 59 76
62 75 96
62 76 96
55 67 85
63 76 96
48 60 78
65 78 97
69 85 108
50 61 78
70 85 108
47 59 78
57 69 86
60 74 96
50 60 75
77 95 121
67 81 102
62 74 92
59 71 89
55 66 84
56 71 92
49 61 78
61 75 96
56 69 89
51 61 76
55 69 89
48 59 76
70 82 102
56 68 86
50 60 76
62 76 96
53 65 83
58 72 92
56 67 83
42 51 65
53 65 83
49 60 76
55 67 84
59 74 96
63 79 102
56 68 86
58 71 91
55 70 91
52 67 89
49 60 76
42 54 70
61 78 102
55 70 92
53 64 81
64 79 102
51 64 83
63 79 102
54 67 86
71 86 108
59 72 91
56 70 91
49 60 75
57 71 92
62 74 92
75 91 115
47 59 76
63 76 96
49 60 76
52 63 79
62 76 96
66 81 105
58 70 89
66 78 97
64 79 102
42 53 68
63 76 96
55 69 89
62 75 96
44 54 70
62 76 97
70 85 108
62 80 108
55 66 83
61 73 92
56 67 83
50 61 78
50 63 83
57 70 89
62 78 102
71 86 108
47 59 76
56 67 83
44 56 73
55 69 90
62 75 96
71 86 108
81 97 121
63 75 92
58 70 89
54 66 83
61 72 89
67 81 102
63 76 96
63 79 102
47 59 76
46 59 78
48 58 75
46 54 67
48 60 77
51 63 81
52 61 75
53 65 83
53 66 86
56 69 89
57 68 84
74 88 108
57 72 96
69 87 115
61 73 91
48 60 76
62 77 99
60 74 96
61 72 89
55 68 89
73 90 115
62 73 89
69 87 115
76 94 121
76 96 128
77 97 128
82 100 128
77 97 128
81 100 128
84 102 128
79 98 128
76 97 128
78 98 128
82 100 128
82 100 128
78 98 128
74 96 128
74 95 128
73 92 121
77 94 118
83 101 128
70 89 118
81 100 128
82 100 128
82 100 128
80 99 128
73 92 121
80 99 128
76 97 128
82 100 128
77 97 128
72 88 112
77 97 128
75 93 121
78 98 128
76 97 128
79 99 128
80 99 128
84 102 128
85 102 128
79 99 128
78 98 128
79 99 128
78 95 121
84 101 128
78 98 128
76 93 118
80 99 128
80 99 128
77 97 128
75 96 128
75 96 128
77 97 128
78 98 128
85 102 128
76 93 118
72 90 118
80 99 128
81 100 128
79 98 128
74 95 128
78 98 128
76 97 128
84 102 128
84 101 128
81 99 128
80 99 128
78 98 128
80 99 128
78 98 128
82 100 128
77 97 128
74 93 121
72 94 128
75 92 118
76 97 128
79 98 128
74 93 121
80 99 128
80 99 128
78 98 128
77 97 128
81 100 128
74 96 128
76 97 128
82 100 128
77 97 128
74 96 128
69 92 128
82 100 128
72 94 128
77 97 128
84 101 128
74 95 128
83 101 128
84 101 128
75 96 128
85 102 128
77 97 128
80 99 128
82 100 128
82 100 128
86 103 128
77 97 128
80 99 128
75 96 128
79 99 128
78 98 128
86 103 128
83 101 128
73 95 128
78 98 128
81 100 128
85 102 128
76 94 121
78 98 128
82 100 128
79 98 128
79 99 128
80 99 128
79 98 128
79 98 128
75 96 128
71 94 128
85 102 128
83 101 128
74 95 128
76 97 128
79 98 128
79 98 128
81 99 128
78 98 128
72 90 118
74 95 128
76 97 128
74 95 128
72 92 121
81 100 128
83 101 128
81 100 128
79 99 128
78 98 128
80 99 128
78 98 128
80 99 128
81 99 128
81 100 128
85 102 128
79 99 128
85 102 128
83 101 128
82 100 128
82 100 128
80 99 128
82 100 128
83 101 128
81 100 128
80 99 128
73 95 128
73 91 118
80 99 128
82 100 128
79 98 128
80 99 128
75 96 128
78 98 128
83 101 128
77 97 128
83 101 128
87 103 128
80 99 128
76 94 121
79 98 128
80 99 128
79 99 128
81 100 128
79 99 128
78 98 128
77 97 128
75 96 128
85 102 128
79 99 128
81 99 128
84 101 128
75 96 128
80 99 128
80 99 128
78 98 128
82 100 128
81 100 128
83 101 128
78 98 128
82 100 128
77 97 128
75 96 128
77 97 128
84 101 128
75 96 128
79 99 128
75 96 128
79 98 128
83 101 128
82 100 128
80 99 128
85 102 128
75 94 121
81 99 128
79 98 128
77 97 128
78 98 128
76 97 128
76 96 128
80 99 128
86 103 128
76 97 128
84 101 128
78 98 128
85 102 128
86 102 128
76 97 128
78 98 128
82 100 128
84 101 128
74 92 118
76 97 128
76 97 128
69 89 118
84 102 128
74 95 128
80 99 128
83 101 128
84 101 128
71 90 118
82 100 128
71 91 121
81 99 128
78 98 128
77 97 128
79 98 128
79 98 128
74 95 128
77 95 121
81 99 128
80 99 128
74 91 118
79 98 128
79 98 128
80 99 128
74 95 128
81 99 128
77 97 128
78 98 128
80 99 128
82 100 128
82 100 128
78 98 128
75 96 128
79 98 128
81 100 128
77 97 128
84 102 128
83 101 128
70 89 118
82 100 128
79 98 128
75 93 121
75 92 118
77 97 128
70 88 116
80 99 128
81 99 128
80 99 128
84 101 128
83 101 128
75 96 128
79 99 128
80 99 128
79 99 128
81 100 128
78 98 128
78 98 128
78 98 128
56 68 86
42 52 65
48 60 78
61 75 96
68 82 102
51 63 80
66 78 96
67 81 102
51 61 76
50 61 78
62 76 96
51 62 80
53 65 84
43 52 65
44 55 70
58 68 83
69 84 105
49 60 78
63 79 102
57 70 89
60 71 89
61 75 96
54 66 86
55 70 91
56 70 92
69 84 108
52 64 83
60 73 92
47 57 73
60 72 90
66 80 102
48 61 80
57 70 89
64 79 102
68 82 102
71 88 115
58 71 91
57 70 89
62 78 102
61 75 96
63 75 92
56 69 89
49 62 81
60 71 89
67 80 99
49 60 76
54 66 84
52 64 83
66 81 102
46 57 73
57 70 90
66 80 102
55 67 86
57 70 89
52 62 78
58 71 89
67 81 102
67 81 102
47 58 75
49 60 76
50 64 86
64 77 96
56 72 96
54 66 84
63 77 97
72 89 115
53 64 80
46 55 68
56 67 84
61 74 94
48 59 76
50 62 80
60 74 96
53 64 81
64 79 102
73 87 108
59 73 96
61 75 96
77 92 115
55 66 83
60 72 91
64 77 96
58 68 83
61 76 97
55 69 89
60 74 96
68 79 97
68 84 108
52 65 84
64 76 96
61 77 102
39 49 64
63 77 99
52 64 83
46 58 76
59 71 91
56 69 89
61 75 96
55 71 96
67 81 102
51 64 84
66 79 99
58 71 91
48 57 72
50 60 76
70 86 108
51 62 78
51 65 86
55 66 83
47 58 75
68 84 108
53 62 76
45 58 78
52 64 83
55 69 89
74 90 115
56 70 91
56 71 92
64 79 102
66 78 96
83 101 128
77 97 128
72 91 121
74 90 115
77 95 121
76 97 128
78 98 128
78 98 128
82 100 128
81 100 128
76 97 128
69 90 121
77 93 118
79 98 128
80 99 128
76 97 128
77 97 128
81 100 128
79 98 128
82 100 128
80 99 128
80 99 128
77 93 118
83 101 128
79 99 128
74 95 128
80 96 121
79 99 128
78 98 128
79 99 128
83 101 128
77 97 128
79 99 128
73 91 116
79 98 128
81 99 128
78 98 128
81 100 128
81 99 128
75 96 128
76 97 128
78 98 128
81 100 128
77 97 128
79 99 128
81 100 128
63 82 112
77 97 128
81 100 128
75 94 121
76 94 121
80 99 128
77 95 121
81 99 128
83 101 128
80 99 128
80 99 128
78 98 128
74 96 128
85 102 128
79 99 128
81 100 128
78 98 128
76 97 128
87 103 128
80 99 128
82 100 128
75 93 121
79 99 128
77 97 128
76 97 128
78 98 128
74 93 121
80 99 128
74 96 128
75 93 121
66 83 108
76 97 128
77 97 128
75 96 128
81 99 128
81 99 128
81 100 128
82 100 128
83 101 128
78 98 128
74 95 128
78 98 128
84 101 128
81 100 128
81 99 128
80 99 128
81 100 128
78 98 128
81 100 128
80 99 128
84 101 128
83 101 128
74 93 121
80 99 128
79 98 128
76 97 128
82 100 128
84 102 128
78 98 128
77 97 128
79 98 128
78 98 128
74 95 128
84 101 128
78 98 128
78 98 128
83 101 128
82 100 128
83 101 128
79 99 128
85 102 128
79 99 128
78 98 128
75 94 121
79 99 128
74 96 128
77 97 128
80 99 128
80 99 128
73 91 118
81 100 128
79 98 128
72 90 118
82 100 128
87 103 128
79 98 128
76 96 128
82 100 128
78 98 128
77 97 128
81 100 128
83 101 128
82 100 128
78 98 128
78 98 128
74 96 128
76 94 121
73 91 118
77 97 128
80 99 128
79 99 128
85 102 128
81 100 128
78 98 128
78 98 128
79 98 128
77 97 128
77 97 128
79 98 128
78 98 128
80 99 128
79 99 128
80 99 128
81 100 128
85 102 128
82 100 128
83 101 128
82 100 128
81 99 128
75 96 128
85 102 128
81 100 128
79 99 128
84 102 128
79 98 128
80 99 128
86 103 128
75 96 128
82 100 128
75 96 128
80 99 128
79 99 128
76 97 128
82 100 128
81 99 128
74 96 128
79 98 128
80 99 128
76 94 121
73 91 118
79 98 128
79 98 128
73 95 128
75 96 128
85 102 128
78 98 128
79 98 128
74 95 128
72 88 112
83 101 128
83 101 128
83 101 128
75 96 128
83 101 128
75 96 128
77 97 128
84 101 128
77 97 128
82 100 128
78 98 128
77 97 128
74 96 128
74 95 128
80 99 128
83 101 128
82 100 128
77 97 128
76 96 128
81 100 128
83 101 128
82 100 128
78 98 128
78 98 128
82 100 128
75 96 128
75 96 128
73 91 118
72 90 116
81 99 128
80 99 128
81 99 128
74 95 128
81 100 128
82 100 128
78 98 128
79 98 128
82 100 128
80 99 128
71 90 118
77 97 128
80 99 128
75 92 118
78 98 128
71 91 121
77 93 118
77 97 128
71 87 112
78 95 121
79 98 128
65 83 112
77 97 128
81 100 128
79 98 128
79 98 128
80 99 128
78 98 128
77 97 128
77 97 128
81 99 128
86 102 128
72 90 118
73 91 118
79 99 128
76 92 116
77 95 121
71 89 115
81 100 128
83 101 128
77 97 128
73 92 121
79 98 128
71 88 115
85 102 128
77 97 128
81 97 121
74 93 121
80 99 128
77 97 128
78 98 128
82 100 128
77 97 128
69 87 116
82 97 121
72 90 116
68 87 115
61 73 92
56 69 88
74 90 115
47 56 70
63 75 92
68 82 102
53 65 83
57 68 86
42 52 67
63 78 102
53 65 83
53 64 81
53 66 86
58 70 88
60 72 91
58 73 96
56 66 81
59 71 89
64 77 96
40 50 65
48 60 78
53 66 86
59 72 92
67 80 99
53 65 83
51 65 86
59 69 84
49 60 78
58 72 92
46 57 74
56 69 89
61 75 96
56 70 91
62 75 96
47 57 73
63 76 96
64 77 96
49 60 76
45 57 74
46 56 70
48 59 76
68 84 108
45 58 77
57 70 89
54 65 81
58 70 89
35 43 56
82 97 121
63 79 102
70 84 105
62 73 89
48 58 73
62 76 97
44 53 66
59 73 94
63 79 102
69 82 102
54 67 86
47 60 78
52 65 85
65 80 102
47 60 80
70 85 108
72 87 108
57 71 91
72 87 108
65 80 102
50 62 80
45 56 73
60 74 96
39 48 62
44 55 70
62 76 97
55 67 84
58 69 86
54 68 89
62 75 96
46 56 72
55 69 89
70 85 108
54 66 84
65 78 97
60 72 90
47 59 77
43 54 70
59 70 86
66 80 102
63 78 102
70 85 108
77 92 115
55 65 80
60 74 96
55 67 85
51 62 78
52 62 78
57 70 89
44 53 67
59 70 88
57 71 91
55 68 89
49 59 74
57 72 96
69 82 102
74 87 108
66 80 102
71 86 108
45 55 69
52 63 80
58 70 89
53 65 83
56 68 86
53 63 80
68 82 102
68 82 104
54 68 88
48 60 80
39 49 64
48 57 72
57 72 96
72 92 121
76 97 128
76 92 118
82 100 128
80 99 128
80 99 128
75 92 118
78 98 128
72 89 115
76 97 128
76 97 128
81 100 128
86 103 128
78 98 128
75 96 128
80 99 128
78 95 121
86 103 128
83 101 128
75 93 121
79 99 128
81 100 128
77 95 121
76 93 118
74 93 121
81 100 128
78 98 128
80 99 128
73 91 118
81 100 128
73 91 118
80 99 128
82 100 128
85 102 128
70 93 128
79 98 128
77 93 118
80 99 128
77 97 128
80 99 128
75 96 128
80 99 128
76 96 128
80 99 128
84 101 128
76 97 128
76 97 128
74 95 128
82 100 128
79 99 128
78 98 128
79 98 128
80 99 128
81 100 128
83 101 128
76 97 128
80 99 128
79 99 128
79 99 128
85 102 128
69 86 112
80 99 128
68 87 116
77 97 128
77 97 128
81 100 128
82 100 128
75 96 128
69 89 118
79 98 128
72 92 121
74 96 128
80 99 128
75 96 128
77 97 128
81 99 128
79 98 128
81 100 128
79 98 128
78 98 128
79 98 128
80 99 128
79 98 128
83 101 128
74 96 128
83 101 128
79 99 128
82 100 128
79 99 128
78 98 128
72 91 118
79 98 128
85 102 128
73 91 118
76 97 128
83 101 128
72 94 128
83 101 128
79 99 128
78 98 128
77 97 128
76 97 128
84 101 128
82 100 128
81 99 128
84 101 128
80 99 128
77 97 128
77 97 128
70 89 118
78 98 128
86 103 128
75 96 128
79 98 128
80 99 128
82 100 128
78 95 121
79 98 128
76 97 128
76 97 128
80 99 128
83 101 128
81 100 128
77 97 128
78 98 128
79 98 128
77 97 128
80 99 128
78 98 128
79 99 128
76 97 128
81 99 128
76 97 128
82 100 128
77 97 128
69 87 115
75 96 128
75 96 128
74 95 128
80 99 128
76 96 128
76 97 128
82 100 128
81 100 128
73 95 128
83 101 128
75 96 128
77 97 128
75 96 128
87 103 128
78 98 128
76 97 128
82 100 128
74 95 128
81 99 128
78 98 128
82 100 128
83 101 128
80 99 128
79 99 128
82 100 128
76 96 128
77 97 128
84 101 128
82 100 128
75 96 128
84 101 128
78 98 128
80 99 128
76 97 128
80 99 128
74 95 128
80 99 128
78 98 128
77 97 128
78 98 128
75 96 128
78 98 128
79 99 128
81 99 128
79 99 128
77 97 128
81 100 128
80 99 128
75 93 121
74 93 121
81 100 128
76 96 128
82 100 128
78 98 128
78 98 128
83 101 128
80 99 128
75 96 128
82 100 128
80 99 128
75 96 128
78 98 128
79 98 128
75 96 128
77 97 128
80 99 128
77 97 128
80 99 128
81 100 128
83 101 128
80 99 128
83 101 128
81 99 128
78 98 128
74 93 121
82 100 128
82 100 128
82 100 128
79 96 121
77 97 128
80 99 128
80 99 128
78 98 128
76 93 118
77 94 121
81 100 128
73 95 128
78 98 128
81 100 128
79 99 128
82 100 128
81 100 128
78 98 128
85 102 128
72 91 118
73 91 118
77 97 128
75 96 128
72 90 118
81 99 128
79 99 128
80 99 128
82 100 128
80 99 128
79 98 128
74 92 118
83 101 128
82 100 128
82 100 128
85 102 128
81 100 128
83 101 128
84 102 128
80 99 128
77 97 128
75 96 128
67 85 112
72 91 121
75 96 128
80 99 128
76 96 128
76 97 128
83 101 128
77 97 128
82 100 128
85 102 128
83 101 128
76 97 128
78 95 121
80 99 128
82 100 128
80 99 128
78 98 128
85 102 128
82 100 128
81 100 128
80 96 121
68 87 116
77 97 128
74 93 121
79 98 128
80 99 128
80 99 128
76 93 118
75 94 121
55 66 83
61 75 96
62 74 92
59 74 96
70 83 102
65 78 97
53 66 84
51 64 84
66 81 102
63 76 96
61 75 96
63 76 96
48 58 73
45 56 72
46 57 73
49 61 80
58 70 90
51 62 78
48 57 72
66 78 97
52 62 78
62 73 89
49 64 86
46 58 77
63 74 91
55 66 84
50 61 76
59 75 99
49 61 78
49 61 80
48 58 72
53 65 84
61 75 97
52 66 86
57 68 85
55 66 83
61 75 96
40 51 67
39 51 68
55 67 85
47 57 72
73 90 115
52 64 83
54 66 83
52 64 83
63 78 102
47 57 72
52 64 83
57 70 90
47 60 80
71 84 102
61 73 91
64 77 96
66 79 99
65 78 99
58 73 96
47 57 74
51 65 86
50 61 78
57 70 89
58 69 86
49 60 76
65 80 102
70 86 109
56 67 84
52 63 78
47 58 75
49 61 80
58 68 84
54 65 83
54 66 84
58 72 92
67 81 102
54 66 84
54 68 89
63 76 96
58 72 92
60 73 92
60 71 89
58 71 91
51 64 83
54 66 84
52 63 80
57 67 83
51 64 83
55 69 91
80 99 128
63 76 96
64 78 99
49 59 75
57 74 99
47 59 77
61 73 92
43 54 70
62 75 96
75 88 108
65 82 108
62 75 96
48 57 72
38 47 61
44 55 72
56 69 89
72 88 112
38 46 59
52 62 76
46 58 76
73 90 115
48 61 80
76 92 115
64 77 96
36 46 60
51 64 83
66 83 108
57 71 92
56 70 89
51 64 83
48 60 80
56 70 91
84 101 128
77 97 128
78 95 121
81 99 128
78 96 121
74 91 118
77 93 118
79 95 118
77 97 128
78 98 128
82 100 128
85 102 128
83 101 128
78 98 128
85 102 128
78 98 128
81 99 128
76 93 118
76 96 128
74 95 128
79 99 128
79 99 128
75 92 118
70 84 106
80 96 121
81 100 128
79 98 128
74 91 118
83 101 128
76 93 118
87 103 128
85 102 128
80 99 128
80 99 128
80 99 128
83 101 128
78 98 128
75 96 128
75 96 128
80 99 128
84 101 128
78 98 128
83 101 128
79 99 128
83 101 128
74 95 128
75 92 118
81 100 128
77 94 121
79 98 128
80 99 128
76 97 128
71 90 118
77 97 128
78 98 128
83 101 128
78 98 128
78 98 128
76 97 128
78 98 128
80 99 128
83 101 128
76 93 118
75 92 118
76 93 118
78 98 128
83 101 128
85 102 128
81 99 128
82 100 128
73 92 121
68 88 118
77 97 128
80 99 128
79 98 128
79 99 128
81 99 128
81 99 128
80 99 128
77 97 128
80 99 128
75 96 128
84 102 128
80 99 128
81 100 128
77 97 128
79 98 128
83 101 128
79 98 128
78 98 128
79 99 128
76 97 128
76 97 128
76 96 128
78 98 128
82 100 128
83 101 128
81 100 128
78 98 128
76 96 128
79 98 128
77 97 128
73 95 128
84 102 128
82 100 128
78 98 128
75 96 128
76 97 128
81 99 128
83 101 128
72 94 128
79 99 128
80 99 128
83 101 128
80 99 128
79 98 128
78 98 128
70 89 118
77 97 128
74 96 128
82 100 128
78 98 128
79 98 128
75 96 128
79 98 128
76 97 128
79 98 128
78 98 128
83 101 128
77 97 128
80 99 128
81 99 128
83 101 128
82 100 128
81 100 128
79 98 128
77 97 128
77 97 128
77 97 128
80 99 128
80 99 128
78 98 128
84 101 128
82 100 128
80 99 128
82 100 128
82 100 128
79 98 128
80 99 128
81 100 128
83 101 128
86 102 128
79 99 128
78 98 128
79 98 128
77 97 128
75 96 128
79 98 128
75 96 128
68 87 115
81 99 128
76 96 128
76 97 128
76 97 128
82 100 128
79 98 128
83 101 128
75 96 128
83 101 128
80 99 128
83 101 128
82 100 128
79 99 128
74 95 128
86 102 128
81 100 128
79 99 128
71 89 116
83 101 128
74 93 121
73 95 128
78 98 128
82 100 128
79 98 128
79 98 128
81 100 128
81 100 128
80 99 128
78 98 128
75 96 128
81 99 128
82 100 128
77 97 128
79 98 128
82 100 128
77 97 128
79 98 128
76 96 128
84 101 128
81 100 128
79 98 128
71 90 118
78 98 128
76 96 128
80 99 128
80 99 128
82 100 128
85 102 128
76 96 128
80 99 128
76 96 128
83 101 128
77 97 128
83 101 128
73 95 128
82 100 128
73 92 121
75 92 118
70 89 118
76 96 128
81 100 128
79 98 128
76 97 128
75 96 128
73 91 118
83 101 128
77 97 128
77 97 128
80 99 128
76 96 128
79 98 128
81 99 128
80 99 128
74 91 118
72 90 118
77 97 128
83 101 128
78 98 128
83 101 128
79 99 128
82 100 128
78 95 121
70 88 116
79 98 128
79 98 128
77 97 128
79 98 128
79 98 128
84 101 128
76 97 128
78 98 128
70 89 118
84 101 128
82 100 128
82 100 128
76 94 121
76 94 121
80 99 128
78 98 128
82 100 128
71 90 118
74 93 121
76 96 128
76 97 128
81 99 128
75 93 121
76 96 128
68 88 118
78 98 128
76 96 128
80 99 128
78 98 128
75 96 128
75 96 128
77 97 128
77 95 121
83 101 128
71 91 121
81 99 128
79 98 128
84 101 128
72 88 112
47 62 83
80 94 115
50 60 75
48 60 78
67 83 108
37 44 56
49 59 75
47 62 84
62 75 96
61 72 88
56 67 84
38 48 62
52 67 89
50 63 83
52 64 84
56 67 84
64 77 96
63 77 99
61 77 102
52 64 83
54 67 86
62 74 91
53 65 83
52 64 83
56 68 86
61 75 96
56 68 88
63 76 96
53 63 80
66 80 102
65 80 102
63 76 96
48 59 76
53 67 86
54 67 86
56 68 86
49 63 83
56 69 89
61 75 96
58 71 89
56 66 83
54 66 83
62 76 96
66 80 102
54 66 83
55 70 92
57 67 83
68 84 108
49 60 76
57 68 84
74 90 115
67 83 108
55 66 84
63 76 96
60 73 92
40 49 64
47 58 75
54 66 84
66 80 102
60 72 89
59 74 96
42 51 65
58 71 90
52 66 86
60 74 96
51 63 80
48 58 73
48 57 70
55 69 91
57 73 96
60 74 96
59 72 91
47 58 73
52 63 80
45 57 74
55 69 89
47 57 72
49 60 76
65 77 96
42 52 67
77 95 121
49 60 76
60 75 96
49 60 77
65 80 102
58 71 89
59 74 96
61 75 96
57 70 89
46 57 73
56 68 86
56 69 89
39 47 60
59 72 91
47 60 80
40 49 64
59 70 86
47 57 72
69 82 102
57 70 89
63 77 99
61 73 91
51 64 84
64 79 102
58 73 96
58 71 90
55 69 89
65 80 102
64 77 96
63 74 91
61 75 96
54 67 86
44 54 68
47 58 76
66 80 102
49 59 74
54 66 84
72 94 128
80 99 128
66 87 118
76 97 128
69 90 121
71 91 121
73 90 115
78 98 128
80 99 128
76 93 118
79 96 121
75 96 128
76 93 118
66 84 112
81 100 128
81 100 128
76 93 118
71 89 115
72 92 121
81 99 128
81 100 128
67 82 105
72 88 112
77 93 118
80 99 128
82 100 128
80 99 128
79 98 128
76 94 121
81 99 128
79 99 128
82 100 128
72 94 128
83 101 128
76 97 128
69 87 116
80 99 128
76 93 118
74 90 115
77 97 128
77 97 128
81 100 128
77 97 128
77 97 128
81 99 128
83 101 128
81 99 128
81 97 121
78 94 118
82 100 128
78 98 128
79 99 128
84 102 128
73 92 121
80 99 128
76 97 128
81 100 128
74 96 128
73 91 118
79 99 128
76 97 128
83 101 128
79 98 128
71 89 116
84 101 128
80 99 128
75 96 128
79 98 128
79 99 128
81 100 128
80 99 128
79 98 128
76 97 128
83 101 128
83 101 128
82 100 128
84 101 128
83 101 128
76 96 128
80 99 128
78 98 128
76 96 128
85 102 128
76 94 121
80 99 128
80 99 128
79 98 128
76 94 121
78 98 128
76 96 128
74 93 121
75 96 128
79 99 128
84 102 128
81 100 128
82 100 128
83 101 128
81 99 128
80 99 128
78 98 128
75 93 121
83 101 128
83 101 128
78 94 118
81 99 128
81 100 128
74 92 118
80 99 128
80 99 128
75 96 128
79 99 128
81 100 128
82 100 128
79 98 128
81 99 128
83 101 128
76 96 128
80 99 128
84 101 128
81 100 128
70 89 118
83 101 128
77 97 128
76 97 128
83 101 128
80 99 128
79 98 128
79 98 128
80 99 128
79 98 128
79 98 128
81 100 128
81 100 128
76 97 128
76 96 128
81 99 128
75 96 128
85 102 128
83 101 128
80 99 128
73 95 128
75 92 118
80 99 128
78 98 128
77 97 128
76 97 128
75 94 121
79 99 128
80 99 128
76 96 128
78 98 128
83 101 128
81 100 128
77 97 128
85 102 128
80 96 121
82 100 128
77 97 128
76 97 128
80 99 128
76 97 128
79 98 128
78 98 128
82 100 128
74 91 118
85 102 128
86 103 128
80 97 121
78 98 128
82 100 128
83 101 128
82 100 128
80 99 128
86 103 128
84 101 128
81 100 128
76 97 128
85 102 128
73 95 128
83 101 128
73 91 118
82 100 128
81 100 128
77 97 128
83 101 128
77 97 128
76 97 128
81 99 128
76 96 128
78 98 128
80 99 128
82 100 128
81 100 128
78 98 128
80 99 128
79 98 128
79 98 128
80 99 128
77 97 128
78 95 121
78 98 128
80 99 128
69 87 115
78 98 128
77 97 128
79 98 128
74 95 128
78 98 128
78 98 128
78 95 121
81 99 128
82 100 128
78 98 128
79 98 128
80 99 128
76 97 128
74 95 128
80 99 128
82 100 128
78 98 128
83 101 128
78 98 128
72 92 121
81 100 128
77 94 121
78 98 128
82 100 128
81 100 128
78 98 128
79 98 128
81 99 128
77 93 118
78 98 128
79 99 128
77 93 118
80 99 128
75 96 128
77 97 128
80 99 128
79 98 128
76 97 128
75 96 128
72 89 115
79 98 128
68 84 109
80 99 128
71 89 115
74 95 128
72 91 118
82 100 128
72 91 121
79 98 128
83 101 128
79 99 128
71 94 128
83 101 128
69 85 108
73 91 118
79 98 128
74 92 118
80 99 128
78 98 128
81 97 121
79 98 128
76 97 128
74 90 115
77 95 121
81 100 128
79 98 128
72 90 118
76 97 128
81 97 121
77 97 128
79 98 128
86 102 128
72 90 118
75 93 121
63 81 107
70 91 121
83 101 128
74 92 118
71 91 121
72 92 121
78 98 128
52 63 81
59 72 92
62 75 96
41 49 60
50 63 83
57 71 91
50 63 83
55 66 83
46 59 80
52 65 86
58 71 89
71 86 108
57 68 86
46 56 72
55 65 80
54 65 83
60 72 91
71 86 108
52 65 84
52 63 80
51 64 83
75 91 115
72 86 108
44 55 72
79 96 121
48 56 70
56 69 89
66 79 99
59 71 91
61 75 96
60 74 96
49 58 73
54 69 91
67 84 110
57 68 84
42 51 65
69 84 105
67 79 99
61 75 96
58 70 89
69 86 110
45 56 72
46 56 72
60 72 91
70 85 108
64 79 102
58 73 96
49 61 80
48 60 78
60 71 89
55 67 85
63 78 102
41 49 62
62 75 94
66 81 102
57 69 88
50 63 83
59 72 91
56 67 83
64 77 97
70 85 108
62 76 97
54 66 84
70 86 108
51 62 78
48 60 76
50 64 84
57 70 89
60 80 108
67 81 102
68 79 97
58 73 96
44 55 72
77 92 115
64 75 91
50 63 83
65 80 102
59 71 89
59 74 96
58 70 89
56 68 86
60 74 96
58 71 90
51 63 80
55 66 83
62 75 96
52 65 86
64 80 105
72 85 105
53 63 78
58 72 92
46 56 72
77 92 115
47 59 76
57 71 91
66 78 96
65 80 102
57 68 86
63 77 99
73 92 121
48 59 76
55 65 80
63 76 96
62 73 91
44 54 70
39 49 64
58 73 96
68 84 108
57 69 86
63 77 99
56 70 91
59 74 96
48 60 78
57 68 83
67 81 102
56 70 91
66 82 105
87 103 128
83 101 128
79 99 128
76 97 128
81 100 128
82 100 128
70 85 108
69 85 108
77 97 128
79 98 128
84 101 128
80 99 128
81 100 128
79 98 128
64 83 110
86 103 128
69 90 121
78 98 128
78 94 118
75 96 128
80 99 128
68 88 118
85 102 128
78 98 128
75 91 116
75 96 128
79 96 121
77 97 128
75 96 128
80 99 128
78 98 128
80 99 128
78 98 128
78 98 128
78 98 128
75 93 121
80 99 128
85 102 128
78 98 128
78 98 128
78 98 128
73 95 128
78 98 128
78 98 128
79 99 128
74 92 118
78 98 128
85 102 128
81 99 128
82 100 128
79 99 128
72 88 112
86 103 128
80 99 128
82 100 128
73 92 121
76 94 121
82 100 128
80 99 128
81 100 128
74 93 121
72 89 115
83 101 128
72 94 128
75 96 128
82 100 128
78 98 128
81 99 128
76 97 128
84 101 128
76 97 128
76 97 128
84 101 128
83 101 128
78 98 128
82 100 128
79 99 128
84 101 128
78 98 128
73 95 128
80 99 128
78 98 128
79 99 128
81 100 128
72 91 118
83 101 128
83 101 128
75 96 128
80 99 128
72 94 128
72 92 121
77 97 128
77 97 128
78 98 128
71 91 121
69 90 121
80 99 128
80 99 128
81 100 128
75 93 121
77 97 128
85 102 128
74 95 128
79 98 128
77 97 128
78 98 128
82 100 128
79 99 128
78 98 128
73 91 118
78 98 128
77 97 128
70 87 112
81 99 128
79 98 128
79 98 128
83 101 128
77 97 128
78 98 128
75 96 128
76 96 128
77 97 128
71 91 121
74 96 128
81 99 128
81 100 128
76 97 128
77 97 128
79 98 128
85 102 128
83 101 128
75 96 128
73 95 128
80 99 128
74 95 128
75 96 128
86 102 128
78 98 128
77 97 128
79 98 128
78 98 128
77 97 128
77 97 128
78 95 121
77 97 128
80 99 128
73 91 118
73 93 121
84 101 128
78 98 128
73 91 118
79 99 128
80 99 128
78 98 128
79 98 128
72 92 121
81 100 128
82 100 128
78 98 128
83 101 128
78 98 128
74 95 128
83 101 128
80 99 128
76 97 128
71 94 128
76 96 128
84 102 128
83 101 128
82 100 128
72 94 128
79 98 128
81 100 128
86 103 128
81 99 128
88 104 128
76 94 121
76 97 128
77 97 128
75 92 118
80 99 128
83 101 128
77 97 128
80 99 128
80 99 128
85 102 128
76 96 128
81 100 128
81 100 128
81 99 128
79 98 128
82 100 128
79 99 128
84 101 128
79 96 121
81 99 128
78 98 128
77 97 128
76 97 128
79 99 128
72 94 128
78 98 128
85 102 128
68 87 116
78 98 128
79 98 128
73 91 118
75 96 128
77 97 128
83 101 128
80 99 128
81 100 128
76 97 128
83 101 128
75 96 128
71 90 118
79 99 128
81 100 128
79 98 128
76 96 128
75 96 128
77 97 128
78 98 128
79 99 128
82 97 121
75 96 128
78 98 128
79 98 128
77 97 128
80 99 128
80 99 128
77 97 128
74 95 128
82 100 128
83 101 128
76 94 121
76 93 118
73 91 118
78 98 128
73 95 128
77 97 128
70 89 116
78 98 128
76 97 128
77 97 128
77 97 128
80 99 128
79 98 128
83 101 128
76 94 121
77 97 128
78 98 128
73 90 116
84 102 128
80 99 128
75 96 128
81 100 128
87 103 128
79 98 128
82 100 128
68 88 118
76 97 128
74 96 128
71 86 108
84 102 128
81 97 121
70 89 118
74 93 121
77 95 121
77 97 128
74 90 116
79 98 128
79 98 128
79 98 128
79 96 121
85 102 128
64 80 104
67 83 108
86 103 128
76 97 128
77 97 128
83 101 128
73 92 121
66 81 102
58 70 89
59 71 89
61 76 97
55 67 86
56 67 84
54 66 83
53 65 84
54 66 84
61 74 92
66 78 97
55 67 86
59 72 93
65 76 92
48 61 80
53 64 81
45 56 72
59 74 96
67 78 96
57 70 90
73 88 112
60 74 96
62 75 96
56 70 91
54 65 83
66 80 102
49 61 78
48 60 76
43 52 65
49 60 77
64 77 96
63 76 96
61 74 92
58 70 89
45 55 70
71 86 108
58 70 89
55 67 86
55 66 83
61 70 84
72 87 108
53 65 83
62 76 96
57 70 89
55 69 91
43 54 70
36 45 59
50 61 78
52 64 83
58 69 86
64 77 96
51 64 83
63 77 97
48 59 75
62 75 96
55 66 83
56 69 89
50 63 83
47 58 74
52 65 84
56 69 89
41 52 68
58 71 91
61 78 102
55 67 84
63 77 97
56 67 83
68 84 108
69 85 108
61 75 96
62 78 102
54 63 78
52 64 83
50 61 78
61 75 96
49 60 78
56 67 83
60 74 96
42 52 67
57 69 88
43 54 70
47 59 76
44 52 64
54 65 83
42 53 70
59 71 90
57 70 89
32 39 49
69 85 108
57 70 89
57 70 89
51 62 80
49 60 76
58 71 89
51 62 80
42 52 67
54 67 86
77 92 115
58 71 89
57 71 91
40 50 66
65 79 102
47 60 78
53 62 76
66 79 99
44 52 65
66 80 102
49 60 76
55 66 83
44 55 73
49 60 76
57 67 83
52 63 80
58 69 86
44 52 64
63 78 102
67 85 112
82 100 128
77 95 121
69 88 118
77 94 121
81 100 128
67 83 108
69 89 118
78 98 128
77 97 128
78 95 121
73 90 115
76 97 128
80 99 128
78 98 128
80 99 128
85 102 128
74 93 121
80 99 128
80 99 128
77 97 128
83 101 128
76 96 128
73 91 118
73 95 128
78 98 128
76 94 121
79 96 121
74 95 128
74 91 118
77 97 128
76 90 112
74 93 121
80 99 128
79 99 128
80 99 128
76 97 128
80 99 128
82 100 128
80 99 128
81 100 128
74 92 118
73 95 128
77 97 128
80 99 128
77 95 121
79 98 128
79 98 128
68 82 104
79 99 128
81 100 128
76 94 121
78 98 128
77 97 128
76 97 128
77 97 128
79 98 128
72 89 116
83 101 128
78 98 128
74 93 121
75 92 118
79 98 128
70 91 121
79 99 128
80 99 128
78 98 128
77 97 128
83 101 128
81 100 128
76 97 128
81 100 128
81 100 128
78 98 128
77 97 128
79 99 128
77 97 128
82 100 128
87 103 128
79 98 128
77 93 118
83 101 128
75 96 128
73 95 128
76 94 121
83 101 128
83 101 128
78 98 128
74 95 128
83 101 128
77 94 121
82 100 128
83 101 128
80 99 128
75 96 128
75 92 118
74 95 128
76 97 128
81 100 128
77 97 128
83 101 128
79 98 128
86 103 128
75 96 128
74 93 121
81 100 128
81 99 128
81 100 128
80 99 128
78 98 128
77 97 128
77 97 128
79 98 128
73 92 121
80 99 128
78 98 128
81 97 121
80 99 128
80 99 128
78 98 128
76 97 128
79 98 128
79 98 128
80 99 128
87 103 128
83 101 128
78 98 128
80 99 128
82 100 128
84 101 128
83 101 128
78 98 128
78 98 128
81 99 128
72 94 128
76 97 128
83 101 128
71 94 128
65 82 108
76 97 128
82 100 128
77 97 128
75 96 128
77 97 128
83 101 128
77 97 128
83 101 128
78 98 128
83 101 128
77 97 128
79 98 128
81 100 128
83 101 128
79 99 128
81 100 128
83 101 128
83 101 128
79 99 128
79 99 128
84 101 128
73 95 128
76 96 128
79 98 128
73 95 128
78 98 128
78 98 128
80 99 128
77 97 128
79 98 128
75 93 121
85 102 128
75 96 128
84 102 128
69 89 118
75 93 121
77 97 128
84 101 128
75 96 128
82 100 128
80 99 128
81 100 128
79 98 128
81 99 128
81 100 128
81 99 128
80 99 128
76 93 118
79 98 128
76 97 128
79 99 128
82 100 128
78 98 128
87 103 128
79 98 128
80 99 128
85 102 128
78 98 128
78 98 128
77 97 128
77 97 128
80 99 128
77 97 128
78 98 128
81 100 128
69 88 116
80 97 121
79 99 128
77 97 128
78 94 118
78 98 128
83 101 128
77 94 118
82 100 128
76 97 128
80 99 128
66 84 112
74 96 128
78 98 128
83 101 128
78 98 128
71 90 118
81 99 128
81 100 128
81 99 128
79 99 128
76 92 116
81 100 128
75 92 118
78 98 128
76 97 128
86 102 128
72 89 116
78 98 128
77 97 128
78 98 128
79 98 128
78 95 121
84 101 128
72 90 116
80 99 128
77 94 121
84 101 128
79 98 128
73 91 118
82 100 128
79 98 128
84 101 128
78 94 118
74 88 110
85 102 128
78 98 128
82 100 128
72 90 118
70 88 116
76 94 121
68 84 108
77 97 128
80 99 128
77 97 128
69 86 112
79 99 128
79 95 118
79 99 128
79 98 128
78 98 128
78 94 118
80 99 128
81 100 128
72 89 115
84 101 128
82 100 128
72 90 118
68 85 112
73 92 121
74 93 121
73 91 118
76 93 118
77 94 118
71 89 116
70 89 116
75 96 128
81 99 128
72 89 116
83 101 128
69 86 110
56 69 89
54 66 84
61 73 91
47 58 73
72 89 115
59 72 91
50 62 80
65 80 102
73 87 108
56 70 89
52 64 82
68 81 102
45 57 75
62 75 96
45 55 71
48 58 73
45 55 70
49 60 76
64 75 91
59 71 89
44 53 68
65 80 102
57 72 96
54 66 85
59 71 89
62 78 102
57 70 89
52 66 88
55 66 83
69 82 102
58 72 92
55 67 84
66 80 102
58 72 92
51 64 84
64 78 99
65 81 105
58 71 89
56 69 89
52 64 83
54 65 81
58 72 94
39 48 62
58 71 91
87 103 128
57 70 90
65 77 96
59 73 94
59 73 96
55 67 86
60 75 97
52 62 78
38 47 60
64 80 105
56 69 88
49 60 77
57 69 86
63 76 96
42 52 67
60 74 96
51 64 83
69 82 102
47 57 72
46 57 73
37 46 61
59 71 89
34 44 60
66 80 102
55 69 89
70 85 108
58 71 91
55 69 89
67 81 102
71 88 115
56 70 90
74 90 115
57 71 92
62 73 91
54 67 88
54 67 86
48 59 76
58 71 89
65 77 96
46 56 72
65 80 102
55 67 84
55 69 89
64 76 96
59 73 96
62 75 96
48 60 78
54 64 78
48 57 70
52 67 89
51 62 78
48 60 78
64 78 97
54 66 84
64 77 96
53 65 83
59 69 85
49 61 80
57 68 86
48 58 73
56 68 87
67 84 110
54 68 88
46 57 73
59 71 91
65 80 102
52 62 77
67 81 102
40 49 64
55 66 83
79 98 128
80 99 128
66 82 106
73 91 118
69 89 118
79 98 128
84 101 128
81 99 128
72 92 121
76 94 121
78 98 128
81 100 128
77 95 121
71 89 115
82 100 128
77 97 128
73 91 118
74 92 118
81 100 128
72 89 115
77 97 128
68 88 118
72 90 118
82 100 128
73 91 118
79 99 128
78 95 121
80 99 128
75 96 128
73 91 118
77 97 128
80 99 128
86 102 128
71 90 118
67 82 106
77 97 128
78 98 128
73 95 128
73 95 128
74 96 128
82 100 128
80 99 128
82 100 128
76 97 128
78 98 128
80 99 128
78 98 128
72 91 118
79 98 128
79 99 128
74 93 121
78 98 128
80 99 128
85 102 128
82 100 128
73 92 121
74 96 128
78 95 121
78 98 128
82 100 128
71 90 118
76 96 128
80 99 128
76 97 128
81 100 128
78 98 128
73 91 118
74 93 121
79 96 121
78 98 128
76 93 118
80 99 128
81 99 128
80 99 128
80 99 128
78 98 128
81 100 128
77 97 128
75 96 128
76 96 128
77 97 128
77 93 118
82 100 128
84 101 128
82 100 128
77 97 128
80 99 128
81 100 128
74 91 118
76 97 128
77 97 128
81 100 128
74 96 128
76 97 128
78 98 128
85 102 128
78 98 128
83 101 128
76 97 128
79 98 128
69 89 118
81 99 128
73 95 128
78 98 128
80 99 128
74 95 128
79 98 128
75 96 128
73 95 128
81 100 128
78 98 128
78 98 128
85 102 128
76 97 128
76 97 128
78 95 121
85 102 128
76 97 128
83 101 128
77 97 128
77 95 121
76 97 128
79 98 128
77 97 128
82 100 128
79 98 128
80 99 128
80 99 128
81 99 128
81 99 128
82 100 128
77 97 128
83 101 128
81 97 121
72 92 121
75 96 128
77 97 128
79 99 128
78 98 128
79 98 128
80 99 128
72 94 128
80 99 128
78 98 128
83 101 128
77 97 128
82 100 128
80 99 128
79 98 128
84 101 128
78 94 118
77 97 128
78 98 128
77 97 128
84 101 128
81 99 128
77 95 121
77 97 128
76 96 128
82 100 128
82 100 128
79 98 128
79 99 128
78 98 128
73 95 128
78 98 128
85 102 128
78 98 128
75 93 121
80 99 128
77 97 128
73 92 121
83 101 128
78 98 128
79 99 128
84 101 128
72 92 121
74 93 121
75 94 121
77 97 128
69 88 118
79 98 128
83 101 128
77 95 121
85 102 128
77 94 121
80 99 128
84 101 128
69 89 118
79 98 128
78 98 128
82 100 128
84 101 128
78 98 128
72 94 128
76 97 128
78 95 121
76 97 128
79 98 128
81 100 128
72 92 121
78 98 128
75 96 128
82 100 128
74 95 128
77 97 128
79 99 128
84 101 128
83 101 128
71 89 115
80 99 128
76 97 128
72 89 115
82 100 128
74 93 121
80 99 128
75 96 128
80 99 128
71 94 128
80 99 128
80 99 128
67 82 106
80 99 128
79 98 128
75 93 121
64 81 105
82 100 128
77 97 128
79 98 128
78 98 128
79 98 128
81 99 128
72 94 128
79 99 128
82 100 128
75 96 128
77 97 128
74 96 128
79 98 128
75 92 118
77 97 128
80 99 128
78 98 128
80 99 128
73 92 121
76 97 128
73 92 121
72 90 118
75 96 128
80 99 128
84 101 128
78 98 128
84 101 128
81 99 128
79 99 128
82 100 128
74 92 118
77 97 128
76 93 118
80 99 128
65 83 112
81 99 128
67 87 118
82 100 128
74 91 118
84 101 128
75 93 121
82 100 128
74 93 121
72 90 118
67 84 108
70 91 121
74 95 128
75 96 128
77 95 121
77 97 128
62 78 102
75 93 121
67 82 105
73 95 128
83 101 128
75 92 118
67 84 109
75 93 121
73 90 116
76 94 121
64 80 105
58 71 91
49 61 78
57 71 92
55 66 83
68 79 97
58 69 84
62 74 92
53 65 83
58 71 90
62 75 96
49 60 76
60 72 91
47 56 71
53 68 89
60 72 90
59 73 92
67 82 105
59 69 86
57 69 86
58 73 96
56 69 89
58 71 91
54 65 83
64 77 96
78 93 115
59 70 88
61 77 102
44 54 70
62 73 91
55 66 83
66 81 103
64 77 96
62 77 99
48 60 78
71 86 108
66 82 105
65 80 102
50 62 80
57 71 91
60 71 89
64 77 96
52 64 83
62 79 105
51 62 80
69 87 115
57 70 89
57 67 83
74 90 115
60 73 92
79 96 121
67 81 102
73 87 108
53 68 89
62 75 96
66 80 102
50 62 80
68 84 108
52 65 84
46 56 72
64 77 96
65 80 102
56 67 83
53 63 78
63 79 102
51 63 83
56 69 89
59 74 96
61 75 96
55 66 83
55 64 78
65 77 96
47 59 77
47 57 73
54 67 86
43 53 68
55 68 88
62 75 96
59 71 89
61 74 94
65 77 96
68 83 105
45 55 70
68 83 105
68 82 102
73 87 108
48 60 78
62 75 96
58 70 88
57 71 92
59 72 91
62 75 96
66 81 105
58 72 92
64 79 102
32 41 54
70 86 108
50 61 78
60 72 91
59 72 92
47 58 75
54 66 84
48 60 80
47 57 72
51 62 80
53 66 84
42 51 65
41 51 64
52 62 78
56 70 92
41 52 68
52 63 81
49 60 77
64 77 97
74 93 121
80 99 128
78 95 121
73 91 118
74 93 121
83 101 128
74 93 121
83 101 128
74 92 118
75 96 128
77 97 128
77 97 128
81 100 128
80 99 128
80 99 128
72 89 115
81 100 128
78 98 128
70 89 118
84 102 128
70 88 115
69 85 108
72 90 118
79 98 128
76 94 121
76 97 128
70 91 121
82 100 128
80 99 128
77 97 128
80 99 128
75 93 121
73 90 115
74 93 121
80 99 128
75 92 116
80 99 128
72 89 115
80 99 128
78 98 128
77 97 128
77 97 128
81 100 128
74 96 128
82 100 128
76 97 128
77 97 128
70 89 118
77 97 128
77 97 128
81 100 128
66 83 108
81 100 128
80 99 128
81 100 128
78 98 128
79 99 128
77 94 121
73 91 118
81 99 128
76 97 128
72 90 118
78 98 128
79 98 128
78 98 128
83 101 128
79 98 128
80 99 128
85 102 128
83 101 128
77 95 121
79 98 128
75 96 128
82 100 128
79 98 128
74 96 128
84 101 128
79 99 128
78 98 128
71 89 116
77 97 128
77 97 128
82 100 128
74 90 115
80 99 128
82 100 128
81 99 128
74 95 128
75 96 128
79 98 128
78 98 128
81 100 128
79 98 128
79 98 128
78 98 128
77 97 128
81 100 128
76 96 128
73 92 121
80 99 128
83 101 128
76 94 121
80 99 128
77 94 121
81 100 128
80 99 128
78 98 128
75 96 128
82 100 128
79 98 128
73 92 121
83 101 128
84 101 128
84 101 128
79 98 128
83 101 128
73 92 121
81 100 128
71 94 128
78 94 118
84 101 128
79 98 128
83 101 128
80 99 128
81 100 128
74 95 128
73 91 118
75 94 121
78 98 128
80 99 128
80 99 128
76 97 128
82 100 128
83 101 128
82 100 128
71 90 118
80 99 128
80 99 128
76 97 128
71 90 118
81 100 128
73 92 121
83 101 128
84 102 128
78 98 128
82 100 128
83 101 128
79 98 128
81 100 128
74 93 121
86 103 128
72 90 118
75 96 128
81 100 128
75 96 128
82 100 128
82 100 128
85 102 128
85 102 128
76 96 128
80 99 128
85 102 128
78 98 128
79 99 128
79 98 128
78 98 128
78 98 128
78 98 128
81 100 128
80 99 128
78 98 128
74 90 115
80 99 128
78 98 128
70 90 121
76 96 128
78 98 128
76 96 128
83 101 128
76 96 128
79 98 128
71 91 121
83 101 128
78 98 128
80 99 128
80 99 128
72 90 118
78 98 128
79 98 128
77 97 128
81 100 128
79 98 128
77 95 121
74 96 128
81 100 128
78 98 128
79 96 121
75 93 121
73 95 128
79 99 128
77 97 128
76 94 121
84 101 128
82 100 128
76 97 128
76 96 128
78 98 128
77 97 128
77 97 128
76 97 128
83 101 128
78 98 128
82 96 118
76 93 118
84 102 128
82 100 128
73 92 121
81 100 128
84 102 128
77 97 128
79 98 128
84 102 128
76 94 121
69 89 118
78 94 118
70 88 116
74 91 118
76 96 128
76 90 112
80 99 128
80 99 128
75 92 118
83 101 128
72 90 118
73 92 121
82 100 128
75 92 118
87 103 128
70 93 128
70 86 108
84 101 128
75 96 128
85 102 128
75 93 121
85 102 128
71 90 118
80 99 128
76 96 128
74 91 118
83 101 128
80 99 128
79 98 128
80 99 128
83 101 128
79 98 128
70 89 118
79 98 128
70 89 116
72 91 118
73 91 118
79 96 121
72 91 118
68 87 116
71 90 118
80 95 118
76 94 121
81 100 128
75 96 128
78 95 121
63 82 110
77 97 128
79 99 128
75 92 118
79 98 128
73 95 128
75 94 121
66 84 112
70 88 116
77 93 118
69 89 118
78 98 128
74 91 116
79 98 128
81 100 128
67 84 108
77 94 121
80 99 128
61 72 90
51 64 83
44 56 74
65 80 102
44 55 72
63 77 99
48 60 77
70 83 102
70 83 102
51 64 83
71 86 108
45 56 72
57 70 89
55 70 92
58 70 89
60 72 90
47 58 73
40 51 68
45 56 73
52 65 84
57 73 97
68 82 102
58 71 91
55 66 83
66 78 97
53 65 83
56 67 83
64 78 99
60 74 96
64 75 92
57 72 96
75 91 115
54 66 85
52 63 80
51 64 83
74 90 115
69 82 102
60 71 89
68 81 102
62 75 96
55 65 81
53 66 84
48 61 81
55 69 89
55 66 83
55 65 80
62 76 97
55 67 86
56 69 89
50 63 83
44 57 77
60 73 94
61 73 91
67 81 102
54 68 89
59 71 90
38 47 60
43 53 68
40 49 64
43 54 70
55 67 84
57 70 89
42 52 67
58 71 91
51 64 84
53 65 83
54 66 84
51 64 83
65 80 104
49 58 73
42 50 63
55 69 89
55 68 89
60 73 92
70 85 108
53 65 83
50 61 78
71 86 108
50 61 78
54 67 86
48 58 73
57 70 89
52 64 83
66 80 102
42 53 68
67 81 104
50 62 80
63 76 96
61 75 96
52 64 81
54 64 80
61 73 91
55 68 88
55 67 84
63 76 96
69 83 104
48 59 76
40 50 64
59 71 90
37 44 56
60 72 91
54 66 84
48 58 72
65 80 104
63 77 97
61 75 97
44 55 72
34 43 56
39 50 67
47 60 78
48 59 76
42 51 66
78 98 128
82 100 128
80 99 128
66 83 108
76 97 128
73 91 118
79 99 128
85 102 128
78 95 121
79 98 128
73 86 105
73 91 118
82 100 128
74 92 118
66 84 110
81 97 121
81 100 128
77 97 128
72 88 112
66 84 110
74 93 121
79 96 121
80 99 128
77 97 128
69 86 112
83 101 128
79 98 128
70 90 121
81 100 128
73 92 121
76 97 128
85 102 128
77 97 128
71 89 116
76 97 128
76 93 118
73 92 121
81 99 128
75 92 118
83 101 128
81 99 128
62 79 105
75 96 128
82 100 128
75 94 121
79 98 128
79 96 121
78 96 121
74 95 128
79 99 128
81 100 128
82 100 128
71 90 118
80 99 128
73 92 121
82 100 128
69 93 128
77 97 128
76 97 128
81 100 128
79 98 128
86 103 128
75 96 128
84 102 128
83 101 128
75 93 121
77 97 128
76 97 128
68 84 108
76 94 121
82 100 128
76 97 128
74 95 128
85 102 128
78 98 128
76 96 128
79 99 128
78 98 128
79 98 128
84 101 128
78 98 128
79 99 128
73 95 128
69 87 115
75 94 121
80 99 128
83 101 128
73 95 128
79 99 128
73 92 121
72 94 128
79 98 128
74 96 128
79 98 128
81 97 121
73 91 118
82 100 128
81 100 128
79 98 128
82 100 128
79 99 128
83 101 128
82 100 128
84 101 128
78 98 128
77 97 128
78 98 128
76 97 128
82 100 128
81 100 128
85 102 128
81 100 128
77 97 128
82 100 128
75 96 128
82 100 128
78 94 118
79 98 128
74 95 128
83 101 128
77 97 128
75 92 118
77 97 128
83 101 128
75 92 118
75 96 128
77 97 128
74 95 128
80 99 128
77 95 121
79 98 128
77 97 128
87 103 128
77 97 128
80 99 128
80 99 128
79 96 121
78 98 128
83 101 128
79 98 128
83 101 128
78 98 128
73 95 128
80 99 128
80 99 128
78 98 128
80 99 128
80 99 128
79 98 128
83 101 128
82 100 128
80 99 128
79 98 128
78 98 128
78 98 128
79 99 128
81 99 128
77 97 128
79 98 128
73 91 118
80 99 128
78 98 128
78 98 128
74 95 128
80 99 128
78 98 128
81 100 128
81 99 128
80 99 128
81 100 128
78 98 128
81 99 128
79 99 128
85 102 128
78 98 128
74 95 128
80 99 128
79 98 128
76 93 118
78 98 128
80 99 128
76 97 128
79 98 128
74 95 128
77 97 128
72 94 128
82 100 128
77 97 128
83 101 128
76 94 121
80 99 128
75 96 128
85 102 128
82 100 128
80 99 128
80 99 128
70 90 121
79 98 128
69 90 121
76 97 128
75 94 121
80 99 128
72 94 128
84 102 128
70 88 116
76 94 121
76 97 128
79 98 128
80 99 128
79 98 128
76 96 128
75 96 128
80 99 128
75 93 121
81 99 128
80 97 121
79 98 128
76 97 128
83 101 128
75 96 128
74 95 128
80 99 128
81 99 128
66 84 112
72 89 115
74 95 128
80 99 128
82 100 128
71 93 128
77 97 128
61 77 102
81 100 128
79 98 128
78 98 128
77 97 128
79 98 128
73 88 112
80 99 128
80 99 128
81 99 128
74 96 128
76 94 121
76 97 128
70 89 118
71 90 118
79 98 128
83 101 128
78 98 128
78 94 118
75 96 128
80 99 128
81 100 128
78 95 121
79 99 128
71 89 115
80 99 128
83 101 128
78 98 128
77 97 128
69 89 118
82 100 128
76 97 128
80 99 128
81 100 128
71 86 108
74 95 128
75 96 128
73 91 118
71 89 116
70 89 118
61 80 107
79 99 128
73 92 121
75 94 121
85 102 128
79 98 128
78 95 121
77 94 121
83 101 128
70 91 121
71 88 115
77 97 128
75 93 121
76 97 128
68 88 118
71 90 118
79 98 128
73 90 115
70 87 112
47 57 72
60 77 102
47 56 69
46 57 73
77 92 115
58 70 89
55 70 92
44 55 72
48 61 80
52 64 83
59 74 96
63 79 102
46 56 72
67 81 102
57 70 91
52 63 80
59 72 91
53 65 83
71 86 108
55 69 89
59 71 89
56 69 89
64 77 97
58 71 91
52 67 89
74 90 115
41 53 70
63 79 102
60 74 96
52 65 84
63 76 96
61 73 91
52 64 83
57 68 84
54 68 89
51 61 77
56 71 92
60 73 92
47 59 76
47 59 76
55 68 88
52 66 86
48 58 73
46 59 78
65 77 96
44 55 72
63 79 102
56 69 89
69 85 108
48 60 80
52 63 80
45 56 73
60 73 92
63 76 96
44 54 70
69 83 104
56 68 86
68 82 102
55 67 84
43 54 70
58 71 91
55 66 83
58 71 91
61 75 96
44 54 68
56 70 90
52 67 89
58 71 89
59 75 97
47 59 76
36 47 62
48 59 77
67 81 102
53 65 83
65 80 104
45 56 72
57 67 83
53 66 86
51 61 76
50 61 78
59 74 97
59 71 89
50 62 80
42 52 67
48 60 78
43 53 67
52 65 83
54 66 83
49 61 80
54 65 83
61 74 94
58 70 89
49 60 76
62 75 96
55 69 89
67 81 102
56 70 89
61 75 96
59 72 93
60 74 96
57 70 89
55 67 86
59 71 89
55 65 81
50 60 75
66 78 96
61 74 92
76 91 115
65 78 97
59 71 89
55 66 84
72 90 118
76 97 128
79 98 128
78 98 128
75 93 121
81 99 128
75 96 128
69 85 108
71 90 118
76 94 121
76 97 128
74 95 128
78 98 128
75 92 116
84 101 128
75 91 115
79 96 121
85 102 128
79 98 128
81 100 128
78 98 128
73 90 116
84 101 128
82 100 128
79 99 128
73 88 112
86 102 128
73 91 118
71 91 121
80 99 128
75 92 118
72 89 116
69 89 118
85 102 128
81 100 128
73 91 118
76 97 128
71 90 118
73 91 118
78 95 121
81 100 128
73 91 116
77 93 118
72 90 116
76 93 118
77 97 128
82 100 128
77 97 128
66 82 105
85 102 128
81 99 128
76 97 128
79 99 128
76 97 128
75 96 128
78 98 128
81 100 128
80 99 128
79 98 128
76 93 118
78 98 128
74 95 128
85 102 128
78 98 128
75 93 121
78 98 128
82 100 128
77 94 121
77 97 128
80 99 128
83 101 128
74 93 121
81 99 128
76 97 128
77 95 121
77 94 121
76 94 121
84 102 128
76 97 128
75 92 118
76 97 128
80 99 128
79 98 128
74 92 118
82 100 128
78 98 128
80 99 128
82 100 128
79 99 128
81 99 128
81 99 128
78 98 128
83 101 128
83 101 128
79 96 121
72 91 118
77 97 128
77 95 121
84 102 128
72 94 128
79 98 128
79 98 128
77 97 128
82 100 128
78 98 128
74 91 118
77 97 128
76 96 128
76 97 128
79 98 128
79 98 128
80 99 128
76 96 128
78 98 128
80 99 128
78 98 128
77 97 128
81 100 128
82 100 128
78 98 128
80 99 128
83 101 128
84 101 128
80 99 128
77 93 118
82 100 128
78 98 128
78 98 128
78 98 128
75 96 128
77 97 128
80 99 128
81 96 118
82 100 128
80 99 128
74 93 121
81 96 118
82 100 128
81 100 128
74 96 128
84 102 128
76 97 128
79 99 128
76 97 128
80 99 128
74 96 128
78 98 128
76 94 121
80 99 128
78 98 128
78 98 128
82 100 128
80 99 128
80 99 128
86 102 128
73 95 128
75 96 128
81 99 128
78 98 128
82 100 128
84 101 128
77 97 128
75 92 118
83 101 128
85 102 128
80 99 128
79 98 128
85 102 128
82 100 128
78 98 128
80 99 128
78 98 128
75 92 118
82 100 128
77 97 128
79 99 128
83 101 128
81 99 128
79 98 128
78 98 128
70 91 121
75 96 128
74 96 128
79 99 128
74 93 121
75 94 121
77 94 121
84 101 128
80 99 128
77 97 128
77 97 128
76 97 128
74 93 121
79 98 128
79 98 128
79 99 128
79 99 128
83 101 128
80 99 128
82 100 128
80 99 128
82 100 128
73 92 121
77 97 128
83 101 128
76 97 128
76 97 128
76 93 118
77 97 128
80 99 128
81 100 128
80 99 128
75 92 118
72 91 118
82 100 128
68 88 118
82 100 128
81 99 128
79 98 128
83 101 128
78 95 121
79 98 128
80 99 128
72 90 118
67 83 107
81 99 128
78 98 128
78 98 128
81 99 128
71 90 118
81 100 128
82 100 128
82 100 128
66 82 105
81 100 128
76 93 118
81 99 128
80 99 128
78 98 128
83 101 128
73 91 118
78 98 128
76 97 128
84 101 128
75 92 118
69 88 116
75 96 128
70 91 121
70 85 108
70 89 118
77 97 128
78 98 128
77 94 118
81 100 128
64 82 108
79 98 128
79 98 128
80 99 128
81 100 128
73 91 118
83 101 128
69 85 109
77 97 128
82 100 128
66 82 106
73 92 121
82 100 128
70 89 118
75 94 121
75 96 128
75 92 118
72 91 118
75 96 128
74 93 121
75 94 121
79 98 128
83 101 128
75 96 128
77 95 121
79 98 128
73 92 121
81 100 128
71 91 121
72 88 112
73 95 128
74 91 118
71 91 121
73 91 118
63 77 99
77 92 115
56 69 89
41 50 63
51 64 83
50 60 76
53 65 83
53 63 77
55 66 84
54 66 83
71 83 102
64 79 102
67 78 96
57 68 84
53 66 84
49 59 73
47 55 67
57 69 86
51 65 84
55 69 90
48 58 73
59 73 96
59 73 96
67 78 96
56 69 88
57 67 82
59 71 91
59 71 89
64 77 96
40 50 65
61 76 97
56 69 89
47 60 80
51 64 84
42 50 64
59 72 91
62 78 102
47 57 72
63 75 92
61 75 96
64 79 102
42 52 66
49 61 80
55 67 84
63 76 96
58 71 91
55 67 84
56 68 86
48 58 73
40 51 67
64 77 96
61 75 96
67 81 102
62 75 96
60 73 92
61 75 96
57 68 86
59 71 91
40 51 68
56 70 91
57 71 92
49 60 78
59 73 96
58 73 96
78 93 115
56 67 84
60 73 92
57 69 88
65 77 96
58 70 89
47 57 73
49 60 78
49 60 76
54 66 84
49 61 78
58 71 89
46 58 76
51 61 76
52 64 81
47 59 78
53 65 83
58 70 89
57 69 86
50 62 80
47 60 80
69 84 108
55 68 88
57 68 84
59 72 92
41 51 67
53 64 80
68 81 102
58 71 91
67 81 102
45 54 69
52 64 83
65 77 96
42 53 70
40 49 62
51 64 83
62 75 96
48 59 75
66 78 97
54 68 89
46 56 71
59 69 86
74 88 108
47 57 72
47 57 73
56 67 83
62 76 96
75 92 118
74 91 116
66 83 108
72 89 115
74 91 116
84 101 128
70 88 116
74 91 118
78 98 128
76 93 118
78 95 121
74 92 118
76 94 121
76 93 118
72 89 115
71 87 112
75 92 118
70 89 118
75 92 118
75 96 128
76 94 121
78 94 118
74 92 118
76 96 128
71 87 112
75 96 128
74 95 128
80 99 128
81 100 128
82 100 128
80 99 128
78 98 128
84 102 128
79 99 128
82 100 128
84 101 128
79 98 128
65 85 115
69 86 112
80 99 128
84 101 128
77 94 121
72 88 112
81 99 128
68 85 112
71 86 109
77 94 118
76 97 128
85 102 128
76 96 128
74 92 118
74 91 116
79 98 128
77 97 128
77 97 128
78 98 128
78 98 128
78 98 128
81 99 128
86 103 128
77 97 128
81 99 128
74 96 128
78 98 128
79 98 128
80 99 128
79 98 128
82 100 128
81 100 128
79 98 128
69 88 115
75 96 128
74 91 118
83 101 128
81 100 128
78 98 128
72 88 112
74 96 128
79 98 128
75 96 128
80 99 128
82 100 128
75 96 128
75 96 128
80 99 128
81 100 128
72 92 121
83 101 128
77 97 128
76 96 128
84 101 128
81 99 128
76 96 128
78 98 128
74 91 116
83 101 128
82 100 128
75 94 121
81 100 128
73 95 128
83 101 128
83 101 128
81 100 128
72 89 115
76 97 128
81 99 128
81 99 128
80 99 128
79 98 128
74 92 118
79 98 128
85 102 128
79 99 128
77 97 128
77 97 128
70 87 112
81 100 128
75 96 128
69 88 116
80 99 128
79 98 128
82 100 128
79 99 128
85 102 128
83 101 128
75 96 128
78 98 128
76 97 128
76 97 128
80 99 128
84 101 128
85 102 128
80 99 128
84 101 128
77 97 128
82 100 128
81 99 128
77 97 128
69 88 116
77 97 128
78 98 128
82 100 128
77 93 118
81 100 128
82 100 128
80 99 128
79 99 128
79 98 128
81 100 128
79 98 128
79 98 128
77 97 128
79 98 128
80 99 128
83 101 128
74 92 118
80 99 128
81 99 128
77 97 128
75 96 128
83 101 128
82 100 128
85 102 128
81 99 128
84 101 128
79 98 128
75 92 118
74 95 128
83 101 128
78 98 128
82 100 128
79 99 128
81 100 128
80 99 128
83 101 128
78 98 128
79 98 128
77 97 128
78 95 121
84 101 128
81 100 128
76 97 128
78 98 128
79 99 128
75 96 128
75 96 128
80 99 128
82 100 128
79 99 128
80 99 128
75 94 121
74 95 128
76 97 128
81 99 128
76 97 128
79 98 128
82 100 128
72 91 118
79 98 128
86 103 128
84 101 128
77 97 128
83 101 128
80 99 128
75 92 118
82 100 128
74 96 128
81 100 128
79 98 128
75 96 128
82 100 128
84 101 128
83 101 128
82 100 128
73 95 128
79 98 128
75 96 128
78 98 128
76 92 116
78 98 128
82 100 128
77 94 121
67 82 106
76 97 128
79 98 128
81 100 128
82 100 128
62 76 96
73 95 128
81 99 128
77 93 118
78 98 128
79 98 128
74 95 128
74 96 128
79 99 128
77 93 118
77 95 121
78 98 128
79 98 128
77 95 121
74 91 116
77 97 128
78 98 128
72 91 121
74 91 118
72 90 118
75 93 121
82 100 128
74 96 128
79 99 128
77 97 128
68 88 118
79 98 128
76 94 121
81 100 128
76 94 121
86 103 128
86 103 128
69 86 112
74 91 118
83 101 128
80 99 128
71 91 121
69 86 112
77 97 128
80 99 128
73 91 118
77 97 128
69 86 112
80 99 128
74 93 121
77 97 128
79 98 128
58 71 90
75 92 118
75 92 118
81 99 128
73 92 121
73 91 118
67 87 118
63 81 108
76 97 128
80 95 118
75 96 128
78 95 121
80 99 128
84 101 128
70 89 118
73 90 116
72 88 112
61 74 94
40 49 62
60 74 96
49 60 76
43 51 64
66 81 102
55 68 86
54 67 86
45 54 67
67 81 102
55 66 83
48 60 77
54 66 83
55 68 88
58 73 96
46 58 75
59 73 92
60 74 96
60 73 92
79 93 115
70 83 104
51 62 78
72 86 108
48 60 76
71 86 108
60 77 102
61 72 90
53 66 84
76 91 115
59 74 96
46 55 70
40 50 65
48 61 80
65 77 96
57 70 89
65 80 102
56 71 92
58 71 89
60 74 96
50 61 78
46 56 72
65 77 96
59 71 89
63 81 108
55 66 83
49 60 77
55 70 92
49 61 80
45 58 76
57 69 86
53 67 89
41 51 67
58 71 89
64 79 102
59 72 92
65 77 96
52 66 86
62 75 96
62 74 91
55 67 85
52 64 83
64 77 97
57 71 92
49 61 78
40 50 65
63 74 91
53 65 83
52 65 84
52 62 78
64 77 97
52 65 83
45 56 72
60 72 89
60 72 91
48 61 81
58 70 89
71 88 115
55 68 86
46 57 73
64 79 102
45 54 68
60 74 94
50 62 80
61 75 96
56 69 89
56 67 83
52 64 83
55 67 86
52 64 83
52 62 78
49 61 78
56 67 84
63 76 96
51 62 78
56 67 84
64 77 96
55 68 89
52 63 79
49 59 73
50 60 77
49 60 77
54 68 89
56 67 84
60 74 96
51 61 76
55 67 84
45 55 69
68 80 99
70 85 107
65 81 106
76 96 128
64 78 99
71 90 118
78 98 128
81 99 128
67 85 112
68 88 116
63 81 108
76 94 121
86 102 128
64 80 104
80 99 128
72 86 108
76 97 128
77 97 128
77 94 121
77 97 128
76 97 128
66 83 108
78 98 128
73 95 128
78 98 128
79 99 128
65 81 105
78 98 128
81 100 128
79 99 128
70 86 109
80 99 128
70 86 109
70 88 115
63 80 107
85 102 128
80 99 128
80 99 128
70 89 118
69 87 115
68 89 121
80 99 128
81 99 128
86 103 128
76 97 128
78 98 128
73 95 128
84 101 128
79 98 128
75 96 128
85 102 128
77 95 121
77 97 128
79 99 128
77 97 128
76 93 118
81 100 128
81 100 128
82 100 128
81 100 128
82 100 128
80 99 128
74 95 128
81 99 128
71 90 118
79 98 128
83 101 128
80 99 128
82 100 128
82 100 128
76 97 128
78 98 128
77 97 128
81 100 128
78 98 128
72 90 118
83 101 128
79 95 118
82 100 128
74 95 128
81 100 128
80 99 128
81 100 128
74 96 128
79 98 128
80 99 128
81 100 128
82 100 128
75 96 128
65 85 116
78 98 128
82 98 121
75 92 118
79 98 128
83 101 128
80 99 128
73 92 121
84 101 128
80 99 128
80 99 128
79 94 118
81 99 128
80 99 128
78 98 128
74 90 115
80 99 128
76 94 121
79 99 128
76 97 128
75 96 128
78 98 128
76 96 128
83 101 128
82 100 128
84 102 128
78 98 128
79 99 128
84 101 128
80 99 128
77 97 128
81 100 128
82 100 128
75 96 128
81 100 128
82 100 128
67 84 108
77 97 128
76 93 118
78 98 128
72 90 116
73 95 128
81 100 128
81 99 128
77 97 128
76 97 128
81 100 128
76 96 128
79 98 128
73 91 118
77 97 128
78 98 128
79 98 128
80 99 128
81 99 128
86 103 128
81 100 128
77 97 128
80 99 128
80 99 128
73 92 121
81 100 128
75 93 121
78 98 128
78 98 128
74 92 118
79 98 128
79 98 128
79 99 128
74 92 118
78 98 128
76 96 128
80 99 128
86 103 128
78 98 128
82 100 128
79 98 128
77 97 128
75 94 121
76 96 128
79 96 121
81 99 128
77 97 128
80 99 128
78 98 128
79 98 128
70 93 128
82 100 128
80 99 128
79 98 128
73 95 128
79 99 128
84 101 128
81 100 128
73 95 128
78 98 128
76 97 128
77 95 121
79 98 128
69 88 118
83 101 128
76 97 128
82 100 128
78 98 128
80 99 128
80 99 128
67 86 115
80 99 128
81 100 128
72 91 118
75 93 121
78 98 128
77 97 128
72 92 121
76 97 128
81 100 128
69 85 108
78 98 128
83 101 128
76 97 128
79 99 128
80 97 121
76 92 118
77 93 118
81 100 128
80 99 128
81 99 128
83 101 128
77 94 118
82 100 128
77 95 121
76 94 121
85 102 128
77 97 128
80 99 128
79 99 128
75 96 128
77 97 128
74 93 121
85 102 128
77 93 118
73 92 121
70 93 128
71 87 112
76 91 115
79 98 128
69 86 112
77 97 128
76 93 118
70 90 121
77 97 128
68 88 118
73 91 118
75 96 128
79 99 128
71 90 118
79 98 128
77 97 128
76 96 128
72 91 121
79 98 128
84 101 128
81 100 128
79 98 128
75 93 121
69 87 115
65 79 99
77 94 118
72 88 112
82 100 128
77 95 121
72 90 118
73 90 116
77 97 128
76 97 128
82 100 128
65 81 105
77 97 128
72 88 112
80 99 128
75 96 128
68 85 109
76 94 121
82 100 128
82 100 128
76 94 121
83 101 128
63 79 103
75 94 121
75 92 118
76 92 118
76 97 128
78 98 128
74 93 121
77 95 121
67 85 112
70 89 118
74 92 118
73 89 112
77 93 118
80 97 121
72 90 116
72 87 110
73 91 118
73 92 121
59 70 86
58 73 96
54 66 83
55 66 84
52 65 84
59 72 91
45 54 68
41 51 67
60 73 92
39 47 61
54 64 80
50 62 80
46 57 73
61 73 91
54 63 78
53 65 83
50 61 76
47 56 70
47 59 76
63 78 99
53 64 80
57 71 91
54 67 86
60 71 89
45 56 73
46 58 77
58 71 91
48 58 75
55 68 88
50 61 78
66 80 102
40 51 68
56 67 84
57 70 89
36 44 56
60 74 96
51 63 82
52 64 83
63 76 96
47 58 75
59 72 91
69 85 108
54 68 88
59 72 91
43 52 67
59 73 96
65 80 102
49 60 78
57 69 86
55 69 89
53 66 86
52 64 83
45 56 73
52 64 83
61 73 92
56 70 91
49 60 76
44 54 70
61 75 96
44 55 72
47 55 68
67 81 102
47 57 72
54 69 91
63 76 96
50 59 74
65 76 92
56 67 85
33 40 51
64 79 102
64 79 102
57 70 89
54 66 83
55 68 89
54 65 81
65 78 99
49 60 77
49 61 78
45 56 73
59 71 89
53 64 80
48 61 80
61 73 92
58 71 91
57 68 84
49 63 83
49 60 76
54 63 78
43 52 67
63 77 99
49 60 76
49 61 78
67 81 102
57 70 89
66 80 102
52 64 81
67 81 102
35 44 58
52 66 86
44 53 67
61 75 96
60 74 96
50 61 78
62 75 96
43 52 67
51 62 80
68 81 102
72 91 118
68 85 112
67 84 108
72 90 118
77 93 118
82 100 128
71 91 121
81 100 128
70 88 116
78 98 128
73 95 128
77 94 121
81 100 128
77 97 128
75 91 116
67 85 112
78 98 128
82 100 128
78 98 128
76 94 121
72 94 128
82 100 128
82 100 128
79 98 128
67 87 116
81 99 128
66 83 109
79 99 128
83 101 128
75 92 118
74 93 121
78 98 128
72 89 115
79 98 128
79 98 128
79 99 128
75 96 128
72 90 118
78 98 128
77 97 128
73 90 116
77 93 118
76 96 128
69 88 118
78 95 121
76 97 128
75 92 118
79 98 128
76 93 118
71 91 121
64 82 108
78 98 128
78 98 128
76 96 128
73 90 115
78 98 128
81 100 128
75 92 118
77 97 128
82 100 128
85 102 128
85 102 128
78 98 128
76 94 121
77 97 128
77 97 128
76 93 118
79 98 128
82 100 128
80 99 128
69 87 115
77 97 128
80 95 118
81 99 128
84 101 128
75 96 128
73 95 128
82 100 128
72 91 121
80 99 128
77 97 128
80 99 128
78 94 118
68 88 118
75 92 118
72 94 128
79 98 128
80 99 128
74 96 128
82 100 128
75 96 128
81 99 128
76 97 128
81 99 128
81 99 128
82 100 128
85 102 128
77 95 121
83 101 128
79 98 128
81 100 128
80 99 128
77 97 128
75 96 128
71 90 118
80 99 128
83 101 128
84 101 128
79 98 128
80 99 128
81 100 128
85 102 128
75 96 128
83 101 128
78 98 128
78 98 128
82 100 128
76 96 128
81 99 128
77 97 128
79 98 128
80 99 128
78 98 128
80 99 128
78 98 128
79 98 128
77 97 128
84 101 128
78 98 128
79 98 128
74 96 128
75 96 128
78 98 128
79 98 128
78 98 128
80 99 128
77 97 128
76 97 128
75 96 128
78 98 128
77 97 128
81 100 128
72 94 128
77 97 128
84 101 128
76 94 121
78 98 128
81 99 128
83 101 128
76 97 128
75 96 128
79 99 128
76 97 128
83 101 128
83 101 128
80 99 128
74 95 128
77 97 128
75 93 121
77 93 118
80 99 128
75 92 118
84 101 128
78 98 128
80 99 128
81 99 128
76 96 128
83 101 128
79 99 128
81 99 128
78 98 128
78 98 128
79 98 128
82 100 128
81 100 128
73 95 128
79 99 128
77 97 128
80 99 128
79 98 128
81 100 128
71 90 118
80 99 128
81 100 128
81 99 128
83 101 128
78 98 128
73 92 121
80 99 128
78 98 128
81 100 128
76 97 128
71 91 121
80 99 128
74 93 121
83 101 128
80 99 128
78 98 128
79 98 128
75 94 121
78 98 128
86 103 128
73 91 118
75 96 128
78 98 128
78 98 128
82 100 128
80 99 128
77 97 128
79 98 128
74 93 121
71 89 116
72 91 118
72 92 121
59 73 94
80 96 121
82 100 128
81 100 128
75 96 128
78 98 128
82 100 128
77 97 128
71 89 116
71 90 118
78 95 121
75 96 128
77 97 128
60 78 106
71 90 118
80 99 128
79 98 128
78 98 128
81 100 128
80 99 128
81 99 128
79 98 128
82 100 128
78 98 128
74 91 118
74 93 121
79 98 128
77 97 128
79 99 128
84 101 128
80 99 128
82 100 128
71 87 112
80 96 121
83 101 128
80 99 128
77 97 128
77 97 128
78 98 128
75 92 118
78 98 128
78 98 128
79 98 128
73 92 121
75 92 118
78 98 128
75 96 128
68 86 112
82 100 128
76 93 118
68 86 112
75 93 121
71 90 118
81 99 128
64 80 105
78 98 128
83 101 128
80 99 128
77 94 121
76 94 121
77 97 128
75 92 118
79 99 128
83 101 128
69 86 112
73 92 121
78 95 121
64 81 107
68 86 112
80 96 121
71 89 118
76 94 121
74 93 121
72 86 108
77 94 118
66 81 102
80 96 121
82 100 128
57 71 93
49 61 78
59 72 92
50 61 78
64 77 96
45 54 67
73 87 108
52 62 78
57 68 84
64 79 102
76 91 115
71 83 102
67 81 102
51 62 80
68 81 102
61 75 96
40 50 65
53 66 84
53 64 80
45 56 72
55 66 83
53 66 84
70 84 105
72 85 104
65 78 99
65 80 102
51 64 83
49 60 76
68 82 102
53 65 83
62 75 96
49 60 76
51 63 80
66 82 105
40 50 65
53 68 89
55 67 86
49 59 75
54 68 89
58 71 92
73 87 108
58 71 89
65 80 102
58 70 89
59 68 83
62 75 96
57 71 91
47 58 75
55 69 91
61 76 97
66 81 102
52 65 83
47 58 75
68 81 102
64 76 96
56 69 89
52 64 81
50 62 80
60 74 96
58 70 89
58 72 92
51 62 78
58 72 92
62 76 96
45 57 74
55 69 89
52 62 76
65 79 100
58 71 91
50 60 74
51 64 83
52 63 79
63 76 96
52 65 86
26 32 41
52 62 76
57 68 84
62 76 97
53 65 83
39 48 62
54 66 84
46 55 70
51 63 80
63 76 96
56 69 89
49 61 80
44 56 73
68 81 102
48 59 75
55 69 90
56 70 91
60 74 96
57 69 86
43 53 67
60 72 90
53 64 80
52 65 84
47 59 76
60 71 89
61 75 96
54 64 80
51 61 76
48 58 72
53 65 83
52 62 78
52 62 77
53 65 83
83 101 128
73 92 121
68 84 108
77 95 121
70 89 118
68 85 112
76 97 128
56 70 91
70 88 115
78 95 121
67 84 108
82 100 128
71 91 121
84 101 128
70 87 112
69 86 112
83 101 128
75 92 118
78 95 121
71 91 121
83 101 128
76 97 128
71 91 121
72 90 118
86 103 128
81 100 128
82 100 128
78 94 118
64 79 102
70 89 118
75 91 115
74 91 118
66 84 112
75 96 128
76 96 128
77 97 128
79 99 128
75 94 121
83 101 128
63 80 105
76 93 118
77 97 128
72 90 118
79 96 121
72 91 121
75 90 112
81 100 128
76 96 128
66 84 112
71 90 118
74 91 118
72 89 115
60 74 96
76 96 128
81 100 128
74 93 121
78 98 128
79 98 128
79 98 128
80 99 128
77 95 121
75 92 118
77 95 121
78 98 128
78 98 128
84 101 128
74 96 128
77 97 128
80 99 128
76 96 128
74 95 128
69 84 107
79 98 128
80 99 128
78 98 128
75 96 128
84 101 128
78 98 128
79 99 128
77 94 118
76 97 128
86 103 128
82 100 128
80 99 128
74 93 121
72 91 118
75 96 128
76 93 118
71 91 121
75 92 118
75 94 121
70 89 118
80 99 128
81 100 128
87 103 128
81 99 128
83 101 128
78 98 128
79 98 128
69 88 116
82 100 128
81 100 128
80 99 128
79 98 128
82 100 128
73 91 118
82 100 128
80 99 128
76 97 128
79 95 118
70 87 112
86 103 128
80 99 128
81 100 128
77 97 128
74 96 128
80 99 128
75 94 121
76 94 121
80 99 128
83 101 128
78 98 128
75 93 121
74 95 128
80 99 128
81 100 128
81 100 128
80 99 128
80 99 128
84 101 128
75 92 118
84 102 128
82 100 128
77 97 128
74 95 128
76 94 121
80 99 128
80 99 128
81 100 128
74 96 128
76 93 118
76 94 121
80 99 128
83 101 128
81 99 128
79 99 128
78 98 128
80 99 128
79 98 128
81 100 128
70 88 115
76 97 128
81 100 128
78 98 128
69 89 118
78 98 128
82 100 128
80 99 128
78 98 128
81 100 128
73 91 118
78 98 128
77 97 128
80 99 128
79 98 128
77 97 128
81 100 128
86 103 128
79 99 128
77 97 128
79 99 128
77 97 128
79 98 128
78 98 128
84 101 128
80 99 128
82 100 128
73 92 121
79 98 128
80 99 128
78 98 128
77 97 128
77 97 128
84 101 128
81 100 128
76 97 128
81 99 128
77 97 128
76 94 121
82 100 128
83 101 128
76 96 128
80 99 128
76 97 128
76 94 121
75 96 128
75 96 128
79 98 128
77 95 121
79 98 128
83 101 128
76 96 128
84 102 128
76 96 128
81 99 128
80 99 128
75 92 118
72 91 121
80 99 128
82 100 128
69 87 115
66 83 109
76 94 121
80 99 128
77 95 121
74 93 121
69 87 115
79 98 128
78 98 128
84 101 128
79 98 128
76 92 116
81 100 128
65 82 107
76 92 115
81 100 128
76 94 121
76 97 128
81 99 128
84 101 128
76 97 128
72 90 118
70 89 118
82 100 128
79 98 128
75 96 128
75 92 118
81 99 128
78 98 128
83 101 128
64 82 110
67 87 118
80 99 128
81 99 128
78 98 128
69 89 118
83 101 128
83 101 128
80 99 128
73 91 118
77 97 128
71 91 121
67 83 107
75 92 118
78 98 128
73 91 118
83 101 128
72 91 118
83 101 128
79 98 128
78 98 128
71 88 115
67 81 103
82 100 128
76 94 121
71 89 116
74 90 115
73 90 115
78 98 128
75 92 118
62 78 102
74 91 118
82 100 128
84 101 128
73 91 118
73 92 121
59 74 96
78 98 128
66 84 112
73 92 121
76 94 121
70 88 115
67 83 107
80 97 121
78 94 118
77 97 128
71 91 121
74 93 121
75 96 128
79 98 128
66 78 96
62 78 102
78 95 121
72 88 112
65 80 103
61 75 97
40 49 62
62 73 89
62 73 89
72 87 108
73 87 108
45 55 70
56 68 86
43 54 70
50 63 83
46 58 77
46 57 72
54 65 83
63 75 92
71 84 104
52 64 83
40 50 65
80 94 115
51 61 78
61 72 89
47 60 80
54 64 80
53 63 80
49 61 80
59 71 89
45 56 73
64 77 96
54 66 84
47 58 73
58 71 91
53 65 83
54 66 85
56 68 86
58 68 84
57 71 91
50 61 77
62 75 96
42 52 68
55 69 90
60 77 102
59 69 83
56 67 83
55 68 86
40 49 62
50 60 76
64 76 96
63 76 96
54 67 86
49 59 75
46 59 78
61 76 99
56 68 87
63 76 96
63 76 96
52 64 83
62 76 96
44 54 70
56 67 84
52 65 86
52 65 84
47 58 74
72 87 108
45 53 66
53 65 83
47 59 76
58 71 89
62 75 96
54 66 84
57 70 89
59 73 92
61 75 96
45 56 73
50 60 75
49 61 80
55 69 89
50 63 83
50 60 76
63 77 99
47 57 72
51 61 76
52 64 83
66 78 96
65 81 104
50 62 80
61 72 89
46 57 73
48 60 78
48 58 73
48 58 74
63 75 92
42 52 67
66 79 99
48 60 78
41 51 67
57 69 87
51 64 83
53 64 80
35 44 56
53 64 81
49 60 76
62 75 96
55 68 88
41 52 68
55 68 88
72 89 115
69 87 116
68 85 112
75 93 121
62 78 102
66 80 102
74 91 118
76 94 121
70 89 118
80 96 121
61 75 96
76 97 128
71 90 118
78 98 128
66 80 102
83 101 128
81 99 128
63 78 100
80 99 128
65 84 112
69 84 105
78 95 121
73 89 112
76 94 121
79 98 128
77 97 128
77 93 118
78 98 128
78 98 128
75 96 128
79 96 121
74 96 128
74 96 128
83 101 128
83 101 128
75 92 118
79 99 128
65 85 116
80 99 128
80 99 128
74 92 118
80 96 121
78 98 128
82 100 128
73 91 118
73 91 118
70 93 128
71 90 118
77 95 121
71 89 115
81 99 128
81 100 128
80 99 128
77 97 128
77 94 121
79 96 121
81 100 128
78 95 121
79 99 128
77 97 128
82 100 128
77 97 128
75 96 128
72 89 115
77 97 128
67 85 112
79 98 128
75 96 128
77 94 121
77 95 121
83 101 128
75 93 121
86 103 128
77 97 128
79 98 128
80 99 128
74 92 118
78 98 128
74 96 128
76 97 128
81 99 128
80 99 128
86 103 128
80 99 128
73 92 121
80 99 128
80 99 128
80 99 128
79 98 128
79 99 128
80 99 128
80 99 128
79 98 128
76 97 128
74 96 128
83 101 128
81 100 128
76 97 128
82 100 128
77 97 128
82 100 128
79 98 128
80 99 128
81 97 121
84 101 128
77 93 118
76 96 128
84 101 128
83 101 128
76 97 128
82 100 128
75 96 128
74 96 128
79 98 128
79 98 128
79 98 128
76 97 128
79 98 128
79 98 128
83 101 128
81 100 128
83 101 128
71 94 128
82 100 128
85 102 128
72 92 121
78 98 128
67 87 118
75 92 118
83 101 128
80 99 128
77 97 128
76 94 121
76 94 121
78 95 121
79 98 128
78 98 128
87 103 128
75 96 128
75 96 128
73 91 118
79 98 128
80 99 128
75 96 128
73 95 128
82 100 128
82 100 128
70 90 121
76 96 128
78 98 128
83 101 128
77 97 128
79 99 128
83 101 128
80 99 128
81 99 128
80 99 128
75 96 128
84 101 128
80 99 128
80 99 128
79 98 128
68 85 110
75 96 128
78 98 128
84 101 128
71 89 115
81 99 128
77 97 128
73 92 121
78 94 118
78 98 128
81 99 128
80 99 128
82 100 128
78 98 128
77 97 128
81 100 128
77 97 128
79 99 128
68 87 115
79 99 128
78 98 128
74 96 128
78 98 128
76 94 121
76 96 128
81 100 128
74 92 118
84 101 128
77 97 128
83 101 128
78 98 128
82 100 128
82 100 128
78 95 121
82 100 128
72 94 128
73 92 121
76 93 118
77 97 128
81 100 128
79 98 128
77 97 128
82 100 128
75 92 118
74 96 128
79 98 128
67 87 118
76 97 128
75 96 128
82 100 128
73 92 121
77 97 128
76 92 118
74 91 118
80 99 128
69 88 116
78 95 121
74 91 118
80 97 121
82 100 128
77 97 128
79 98 128
73 91 118
74 93 121
74 95 128
73 95 128
76 93 118
73 92 121
77 93 118
65 83 108
70 84 106
81 100 128
73 90 115
73 95 128
66 83 108
81 100 128
85 102 128
71 87 112
78 98 128
76 97 128
76 97 128
75 94 121
81 100 128
81 100 128
82 100 128
74 93 121
78 98 128
72 92 121
71 94 128
82 100 128
71 93 128
69 88 115
76 94 121
57 72 95
81 97 121
78 98 128
72 92 121
81 100 128
74 93 121
77 97 128
69 88 115
74 92 118
58 72 92
76 97 128
73 91 118
80 99 128
76 97 128
79 98 128
63 80 105
69 86 112
83 101 128
81 97 121
76 94 121
65 81 106
77 97 128
78 98 128
74 91 118
60 75 99
70 85 108
77 95 121
69 88 116
78 98 128
68 84 109
66 86 116
65 81 105
77 97 128
75 92 118
71 89 116
79 96 121
70 89 118
66 87 118
68 83 107
69 86 112
80 99 128
74 90 115
57 68 84
50 61 76
57 70 90
56 69 89
46 57 73
58 71 89
53 65 83
56 68 86
32 41 54
49 59 74
45 56 72
63 76 96
51 62 78
57 68 85
50 62 80
62 75 96
47 57 72
57 70 89
43 54 70
59 70 88
64 79 102
55 69 91
42 51 64
53 64 80
50 63 83
56 67 84
53 65 83
49 59 75
39 48 62
67 81 102
46 57 73
58 70 89
59 72 91
61 75 96
62 76 96
63 76 96
55 66 84
57 70 89
58 70 89
51 62 78
57 70 89
67 81 102
38 47 59
51 62 80
64 78 99
70 85 108
52 64 83
63 76 96
54 65 83
55 69 90
48 60 78
51 64 83
59 71 89
50 63 83
58 68 83
58 68 84
54 66 83
53 64 80
60 74 96
53 64 81
48 59 76
55 66 83
54 65 81
51 62 78
39 48 62
59 70 88
61 75 96
62 78 102
46 57 73
54 65 83
42 52 67
64 79 102
51 60 75
33 42 56
49 58 72
57 70 90
53 66 86
56 71 92
67 79 96
58 70 89
60 72 90
55 66 83
61 75 96
53 65 83
48 58 74
50 60 75
58 71 91
50 60 76
54 65 83
59 73 96
50 61 76
51 62 78
48 58 73
57 70 89
52 64 83
45 55 70
55 67 84
53 63 78
49 61 80
53 63 80
66 80 102
46 56 72
66 83 108
73 91 118
62 77 99
78 98 128
76 92 116
74 91 118
73 91 118
62 80 106
73 92 121
66 83 109
72 90 118
66 85 115
71 87 112
71 86 108
74 92 118
74 90 115
74 95 128
75 92 118
71 87 112
72 91 121
76 97 128
88 104 128
73 91 118
80 99 128
62 76 97
65 81 106
78 98 128
80 99 128
77 94 118
81 100 128
75 91 115
69 86 112
85 102 128
82 100 128
81 99 128
77 97 128
75 93 121
74 93 121
69 86 112
73 92 121
80 99 128
73 91 118
80 99 128
72 89 115
81 97 121
80 99 128
81 99 128
69 87 115
78 98 128
74 92 118
71 91 121
66 81 105
75 92 118
82 100 128
72 92 121
73 92 121
73 92 121
73 95 128
73 95 128
78 98 128
74 96 128
83 101 128
81 100 128
80 99 128
72 89 115
76 97 128
77 97 128
70 86 110
74 93 121
79 96 121
87 103 128
79 98 128
78 98 128
71 91 121
84 101 128
74 95 128
82 100 128
68 88 118
82 100 128
84 101 128
72 90 118
80 99 128
74 92 118
76 96 128
77 97 128
74 91 118
84 101 128
79 98 128
72 88 112
79 98 128
76 97 128
79 99 128
76 97 128
84 101 128
80 99 128
84 102 128
73 92 121
76 97 128
75 96 128
72 94 128
81 100 128
82 100 128
77 97 128
76 97 128
78 95 121
82 100 128
75 93 121
71 90 118
69 89 118
78 98 128
80 99 128
72 92 121
70 89 118
75 96 128
74 93 121
76 92 116
83 101 128
78 98 128
72 89 115
80 99 128
74 90 115
78 98 128
79 98 128
78 98 128
72 90 118
74 91 118
77 97 128
73 95 128
78 98 128
81 100 128
77 97 128
80 99 128
73 91 118
77 95 121
79 99 128
83 101 128
77 97 128
74 95 128
78 98 128
81 100 128
78 98 128
80 99 128
79 99 128
77 97 128
73 95 128
83 101 128
80 99 128
89 104 128
78 98 128
79 98 128
80 99 128
70 89 118
77 97 128
78 98 128
76 93 118
77 97 128
77 97 128
76 94 121
81 100 128
84 101 128
78 98 128
75 91 115
83 101 128
77 97 128
80 99 128
81 100 128
78 98 128
79 98 128
77 97 128
81 100 128
77 95 121
79 94 118
74 96 128
81 99 128
81 100 128
81 99 128
73 95 128
74 92 118
75 93 121
79 98 128
76 97 128
77 94 121
74 92 118
83 101 128
84 102 128
78 98 128
82 100 128
79 98 128
79 98 128
67 83 108
74 95 128
76 97 128
80 99 128
84 102 128
73 95 128
79 99 128
75 96 128
76 96 128
76 97 128
79 98 128
79 98 128
80 99 128
73 95 128
76 97 128
69 86 112
76 97 128
69 90 121
74 96 128
73 95 128
76 97 128
77 97 128
81 99 128
78 98 128
68 88 118
82 100 128
83 101 128
83 101 128
75 96 128
75 96 128
75 96 128
80 99 128
76 97 128
78 98 128
80 99 128
72 90 118
79 96 121
77 97 128
80 99 128
76 92 116
80 99 128
72 91 118
72 92 121
74 95 128
70 90 121
74 90 116
72 90 118
87 103 128
80 99 128
79 96 121
70 89 118
79 98 128
76 97 128
79 98 128
81 99 128
77 97 128
70 88 116
79 95 118
74 91 118
75 93 121
63 79 102
73 95 128
81 99 128
80 99 128
73 92 121
81 99 128
79 95 118
81 96 118
81 99 128
79 96 121
81 97 121
81 100 128
74 91 118
80 96 121
69 88 118
72 88 112
70 84 105
74 95 128
77 93 118
70 85 108
73 91 118
62 78 102
74 96 128
76 97 128
78 98 128
81 100 128
70 88 115
72 87 108
58 73 96
74 91 116
65 82 107
71 91 121
70 85 109
61 79 105
75 96 128
72 90 118
63 81 107
80 99 128
74 91 118
70 88 116
76 93 118
72 89 115
70 85 108
46 59 78
74 93 121
52 64 84
60 73 94
81 100 128
67 83 105
58 72 94
54 66 84
52 64 83
41 50 64
61 75 96
50 60 76
43 52 67
60 74 96
58 73 96
31 38 50
49 59 73
56 66 83
62 74 92
66 79 99
49 63 83
61 75 96
56 68 85
50 61 78
71 84 104
42 51 65
45 56 72
60 72 91
64 77 96
53 66 86
61 75 97
57 70 89
49 59 73
57 70 89
60 71 89
46 58 76
47 56 68
65 78 97
50 60 76
55 69 91
39 47 60
63 77 97
46 56 70
44 53 67
50 64 85
53 65 84
47 58 76
51 64 84
59 71 89
46 56 70
47 58 73
63 76 96
49 59 73
56 70 92
43 52 66
61 74 92
55 66 83
36 44 56
57 68 83
48 60 78
69 85 110
49 60 76
53 63 78
47 58 73
58 69 86
55 64 78
61 75 96
46 56 70
52 63 78
57 70 89
64 75 92
54 64 80
61 73 91
46 56 72
44 58 79
42 53 68
51 63 80
46 55 69
52 66 86
62 76 96
55 69 89
61 72 88
60 74 96
49 60 76
57 68 84
64 77 96
64 78 99
48 58 73
46 56 71
41 51 67
50 62 80
55 66 83
60 72 89
45 55 69
44 54 68
59 71 91
62 77 99
59 71 89
50 61 78
43 55 72
56 70 91
48 59 76
54 66 83
48 59 76
48 59 76
44 54 70
52 64 83
67 83 108
74 93 121
72 89 115
67 84 108
74 93 121
75 93 121
65 79 99
78 95 121
68 85 112
82 100 128
79 98 128
82 100 128
62 80 108
71 87 112
77 97 128
62 77 100
80 99 128
76 97 128
79 98 128
73 92 121
78 98 128
78 94 118
73 91 118
66 83 108
76 93 118
63 79 103
80 99 128
69 85 108
78 98 128
66 81 102
66 84 112
66 83 109
81 100 128
71 90 118
75 96 128
78 98 128
80 96 121
65 82 106
67 86 115
67 83 106
77 95 121
57 71 92
79 99 128
76 96 128
84 101 128
81 99 128
77 97 128
74 90 115
82 98 121
84 101 128
73 92 121
71 86 108
79 98 128
70 86 112
76 96 128
77 97 128
82 100 128
78 98 128
79 98 128
71 87 112
74 91 116
77 97 128
76 94 121
79 98 128
79 98 128
70 91 121
78 98 128
81 99 128
75 96 128
77 97 128
78 98 128
79 98 128
77 97 128
81 99 128
81 100 128
75 94 121
78 98 128
63 80 106
71 90 118
80 99 128
77 97 128
68 88 118
76 97 128
74 95 128
81 100 128
81 99 128
78 98 128
76 97 128
77 93 118
74 93 121
77 97 128
79 99 128
78 98 128
69 88 115
79 99 128
84 101 128
76 96 128
83 101 128
77 97 128
78 95 121
81 100 128
70 87 112
72 89 115
79 99 128
82 100 128
75 92 118
78 98 128
80 99 128
76 97 128
77 97 128
82 100 128
80 99 128
73 91 118
79 98 128
81 100 128
76 93 118
77 92 116
83 101 128
82 100 128
82 100 128
80 99 128
75 94 121
76 97 128
80 99 128
83 101 128
78 98 128
76 97 128
84 101 128
79 99 128
79 99 128
76 97 128
85 102 128
76 94 121
80 99 128
78 98 128
72 87 108
82 100 128
81 100 128
79 99 128
69 88 118
76 96 128
71 89 115
81 99 128
79 98 128
76 97 128
76 97 128
76 97 128
83 101 128
79 99 128
79 99 128
77 97 128
76 96 128
81 100 128
87 103 128
78 98 128
77 97 128
79 98 128
76 97 128
80 99 128
76 97 128
72 92 121
71 89 116
75 96 128
80 99 128
75 94 121
75 96 128
82 100 128
76 96 128
77 97 128
78 98 128
80 99 128
77 97 128
76 96 128
73 91 118
74 93 121
82 100 128
81 100 128
81 100 128
77 97 128
77 97 128
77 97 128
85 102 128
78 98 128
78 95 121
76 97 128
69 85 108
77 97 128
73 95 128
77 97 128
81 100 128
82 100 128
79 99 128
74 92 118
77 97 128
76 97 128
67 84 109
78 98 128
76 97 128
71 90 118
77 95 121
71 93 128
80 99 128
71 90 118
78 95 121
73 91 118
80 99 128
72 92 121
77 97 128
70 89 118
71 90 118
77 97 128
70 88 116
76 94 121
80 99 128
80 99 128
80 99 128
71 90 118
82 100 128
77 97 128
80 99 128
77 93 118
75 92 118
72 92 121
77 97 128
80 99 128
74 93 121
82 100 128
79 99 128
72 91 118
74 92 118
77 97 128
75 96 128
81 100 128
85 102 128
79 99 128
79 98 128
73 91 118
78 98 128
87 103 128
81 100 128
75 96 128
82 100 128
83 101 128
84 101 128
76 97 128
81 100 128
68 85 110
75 91 116
77 97 128
82 100 128
69 89 118
72 89 116
73 88 112
75 94 121
71 91 121
80 95 118
76 93 118
71 90 118
77 95 121
76 97 128
69 87 115
69 85 110
76 97 128
76 93 118
65 81 106
71 90 118
69 88 116
72 89 116
74 93 121
81 100 128
68 85 110
68 84 107
85 102 128
58 74 97
76 97 128
72 91 121
73 92 121
70 89 118
83 101 128
67 85 112
84 101 128
69 83 105
65 80 102
65 79 99
79 98 128
67 81 102
63 81 108
62 76 96
66 79 100
55 67 86
74 92 118
63 79 102
77 95 121
61 79 105
64 78 99
67 82 105
79 99 128
80 99 128
71 90 118
69 88 118
56 69 89
69 82 102
64 79 102
41 52 67
46 56 70
40 49 62
58 69 86
52 63 78
61 71 86
42 53 70
45 54 67
52 64 82
54 67 86
62 73 89
62 76 97
52 64 83
48 59 75
46 56 71
46 56 72
59 72 91
45 55 70
38 46 59
65 81 105
60 72 91
49 60 76
76 92 115
57 70 89
50 61 78
40 51 66
43 53 67
54 67 88
50 61 76
47 59 76
44 55 72
51 63 81
64 75 92
57 70 89
51 61 77
51 64 84
50 61 76
54 66 84
46 59 77
57 69 88
60 73 92
69 82 102
52 60 73
37 45 58
54 66 85
60 73 93
39 48 62
57 70 89
39 48 60
49 58 72
58 71 89
74 88 108
49 60 76
67 81 102
61 73 91
62 75 96
59 71 89
58 71 90
48 57 72
46 57 73
51 63 83
34 44 59
58 69 86
41 50 64
52 64 83
53 64 80
35 43 54
67 81 103
54 66 84
67 81 102
61 75 96
56 69 89
55 66 83
63 77 96
55 66 83
50 59 74
59 71 89
63 77 97
63 76 96
67 84 108
62 76 97
46 56 72
47 57 72
66 81 102
45 55 70
40 50 65
45 55 70
45 56 72
42 52 67
67 78 96
57 70 89
44 53 66
77 90 110
58 71 91
46 56 70
47 57 72
67 80 99
75 92 118
76 94 121
69 86 112
54 68 90
69 86 112
78 94 118
73 91 118
69 85 109
77 97 128
55 71 94
51 65 85
66 83 108
63 79 102
76 94 121
65 80 102
77 93 118
72 88 112
82 100 128
78 98 128
72 89 115
71 91 121
66 82 107
75 93 121
76 92 115
70 87 112
70 89 118
80 99 128
75 96 128
73 92 121
72 88 112
75 93 121
77 97 128
73 90 116
75 96 128
83 101 128
82 100 128
76 94 121
79 98 128
77 97 128
79 99 128
73 93 121
82 100 128
77 97 128
71 90 118
67 85 112
72 90 118
75 96 128
76 97 128
77 97 128
65 79 102
76 97 128
74 93 121
75 92 118
74 93 121
63 81 108
61 76 100
71 89 115
77 95 121
72 94 128
81 100 128
78 98 128
81 100 128
67 82 105
81 99 128
77 97 128
77 97 128
83 101 128
84 101 128
80 99 128
67 88 118
81 97 121
67 85 112
78 98 128
67 87 116
75 93 121
81 100 128
77 97 128
78 96 121
84 101 128
70 89 118
67 85 112
78 98 128
73 89 112
78 98 128
74 91 116
76 93 118
79 98 128
77 97 128
84 101 128
73 91 118
77 97 128
63 80 105
79 99 128
74 91 118
73 91 118
86 102 128
82 100 128
81 100 128
76 97 128
77 95 121
83 101 128
82 100 128
85 102 128
75 93 121
85 102 128
82 100 128
83 101 128
75 96 128
80 99 128
74 91 118
82 100 128
83 101 128
76 97 128
82 100 128
76 97 128
79 98 128
84 101 128
79 98 128
83 101 128
78 98 128
82 100 128
76 97 128
77 92 116
70 89 118
80 99 128
81 99 128
80 99 128
79 96 121
80 99 128
81 100 128
84 102 128
81 99 128
83 101 128
76 94 121
81 100 128
86 103 128
82 100 128
69 88 118
70 88 116
74 93 121
81 100 128
72 89 116
70 89 118
74 93 121
87 103 128
78 98 128
81 99 128
71 90 118
71 90 118
84 101 128
86 103 128
82 100 128
79 98 128
71 89 116
76 97 128
79 99 128
65 83 109
80 99 128
85 102 128
77 95 121
79 98 128
81 100 128
75 96 128
75 93 121
79 98 128
82 100 128
82 100 128
76 92 116
78 98 128
79 98 128
74 93 121
77 97 128
79 98 128
75 96 128
82 100 128
75 96 128
80 99 128
84 101 128
75 92 118
74 95 128
78 98 128
85 102 128
78 98 128
76 97 128
77 94 121
82 100 128
78 98 128
77 97 128
81 100 128
81 100 128
82 100 128
73 91 118
82 100 128
81 100 128
78 98 128
79 98 128
76 97 128
72 92 121
83 101 128
76 97 128
74 93 121
78 98 128
81 99 128
78 98 128
70 89 118
78 94 118
73 95 128
84 101 128
72 92 121
78 98 128
75 96 128
79 98 128
74 93 121
71 90 118
78 95 121
69 86 112
76 94 121
75 92 118
84 102 128
85 102 128
80 99 128
78 98 128
76 97 128
82 100 128
72 91 121
77 97 128
82 100 128
81 99 128
63 81 107
73 91 118
81 100 128
78 98 128
69 90 121
74 93 121
74 91 118
70 88 115
70 88 116
78 98 128
72 90 116
74 95 128
78 98 128
80 99 128
80 99 128
77 97 128
79 99 128
76 94 121
78 95 121
84 102 128
85 102 128
79 98 128
68 88 118
82 100 128
69 88 116
72 91 118
75 94 121
75 92 118
82 97 121
82 100 128
70 91 121
77 97 128
77 95 121
79 96 121
64 82 108
69 88 116
73 90 115
69 87 115
70 91 121
62 77 99
70 87 112
65 81 105
84 101 128
72 89 115
78 95 121
74 92 118
78 94 118
75 92 118
76 97 128
81 100 128
71 89 116
61 74 93
60 73 92
71 87 112
83 101 128
59 75 99
68 84 108
73 92 121
75 96 128
74 93 121
79 96 121
75 94 121
77 92 115
62 79 105
75 96 128
59 74 97
67 82 106
83 101 128
68 84 107
63 80 105
70 84 105
66 82 105
77 91 112
59 72 92
73 87 108
48 60 78
52 63 78
50 61 78
51 61 77
69 82 102
50 61 78
48 57 70
61 75 96
60 72 89
49 61 78
51 61 78
50 61 78
65 78 97
56 69 89
59 71 89
43 53 68
53 66 86
38 46 57
58 71 91
56 69 89
55 67 86
72 87 108
67 81 102
44 56 73
30 38 49
40 49 62
63 76 96
36 46 60
46 56 72
70 85 108
54 67 86
41 51 65
37 46 60
46 59 78
60 71 89
62 73 89
71 85 105
54 66 84
43 55 72
49 60 77
61 75 96
45 55 70
65 78 97
66 80 102
69 83 105
54 66 84
51 62 80
54 65 82
53 65 84
55 69 89
63 78 102
61 75 96
53 65 83
50 58 71
43 55 73
60 73 91
53 63 79
69 85 108
48 58 72
41 50 64
48 60 77
52 65 84
47 58 75
62 75 96
52 64 83
54 66 84
54 67 86
54 66 83
61 75 96
65 77 96
55 66 83
47 57 72
56 68 86
58 71 91
64 76 96
52 63 80
51 62 78
60 73 92
68 82 102
53 65 84
58 70 89
46 54 66
69 83 105
65 75 89
44 56 73
48 58 72
61 75 96
51 61 76
66 80 102
53 62 77
63 76 96
62 78 102
51 61 76
37 46 60
48 56 70
62 73 90
76 97 128
78 98 128
55 72 97
60 76 99
85 102 128
77 97 128
77 94 121
72 89 115
72 91 118
63 81 108
67 83 107
78 98 128
66 84 112
69 85 108
68 86 112
71 87 112
70 84 106
80 97 121
74 96 128
80 99 128
68 86 112
67 83 108
64 82 108
75 96 128
73 92 121
83 101 128
74 95 128
75 93 121
74 91 116
62 79 105
68 84 108
80 99 128
63 80 105
78 96 121
76 97 128
80 99 128
65 82 108
79 96 121
79 94 118
69 86 112
70 87 112
74 93 121
79 96 121
78 98 128
76 94 121
78 95 121
80 99 128
80 99 128
70 90 121
71 90 118
78 98 128
82 100 128
80 99 128
53 65 84
76 96 128
75 96 128
70 89 118
83 101 128
79 98 128
81 99 128
76 97 128
80 99 128
79 98 128
76 93 118
71 87 112
73 95 128
72 88 112
67 87 118
70 86 112
83 101 128
70 88 116
74 96 128
78 98 128
85 102 128
79 96 121
84 101 128
81 99 128
59 74 96
71 90 118
84 101 128
77 95 121
81 100 128
73 91 118
82 100 128
75 93 121
78 98 128
86 102 128
82 100 128
80 99 128
80 99 128
82 100 128
75 93 121
78 98 128
71 90 118
71 89 116
81 99 128
75 93 121
72 89 116
80 99 128
79 99 128
62 77 99
76 97 128
81 100 128
84 101 128
78 98 128
80 99 128
80 99 128
82 100 128
77 97 128
76 96 128
78 98 128
80 99 128
76 94 121
76 97 128
81 100 128
78 95 121
76 97 128
81 99 128
75 96 128
80 99 128
80 99 128
75 94 121
79 99 128
81 100 128
77 92 115
73 91 118
79 98 128
78 98 128
80 99 128
76 96 128
75 96 128
82 100 128
77 97 128
80 99 128
79 98 128
76 94 121
80 99 128
84 102 128
82 100 128
74 92 118
77 93 118
79 96 121
78 94 118
77 97 128
79 98 128
73 90 115
81 99 128
79 99 128
74 91 118
77 97 128
79 98 128
79 98 128
78 94 118
80 99 128
83 101 128
77 97 128
79 98 128
79 99 128
79 98 128
80 99 128
79 98 128
82 100 128
82 100 128
77 97 128
81 99 128
80 99 128
79 99 128
78 98 128
79 98 128
79 98 128
72 94 128
82 100 128
64 79 102
81 99 128
74 95 128
76 97 128
72 92 121
75 96 128
77 97 128
79 98 128
73 95 128
76 93 118
80 99 128
77 97 128
80 99 128
74 93 121
80 99 128
82 100 128
84 101 128
82 100 128
67 86 115
69 89 118
84 101 128
76 93 118
77 95 121
78 98 128
82 100 128
82 100 128
69 88 116
81 99 128
75 96 128
79 98 128
72 89 115
74 95 128
74 96 128
77 97 128
78 98 128
84 102 128
79 96 121
81 99 128
84 102 128
79 98 128
79 98 128
81 100 128
80 99 128
76 97 128
72 90 118
81 99 128
69 88 118
64 79 103
77 97 128
75 96 128
75 94 121
82 100 128
75 92 118
82 100 128
77 94 121
78 95 121
85 102 128
79 98 128
79 98 128
81 100 128
72 92 121
69 86 112
75 93 121
79 98 128
75 94 121
75 92 118
78 95 121
76 94 121
72 92 121
69 88 116
69 87 115
70 91 121
84 101 128
68 87 115
85 102 128
77 95 121
63 77 99
75 93 121
78 94 118
76 94 121
89 104 128
80 99 128
73 91 118
81 99 128
84 102 128
75 92 118
78 98 128
75 91 115
65 78 97
80 99 128
80 99 128
75 96 128
66 86 116
80 99 128
72 86 108
67 85 112
70 87 112
81 100 128
61 79 106
66 81 104
76 94 121
80 99 128
58 74 99
80 99 128
66 84 112
74 91 118
75 92 118
85 102 128
72 90 116
77 97 128
77 95 121
59 74 96
77 97 128
74 90 115
71 88 115
77 97 128
80 96 121
65 80 102
73 88 112
81 100 128
53 66 86
66 83 108
69 85 109
65 83 109
60 72 88
79 99 128
52 65 86
78 94 118
63 77 99
70 85 108
74 89 112
62 78 103
58 71 89
46 56 72
59 71 89
43 53 68
57 70 90
50 61 78
68 82 102
62 73 89
65 77 96
67 81 102
62 74 92
43 54 72
53 66 85
47 57 72
47 59 77
50 61 78
61 75 96
58 72 92
58 69 86
45 54 68
40 51 67
61 75 96
56 68 86
41 49 61
63 75 94
56 69 89
48 60 77
45 56 73
50 58 72
54 66 83
47 59 76
51 61 76
52 63 80
67 81 102
54 65 83
54 68 89
59 73 94
28 35 45
65 80 102
56 68 84
65 80 102
52 65 83
61 74 92
55 69 91
43 55 72
57 70 89
46 56 71
46 57 73
55 66 83
49 61 78
60 74 96
44 53 68
54 65 81
54 63 77
46 57 74
38 48 62
59 71 89
59 74 96
54 65 83
48 60 78
44 56 75
37 46 59
61 72 89
52 65 85
50 62 80
63 76 96
51 62 78
57 67 83
60 71 89
63 74 91
62 76 96
50 62 80
65 76 93
54 65 81
57 69 86
54 67 87
50 61 79
61 75 96
61 75 96
60 71 89
48 60 79
45 56 72
40 50 65
70 86 108
46 55 68
52 65 84
57 71 91
41 51 65
54 65 83
52 62 78
63 76 97
48 60 76
48 59 75
56 65 80
58 69 86
55 69 90
70 88 115
71 90 118
64 80 105
78 95 121
72 92 121
71 87 112
70 88 115
69 84 107
62 81 109
72 91 121
62 80 108
58 73 96
64 82 108
69 85 108
61 76 99
72 88 112
64 79 103
65 83 112
67 82 105
67 83 109
76 94 121
80 99 128
78 98 128
64 77 96
63 78 100
71 86 108
86 102 128
75 93 121
79 96 121
79 99 128
62 79 106
76 90 112
76 97 128
67 85 112
79 98 128
77 97 128
69 90 121
74 93 121
62 74 92
75 96 128
67 85 112
72 89 115
76 96 128
79 98 128
62 80 108
74 95 128
78 95 121
76 92 115
75 96 128
66 84 112
78 98 128
81 99 128
83 101 128
72 91 121
69 87 115
79 99 128
80 99 128
75 92 116
82 100 128
73 92 121
79 98 128
72 91 118
71 91 121
75 93 121
82 100 128
78 94 118
72 94 128
79 98 128
76 93 118
72 88 112
81 100 128
75 96 128
83 101 128
78 98 128
84 102 128
83 101 128
77 97 128
79 99 128
66 84 112
82 100 128
79 99 128
84 101 128
81 100 128
81 99 128
75 96 128
80 99 128
74 95 128
77 97 128
72 92 121
79 98 128
83 101 128
75 93 121
77 95 121
80 99 128
81 100 128
76 93 118
80 99 128
80 99 128
75 96 128
76 94 121
82 100 128
77 95 121
69 90 121
79 98 128
74 96 128
80 99 128
82 100 128
78 98 128
74 91 118
63 80 107
75 96 128
74 92 118
79 98 128
78 94 118
72 94 128
84 101 128
80 99 128
76 94 121
82 100 128
77 94 121
79 99 128
73 91 118
80 99 128
81 100 128
75 96 128
81 100 128
83 101 128
80 99 128
76 97 128
71 91 121
83 101 128
73 92 121
76 96 128
75 96 128
80 99 128
82 100 128
83 101 128
76 93 118
71 94 128
81 100 128
79 98 128
78 98 128
75 92 118
80 99 128
81 100 128
84 101 128
82 100 128
76 94 121
69 88 116
87 103 128
80 99 128
78 98 128
82 100 128
85 102 128
79 98 128
83 101 128
67 87 116
80 99 128
77 97 128
83 101 128
73 91 118
81 100 128
72 90 118
80 99 128
75 96 128
74 96 128
75 93 121
79 98 128
76 97 128
80 96 121
86 103 128
80 99 128
78 98 128
77 97 128
80 99 128
78 98 128
76 97 128
80 99 128
80 99 128
72 91 121
77 97 128
80 99 128
71 90 118
76 96 128
78 98 128
72 90 118
77 97 128
80 99 128
78 98 128
77 97 128
80 99 128
71 94 128
80 96 121
79 99 128
72 90 118
77 97 128
73 91 118
76 97 128
82 100 128
73 91 118
79 98 128
77 95 121
75 96 128
82 100 128
81 100 128
70 89 118
74 96 128
75 93 121
83 101 128
69 90 121
82 100 128
76 94 121
76 93 118
79 99 128
82 100 128
74 95 128
72 91 118
81 97 121
71 93 128
76 97 128
76 92 116
73 92 121
83 101 128
75 92 118
77 97 128
80 99 128
77 95 121
79 99 128
84 101 128
83 101 128
77 97 128
71 89 116
82 100 128
79 98 128
75 96 128
77 97 128
64 80 105
72 90 118
79 96 121
76 97 128
70 91 121
79 98 128
78 95 121
70 86 112
78 98 128
83 101 128
84 101 128
73 92 121
73 90 116
81 100 128
74 92 118
68 88 118
80 96 121
80 99 128
68 88 118
69 89 118
70 87 112
82 100 128
72 89 116
74 91 118
68 83 106
77 97 128
77 95 121
69 87 115
82 100 128
80 99 128
73 92 121
77 97 128
53 67 88
76 97 128
80 96 121
74 96 128
78 95 121
75 94 121
88 104 128
77 93 118
80 99 128
77 97 128
73 88 112
82 100 128
73 90 116
56 73 99
70 89 118
75 92 118
72 89 116
70 84 106
66 81 104
78 95 121
61 75 96
74 91 118
83 101 128
73 88 112
57 70 89
65 80 103
64 78 100
65 80 102
57 72 94
78 95 121
43 50 61
71 89 116
70 85 108
59 74 96
76 93 118
69 83 105
53 64 81
67 81 102
73 87 108
57 70 89
37 45 57
50 61 76
49 59 74
43 54 70
50 61 78
46 58 76
53 64 80
60 70 85
45 56 73
42 54 72
52 62 76
62 76 96
64 77 97
73 85 104
58 69 86
55 69 89
49 60 76
50 63 81
39 48 60
51 61 77
60 73 92
58 69 86
59 71 89
50 62 80
51 62 80
56 69 89
74 88 108
52 65 84
47 57 72
63 79 102
37 45 58
61 72 89
58 70 89
52 62 78
44 56 73
50 62 80
58 68 83
58 68 84
54 67 86
53 63 80
56 72 96
63 75 94
51 62 80
44 57 76
49 61 80
47 57 72
57 68 83
54 63 78
54 66 84
72 84 102
68 81 102
47 57 72
49 61 80
58 73 96
47 60 78
51 65 86
46 56 70
54 66 84
51 61 75
51 60 73
56 70 89
61 73 92
60 77 102
51 61 76
51 62 78
52 65 83
54 68 89
60 72 89
52 63 78
59 73 92
40 50 64
54 64 80
62 77 99
50 63 84
53 65 84
61 74 92
59 72 91
44 55 73
46 56 72
46 57 73
60 70 85
52 64 83
63 76 96
54 67 86
61 72 88
55 67 86
48 60 76
39 47 60
57 70 91
71 89 115
69 87 115
64 77 96
72 91 121
53 68 89
65 82 108
72 90 118
66 80 100
70 85 108
76 93 118
57 71 93
77 93 118
61 79 105
79 95 118
82 100 128
85 102 128
82 100 128
77 97 128
60 75 97
73 92 121
76 93 118
74 95 128
82 100 128
78 98 128
56 73 99
74 91 118
76 97 128
75 92 118
64 79 102
76 94 121
75 94 121
79 96 121
78 98 128
68 88 118
75 93 121
71 90 118
60 75 99
63 79 104
73 91 118
80 99 128
68 88 118
79 96 121
76 93 118
76 96 128
74 93 121
54 69 92
78 98 128
82 100 128
79 98 128
76 97 128
81 97 121
72 89 116
74 90 116
75 93 121
75 92 118
70 90 121
76 97 128
81 100 128
73 95 128
76 93 118
65 86 118
70 88 115
79 98 128
79 98 128
71 89 116
80 99 128
62 75 96
74 95 128
80 99 128
81 100 128
73 91 118
79 99 128
79 99 128
85 102 128
78 98 128
76 97 128
82 100 128
71 90 118
75 96 128
76 93 118
81 97 121
67 84 108
75 92 118
77 97 128
75 88 108
79 98 128
77 97 128
79 99 128
79 98 128
76 97 128
73 90 116
78 98 128
81 99 128
78 98 128
71 90 118
73 92 121
81 100 128
79 98 128
79 99 128
77 97 128
79 98 128
83 101 128
73 89 112
76 97 128
85 102 128
75 96 128
85 102 128
77 97 128
74 93 121
73 95 128
75 96 128
68 83 106
79 98 128
78 98 128
81 99 128
80 99 128
75 96 128
78 98 128
80 99 128
77 97 128
77 97 128
70 88 115
81 97 121
70 88 115
80 99 128
73 92 121
68 84 107
75 96 128
75 93 121
81 100 128
77 94 121
72 89 115
79 98 128
82 100 128
69 90 121
77 95 121
68 86 112
77 95 121
82 97 121
80 99 128
77 97 128
80 99 128
79 98 128
76 97 128
82 100 128
78 98 128
78 98 128
80 99 128
81 100 128
81 100 128
76 96 128
78 98 128
73 91 118
78 98 128
85 102 128
81 100 128
77 97 128
81 100 128
79 99 128
75 94 121
80 99 128
79 98 128
79 98 128
79 98 128
73 92 121
71 91 121
79 98 128
84 102 128
77 97 128
84 101 128
83 101 128
79 98 128
76 96 128
79 98 128
78 98 128
77 97 128
77 95 121
80 99 128
77 97 128
75 94 121
76 96 128
82 100 128
76 94 121
78 98 128
76 97 128
77 97 128
78 94 118
75 96 128
79 98 128
76 97 128
79 98 128
75 96 128
77 97 128
80 99 128
78 94 118
81 99 128
84 101 128
75 96 128
81 100 128
73 92 121
78 98 128
77 97 128
73 91 118
79 98 128
69 87 115
71 90 118
81 100 128
79 98 128
80 95 118
75 92 118
82 100 128
77 95 121
78 98 128
76 97 128
80 99 128
74 96 128
77 97 128
76 97 128
80 99 128
79 98 128
74 93 121
67 87 118
72 92 121
60 77 102
75 91 116
78 98 128
77 97 128
79 98 128
79 99 128
77 97 128
77 97 128
75 92 118
75 94 121
82 100 128
85 102 128
72 90 118
71 91 121
74 93 121
60 75 97
84 101 128
83 101 128
78 95 121
74 92 118
74 93 121
78 98 128
76 94 121
82 100 128
80 99 128
80 99 128
77 95 121
67 86 115
76 96 128
77 97 128
62 82 112
76 92 116
82 100 128
84 102 128
79 99 128
78 98 128
76 96 128
83 101 128
71 87 112
66 83 108
66 82 105
75 93 121
69 84 108
80 99 128
82 100 128
85 102 128
81 100 128
76 94 121
77 97 128
76 94 121
67 84 108
73 91 118
57 74 99
83 101 128
72 89 115
78 98 128
76 97 128
82 100 128
72 89 116
69 89 118
69 87 115
74 93 121
79 96 121
76 94 121
70 85 108
78 95 121
55 71 96
75 93 121
70 88 116
77 97 128
68 85 112
70 87 112
56 69 87
62 74 93
77 97 128
73 92 121
54 67 87
69 85 108
77 93 118
69 86 110
79 96 121
65 77 96
73 91 118
64 80 104
74 93 121
47 58 73
38 48 62
51 60 73
44 52 65
43 51 62
54 65 83
60 74 96
44 51 62
59 72 93
55 66 83
59 71 89
53 64 81
56 69 89
54 67 86
58 70 89
48 57 72
52 62 78
55 67 84
59 72 91
41 51 65
42 51 64
54 64 80
45 54 68
52 61 75
48 60 78
62 76 97
46 57 75
47 58 75
59 71 89
60 72 89
62 78 102
59 71 89
45 55 72
56 68 86
49 60 76
69 83 104
57 69 86
64 76 96
63 77 97
57 70 89
50 61 76
54 67 86
44 54 70
40 50 64
43 52 65
62 75 96
52 63 80
48 61 81
54 66 86
52 62 78
68 81 102
53 63 79
37 46 59
50 61 76
48 59 75
51 64 83
45 54 67
51 62 80
41 51 67
50 61 79
57 69 88
52 63 80
39 48 61
44 55 71
53 66 85
43 55 72
42 51 66
59 71 89
67 81 102
68 82 104
38 48 64
59 73 96
66 79 99
62 74 92
59 71 89
63 76 96
62 75 96
62 76 97
55 68 86
49 60 76
65 78 97
46 58 76
49 61 80
48 59 75
59 72 92
56 69 89
54 67 86
57 70 89
37 45 57
66 79 99
41 51 65
57 70 90
60 74 96
59 74 97
77 95 121
81 100 128
59 75 99
71 87 112
72 90 118
61 76 99
77 97 128
76 97 128
69 86 112
73 89 112
63 78 102
44 57 77
63 79 102
78 98 128
70 87 112
79 98 128
59 78 107
74 93 121
77 93 118
62 79 105
70 88 116
65 81 104
77 95 121
76 93 118
69 86 112
61 75 96
59 74 96
67 87 116
76 97 128
81 99 128
70 91 121
75 94 121
72 94 128
76 94 121
74 89 112
65 83 110
76 97 128
77 97 128
74 93 121
81 99 128
70 87 112
74 91 118
82 100 128
79 99 128
74 96 128
81 97 121
77 97 128
78 98 128
74 92 118
69 87 115
75 94 121
81 100 128
85 102 128
79 99 128
83 101 128
63 82 110
77 97 128
72 90 118
74 93 121
79 96 121
70 87 112
77 97 128
70 87 112
77 97 128
74 93 121
62 76 97
79 98 128
81 100 128
79 96 121
79 99 128
74 95 128
79 98 128
78 98 128
76 96 128
79 98 128
73 88 112
80 96 121
75 93 121
80 99 128
74 92 118
75 92 118
71 87 112
76 93 118
77 97 128
72 89 116
69 89 118
70 88 115
75 96 128
76 96 128
83 101 128
80 99 128
81 100 128
83 101 128
77 93 118
79 98 128
81 99 128
84 101 128
81 100 128
74 96 128
84 101 128
78 98 128
77 94 121
79 98 128
79 98 128
78 98 128
80 99 128
80 99 128
79 98 128
75 96 128
85 102 128
80 99 128
79 98 128
78 98 128
86 102 128
80 99 128
80 99 128
77 97 128
79 98 128
79 98 128
84 102 128
81 100 128
81 100 128
81 99 128
77 97 128
83 101 128
74 96 128
82 100 128
80 99 128
80 99 128
76 94 121
77 95 121
77 97 128
78 98 128
75 96 128
77 97 128
75 93 121
81 99 128
82 100 128
84 101 128
75 96 128
71 91 121
81 99 128
80 99 128
81 100 128
78 98 128
80 99 128
80 99 128
79 98 128
83 101 128
75 96 128
81 100 128
77 97 128
76 97 128
77 97 128
79 98 128
81 100 128
74 92 118
85 102 128
79 98 128
76 97 128
78 98 128
83 101 128
76 97 128
76 97 128
79 98 128
75 93 121
78 98 128
83 101 128
79 98 128
85 102 128
80 99 128
74 93 121
80 99 128
71 89 116
73 91 118
81 100 128
82 100 128
77 97 128
77 97 128
84 101 128
66 87 118
77 97 128
81 100 128
83 101 128
73 91 118
72 90 118
84 101 128
68 89 121
76 97 128
82 100 128
77 97 128
81 100 128
71 91 121
81 100 128
79 99 128
79 99 128
81 100 128
77 97 128
71 88 115
73 91 118
81 99 128
80 99 128
70 89 118
75 91 116
79 98 128
82 100 128
81 99 128
78 98 128
80 97 121
80 99 128
75 94 121
76 97 128
77 97 128
74 92 118
68 85 112
77 94 121
75 93 121
78 98 128
70 89 118
80 99 128
80 99 128
73 92 121
74 95 128
78 98 128
81 100 128
77 97 128
75 94 121
74 91 118
81 99 128
81 100 128
71 90 118
73 91 118
72 90 118
69 89 118
76 94 121
71 85 106
70 89 118
66 83 108
78 94 118
82 100 128
72 88 112
80 99 128
80 99 128
60 80 108
74 90 116
78 98 128
70 90 121
76 97 128
70 90 121
75 94 121
74 91 118
78 95 121
80 99 128
73 93 121
73 91 118
59 75 99
68 88 118
70 86 112
79 99 128
74 91 118
70 87 112
63 81 108
73 91 118
70 89 118
73 89 112
72 89 116
78 98 128
75 91 115
80 99 128
66 82 105
75 94 121
82 98 121
79 99 128
77 97 128
73 88 112
70 90 121
75 92 118
77 94 121
77 95 121
73 91 118
71 90 118
67 85 112
72 90 118
79 96 121
58 74 98
61 75 96
66 82 105
67 84 108
58 74 99
62 77 99
73 91 118
53 68 89
65 82 108
81 100 128
72 91 121
55 67 86
72 92 121
63 78 100
60 75 97
77 95 121
42 52 68
78 93 116
72 90 116
56 71 93
62 75 96
61 74 93
67 82 105
52 65 86
36 45 59
62 74 92
62 76 96
57 67 83
52 64 83
33 40 52
66 78 96
48 58 73
62 76 96
41 51 66
57 69 86
47 57 72
52 62 78
53 64 80
31 37 47
51 64 83
62 76 96
43 52 65
50 61 78
61 72 89
60 71 89
49 59 75
47 56 70
53 66 86
51 61 78
68 81 102
49 61 78
54 65 83
67 81 102
51 63 83
64 74 91
44 54 69
45 55 70
40 49 62
62 74 92
74 90 115
44 53 68
47 57 72
57 70 90
41 50 64
53 64 80
53 63 78
58 72 94
50 61 78
50 60 75
61 75 96
44 52 65
55 67 86
57 70 89
44 55 70
43 55 74
50 61 78
52 63 80
58 69 86
61 75 96
54 66 85
37 46 61
61 73 91
53 66 84
52 64 83
46 54 67
52 62 78
62 76 96
62 74 92
52 64 81
34 43 56
49 59 75
60 73 94
51 60 74
49 60 76
59 71 89
55 67 85
52 63 78
36 45 57
56 66 83
59 69 84
47 58 75
80 94 115
49 59 73
66 78 97
56 68 86
56 67 84
48 60 78
56 69 89
46 55 70
58 71 89
54 66 83
50 61 77
49 61 78
72 90 118
49 60 77
54 68 88
53 68 89
64 78 99
73 93 121
63 77 99
48 59 76
55 69 89
78 95 121
75 91 116
72 89 115
62 76 96
79 94 118
63 76 96
78 94 118
73 89 115
77 97 128
75 96 128
77 92 115
63 80 106
74 90 116
73 91 118
69 86 112
56 72 97
83 101 128
71 85 107
70 89 118
77 95 121
72 89 116
76 96 128
62 76 96
78 92 115
71 85 105
84 102 128
67 81 102
76 93 118
76 97 128
73 92 121
66 84 112
69 87 115
72 90 118
72 90 118
73 91 118
80 96 121
74 93 121
81 99 128
72 92 121
72 90 116
84 101 128
67 86 115
65 83 109
68 87 115
73 90 116
74 92 118
69 88 118
86 103 128
80 99 128
83 101 128
83 101 128
66 84 112
71 90 118
71 90 118
69 88 118
67 83 108
75 94 121
77 97 128
82 100 128
82 100 128
81 99 128
79 98 128
82 100 128
81 100 128
76 94 121
71 90 118
68 84 109
78 98 128
68 86 112
78 98 128
79 98 128
79 99 128
77 97 128
78 98 128
69 87 115
80 99 128
74 96 128
77 97 128
78 98 128
74 93 121
69 89 118
75 96 128
76 97 128
77 97 128
72 90 118
75 92 118
74 91 116
87 103 128
81 100 128
75 93 121
80 99 128
77 97 128
84 101 128
81 100 128
85 102 128
74 92 118
84 101 128
80 99 128
82 100 128
82 100 128
76 97 128
78 98 128
73 92 121
77 97 128
77 97 128
75 93 121
72 90 118
76 94 121
73 95 128
78 98 128
72 91 118
70 88 115
80 99 128
75 92 118
81 99 128
77 94 121
78 98 128
76 94 121
84 102 128
77 94 121
81 100 128
79 98 128
73 91 118
86 102 128
78 98 128
81 99 128
68 88 118
81 99 128
73 91 118
75 96 128
82 100 128
74 92 118
76 97 128
79 99 128
69 90 121
75 93 121
83 101 128
80 99 128
80 99 128
82 100 128
82 100 128
79 98 128
72 90 118
77 97 128
79 98 128
81 99 128
82 100 128
80 99 128
81 99 128
73 91 118
77 95 121
66 87 118
83 101 128
89 104 128
80 99 128
84 101 128
78 98 128
73 91 118
79 99 128
76 96 128
74 93 121
71 89 116
78 98 128
70 90 121
79 98 128
84 101 128
73 95 128
79 98 128
79 98 128
75 94 121
80 99 128
72 90 118
80 99 128
78 98 128
77 97 128
82 100 128
78 94 118
80 99 128
77 97 128
80 99 128
81 99 128
86 103 128
78 98 128
80 95 118
81 99 128
77 97 128
79 98 128
78 98 128
78 98 128
83 101 128
78 98 128
83 101 128
84 101 128
80 99 128
84 101 128
74 92 118
81 99 128
81 99 128
81 100 128
80 99 128
71 90 118
77 97 128
78 98 128
80 95 118
84 101 128
75 92 118
72 92 121
75 96 128
80 99 128
76 97 128
82 100 128
78 98 128
80 99 128
77 97 128
75 96 128
71 86 108
80 99 128
73 91 118
67 83 107
83 101 128
76 97 128
78 98 128
76 97 128
80 99 128
68 84 108
72 88 112
78 98 128
68 88 118
87 103 128
73 91 118
74 91 118
78 98 128
62 78 102
81 100 128
79 98 128
65 81 105
77 97 128
74 93 121
71 90 118
75 96 128
62 74 93
79 96 121
82 100 128
83 101 128
78 98 128
78 98 128
65 84 112
67 82 104
72 88 112
76 93 118
76 94 121
70 91 121
77 95 121
67 85 112
78 96 121
68 84 108
71 86 108
77 95 121
72 86 108
69 90 121
74 93 121
76 93 118
67 82 105
81 100 128
82 100 128
72 86 106
68 83 106
70 86 110
82 100 128
75 92 118
79 96 121
69 86 112
74 93 121
63 83 112
55 67 86
62 77 100
73 87 108
65 82 107
76 96 128
55 68 87
61 78 103
76 93 118
73 90 116
86 103 128
77 95 121
56 71 92
66 80 102
69 86 112
64 82 109
75 93 121
61 77 100
63 83 112
72 87 108
66 78 96
63 78 100
77 94 118
59 73 92
54 68 89
51 62 80
76 92 118
62 74 93
70 85 108
53 62 76
54 63 78
62 75 96
45 56 73
47 59 76
50 61 78
62 76 96
61 72 89
57 68 83
49 58 72
49 57 70
46 56 70
72 87 110
49 61 80
56 67 84
55 69 89
50 60 76
50 59 74
42 51 64
51 61 78
51 60 75
58 69 85
56 67 84
54 64 80
54 66 84
22 27 35
46 58 75
43 53 68
60 72 90
53 63 78
61 75 96
39 48 62
48 58 72
54 67 86
54 68 89
41 51 65
46 55 67
58 70 89
59 72 91
45 54 67
50 61 77
43 51 64
59 71 90
67 81 102
43 53 68
56 69 89
41 50 64
47 56 70
49 60 76
55 66 83
69 82 102
38 49 65
52 62 78
57 70 89
58 71 91
69 85 108
52 63 80
46 56 71
67 81 102
42 52 67
71 86 108
51 59 72
52 61 75
38 48 62
62 75 96
52 62 78
64 77 96
63 76 96
42 50 62
57 69 86
55 68 88
51 63 80
53 64 80
41 50 64
56 70 91
66 79 99
53 64 81
60 72 90
56 69 88
51 64 83
51 63 83
53 66 84
62 76 96
54 66 84
48 58 73
53 63 78
38 47 60
64 77 96
54 66 84
71 87 112
57 70 91
57 70 89
63 77 97
69 88 116
59 72 92
65 81 104
60 76 99
70 85 108
71 87 112
50 60 76
66 84 112
60 77 103
74 90 115
82 100 128
61 79 105
83 101 128
59 75 99
70 88 115
79 98 128
58 76 102
68 84 108
67 85 112
66 80 102
68 83 105
68 83 105
81 100 128
75 92 118
62 78 103
65 80 102
80 97 121
78 98 128
76 94 121
81 100 128
79 98 128
62 78 103
67 84 110
77 97 128
64 81 105
84 101 128
71 90 118
71 90 118
71 90 118
83 101 128
81 100 128
74 96 128
62 79 105
65 81 104
75 94 121
82 100 128
66 78 96
73 95 128
81 99 128
70 86 109
78 98 128
75 92 118
76 97 128
73 88 112
74 95 128
78 98 128
79 94 118
66 84 112
68 88 118
60 77 102
79 94 118
74 92 118
73 92 121
71 90 118
73 91 118
70 89 118
80 99 128
80 99 128
65 84 112
73 91 118
77 97 128
79 98 128
85 102 128
82 100 128
77 97 128
76 94 121
77 94 121
74 96 128
76 97 128
75 90 112
68 87 115
78 98 128
85 102 128
82 100 128
69 88 118
61 79 105
79 96 121
64 83 112
77 97 128
77 97 128
77 97 128
79 98 128
68 85 112
80 99 128
80 96 121
79 98 128
76 96 128
68 87 116
79 98 128
82 100 128
77 97 128
72 91 118
79 98 128
76 94 121
77 97 128
75 96 128
82 100 128
83 101 128
74 95 128
85 102 128
67 89 121
81 99 128
82 100 128
80 99 128
68 88 118
73 91 118
79 98 128
79 99 128
83 101 128
74 91 116
70 89 118
83 101 128
80 99 128
82 100 128
76 92 116
79 98 128
81 100 128
84 102 128
76 96 128
72 91 118
76 97 128
70 90 121
77 97 128
83 101 128
74 93 121
78 98 128
76 97 128
75 96 128
80 99 128
81 100 128
78 98 128
76 93 118
86 103 128
79 98 128
81 100 128
74 95 128
77 97 128
84 101 128
81 100 128
72 90 118
84 101 128
81 100 128
80 95 118
76 93 118
81 99 128
76 96 128
80 99 128
76 97 128
78 98 128
74 96 128
81 100 128
75 93 121
70 89 118
78 98 128
83 101 128
77 97 128
84 101 128
81 99 128
80 99 128
84 102 128
77 94 118
75 96 128
77 97 128
75 92 118
78 98 128
69 88 118
79 98 128
83 101 128
77 97 128
73 91 118
79 99 128
74 93 121
83 101 128
75 92 118
70 89 118
83 101 128
72 92 121
75 96 128
82 100 128
76 96 128
72 91 118
78 98 128
80 99 128
75 96 128
79 99 128
75 96 128
78 98 128
80 99 128
80 99 128
78 98 128
82 100 128
76 97 128
73 92 121
80 97 121
72 92 121
79 99 128
81 99 128
82 100 128
77 92 116
78 98 128
79 98 128
76 94 121
69 86 112
75 96 128
76 96 128
75 96 128
78 98 128
74 96 128
83 101 128
75 96 128
76 93 118
79 99 128
78 98 128
81 99 128
70 88 116
86 103 128
74 91 118
73 92 121
74 91 118
73 92 121
86 102 128
79 99 128
76 96 128
57 72 94
75 93 121
79 99 128
77 97 128
76 93 118
65 82 109
68 84 109
78 98 128
68 89 121
77 94 121
76 96 128
82 100 128
70 89 118
76 97 128
73 92 121
69 85 109
73 90 115
81 100 128
75 96 128
69 86 112
72 92 121
84 101 128
73 92 121
69 88 115
61 79 105
62 76 99
72 92 121
75 94 121
73 90 115
72 91 118
66 82 107
81 97 121
62 75 96
74 96 128
79 99 128
68 84 109
72 92 121
78 95 121
70 86 108
74 91 118
79 98 128
70 88 116
62 78 102
66 83 108
70 88 115
78 95 121
68 84 108
60 76 100
70 85 108
76 94 121
69 88 115
72 89 116
71 90 118
66 83 108
71 89 116
69 83 105
68 85 112
55 70 92
65 80 102
63 80 105
64 79 102
79 95 118
66 80 102
83 101 128
61 74 92
60 74 96
69 83 105
70 86 109
54 69 91
58 72 94
58 72 94
67 83 107
60 73 92
65 80 102
63 79 104
71 83 102
60 73 92
45 55 70
50 58 71
54 65 81
55 65 81
60 71 89
60 72 89
52 64 83
51 62 78
64 77 97
58 72 92
46 56 70
48 58 74
72 87 108
58 70 88
49 59 75
55 67 84
61 73 91
52 63 80
57 67 81
33 41 53
45 54 67
50 60 76
50 61 78
46 57 73
37 45 57
56 67 84
61 74 92
61 72 89
61 72 89
59 71 89
53 64 81
48 57 72
39 48 62
46 58 77
51 61 78
43 52 67
50 62 80
40 48 62
47 57 72
54 66 83
55 69 89
52 64 83
47 56 68
41 50 64
64 77 96
62 74 91
44 53 68
50 61 76
47 58 75
49 61 80
38 47 60
60 72 91
49 60 76
52 62 77
34 41 52
40 50 66
53 65 84
72 86 108
65 80 102
45 56 73
66 81 102
66 78 97
62 75 96
49 58 73
40 51 67
44 55 72
46 57 73
42 52 68
48 60 78
56 68 86
54 65 83
60 71 89
44 55 72
55 68 88
50 59 72
50 61 78
49 60 76
37 46 59
54 66 83
35 43 56
48 58 73
50 60 74
50 61 78
42 53 69
54 65 81
52 63 80
53 65 84
68 82 104
63 77 99
71 90 118
74 92 118
67 82 105
68 82 102
60 75 97
83 101 128
72 88 112
70 88 115
80 97 121
73 92 121
68 84 108
55 69 89
63 77 99
66 82 106
82 100 128
58 73 95
76 97 128
75 94 121
59 74 97
61 78 105
77 91 112
76 96 128
84 102 128
76 93 118
68 86 112
71 87 112
67 84 109
80 99 128
85 102 128
61 77 100
66 79 99
79 95 118
78 98 128
78 98 128
71 88 115
80 99 128
62 80 106
75 93 121
76 94 121
74 91 118
69 86 112
69 85 109
81 100 128
79 96 121
76 94 121
76 94 121
70 90 121
69 85 108
80 99 128
70 88 115
70 86 112
63 81 108
72 88 112
83 101 128
72 91 118
70 89 118
77 95 121
78 98 128
81 100 128
79 98 128
79 98 128
73 91 118
68 87 115
68 85 112
83 101 128
83 101 128
81 100 128
84 101 128
72 90 118
82 100 128
71 90 118
68 87 115
81 99 128
83 101 128
76 93 118
71 89 116
79 98 128
69 87 115
84 101 128
74 95 128
77 97 128
78 93 116
77 97 128
81 99 128
73 92 121
65 83 108
72 94 128
82 100 128
74 93 121
77 97 128
76 96 128
79 98 128
83 101 128
79 98 128
81 100 128
66 82 107
69 89 118
84 102 128
77 97 128
71 90 118
62 75 96
78 98 128
84 102 128
82 100 128
85 102 128
78 94 118
83 101 128
77 93 118
82 100 128
77 97 128
76 97 128
79 99 128
73 91 118
77 97 128
75 92 118
76 97 128
80 99 128
69 87 115
78 98 128
81 100 128
83 101 128
77 97 128
82 100 128
75 92 118
82 100 128
69 88 118
82 100 128
70 89 118
77 97 128
82 100 128
78 95 121
75 96 128
78 98 128
77 97 128
70 89 118
73 91 118
79 96 121
79 99 128
74 91 116
81 100 128
82 100 128
73 92 121
79 99 128
76 96 128
79 98 128
83 101 128
82 100 128
77 97 128
70 89 118
79 98 128
79 98 128
78 98 128
71 89 115
76 97 128
78 98 128
73 91 118
80 99 128
73 91 118
78 98 128
74 92 118
77 95 121
78 98 128
78 98 128
77 97 128
78 98 128
72 91 118
79 98 128
79 99 128
77 97 128
79 98 128
76 93 118
68 88 118
75 91 115
82 100 128
78 95 121
78 98 128
81 100 128
71 90 118
77 97 128
78 98 128
73 95 128
82 100 128
79 98 128
78 98 128
65 86 118
80 95 118
76 97 128
75 94 121
79 98 128
75 92 116
82 100 128
77 97 128
80 95 118
80 99 128
81 97 121
82 100 128
72 94 128
77 95 121
61 78 104
81 100 128
80 99 128
83 101 128
80 99 128
79 98 128
71 90 118
74 93 121
75 93 121
79 99 128
80 99 128
78 98 128
87 103 128
83 101 128
75 94 121
82 100 128
68 87 116
72 90 118
73 95 128
78 98 128
75 91 116
76 97 128
77 95 121
71 87 112
74 91 118
80 99 128
82 100 128
85 102 128
74 95 128
67 86 115
83 101 128
67 87 118
75 92 118
78 98 128
64 79 102
69 86 112
81 99 128
73 90 116
69 84 108
73 91 118
81 99 128
72 92 121
73 87 108
78 98 128
66 83 108
81 99 128
77 91 112
73 91 118
80 99 128
59 73 94
68 85 112
81 100 128
55 69 91
76 93 118
75 93 121
64 82 108
70 88 115
53 65 83
74 92 118
71 90 118
78 98 128
78 98 128
62 76 96
75 92 118
66 82 107
71 90 118
63 77 99
71 90 118
73 91 118
73 90 116
79 98 128
72 90 118
70 85 108
61 75 97
71 89 116
78 94 118
79 98 128
73 91 118
73 92 121
79 99 128
71 89 116
59 74 96
60 74 96
74 91 116
70 89 118
63 81 108
68 84 108
75 92 118
75 94 121
73 90 115
68 85 112
74 91 118
67 84 108
69 86 112
68 83 107
67 83 108
67 82 105
71 86 108
66 80 102
68 83 105
71 86 109
58 73 96
67 84 109
58 72 93
61 76 99
78 94 118
75 96 128
81 99 128
65 79 99
75 91 116
49 61 80
74 89 112
66 81 104
47 58 74
44 53 66
52 63 80
49 60 76
44 55 70
54 66 83
57 69 88
61 73 91
53 64 81
63 76 96
43 52 67
57 70 89
56 68 86
59 71 89
53 65 83
69 82 102
47 57 72
46 57 73
38 48 62
57 70 90
62 74 93
51 61 77
61 73 91
60 73 92
41 50 64
56 69 90
66 80 102
46 55 68
35 43 56
60 72 90
57 68 83
49 60 78
57 73 96
58 72 92
49 61 78
50 60 76
44 52 66
61 75 96
54 65 83
41 50 63
43 53 67
62 74 92
46 56 70
44 54 68
50 61 78
59 73 96
41 51 65
46 56 70
52 62 78
42 51 65
39 49 64
42 52 67
55 68 88
54 65 83
39 47 59
61 75 96
60 73 94
42 50 61
49 60 76
48 58 73
57 70 89
49 60 75
62 75 96
70 83 102
41 49 62
69 82 102
56 67 83
59 71 90
44 54 68
51 62 78
63 74 91
39 48 62
36 43 54
45 56 72
51 60 75
56 68 86
60 72 91
43 53 67
54 63 78
57 70 89
53 63 78
39 49 64
55 65 80
44 55 72
76 93 118
59 72 92
52 65 83
70 87 112
56 69 87
58 72 92
69 86 112
63 74 90
77 95 121
58 70 89
68 83 106
68 85 110
51 63 83
62 80 106
82 100 128
55 68 88
75 92 118
66 83 108
79 99 128
65 81 105
70 87 112
71 89 116
62 77 99
73 89 112
61 75 97
63 77 99
56 69 90
74 90 115
69 86 112
75 91 115
68 85 112
79 98 128
73 89 115
76 97 128
78 95 121
72 88 112
74 93 121
70 88 115
72 94 128
72 88 112
81 100 128
65 83 112
83 101 128
77 95 121
78 98 128
60 73 93
82 100 128
63 80 106
72 91 121
81 100 128
66 82 105
64 78 100
71 87 112
81 100 128
80 99 128
79 99 128
67 82 105
72 94 128
68 84 109
72 94 128
74 93 121
82 100 128
74 92 118
72 87 110
81 100 128
79 98 128
81 100 128
76 94 121
65 82 107
76 97 128
76 96 128
72 92 121
75 92 118
77 97 128
79 96 121
66 83 108
81 97 121
80 99 128
73 92 121
81 100 128
80 99 128
78 98 128
78 98 128
79 98 128
78 98 128
75 96 128
76 94 121
77 97 128
67 82 106
83 101 128
81 100 128
80 99 128
81 100 128
69 89 118
74 91 118
81 100 128
70 90 121
82 100 128
77 95 121
72 94 128
80 99 128
79 98 128
68 85 112
81 97 121
74 92 118
80 99 128
80 99 128
79 98 128
77 97 128
71 89 115
75 96 128
81 100 128
74 93 121
80 99 128
75 96 128
79 98 128
77 97 128
84 101 128
70 90 121
82 100 128
79 99 128
69 89 118
71 90 118
76 97 128
82 100 128
76 97 128
77 97 128
76 96 128
79 98 128
69 86 112
77 97 128
82 100 128
76 94 121
79 96 121
71 88 115
80 99 128
80 99 128
80 99 128
75 92 118
75 96 128
71 90 118
79 98 128
76 97 128
78 98 128
80 99 128
72 94 128
75 94 121
78 95 121
78 98 128
78 98 128
61 76 100
80 99 128
79 98 128
78 98 128
87 103 128
77 97 128
81 100 128
79 99 128
79 98 128
73 91 118
80 99 128
81 100 128
78 98 128
76 94 121
80 99 128
72 94 128
80 99 128
77 97 128
80 96 121
74 95 128
79 96 121
77 97 128
81 100 128
77 97 128
81 100 128
79 98 128
75 92 118
80 99 128
78 98 128
74 95 128
78 98 128
73 91 118
73 91 118
79 98 128
71 91 121
70 90 121
76 97 128
73 95 128
76 94 121
77 97 128
70 90 121
77 97 128
79 99 128
77 95 121
82 100 128
65 81 105
80 99 128
69 87 115
81 100 128
77 97 128
82 100 128
80 99 128
74 95 128
77 97 128
79 98 128
70 89 118
78 94 118
83 101 128
82 100 128
78 98 128
72 87 109
77 97 128
77 95 121
70 88 115
78 98 128
82 96 118
71 89 116
74 92 118
76 97 128
86 103 128
81 100 128
79 99 128
81 100 128
68 85 112
82 100 128
82 100 128
73 92 121
82 98 121
81 100 128
81 99 128
76 97 128
66 82 106
81 100 128
78 95 121
76 97 128
78 94 118
68 85 112
69 86 112
66 83 108
71 87 112
82 100 128
78 98 128
72 90 118
79 95 118
66 83 108
77 95 121
68 86 112
76 97 128
71 89 116
80 99 128
84 101 128
78 98 128
68 85 112
70 89 116
79 98 128
80 99 128
74 96 128
80 99 128
80 99 128
77 94 118
81 100 128
79 96 121
77 97 128
61 75 96
73 90 116
82 100 128
81 100 128
62 81 110
72 88 112
69 85 108
61 77 102
73 90 116
65 81 105
70 88 115
74 92 118
79 96 121
80 99 128
62 76 99
73 92 121
74 90 115
75 90 112
63 80 105
74 93 121
70 83 102
71 89 115
83 101 128
68 84 108
49 61 79
68 86 112
69 85 109
60 80 108
79 96 121
53 66 86
84 101 128
51 64 83
70 88 116
56 68 85
68 83 107
53 64 82
69 85 108
78 94 118
61 74 93
63 78 100
47 60 80
73 88 112
36 45 58
73 92 121
60 74 96
53 66 86
80 94 116
56 70 90
65 79 99
62 76 96
71 87 112
63 79 102
58 74 99
54 65 81
39 49 64
41 50 64
63 75 94
45 56 73
57 68 84
37 45 58
51 60 75
57 67 83
47 58 75
53 64 80
43 51 64
41 49 62
54 64 80
53 68 90
72 89 115
50 61 76
48 57 72
60 71 88
54 67 85
55 68 86
49 61 78
53 63 78
45 54 69
63 76 96
60 72 91
63 79 102
45 55 70
61 73 92
63 74 92
48 59 75
57 68 84
40 50 64
45 53 67
56 67 84
46 57 73
47 57 73
61 75 96
44 54 68
61 75 97
59 69 84
49 59 74
65 78 97
60 72 91
41 50 65
41 51 65
39 49 64
69 82 102
62 76 96
63 75 94
55 66 83
40 50 64
57 68 84
66 81 103
48 58 72
58 70 88
56 69 89
50 61 76
58 71 89
45 54 69
60 74 96
62 76 96
54 66 84
66 80 102
48 59 75
36 47 64
58 71 91
57 68 84
61 75 96
51 62 80
57 69 86
55 66 83
51 63 80
53 62 76
47 59 76
44 55 72
57 69 88
49 59 73
32 40 53
55 66 81
27 34 44
39 48 62
61 75 96
54 66 83
55 65 80
63 78 100
71 87 112
68 82 102
65 78 99
57 70 90
60 75 96
65 78 97
60 75 99
71 84 103
65 84 112
68 86 112
64 77 96
73 87 109
69 88 118
66 79 99
72 88 112
84 101 128
63 79 103
75 92 116
52 65 86
76 97 128
69 85 108
69 84 106
62 76 97
71 90 118
65 81 105
46 58 77
60 75 97
81 100 128
70 84 106
61 77 102
82 100 128
69 84 108
62 79 105
70 85 108
76 97 128
83 101 128
66 82 106
79 98 128
71 90 118
74 90 115
71 87 112
72 92 121
78 95 121
70 89 118
64 80 105
76 94 121
78 98 128
63 80 105
61 76 99
74 91 118
71 87 112
79 99 128
82 100 128
73 92 121
84 101 128
63 79 102
77 93 118
73 91 118
67 85 112
70 84 105
77 93 118
70 87 112
76 94 121
71 89 115
76 96 128
76 94 121
78 98 128
73 89 115
73 90 116
87 103 128
79 96 121
75 90 112
68 84 108
83 101 128
70 91 121
72 90 118
84 101 128
77 93 118
76 96 128
81 100 128
80 99 128
79 94 116
82 100 128
80 99 128
82 100 128
80 99 128
76 94 121
76 93 118
63 81 108
77 93 118
79 98 128
75 92 118
77 97 128
80 99 128
77 97 128
79 99 128
73 92 121
72 88 112
79 98 128
81 99 128
64 79 102
71 87 112
74 93 121
77 95 121
71 91 121
83 101 128
81 99 128
70 85 108
78 98 128
73 95 128
81 99 128
71 87 112
81 97 121
73 91 118
82 100 128
82 100 128
75 92 118
74 92 118
82 100 128
78 98 128
78 98 128
83 101 128
75 96 128
80 99 128
77 97 128
77 97 128
84 101 128
73 92 121
83 101 128
75 93 121
79 99 128
81 100 128
82 100 128
80 99 128
77 97 128
69 88 115
76 97 128
77 97 128
75 96 128
80 99 128
72 91 118
78 94 118
72 89 116
78 98 128
84 101 128
75 93 121
83 101 128
80 99 128
75 96 128
84 101 128
72 91 121
81 100 128
72 90 116
76 94 121
74 92 118
77 95 121
81 100 128
72 90 118
75 96 128
73 92 121
79 98 128
71 87 112
79 99 128
80 99 128
80 99 128
77 97 128
79 98 128
79 96 121
76 97 128
86 102 128
81 100 128
83 101 128
81 100 128
77 97 128
73 91 118
82 100 128
81 99 128
78 98 128
76 96 128
79 98 128
80 99 128
76 97 128
80 99 128
75 92 118
77 97 128
79 98 128
80 99 128
81 100 128
75 96 128
74 91 118
80 99 128
74 96 128
85 102 128
74 93 121
78 98 128
76 97 128
75 96 128
81 99 128
76 94 121
76 97 128
82 100 128
75 96 128
76 97 128
82 100 128
79 99 128
76 97 128
75 96 128
71 90 118
82 100 128
80 99 128
70 88 115
76 97 128
78 98 128
76 94 121
78 98 128
67 83 108
78 95 121
77 97 128
73 91 118
82 100 128
79 98 128
80 99 128
77 97 128
77 95 121
75 92 118
80 99 128
75 96 128
81 100 128
87 103 128
67 82 106
79 98 128
74 92 118
81 100 128
78 98 128
76 93 118
71 89 116
75 96 128
75 93 121
71 86 108
76 91 115
77 97 128
77 94 118
82 100 128
69 89 118
62 78 103
71 86 109
76 93 118
71 90 118
71 91 121
68 88 118
82 98 121
67 89 121
64 80 105
76 97 128
76 94 121
73 91 118
80 96 121
72 92 121
85 102 128
55 67 84
78 98 128
72 92 121
78 95 121
67 84 108
76 93 118
58 71 90
74 95 128
79 98 128
79 96 121
77 97 128
68 84 109
74 91 116
72 86 107
69 90 121
67 84 108
74 92 118
65 81 105
68 85 112
78 98 128
78 94 118
63 78 102
77 93 118
77 95 121
44 54 70
76 94 121
71 90 118
85 102 128
62 79 104
73 91 118
58 73 96
63 80 105
67 83 107
69 86 112
52 65 84
56 71 92
67 84 109
60 74 96
63 78 100
72 92 121
65 81 106
68 87 115
78 98 128
71 90 118
66 83 108
74 91 116
73 91 116
55 68 86
72 88 112
63 79 102
67 82 104
52 63 80
51 61 77
61 75 96
53 65 83
72 90 116
51 61 76
59 71 89
54 66 83
55 66 83
43 54 70
42 51 64
49 58 73
41 49 61
54 66 83
55 66 83
46 56 70
54 66 83
55 67 84
51 62 78
64 76 96
53 64 80
48 57 70
33 40 51
47 57 73
65 80 102
50 60 75
63 77 99
49 60 76
35 45 59
54 67 88
67 80 99
47 57 73
50 61 78
37 45 59
52 65 85
50 60 76
45 55 70
56 69 89
58 68 83
50 62 80
45 54 67
46 55 70
46 59 78
50 60 76
59 72 92
51 62 80
65 77 96
52 60 73
39 49 64
51 61 76
48 57 72
53 65 84
57 68 85
57 66 80
52 62 78
37 46 59
33 39 49
63 76 96
37 44 54
59 71 89
54 67 86
43 50 62
67 78 96
51 61 78
65 78 98
47 59 76
41 50 64
45 55 68
54 64 80
43 51 64
48 57 71
57 69 86
56 67 85
53 63 78
55 69 89
58 68 84
43 54 72
44 55 72
39 46 58
51 62 80
52 62 78
42 50 64
52 63 80
56 67 83
58 71 90
60 71 88
49 58 71
64 77 97
61 75 96
61 75 96
76 93 118
70 87 112
60 74 95
64 78 99
70 86 112
74 91 115
63 77 99
68 83 106
70 87 112
67 84 110
53 64 80
61 75 96
58 74 99
67 84 108
70 89 118
71 86 109
75 91 115
67 83 106
85 102 128
70 89 118
60 75 97
79 94 118
67 84 109
60 73 93
72 88 112
71 90 118
74 90 116
80 99 128
67 85 112
75 92 118
74 92 118
56 72 94
72 92 121
75 94 121
77 95 121
74 89 112
73 90 115
83 101 128
72 91 118
73 91 118
76 94 121
63 78 102
58 73 96
79 98 128
73 87 109
79 98 128
75 91 116
79 98 128
86 103 128
74 91 118
83 101 128
72 92 121
83 98 121
80 99 128
62 79 105
81 100 128
84 101 128
77 97 128
68 84 108
66 82 107
79 96 121
84 102 128
76 97 128
79 96 121
76 97 128
75 93 121
72 89 115
66 84 112
74 89 112
68 88 118
76 97 128
79 99 128
78 95 121
77 97 128
79 99 128
78 98 128
65 85 115
75 93 121
74 93 121
72 87 108
78 98 128
73 91 118
69 85 108
81 99 128
76 97 128
72 89 116
70 89 118
77 93 118
77 97 128
76 93 118
77 97 128
63 80 105
76 97 128
77 93 118
83 101 128
70 85 109
81 100 128
80 99 128
78 98 128
82 100 128
76 94 121
80 99 128
73 91 118
79 98 128
70 89 118
77 95 121
79 98 128
74 91 118
81 100 128
68 88 118
82 100 128
80 95 118
82 100 128
77 94 118
70 87 112
75 93 121
79 98 128
81 100 128
78 98 128
74 91 118
75 96 128
80 99 128
75 96 128
79 99 128
85 102 128
85 102 128
72 92 121
82 100 128
78 98 128
73 91 118
73 91 118
76 96 128
79 98 128
85 102 128
75 92 118
76 97 128
85 102 128
73 93 121
80 99 128
79 98 128
80 99 128
84 101 128
76 96 128
86 103 128
81 97 121
77 94 121
79 98 128
81 100 128
67 83 108
79 99 128
79 98 128
77 97 128
81 100 128
80 99 128
79 98 128
78 98 128
77 97 128
79 98 128
76 97 128
80 99 128
73 95 128
76 97 128
77 97 128
80 99 128
73 91 118
76 97 128
82 100 128
77 94 121
79 98 128
75 96 128
80 99 128
80 99 128
81 99 128
76 96 128
76 97 128
79 98 128
79 98 128
78 98 128
77 93 118
74 95 128
78 98 128
81 100 128
74 91 118
74 93 121
75 96 128
80 99 128
79 98 128
77 97 128
81 100 128
72 90 118
83 101 128
70 89 118
77 97 128
74 93 121
80 99 128
86 103 128
76 94 121
79 99 128
82 100 128
84 101 128
81 100 128
74 96 128
79 98 128
76 94 121
76 93 118
73 91 118
81 99 128
66 84 112
81 100 128
78 98 128
71 90 118
79 94 118
70 89 118
81 100 128
81 99 128
80 99 128
72 90 118
66 80 100
77 95 121
72 90 118
78 98 128
78 98 128
78 98 128
84 101 128
69 85 108
82 100 128
74 92 118
71 89 115
80 99 128
78 98 128
71 90 118
79 99 128
74 92 118
71 87 112
78 95 121
71 90 118
67 86 115
79 99 128
67 86 115
74 95 128
77 97 128
72 91 121
79 99 128
75 96 128
72 92 121
82 100 128
74 88 109
75 96 128
73 91 118
76 94 121
77 97 128
77 97 128
81 99 128
69 83 105
82 100 128
64 78 100
67 82 106
75 96 128
64 81 106
77 97 128
72 89 116
75 93 121
69 84 106
78 96 121
82 100 128
58 72 94
78 98 128
70 89 118
72 92 121
69 87 116
75 92 118
69 88 118
55 69 90
69 86 112
77 97 128
75 96 128
67 82 105
79 94 118
70 86 110
75 93 121
72 90 118
60 76 100
57 71 92
64 78 100
69 85 109
54 65 83
75 92 118
65 83 109
68 86 112
65 80 102
52 66 87
70 87 112
54 66 84
69 86 112
68 80 99
63 78 99
74 92 118
78 91 112
68 85 112
65 83 109
51 63 81
62 74 92
58 72 94
82 100 128
63 78 100
61 75 96
67 82 105
66 81 102
78 95 121
71 87 109
69 82 102
80 99 128
65 77 96
68 83 106
65 79 100
56 68 87
63 76 96
51 63 81
54 64 80
47 57 73
57 69 86
61 72 89
37 44 54
47 58 74
58 71 89
41 49 60
45 54 68
45 54 69
36 44 54
50 61 77
57 70 89
51 61 76
62 74 91
50 61 78
41 49 61
60 73 92
50 61 77
54 64 80
37 46 59
63 77 99
53 65 84
70 83 102
52 64 83
45 56 73
39 47 60
72 87 110
63 75 92
37 46 60
52 65 83
51 62 78
32 40 51
61 76 97
51 64 83
49 58 72
51 62 78
59 71 89
38 47 60
51 64 84
63 76 96
66 78 96
62 74 92
52 62 76
56 67 83
44 52 65
53 64 80
63 77 97
51 60 75
44 53 66
57 70 89
51 62 78
32 40 52
53 63 78
56 67 83
52 64 83
48 58 73
61 75 96
57 70 89
56 67 84
66 79 100
53 65 83
48 58 72
36 44 58
46 56 71
28 35 46
58 68 84
65 78 97
48 59 75
42 52 67
52 63 81
55 66 83
61 73 91
56 66 81
57 71 91
55 67 84
45 55 70
48 58 73
65 81 105
60 74 94
57 68 86
64 79 102
70 86 112
49 60 77
60 74 96
60 73 93
74 91 115
72 88 112
69 82 102
60 74 96
68 84 108
63 77 99
70 88 115
60 76 99
82 100 128
71 88 115
75 92 118
68 85 112
60 73 92
67 85 112
67 82 105
85 102 128
62 78 102
65 84 112
64 80 104
70 88 115
65 80 102
66 82 106
65 81 105
66 83 108
79 96 121
73 92 121
75 93 121
65 83 108
75 94 121
81 97 121
74 93 121
74 96 128
70 87 112
82 100 128
77 93 118
61 76 100
76 91 115
77 97 128
74 89 112
74 93 121
72 88 112
67 86 115
76 94 121
75 94 121
80 99 128
74 89 112
76 93 118
69 88 116
76 94 121
82 100 128
67 86 115
71 87 112
72 90 118
77 95 121
76 97 128
74 96 128
73 91 118
81 100 128
70 87 112
75 92 118
80 99 128
75 93 121
71 89 115
81 99 128
77 97 128
74 93 121
87 103 128
77 97 128
74 96 128
81 100 128
72 92 121
76 97 128
75 93 121
68 88 118
77 97 128
80 99 128
80 96 121
81 99 128
74 92 118
78 98 128
73 91 118
81 100 128
82 98 121
75 94 121
81 99 128
75 93 121
82 100 128
79 98 128
74 96 128
74 92 118
74 91 118
73 92 121
81 97 121
77 97 128
75 92 118
75 94 121
73 91 118
68 88 118
77 93 118
79 99 128
74 93 121
81 100 128
81 100 128
71 89 116
65 78 99
83 101 128
68 83 107
85 102 128
73 88 112
70 87 112
78 98 128
79 99 128
70 89 118
76 97 128
81 99 128
73 91 118
75 93 121
76 96 128
81 100 128
65 81 105
73 92 121
79 98 128
73 91 118
75 96 128
71 90 118
77 97 128
84 102 128
81 100 128
80 99 128
84 101 128
80 99 128
73 91 118
76 97 128
82 100 128
76 96 128
81 100 128
81 100 128
84 101 128
79 98 128
80 99 128
78 98 128
78 98 128
80 99 128
84 101 128
74 95 128
75 96 128
75 92 118
75 96 128
82 100 128
80 99 128
76 96 128
68 85 109
76 97 128
77 97 128
78 95 121
82 100 128
81 100 128
76 93 118
78 95 121
74 95 128
81 100 128
79 98 128
82 100 128
77 93 118
72 90 118
72 90 118
80 99 128
73 92 121
76 97 128
83 101 128
81 99 128
76 96 128
80 99 128
75 96 128
80 99 128
76 97 128
73 92 121
79 96 121
69 86 112
79 98 128
85 102 128
81 99 128
73 91 118
80 99 128
76 96 128
76 94 121
79 98 128
72 88 112
78 98 128
81 100 128
70 88 115
78 98 128
80 99 128
78 98 128
84 99 121
78 98 128
67 86 115
81 100 128
77 97 128
75 96 128
75 92 118
68 88 118
82 100 128
75 92 118
71 90 118
72 91 118
82 100 128
81 99 128
85 102 128
76 97 128
81 99 128
79 99 128
72 92 121
74 96 128
76 94 121
74 90 115
74 96 128
72 90 118
82 100 128
81 99 128
78 98 128
62 77 99
80 99 128
84 102 128
74 93 121
77 93 118
73 88 112
63 80 104
77 97 128
75 91 116
71 93 128
72 92 121
68 85 112
78 98 128
73 91 118
71 89 116
83 101 128
68 86 112
69 83 105
76 93 118
69 89 118
75 96 128
80 99 128
77 93 118
76 93 118
77 93 118
73 95 128
65 81 105
82 100 128
79 98 128
70 89 118
78 95 121
72 90 118
72 91 118
69 86 112
64 81 105
72 89 115
72 91 118
83 101 128
69 89 118
72 90 118
79 98 128
84 102 128
53 71 97
69 85 108
60 76 99
71 89 115
74 92 118
78 95 121
78 98 128
64 76 96
57 72 95
63 78 100
63 79 104
80 99 128
70 89 118
69 83 105
75 92 118
83 101 128
77 93 118
62 76 97
75 89 110
50 62 81
62 75 94
70 86 108
67 82 106
81 99 128
62 77 99
72 89 115
57 70 88
76 92 115
65 82 108
70 89 118
67 83 108
65 81 106
67 81 102
72 86 108
67 82 106
63 76 94
71 89 115
65 79 100
58 74 99
54 68 88
83 101 128
62 73 90
51 63 81
69 85 108
50 62 80
54 67 86
72 89 115
58 70 89
66 80 102
38 47 60
51 61 76
43 53 68
49 59 73
43 52 65
61 73 91
44 53 67
47 55 68
49 59 74
40 50 65
38 46 59
65 79 99
49 61 78
60 71 88
55 69 90
47 58 75
50 61 77
61 73 92
59 74 96
45 55 70
68 82 102
45 55 72
65 77 96
37 45 57
39 47 60
61 72 89
56 69 89
62 74 93
47 57 72
43 54 70
45 56 72
58 71 89
38 46 59
43 53 67
50 60 76
55 66 81
43 53 67
58 71 91
48 58 75
67 81 102
53 68 89
51 62 80
41 49 62
58 71 89
45 54 68
37 44 56
52 61 75
52 64 83
47 57 72
48 58 72
52 64 82
53 64 81
55 67 86
44 53 65
55 68 86
44 55 72
67 81 102
49 60 76
36 44 56
44 55 72
61 72 88
45 56 72
57 70 89
48 59 75
40 50 64
49 60 76
70 83 104
43 52 64
39 48 61
36 45 60
42 52 67
62 75 96
45 56 72
59 69 84
33 40 52
36 44 55
65 80 102
54 66 84
46 57 73
61 73 90
61 75 96
74 89 112
64 77 96
53 67 86
45 54 67
66 81 103
69 84 108
63 77 99
67 81 102
58 74 96
56 69 89
69 86 112
56 69 89
69 85 109
78 98 128
68 85 112
83 101 128
73 89 112
59 71 90
75 91 115
69 84 105
65 81 106
61 74 94
68 83 106
62 75 96
63 79 102
76 94 121
71 84 104
85 102 128
77 94 121
71 89 116
69 88 118
66 83 108
70 86 112
65 81 106
63 78 102
67 83 106
57 72 96
71 90 118
74 91 116
60 74 96
64 81 105
68 82 104
79 99 128
77 93 118
65 80 102
78 95 121
63 80 105
64 77 96
53 65 84
76 97 128
79 99 128
82 100 128
75 92 118
81 100 128
83 101 128
85 102 128
79 96 121
79 99 128
66 81 105
64 82 108
81 100 128
77 93 118
70 93 128
69 86 112
59 74 96
80 99 128
76 92 115
75 96 128
80 99 128
80 99 128
69 88 118
75 93 121
75 91 116
71 90 118
70 89 118
79 99 128
79 98 128
73 95 128
85 102 128
66 83 108
86 102 128
71 90 118
72 88 112
75 92 118
77 97 128
81 100 128
78 95 121
79 98 128
71 90 118
74 91 118
75 96 128
76 93 118
80 99 128
76 97 128
74 95 128
73 91 118
73 95 128
76 97 128
68 86 115
81 99 128
75 96 128
82 100 128
68 87 115
71 90 118
75 96 128
81 100 128
73 90 116
75 94 121
78 98 128
69 85 108
77 95 121
72 92 121
72 90 118
77 97 128
82 100 128
74 93 121
83 101 128
80 99 128
86 103 128
75 92 118
83 101 128
76 93 118
79 98 128
78 98 128
79 99 128
84 101 128
84 101 128
74 93 121
81 99 128
71 89 118
80 99 128
76 97 128
80 99 128
79 98 128
79 99 128
81 99 128
76 97 128
69 87 115
78 98 128
82 100 128
69 88 118
75 92 118
72 94 128
81 99 128
74 95 128
76 97 128
76 94 121
71 90 118
80 99 128
79 98 128
78 98 128
83 101 128
83 101 128
74 93 121
82 100 128
79 98 128
82 100 128
78 98 128
76 97 128
81 100 128
78 96 121
78 98 128
74 91 118
77 97 128
81 100 128
78 98 128
73 90 115
77 95 121
73 90 116
74 92 118
72 94 128
76 97 128
78 98 128
82 100 128
79 96 121
73 91 118
74 96 128
82 100 128
84 101 128
74 95 128
83 101 128
79 96 121
80 99 128
74 95 128
76 96 128
75 96 128
69 86 112
79 96 121
60 77 102
81 100 128
81 99 128
76 94 121
81 100 128
77 97 128
78 98 128
81 100 128
77 97 128
71 90 118
79 99 128
75 96 128
73 92 121
74 95 128
82 100 128
80 99 128
84 102 128
83 101 128
69 86 112
82 100 128
81 100 128
65 79 100
78 98 128
81 99 128
75 96 128
73 91 118
76 97 128
76 97 128
72 91 121
72 90 118
65 84 112
82 100 128
79 96 121
71 90 118
77 95 121
73 90 116
83 101 128
77 97 128
59 77 103
72 92 121
74 93 121
74 93 121
74 90 115
81 100 128
74 91 115
83 101 128
79 98 128
77 97 128
85 102 128
78 98 128
73 92 121
75 92 118
75 96 128
65 83 110
79 96 121
69 86 112
78 94 118
78 95 121
79 98 128
80 99 128
75 96 128
68 85 112
76 94 121
65 83 112
67 83 107
73 91 118
80 99 128
68 87 115
81 99 128
71 89 115
75 94 121
79 96 121
71 90 118
73 92 121
52 63 80
79 96 121
64 82 108
71 91 121
71 89 116
77 95 121
76 94 121
75 94 121
73 91 118
77 93 118
80 99 128
60 74 96
82 98 121
63 84 115
74 93 121
66 82 105
81 100 128
72 88 112
82 100 128
63 77 99
69 83 106
70 88 115
57 70 90
57 70 90
51 66 87
52 64 81
60 75 96
65 81 105
66 83 109
66 82 105
66 82 105
74 92 118
60 75 96
60 75 99
69 86 112
68 83 105
81 97 121
75 91 115
70 84 106
63 79 103
68 84 108
59 72 93
69 85 110
69 83 105
73 90 116
62 73 90
48 60 78
43 52 66
67 84 109
68 84 108
68 83 105
74 91 116
71 87 112
55 67 84
44 53 67
53 68 90
58 73 96
37 45 57
46 57 72
68 84 107
44 54 69
58 69 86
55 67 85
42 49 60
44 53 67
44 54 70
43 52 66
65 78 96
61 71 86
39 48 61
66 80 102
37 46 59
48 59 76
53 65 83
48 56 68
59 70 88
53 65 84
53 64 80
47 58 76
67 79 97
58 70 89
65 80 102
40 48 60
38 48 64
26 33 44
49 59 75
55 67 86
50 61 77
39 47 60
61 75 97
58 69 86
43 52 66
44 53 66
65 77 96
45 55 72
65 80 102
46 54 67
47 57 72
69 80 96
55 65 80
64 76 94
66 78 96
49 59 74
45 56 72
43 54 69
55 67 84
36 44 57
44 53 67
56 66 81
47 57 72
50 61 78
39 46 57
51 60 75
39 49 64
40 50 65
60 72 89
54 66 83
48 58 74
42 51 64
51 61 76
56 68 86
52 61 75
57 68 86
48 59 75
64 76 94
42 52 67
43 51 64
52 64 83
67 80 99
47 58 73
45 55 69
47 56 69
46 55 70
55 69 89
56 67 83
34 41 52
67 82 106
69 86 112
57 71 93
72 87 109
61 76 99
48 57 70
67 80 100
60 73 92
65 80 102
65 81 105
62 76 96
62 78 103
75 92 118
64 79 102
68 84 108
64 79 102
69 82 102
68 84 109
73 92 121
66 80 102
75 92 118
66 79 99
62 76 97
51 65 87
69 84 106
68 85 112
68 81 102
64 78 99
60 71 87
61 75 96
74 91 116
78 98 128
57 71 92
64 80 105
62 75 95
70 91 121
70 88 115
74 91 118
80 99 128
59 73 92
67 82 106
66 82 106
77 93 118
64 81 106
67 86 116
71 85 106
82 100 128
66 84 112
70 88 116
71 91 121
79 98 128
58 73 96
63 77 96
59 76 102
65 82 108
80 99 128
74 90 115
75 96 128
83 101 128
79 98 128
79 98 128
77 97 128
65 77 96
63 80 105
72 89 115
75 93 121
68 86 112
73 90 115
78 94 118
65 81 106
75 93 121
78 98 128
83 101 128
70 89 118
74 96 128
75 91 116
74 96 128
79 96 121
60 77 102
76 93 118
74 91 116
82 100 128
78 98 128
80 99 128
80 99 128
76 94 121
75 92 118
83 101 128
72 88 112
73 92 121
76 96 128
76 97 128
81 100 128
75 93 121
76 97 128
76 97 128
67 87 118
79 99 128
72 88 112
83 101 128
74 89 112
83 101 128
71 91 121
80 99 128
68 88 118
70 89 118
78 95 121
73 91 118
79 98 128
73 91 118
76 94 121
70 86 112
82 100 128
77 97 128
77 95 121
79 98 128
75 96 128
69 87 115
69 88 115
78 98 128
74 95 128
80 99 128
70 88 115
73 95 128
72 90 118
83 101 128
79 96 121
82 100 128
81 100 128
87 103 128
74 95 128
82 100 128
82 100 128
78 98 128
73 92 121
80 99 128
73 95 128
79 98 128
80 99 128
77 97 128
79 99 128
83 101 128
67 81 102
76 93 118
82 100 128
76 96 128
72 92 121
76 96 128
74 93 121
77 97 128
86 102 128
74 96 128
77 97 128
77 95 121
81 100 128
78 98 128
79 98 128
76 92 116
81 100 128
82 100 128
76 97 128
77 97 128
77 97 128
78 98 128
73 91 118
77 97 128
81 99 128
82 100 128
77 97 128
82 100 128
72 90 118
80 99 128
76 93 118
80 99 128
76 94 121
80 99 128
72 89 116
75 96 128
80 99 128
75 93 121
83 101 128
66 81 105
64 80 103
74 93 121
82 100 128
78 98 128
78 98 128
75 96 128
68 84 108
81 100 128
76 94 121
72 92 121
78 98 128
80 99 128
81 99 128
76 96 128
80 99 128
83 101 128
79 99 128
86 103 128
80 99 128
80 99 128
81 100 128
83 101 128
76 96 128
66 84 112
68 84 109
73 92 121
78 95 121
82 100 128
75 94 121
83 101 128
77 97 128
73 91 118
69 88 118
85 102 128
73 90 116
77 94 121
76 97 128
77 97 128
74 90 116
71 87 112
75 91 116
72 92 121
68 87 116
73 90 115
80 99 128
81 100 128
78 94 118
76 97 128
72 92 121
71 88 115
74 92 118
73 95 128
59 74 96
70 88 116
80 99 128
76 93 118
80 99 128
77 95 121
77 97 128
75 92 118
83 101 128
66 83 108
77 97 128
74 96 128
84 101 128
64 82 108
80 99 128
76 97 128
78 98 128
82 100 128
81 97 121
79 94 118
70 84 105
79 96 121
78 95 121
70 90 121
67 82 106
79 98 128
74 92 118
78 98 128
66 82 105
84 101 128
71 89 115
72 92 121
72 92 121
78 95 121
68 84 108
65 80 102
66 84 112
81 99 128
72 91 118
76 94 121
64 81 105
57 72 94
78 94 118
74 89 112
78 98 128
68 84 108
77 97 128
72 86 108
74 90 115
82 100 128
57 71 92
66 83 108
69 85 108
72 87 108
54 67 87
67 83 108
73 91 118
81 100 128
78 95 121
48 63 84
72 90 116
54 67 86
69 86 112
58 69 86
70 83 102
67 84 109
54 69 92
68 83 105
72 87 109
52 63 80
62 76 96
50 63 83
58 72 92
59 72 92
62 77 99
51 61 77
61 73 91
54 64 80
64 79 100
65 81 105
77 93 118
73 90 116
65 80 103
57 70 91
73 87 109
52 62 78
65 78 96
68 82 104
47 58 76
33 41 52
45 55 70
54 66 83
61 73 92
42 50 62
52 63 80
49 61 78
61 73 91
50 61 77
41 51 65
34 42 54
47 57 73
59 72 91
40 50 65
57 70 89
42 51 65
57 68 84
49 59 73
48 58 72
57 69 86
68 82 102
51 61 76
56 67 83
52 62 78
62 76 97
36 44 56
50 62 80
44 55 70
61 73 90
45 54 67
50 61 76
52 65 86
53 64 80
47 57 72
50 61 76
52 63 78
44 53 66
60 74 96
50 60 76
40 48 59
32 39 51
69 82 102
53 65 83
56 68 86
57 68 85
66 79 99
57 69 88
47 55 67
57 73 96
43 53 67
49 59 75
56 68 86
33 40 51
68 82 102
61 72 89
53 61 74
40 49 62
60 72 90
44 53 67
45 54 68
60 73 92
35 44 57
40 49 62
53 64 80
31 37 47
53 64 80
46 55 68
65 77 96
44 54 69
37 44 54
42 52 66
57 70 88
46 57 73
78 94 118
54 68 88
42 52 67
61 75 96
61 74 93
44 53 67
50 62 80
79 96 121
42 55 75
36 44 57
54 67 86
74 89 112
57 69 87
68 83 105
60 73 92
70 83 102
65 80 102
58 74 97
77 93 118
69 84 105
54 67 86
64 81 107
73 92 121
72 88 112
57 74 100
65 81 106
54 67 88
65 80 104
51 63 81
50 65 87
65 79 99
65 81 105
75 92 118
77 93 118
63 80 105
78 95 121
69 89 118
75 92 118
63 81 108
72 91 118
66 82 105
74 93 121
80 96 121
70 85 109
65 79 100
75 91 115
67 85 112
75 93 121
73 90 115
71 87 112
60 73 92
78 98 128
81 99 128
76 90 112
83 101 128
70 86 112
73 92 121
70 88 115
57 72 96
80 97 121
74 90 115
74 92 118
74 91 118
76 97 128
71 87 112
64 79 102
73 91 118
83 101 128
75 92 118
74 92 118
80 99 128
75 93 121
76 92 118
74 93 121
68 87 115
70 86 112
77 97 128
80 99 128
68 85 112
72 92 121
79 98 128
85 102 128
73 92 121
71 90 118
82 100 128
78 98 128
66 82 106
68 87 115
60 73 92
76 94 121
76 93 118
80 99 128
74 92 118
70 89 118
76 93 118
70 89 118
79 96 121
76 93 118
70 90 121
75 93 121
79 99 128
80 99 128
77 97 128
77 97 128
67 85 112
72 89 115
79 98 128
81 99 128
77 97 128
76 96 128
82 100 128
77 97 128
71 89 116
85 102 128
75 92 118
72 88 112
76 94 121
84 101 128
81 100 128
79 98 128
75 96 128
83 101 128
74 93 121
82 100 128
80 99 128
73 88 112
78 95 121
65 81 105
71 91 121
76 97 128
79 99 128
71 90 118
83 101 128
72 90 118
74 96 128
66 82 107
79 98 128
81 100 128
85 102 128
76 96 128
76 94 121
78 98 128
83 101 128
75 92 118
77 97 128
73 91 118
72 89 115
80 99 128
76 97 128
79 95 118
84 101 128
80 99 128
81 99 128
88 104 128
75 93 121
83 101 128
81 99 128
81 100 128
86 103 128
79 99 128
78 98 128
78 98 128
79 98 128
78 98 128
80 99 128
81 100 128
71 90 118
80 99 128
79 98 128
82 96 118
78 98 128
79 99 128
76 97 128
74 92 118
72 90 118
83 101 128
77 97 128
77 93 118
81 100 128
70 89 118
82 100 128
81 100 128
74 92 118
78 98 128
71 90 118
76 93 118
72 90 118
78 98 128
74 93 121
74 93 121
77 97 128
78 98 128
73 91 118
78 98 128
81 100 128
84 101 128
76 97 128
80 99 128
77 97 128
66 82 107
84 99 121
81 99 128
66 83 108
71 91 121
73 91 118
67 82 105
70 89 118
67 82 105
67 88 118
79 99 128
73 92 121
80 99 128
69 88 115
78 98 128
76 97 128
68 84 108
66 83 108
80 99 128
74 89 112
74 93 121
77 97 128
74 93 121
74 92 118
81 100 128
79 99 128
64 81 105
78 94 118
68 86 112
76 97 128
80 99 128
76 97 128
68 81 102
85 102 128
77 95 121
81 97 121
70 86 112
71 91 121
76 97 128
67 85 112
73 88 112
84 101 128
74 90 115
86 102 128
69 87 116
75 94 121
68 85 112
70 87 112
80 99 128
67 86 115
76 94 121
78 98 128
80 99 128
79 94 118
72 92 121
70 89 118
71 90 118
65 79 102
80 99 128
82 100 128
82 100 128
77 95 121
76 92 116
76 97 128
83 101 128
67 83 108
70 85 108
72 90 118
81 100 128
69 86 112
59 74 96
77 97 128
69 86 112
75 92 118
77 97 128
53 70 96
61 75 96
66 84 112
71 87 112
68 85 112
72 92 121
78 98 128
63 79 102
78 98 128
74 92 118
73 91 118
75 92 118
66 84 112
74 88 108
65 81 104
69 88 118
59 75 99
74 91 118
73 92 121
74 91 116
63 77 97
62 76 97
49 62 80
76 93 118
55 70 92
81 100 128
73 92 121
59 70 88
67 83 108
68 83 106
51 64 84
68 82 102
72 87 108
45 55 71
75 89 112
58 72 93
61 73 92
52 63 80
72 92 121
60 73 92
58 72 93
50 62 80
62 76 96
56 69 89
46 56 72
62 76 97
71 85 106
48 58 73
77 93 118
63 78 100
55 68 89
60 73 92
28 36 47
67 80 99
66 77 92
35 41 52
67 81 103
51 61 76
51 60 73
43 52 66
30 36 47
49 59 74
51 62 78
46 56 72
45 56 72
48 59 76
50 61 78
36 45 59
44 52 64
59 72 91
68 82 102
37 45 57
47 58 73
41 51 65
38 46 59
51 62 80
45 56 73
54 65 81
36 45 58
49 58 72
39 47 60
55 65 80
51 62 78
49 58 72
54 66 84
52 62 78
45 56 72
39 47 59
48 58 72
45 56 74
55 66 84
54 66 83
59 71 91
41 51 67
38 46 58
45 54 68
65 79 99
48 57 72
45 53 65
44 55 72
48 60 76
48 58 73
50 61 78
36 44 55
54 65 81
55 66 83
66 78 96
65 80 102
46 55 67
78 95 121
50 61 78
43 52 66
36 44 56
39 48 62
63 76 96
57 68 85
47 58 75
26 30 37
47 56 70
52 63 80
61 73 91
71 86 108
36 45 58
62 74 92
74 87 108
59 74 96
44 52 64
43 53 68
46 57 74
39 47 59
70 82 100
40 51 68
70 87 112
42 51 64
61 75 96
71 87 112
46 57 74
74 90 116
57 68 84
67 81 102
84 102 128
54 67 86
64 81 105
63 76 96
70 85 108
43 56 74
69 85 109
69 85 108
54 65 80
59 74 96
75 91 116
73 87 108
65 79 100
68 84 108
78 94 118
70 84 105
65 78 99
62 78 102
58 76 102
62 78 102
58 73 96
71 88 115
75 92 118
84 101 128
84 102 128
75 96 128
67 84 108
69 87 115
65 80 102
64 80 103
63 80 106
80 99 128
75 89 112
61 75 96
72 91 118
62 81 108
76 94 121
70 88 115
73 88 112
71 88 115
60 76 99
84 102 128
79 96 121
64 80 105
66 86 115
74 93 121
65 79 100
73 91 118
73 91 118
70 89 118
84 102 128
66 84 112
66 83 109
80 96 121
63 81 108
75 93 121
71 90 118
70 88 115
76 96 128
81 99 128
79 95 118
80 99 128
64 81 105
80 99 128
75 93 121
65 78 99
83 101 128
81 100 128
73 92 121
69 85 108
72 89 115
71 89 115
70 89 118
76 93 118
66 80 102
79 99 128
74 95 128
80 99 128
72 92 121
73 92 121
75 94 121
67 88 118
65 84 112
80 99 128
80 99 128
79 99 128
76 96 128
71 87 112
78 98 128
63 78 100
77 97 128
81 100 128
65 81 105
74 92 118
82 100 128
69 87 115
81 100 128
83 101 128
77 97 128
77 95 121
81 100 128
85 102 128
67 84 108
77 95 121
72 92 121
72 91 121
76 97 128
83 101 128
83 101 128
67 85 112
79 98 128
77 97 128
79 99 128
74 93 121
74 93 121
79 99 128
80 99 128
75 96 128
82 100 128
83 101 128
79 98 128
81 100 128
80 99 128
79 98 128
77 95 121
79 99 128
75 92 118
80 99 128
78 98 128
79 98 128
79 98 128
66 83 108
79 98 128
74 92 118
70 84 105
85 102 128
72 89 116
78 98 128
81 100 128
79 99 128
73 95 128
69 87 115
80 99 128
69 88 118
78 98 128
77 97 128
79 99 128
81 99 128
74 95 128
75 92 118
73 91 118
76 97 128
78 98 128
74 95 128
80 99 128
72 91 118
80 99 128
80 99 128
80 99 128
79 98 128
80 99 128
75 92 116
80 99 128
79 98 128
82 100 128
74 93 121
74 96 128
67 87 118
62 79 105
77 97 128
81 100 128
79 98 128
80 99 128
79 96 121
77 97 128
78 98 128
74 95 128
74 93 121
77 97 128
82 100 128
71 89 115
71 90 118
74 95 128
76 94 121
84 102 128
80 99 128
72 90 118
72 91 121
83 101 128
75 96 128
79 98 128
72 90 118
72 87 109
63 80 105
71 90 118
76 96 128
79 99 128
79 98 128
73 91 118
77 97 128
79 96 121
75 96 128
81 100 128
78 98 128
65 84 112
80 99 128
74 93 121
74 93 121
84 102 128
74 93 121
70 91 121
73 91 116
71 91 121
75 94 121
68 84 108
77 95 121
77 97 128
75 91 115
70 91 121
78 98 128
79 98 128
72 88 112
75 94 121
75 91 115
78 98 128
75 96 128
70 89 118
77 97 128
65 81 105
78 95 121
65 83 110
76 94 121
72 91 118
79 98 128
64 81 107
77 95 121
86 103 128
73 91 118
78 95 121
67 83 107
73 91 118
71 88 115
67 84 108
75 93 121
76 93 118
77 93 118
73 91 118
58 73 96
75 94 121
69 86 112
77 95 121
66 82 106
68 83 107
63 81 108
73 91 118
63 80 105
69 83 105
68 83 105
69 89 118
60 75 99
54 70 93
75 93 121
75 92 118
66 82 105
70 86 110
52 66 87
76 94 121
78 94 118
77 97 128
76 94 121
65 80 103
70 91 121
75 92 118
57 68 86
60 76 100
67 82 105
68 87 116
69 86 112
62 77 99
70 87 112
71 89 116
62 75 96
63 79 102
64 81 106
57 71 92
62 79 104
69 87 115
76 92 115
63 79 102
60 75 99
51 65 85
76 94 121
60 74 96
56 68 86
77 94 118
58 71 91
71 85 105
67 84 109
73 88 112
69 84 107
56 69 89
55 68 88
63 77 99
48 58 73
52 63 80
48 57 71
60 71 89
62 76 99
61 73 90
52 62 77
75 91 115
60 70 86
30 37 46
56 68 87
65 79 99
73 86 105
61 75 96
75 89 112
59 69 85
39 47 59
74 89 112
58 68 84
56 67 85
50 60 73
42 51 64
45 53 65
45 53 66
39 46 56
55 66 81
48 58 73
49 59 75
56 67 84
48 58 72
60 72 89
42 50 64
43 52 65
45 54 67
46 55 69
33 42 54
60 74 96
52 63 78
41 51 65
40 48 60
55 67 84
38 46 58
60 72 91
64 75 92
46 56 71
61 72 89
54 64 80
44 53 67
65 77 96
43 51 64
55 66 83
53 64 81
64 77 96
54 64 79
32 41 53
55 68 89
43 53 68
61 75 96
38 47 60
59 71 90
41 49 62
50 61 78
53 63 78
55 65 80
53 63 78
35 43 56
48 59 75
48 59 76
47 58 73
50 60 76
64 76 94
40 48 59
46 55 68
39 48 61
36 44 55
28 34 43
36 43 55
37 47 61
27 33 42
52 63 81
47 57 72
64 74 90
39 45 56
50 62 79
56 69 89
35 42 53
50 60 75
38 46 58
74 91 116
66 79 99
71 85 107
65 80 102
64 79 100
52 66 85
55 68 87
73 89 115
45 53 65
62 74 93
58 71 89
43 53 68
64 79 102
43 53 68
62 75 94
66 79 99
40 49 64
59 74 96
50 62 80
54 66 84
70 85 107
34 43 56
57 70 88
73 88 112
71 86 108
58 70 88
70 90 121
84 101 128
79 98 128
55 67 84
66 83 108
73 91 118
61 75 96
68 84 108
76 94 121
61 75 96
53 66 87
75 93 121
68 86 112
67 86 115
63 76 96
78 98 128
77 97 128
65 80 104
77 94 121
70 86 110
56 73 99
77 97 128
74 88 110
77 94 118
73 92 121
66 83 108
64 82 108
83 101 128
73 92 121
78 94 118
73 88 110
66 82 105
66 83 108
76 93 118
65 80 102
72 92 121
82 100 128
76 93 118
78 94 118
67 85 112
73 91 118
72 89 115
59 75 99
84 101 128
76 97 128
69 86 112
79 98 128
73 92 121
70 88 115
76 96 128
81 100 128
78 95 121
80 99 128
69 85 108
79 98 128
81 99 128
74 91 118
69 89 118
75 88 108
74 92 118
86 102 128
77 97 128
77 94 121
78 95 121
71 89 116
69 85 109
63 80 105
72 90 118
80 99 128
70 88 116
77 97 128
76 96 128
85 102 128
75 96 128
58 72 92
81 100 128
77 94 121
65 81 107
76 93 118
83 101 128
69 85 109
70 88 115
71 90 118
80 99 128
70 89 118
83 101 128
76 93 118
73 91 118
80 99 128
68 85 112
74 92 118
81 99 128
71 90 118
72 92 121
63 77 99
78 98 128
78 98 128
78 95 121
67 87 116
74 90 115
73 93 121
75 94 121
75 92 118
76 97 128
80 99 128
73 93 121
72 94 128
71 91 121
73 92 121
72 91 118
80 99 128
78 98 128
62 78 102
76 97 128
80 99 128
75 93 121
74 90 116
74 96 128
80 99 128
84 102 128
77 93 118
73 92 121
74 93 121
78 95 121
82 100 128
79 98 128
79 98 128
72 92 121
81 100 128
64 82 108
73 91 118
77 97 128
77 95 121
80 99 128
80 99 128
82 100 128
68 86 115
77 97 128
76 96 128
78 98 128
77 95 121
81 97 121
74 95 128
76 94 121
74 93 121
79 98 128
76 93 118
79 99 128
78 95 121
74 93 121
81 100 128
77 95 121
80 99 128
81 100 128
73 88 112
76 96 128
74 95 128
78 98 128
71 88 115
75 93 121
75 96 128
82 100 128
78 95 121
79 96 121
75 96 128
79 98 128
79 99 128
79 98 128
80 99 128
79 98 128
67 82 106
72 90 118
74 96 128
76 94 121
78 95 121
83 101 128
79 98 128
67 85 112
75 96 128
74 92 118
57 74 99
66 84 112
80 99 128
82 100 128
80 99 128
79 98 128
77 97 128
82 100 128
83 101 128
80 99 128
80 97 121
77 92 116
70 88 116
75 94 121
72 91 118
74 89 112
80 97 121
69 86 112
81 100 128
75 96 128
84 101 128
74 93 121
69 86 112
79 96 121
73 91 118
80 99 128
67 85 112
73 92 121
69 83 104
79 98 128
80 96 121
76 97 128
74 90 115
70 89 118
68 87 116
65 81 105
69 89 118
77 97 128
60 76 99
73 88 112
67 84 110
76 93 118
74 96 128
71 90 118
75 94 121
72 90 116
78 98 128
68 84 108
68 83 106
64 83 112
73 88 110
74 93 121
74 92 118
81 99 128
76 91 115
77 95 121
80 99 128
68 85 112
67 84 109
65 85 115
74 91 115
78 98 128
57 70 89
57 74 99
71 90 118
75 89 108
81 100 128
74 90 115
79 99 128
79 96 121
65 81 105
76 92 116
77 94 121
64 82 108
68 85 112
56 69 90
80 99 128
75 94 121
56 72 96
50 61 77
80 96 121
63 78 100
76 94 121
74 92 118
74 92 118
71 87 110
66 79 99
61 76 99
68 84 108
72 88 112
48 59 75
59 74 97
57 68 84
71 87 112
69 84 106
74 89 112
60 72 90
56 67 85
62 74 92
54 66 84
68 82 103
70 84 104
71 86 109
57 70 90
75 89 109
62 76 99
67 82 105
48 59 74
45 54 67
63 76 96
46 57 73
53 65 84
49 62 82
55 67 85
45 55 69
52 62 77
47 58 74
64 78 99
42 51 64
45 54 68
49 59 74
61 74 93
56 68 88
71 86 109
53 63 80
41 51 65
33 40 52
43 50 61
25 32 42
44 53 67
47 55 69
51 61 75
52 62 77
36 43 53
33 41 52
31 39 51
29 36 46
71 82 99
46 54 67
43 52 64
46 57 73
53 63 78
42 51 64
47 56 68
52 63 80
40 49 64
31 37 48
52 62 78
47 56 70
54 66 84
39 48 62
47 57 72
53 63 80
36 44 56
50 61 79
47 56 71
55 65 80
38 47 60
40 49 62
54 65 82
49 57 70
53 65 83
40 48 60
32 40 52
38 46 58
48 58 73
47 56 70
41 50 64
43 52 64
43 50 62
51 60 75
54 65 82
47 57 72
30 38 50
25 30 39
44 55 72
65 75 91
57 68 85
49 59 74
54 64 79
72 85 105
71 84 102
21 25 31
55 63 76
52 63 79
68 82 102
52 62 77
57 69 88
52 62 78
50 60 76
43 51 62
60 75 96
59 71 89
74 88 108
61 74 93
56 68 86
75 91 115
54 67 88
63 74 91
59 70 86
67 81 102
57 70 89
78 94 118
53 65 84
46 56 72
72 88 112
76 97 128
65 79 99
53 66 85
70 84 105
76 90 112
67 88 118
77 97 128
80 99 128
71 86 108
68 86 112
64 81 106
70 85 108
44 57 78
55 70 92
72 88 112
62 77 99
63 76 96
74 89 112
58 74 97
72 90 118
58 70 89
77 95 121
78 98 128
69 85 109
77 92 115
73 92 121
74 92 118
58 70 89
74 91 118
69 86 112
63 79 102
66 83 108
70 86 112
63 77 99
71 87 112
74 95 128
83 101 128
73 89 112
73 91 118
70 87 112
77 95 121
72 88 112
79 96 121
62 80 106
56 69 90
73 90 116
70 85 108
73 88 112
76 94 121
81 99 128
68 85 112
73 92 121
75 93 121
71 91 121
78 95 121
80 99 128
62 78 102
78 98 128
65 83 108
71 90 118
74 92 118
74 91 118
64 81 106
72 90 118
81 97 121
79 98 128
80 99 128
71 91 121
82 100 128
62 76 99
81 100 128
74 93 121
66 82 107
84 102 128
75 93 121
75 92 118
75 96 128
81 100 128
76 92 118
84 102 128
72 90 118
68 84 109
72 89 115
75 96 128
73 91 118
77 97 128
76 97 128
79 96 121
71 89 118
77 97 128
89 104 128
82 100 128
74 93 121
77 97 128
79 98 128
81 100 128
70 89 118
77 95 121
81 100 128
77 95 121
80 99 128
81 100 128
78 98 128
74 96 128
77 93 118
79 96 121
63 79 102
74 93 121
76 97 128
70 88 116
69 84 105
69 86 112
77 93 118
80 99 128
81 99 128
80 99 128
81 99 128
80 99 128
77 97 128
80 99 128
74 95 128
79 98 128
79 98 128
75 96 128
80 96 121
63 77 99
76 94 121
82 100 128
77 97 128
85 102 128
75 93 121
80 99 128
72 94 128
72 90 118
80 99 128
79 94 118
80 96 121
83 101 128
76 96 128
73 90 115
74 92 118
74 93 121
78 95 121
69 87 115
76 90 112
77 97 128
80 99 128
78 95 121
68 87 116
70 88 115
70 89 118
76 97 128
80 99 128
65 82 108
81 100 128
79 98 128
69 90 121
75 94 121
77 97 128
72 92 121
72 92 121
75 96 128
66 83 109
65 83 108
64 80 104
66 84 112
77 97 128
78 98 128
78 98 128
76 94 121
83 101 128
73 95 128
80 96 121
74 92 118
80 99 128
78 95 121
82 100 128
79 98 128
83 101 128
82 100 128
72 90 118
73 92 121
79 98 128
76 93 118
85 102 128
74 92 118
63 82 112
80 99 128
74 91 118
85 102 128
76 97 128
75 96 128
73 92 121
78 98 128
82 100 128
73 95 128
74 91 118
76 96 128
78 98 128
72 91 121
81 99 128
80 99 128
73 95 128
79 99 128
75 93 121
80 99 128
81 97 121
71 90 118
83 101 128
80 99 128
79 95 118
76 92 118
74 92 118
72 90 118
67 85 112
69 88 116
68 84 108
81 99 128
79 96 121
74 92 118
79 99 128
71 89 115
71 91 121
77 95 121
76 97 128
76 94 121
73 91 118
70 88 115
72 89 115
72 92 121
63 83 112
71 90 118
67 82 105
81 99 128
68 85 110
78 98 128
79 98 128
63 82 112
74 93 121
78 98 128
76 96 128
70 87 112
63 79 103
74 92 118
77 97 128
56 72 96
70 88 115
69 85 108
74 91 118
68 84 108
74 93 121
67 83 106
60 75 99
73 92 121
71 89 116
77 95 121
69 86 112
78 98 128
67 82 105
81 99 128
74 91 115
46 59 78
68 87 115
61 74 94
55 70 93
68 85 112
77 93 118
77 95 121
73 91 118
84 101 128
62 78 102
65 79 99
76 97 128
63 79 102
70 84 105
67 83 108
59 75 99
67 83 107
70 85 108
78 95 121
52 66 86
72 89 116
52 66 87
53 65 83
49 64 86
70 86 110
70 84 106
53 65 83
73 88 112
65 79 100
67 83 106
62 77 100
63 77 99
55 69 89
75 92 118
52 67 88
60 74 95
68 85 112
59 72 92
46 55 68
47 57 72
41 51 65
79 93 115
65 80 103
45 57 74
58 68 84
36 44 56
59 74 97
60 73 92
69 83 103
51 64 84
50 60 74
53 64 80
52 62 76
32 40 51
48 57 70
65 77 96
58 70 88
28 33 41
54 66 84
37 44 54
35 43 54
53 63 78
39 48 62
48 58 73
46 54 66
39 48 62
55 69 89
52 63 80
61 72 90
43 52 66
41 50 64
58 71 90
35 44 56
37 45 57
47 57 72
58 69 86
53 63 78
37 46 58
52 60 74
60 72 89
57 70 89
56 68 84
37 45 57
47 58 75
70 83 102
62 73 89
37 46 60
47 57 72
51 63 80
53 65 83
31 37 47
56 66 81
62 74 91
58 71 91
51 61 77
51 62 78
50 62 78
41 49 62
30 36 45
42 50 62
57 68 86
51 61 76
57 69 86
55 66 83
54 65 80
49 58 72
49 58 72
41 49 62
40 48 60
35 42 52
41 49 61
34 41 51
46 53 65
52 62 77
54 66 83
36 42 52
38 44 54
54 65 81
50 61 77
51 60 75
47 56 70
45 54 68
58 71 89
33 40 50
53 66 86
45 54 67
46 55 68
39 47 60
75 88 108
49 60 76
73 87 109
74 90 116
54 66 84
60 75 96
70 87 112
55 68 86
67 80 100
77 94 118
58 69 87
49 61 80
72 86 108
61 76 99
75 92 118
71 86 108
79 95 118
60 74 96
75 89 112
78 98 128
55 67 86
69 84 105
78 95 121
63 76 96
66 82 106
64 80 104
51 63 81
81 100 128
64 78 99
65 78 99
78 93 116
65 79 100
80 99 128
67 81 102
72 92 121
63 76 96
75 94 121
69 85 108
71 89 115
78 98 128
80 99 128
76 93 118
69 85 108
54 68 90
81 99 128
69 86 112
75 92 118
73 91 118
73 92 121
71 86 108
59 74 97
73 91 118
55 68 87
60 74 96
63 81 108
53 69 94
74 90 116
73 87 108
65 83 108
74 91 118
80 99 128
79 96 121
72 90 118
61 76 99
75 92 118
68 85 112
77 94 121
74 92 118
77 97 128
66 81 105
70 88 115
79 99 128
74 93 121
73 92 121
71 89 116
79 98 128
76 96 128
72 94 128
66 81 105
80 99 128
78 95 121
70 90 121
78 94 118
83 101 128
79 99 128
82 100 128
71 87 112
77 97 128
83 98 121
80 99 128
74 96 128
65 83 109
74 95 128
79 98 128
77 97 128
75 93 121
76 94 121
69 89 118
80 99 128
80 99 128
75 94 121
79 98 128
75 92 118
80 99 128
81 100 128
75 92 118
74 96 128
73 95 128
68 85 112
80 99 128
74 92 118
74 92 118
71 90 118
74 91 118
80 99 128
76 97 128
71 90 118
74 92 118
75 92 118
80 99 128
81 100 128
71 91 121
73 91 118
75 96 128
80 99 128
77 97 128
86 103 128
81 100 128
75 93 121
79 98 128
83 101 128
77 97 128
72 89 115
79 98 128
73 90 116
78 95 121
73 91 118
80 99 128
77 95 121
72 92 121
65 82 108
79 99 128
79 99 128
83 101 128
79 98 128
67 86 116
78 98 128
79 96 121
78 94 118
84 102 128
71 89 115
77 97 128
70 89 118
74 92 118
76 97 128
76 94 121
75 96 128
66 82 107
80 99 128
76 94 121
59 76 102
84 101 128
76 97 128
82 100 128
79 99 128
80 99 128
77 97 128
74 92 118
78 98 128
73 91 118
81 97 121
76 96 128
75 96 128
67 85 112
75 93 121
81 100 128
82 100 128
79 98 128
76 96 128
71 88 115
77 97 128
76 96 128
83 101 128
75 93 121
77 93 118
82 100 128
77 97 128
69 89 118
75 94 121
74 93 121
75 96 128
80 99 128
75 94 121
77 95 121
73 92 121
73 92 121
72 91 118
78 98 128
76 96 128
65 82 108
81 99 128
68 85 112
71 89 116
64 81 105
80 99 128
76 93 118
75 96 128
71 90 118
75 92 118
75 93 121
79 98 128
78 98 128
76 93 118
85 102 128
85 102 128
76 93 118
76 97 128
61 77 102
82 100 128
61 76 99
76 97 128
75 96 128
81 99 128
68 88 118
66 83 108
71 90 118
72 90 118
84 101 128
66 84 112
82 100 128
75 92 118
68 84 108
77 95 121
83 101 128
68 85 109
69 90 121
74 92 118
60 76 99
76 97 128
76 94 121
68 83 105
74 90 116
75 94 121
65 80 104
59 74 96
63 82 112
77 95 121
66 84 112
73 91 118
81 100 128
84 101 128
72 92 121
62 82 112
63 81 108
72 87 110
70 88 116
73 91 118
73 91 118
80 96 121
64 81 106
61 80 108
72 89 115
65 82 108
59 75 99
76 93 118
82 100 128
77 97 128
74 93 121
68 83 105
80 99 128
61 75 96
70 86 110
78 93 116
74 92 118
75 92 118
69 85 108
75 94 121
74 91 118
67 81 102
77 97 128
76 97 128
67 85 112
60 75 96
49 61 79
64 79 102
75 92 118
59 73 94
70 87 112
52 64 81
71 87 110
63 80 105
71 88 115
55 69 90
67 83 108
61 76 99
54 65 80
80 99 128
74 91 118
55 68 86
71 86 108
64 77 96
61 75 96
57 73 97
71 86 109
59 74 97
66 81 102
72 88 112
73 88 112
67 84 108
76 93 118
52 62 78
44 55 70
63 76 96
48 58 74
54 66 84
48 58 73
64 77 96
51 65 84
50 60 74
41 50 62
63 75 94
45 54 68
64 75 92
62 76 96
74 87 108
63 76 96
46 56 70
36 43 52
47 58 73
38 47 59
33 39 48
53 63 78
40 48 59
24 28 34
57 68 84
47 56 69
58 68 83
59 70 86
52 62 78
47 56 70
36 46 61
43 54 70
46 55 68
53 63 78
59 70 85
62 72 88
45 55 69
61 73 89
53 63 78
53 64 80
69 81 97
44 53 65
50 60 76
50 61 77
45 56 72
47 56 70
40 49 62
55 66 83
48 57 72
46 57 73
49 60 76
41 50 64
47 57 72
47 56 69
56 66 81
37 43 53
39 47 59
52 64 83
44 53 67
40 47 58
37 44 54
66 79 99
59 72 91
49 60 77
45 54 67
45 54 69
52 62 78
45 53 64
44 54 69
33 41 52
55 65 80
42 51 64
49 57 69
30 37 47
35 41 51
48 57 70
48 58 73
46 56 72
42 50 63
43 51 64
61 72 90
72 86 106
72 84 102
46 55 68
40 47 59
52 63 78
39 48 61
45 55 70
52 64 83
46 55 68
54 66 83
52 63 80
62 75 96
86 103 128
69 85 108
69 82 102
32 39 50
65 78 99
86 103 128
54 65 81
55 68 88
60 73 93
66 81 103
53 68 89
60 74 96
53 67 87
72 85 104
66 83 109
66 82 107
54 65 82
72 88 112
49 60 78
69 86 112
51 64 83
65 81 105
64 79 102
64 77 96
60 76 100
77 97 128
57 72 93
78 95 121
55 70 93
61 79 105
66 80 102
75 93 121
64 79 102
76 93 118
75 92 118
70 88 115
80 96 121
59 75 97
75 93 121
67 80 99
73 91 118
67 82 106
84 101 128
71 90 118
80 99 128
72 92 121
66 83 109
69 86 112
70 87 112
67 84 108
64 79 100
75 94 121
65 79 99
67 85 112
74 92 118
78 95 121
76 97 128
61 75 96
69 85 108
64 82 108
76 93 118
73 93 121
70 88 116
68 87 116
69 87 115
64 79 102
71 90 118
70 88 115
76 93 118
78 98 128
74 90 116
77 97 128
74 96 128
77 93 118
81 100 128
65 81 105
73 91 118
70 86 112
67 87 118
71 89 115
74 91 116
69 86 112
81 99 128
75 93 121
80 97 121
78 98 128
70 89 118
78 95 121
80 99 128
73 92 121
64 81 106
69 86 112
70 87 112
80 99 128
79 98 128
82 100 128
73 95 128
80 99 128
85 102 128
78 98 128
73 90 116
73 91 118
83 101 128
82 100 128
76 94 121
80 99 128
79 99 128
77 97 128
70 86 110
80 99 128
76 96 128
71 90 118
72 90 116
71 90 118
77 97 128
74 90 115
59 74 96
78 98 128
77 93 118
80 99 128
79 98 128
73 90 116
80 99 128
70 88 116
73 91 118
75 96 128
73 91 118
75 94 121
81 99 128
75 96 128
76 97 128
80 99 128
73 92 121
80 99 128
74 90 115
74 92 118
76 93 118
71 87 112
76 97 128
71 88 115
72 94 128
80 99 128
77 97 128
74 93 121
81 100 128
74 93 121
74 93 121
84 101 128
80 99 128
76 93 118
83 101 128
67 86 115
75 93 121
73 91 118
81 100 128
82 100 128
72 88 112
81 100 128
82 100 128
67 84 108
82 100 128
77 97 128
75 96 128
72 94 128
78 98 128
81 100 128
76 94 121
71 90 118
72 89 115
74 93 121
78 94 118
81 100 128
69 87 115
78 98 128
77 97 128
64 81 106
66 86 116
70 89 118
75 92 118
81 100 128
80 99 128
84 101 128
76 96 128
81 97 121
78 98 128
73 86 105
88 104 128
78 98 128
80 95 118
74 92 118
73 90 116
72 89 115
75 93 121
79 96 121
78 98 128
77 97 128
72 88 112
77 97 128
69 90 121
75 96 128
71 89 115
81 100 128
78 98 128
78 98 128
74 95 128
71 90 118
72 94 128
81 100 128
69 82 102
79 98 128
77 93 118
72 89 115
77 94 121
70 88 115
79 98 128
71 91 121
74 96 128
71 90 118
67 82 105
78 98 128
80 99 128
74 91 118
62 76 97
81 99 128
76 97 128
76 93 118
76 97 128
68 86 112
67 85 112
73 91 118
49 65 88
65 79 100
77 93 118
67 81 103
82 100 128
76 97 128
77 97 128
81 99 128
68 84 107
76 94 121
74 91 118
69 86 112
71 90 118
59 75 99
64 79 102
70 89 118
76 96 128
78 98 128
66 81 104
70 87 112
75 94 121
77 94 118
70 88 115
78 96 121
77 94 118
73 91 118
80 94 116
79 96 121
61 76 99
74 89 112
62 78 104
76 94 121
70 86 112
76 97 128
71 86 108
73 91 118
67 87 118
73 92 121
60 73 92
78 98 128
55 71 96
62 74 93
62 75 96
49 64 86
81 99 128
75 93 121
68 82 102
67 82 106
60 77 102
71 87 112
77 93 116
74 92 118
60 74 96
65 80 102
73 91 118
61 77 100
62 76 99
64 78 100
70 86 108
78 93 116
59 73 94
64 79 100
68 84 108
69 83 105
80 99 128
70 85 108
83 101 128
69 85 108
43 52 66
64 81 105
53 65 83
69 82 102
65 81 105
37 45 57
72 85 105
63 80 106
63 77 99
64 79 100
66 81 102
68 82 104
51 61 77
30 36 45
48 56 69
63 78 99
61 71 88
52 64 84
54 63 77
62 75 96
49 60 76
72 87 109
65 76 92
70 82 100
50 60 76
38 46 57
60 71 87
46 55 69
50 59 73
27 32 39
41 50 64
45 54 68
35 41 50
50 59 73
37 43 52
39 46 56
45 55 71
37 45 57
45 54 68
48 57 70
33 40 50
44 54 68
35 43 54
30 37 47
32 39 51
51 61 78
31 37 46
50 61 76
45 53 66
43 52 65
54 64 80
35 42 52
55 65 81
44 53 67
40 49 62
46 56 71
25 29 37
48 57 70
57 68 84
41 50 64
25 31 40
51 60 75
54 66 83
46 54 67
38 45 56
23 30 39
36 42 53
32 40 52
29 36 46
49 60 76
40 47 59
51 60 75
49 59 74
43 50 62
49 60 78
47 57 72
54 64 78
24 29 35
41 48 58
42 50 63
33 40 49
57 67 82
30 37 47
34 41 50
39 46 57
52 62 77
54 66 82
38 45 56
70 83 102
49 59 75
61 72 90
39 48 62
38 45 57
57 69 87
77 95 121
58 69 86
38 46 57
50 59 74
48 58 72
67 84 108
52 62 78
68 83 105
75 90 112
66 78 96
62 76 96
55 66 82
83 101 128
63 76 96
67 81 102
43 52 65
59 72 91
72 87 108
52 63 78
55 66 83
50 63 83
71 89 115
73 87 109
64 82 108
58 72 92
72 87 108
58 70 89
76 93 118
72 87 108
75 91 115
47 60 80
70 87 112
64 77 97
42 53 70
75 92 118
61 74 93
78 94 118
72 89 115
71 86 108
75 94 121
74 93 121
68 87 116
51 62 78
76 91 115
56 70 90
60 78 106
69 84 106
65 81 106
70 89 118
58 74 99
81 97 121
67 80 99
57 72 96
68 85 112
64 83 112
58 74 99
81 100 128
79 96 121
78 98 128
77 94 118
82 98 121
75 92 118
67 82 105
80 99 128
63 80 106
55 71 96
72 90 118
72 86 108
64 81 105
61 80 108
79 96 121
68 85 112
74 91 115
61 75 96
76 96 128
66 82 106
72 89 115
70 88 116
72 92 121
81 99 128
69 86 112
73 91 118
76 93 118
83 101 128
68 85 112
62 77 100
70 87 112
60 75 97
80 99 128
75 92 118
67 82 105
78 98 128
70 87 112
72 89 116
74 91 116
77 95 121
71 90 118
69 83 105
58 73 96
72 92 121
84 101 128
80 99 128
84 101 128
82 100 128
69 88 118
74 92 118
74 91 118
78 98 128
79 98 128
80 99 128
74 91 118
77 95 121
77 97 128
75 92 118
73 91 118
69 87 116
61 78 102
68 85 112
77 95 121
77 97 128
79 96 121
81 100 128
81 100 128
86 103 128
79 98 128
73 92 121
80 99 128
82 100 128
80 99 128
68 85 112
81 100 128
79 99 128
79 94 118
73 95 128
77 97 128
78 98 128
81 99 128
78 98 128
68 85 112
78 98 128
79 98 128
81 100 128
75 96 128
67 86 116
79 98 128
78 95 121
71 91 121
76 97 128
80 99 128
76 96 128
71 90 118
85 102 128
84 102 128
81 100 128
79 98 128
66 80 102
82 100 128
71 90 118
81 100 128
74 93 121
83 101 128
73 91 118
77 97 128
78 98 128
83 101 128
72 94 128
75 92 118
69 89 118
73 91 118
78 98 128
72 94 128
82 100 128
75 94 121
77 97 128
80 95 118
82 100 128
80 99 128
76 96 128
77 97 128
73 91 118
83 101 128
76 94 121
74 93 121
68 82 104
70 89 118
81 99 128
74 93 121
80 99 128
70 88 116
80 99 128
74 95 128
86 103 128
77 97 128
78 95 121
81 99 128
72 92 121
69 86 112
74 90 115
76 97 128
79 96 121
76 97 128
76 92 116
84 102 128
67 86 115
76 94 121
83 101 128
80 99 128
81 100 128
75 94 121
74 95 128
80 99 128
80 99 128
69 87 115
78 98 128
70 87 112
76 93 118
84 101 128
79 98 128
67 83 108
79 98 128
80 99 128
75 93 121
72 88 112
71 90 118
71 86 109
70 88 116
72 90 118
84 101 128
69 85 108
77 93 118
77 94 121
76 97 128
81 100 128
74 95 128
70 86 108
70 86 112
72 90 118
71 90 118
77 97 128
64 82 108
71 90 118
75 94 121
79 98 128
81 97 121
68 84 108
72 90 116
66 81 104
74 91 118
76 97 128
78 98 128
68 87 115
83 101 128
72 92 121
74 96 128
70 85 108
64 78 99
77 97 128
79 98 128
77 94 118
84 101 128
79 98 128
85 102 128
58 73 97
60 76 99
57 72 96
73 89 115
81 100 128
70 88 116
81 97 121
74 88 108
70 85 108
84 101 128
70 87 112
69 88 116
65 80 102
72 88 112
68 87 116
57 75 102
75 92 118
69 85 109
74 92 118
48 60 77
65 80 104
69 85 108
77 94 121
80 96 121
76 96 128
69 85 108
52 62 78
71 88 115
69 86 112
55 71 94
68 82 102
61 75 96
63 78 102
61 76 97
64 83 112
55 70 94
52 64 81
72 90 116
45 55 69
78 94 118
70 88 115
57 69 88
65 81 105
59 70 87
70 84 106
68 83 105
51 62 79
58 68 84
60 72 89
64 77 97
52 65 84
65 79 100
72 88 112
42 52 68
60 74 94
70 83 102
65 80 102
65 78 99
52 64 81
51 60 75
53 64 80
58 70 87
55 65 80
58 69 87
27 31 38
48 58 73
46 55 69
61 72 90
32 39 49
34 42 53
50 61 77
53 63 78
72 85 104
46 54 65
20 23 28
25 30 36
33 39 48
25 29 35
34 40 49
28 33 41
34 41 52
24 28 34
44 51 63
23 27 33
23 28 36
38 46 57
60 70 84
50 59 73
37 44 56
51 60 73
60 72 89
37 44 54
51 62 78
21 26 34
48 57 70
39 47 60
47 57 71
36 44 54
34 42 53
56 65 78
31 38 50
27 33 42
42 53 68
52 62 76
46 56 72
65 77 96
50 59 73
42 50 62
23 28 35
37 45 58
32 39 48
38 47 61
22 28 36
52 62 78
39 47 59
31 37 46
46 56 70
45 52 64
20 23 28
32 38 47
33 39 49
54 63 78
54 64 80
35 41 51
34 41 50
50 60 75
39 46 57
58 69 87
47 56 71
21 26 33
38 45 55
50 61 77
63 75 93
50 60 75
60 72 89
42 51 64
57 68 86
53 64 80
57 68 85
46 55 68
40 48 60
42 51 65
62 74 93
52 64 81
66 79 100
45 56 72
60 73 92
57 68 84
59 74 96
56 67 83
53 66 86
43 52 65
55 67 84
59 72 91
60 71 87
48 58 73
83 101 128
73 90 115
30 36 44
55 70 92
59 71 90
70 85 108
77 91 112
64 78 99
64 80 104
79 93 115
61 75 97
79 96 121
64 78 99
80 99 128
76 92 116
66 80 100
81 100 128
76 90 112
74 92 118
48 62 83
67 84 108
69 85 109
58 74 99
74 89 112
75 91 115
68 86 115
64 80 103
67 86 115
74 93 121
61 76 100
83 101 128
73 89 112
79 95 118
69 87 115
66 82 105
53 65 84
74 89 112
68 86 112
71 90 118
70 85 107
82 100 128
75 91 115
71 87 112
76 97 128
75 93 121
69 85 108
73 87 108
57 70 89
78 98 128
67 86 116
72 90 116
79 96 121
64 81 106
75 94 121
82 100 128
69 85 108
80 99 128
74 91 116
84 101 128
84 101 128
67 85 112
71 86 108
81 100 128
75 94 121
71 87 112
59 74 97
81 100 128
57 74 99
67 87 116
71 89 116
77 95 121
74 91 116
72 91 118
67 85 112
73 90 115
63 80 105
74 95 128
83 101 128
64 80 105
80 99 128
67 86 116
84 101 128
70 89 116
79 98 128
74 96 128
74 96 128
75 96 128
78 98 128
83 101 128
77 97 128
80 99 128
78 95 121
70 84 106
73 91 118
80 99 128
75 92 118
77 97 128
75 96 128
78 98 128
78 98 128
73 91 118
73 88 112
81 99 128
81 100 128
73 92 121
80 99 128
79 98 128
76 94 121
76 94 121
71 91 121
76 96 128
70 88 115
68 85 112
66 81 103
67 87 118
76 93 118
80 99 128
77 97 128
81 99 128
73 91 118
80 99 128
72 92 121
80 96 121
80 99 128
80 99 128
81 100 128
81 100 128
79 96 121
75 96 128
78 98 128
76 93 118
75 96 128
83 101 128
74 96 128
74 92 118
74 91 118
77 97 128
81 100 128
60 80 109
77 97 128
81 99 128
80 99 128
78 95 121
76 97 128
79 95 118
80 99 128
76 97 128
73 91 118
81 99 128
74 92 118
82 100 128
72 90 116
65 80 103
73 91 118
71 90 118
79 99 128
75 94 121
76 94 121
69 86 112
76 96 128
68 87 116
78 98 128
78 95 121
80 99 128
82 100 128
74 93 121
66 84 112
78 98 128
73 92 121
76 97 128
68 85 112
55 70 93
74 95 128
81 100 128
76 96 128
76 94 121
76 97 128
70 87 112
79 98 128
81 100 128
79 98 128
78 98 128
72 87 108
75 92 118
79 98 128
61 76 99
81 100 128
77 97 128
80 96 121
66 82 106
73 95 128
82 100 128
74 91 118
75 94 121
75 96 128
74 96 128
66 83 108
54 67 88
74 95 128
74 96 128
72 92 121
78 98 128
80 99 128
77 97 128
64 86 118
63 78 102
69 82 102
66 83 109
75 94 121
75 91 115
76 93 118
59 74 96
78 98 128
65 86 116
82 100 128
71 90 118
81 100 128
79 98 128
77 95 121
77 93 118
77 97 128
74 95 128
81 100 128
69 87 115
78 95 121
76 97 128
60 77 102
70 91 121
80 99 128
69 85 108
80 99 128
77 97 128
78 95 121
67 84 108
73 91 118
76 92 118
72 89 116
69 83 104
84 101 128
66 82 106
73 88 112
69 88 115
61 76 99
73 89 112
62 79 105
70 88 115
72 91 118
76 96 128
50 65 87
71 86 108
72 92 121
76 93 118
72 86 108
79 99 128
72 90 116
67 87 118
74 89 112
73 92 121
72 90 118
84 101 128
61 79 106
79 96 121
70 89 118
65 81 105
53 67 87
69 81 99
36 44 56
65 82 108
71 87 112
70 88 116
74 91 116
72 87 110
69 85 108
57 69 87
70 89 118
74 91 118
79 95 118
59 71 89
63 76 96
56 68 87
63 80 106
54 69 90
61 77 100
73 89 112
58 72 93
61 76 99
64 79 102
73 88 112
62 75 96
59 75 100
61 73 93
76 92 116
40 50 64
60 73 92
55 70 91
61 72 89
23 29 39
62 75 95
59 72 92
72 88 112
58 69 84
36 45 58
61 72 90
66 80 102
44 55 70
47 58 74
50 59 74
58 69 85
61 71 87
54 65 81
54 66 85
55 66 82
68 82 102
47 57 71
34 41 51
41 49 61
47 58 73
46 56 70
46 55 69
48 56 68
16 19 24
41 49 61
39 47 59
26 32 41
55 64 79
28 33 40
51 59 72
44 51 62
43 51 63
65 78 96
45 53 65
35 40 49
53 63 78
42 49 59
41 49 61
37 44 55
44 53 66
38 44 55
43 51 64
44 53 66
40 47 57
42 51 64
50 59 73
51 63 80
65 76 92
46 54 66
33 39 49
44 52 64
44 53 65
61 74 92
43 53 68
28 34 44
38 45 56
21 26 34
38 45 56
23 28 37
57 67 81
38 45 55
53 62 75
37 44 53
41 49 62
43 50 61
36 44 55
39 46 58
44 52 64
53 64 81
42 50 63
23 28 36
25 31 39
36 42 51
46 56 71
59 70 86
54 63 77
43 53 67
55 66 84
38 46 58
67 78 96
43 51 63
28 34 44
58 71 90
64 76 93
45 56 74
55 68 87
46 54 67
46 55 69
46 55 68
47 56 69
55 65 80
55 66 84
42 50 61
54 65 81
55 67 86
60 73 92
59 73 92
74 88 108
45 55 71
70 84 105
63 76 96
79 95 118
71 86 108
72 88 112
61 73 90
68 82 102
72 89 115
66 80 103
62 76 97
68 81 100
73 87 108
41 52 70
72 89 115
73 95 128
61 73 91
65 83 109
81 100 128
68 84 108
55 68 86
68 81 100
72 90 118
73 91 118
76 94 121
74 91 118
75 93 121
68 84 109
76 93 118
73 89 115
74 92 118
70 84 105
72 85 105
70 87 112
80 99 128
63 76 96
81 100 128
67 83 109
68 86 112
65 81 105
62 77 99
69 86 112
80 99 128
74 90 116
75 94 121
61 75 96
70 89 118
70 87 112
51 62 79
55 71 95
69 85 108
59 72 92
68 88 118
59 74 96
64 82 109
58 72 93
65 81 105
74 95 128
83 101 128
74 90 115
65 82 108
69 87 115
75 91 116
76 92 115
68 85 112
66 83 109
82 98 121
72 92 121
70 88 115
79 99 128
76 97 128
77 93 118
78 98 128
76 97 128
68 85 112
84 101 128
76 97 128
74 89 112
77 94 121
66 84 112
66 83 108
76 93 118
73 90 115
80 99 128
76 96 128
72 91 118
70 86 112
72 90 116
81 100 128
69 87 116
70 85 107
73 90 116
77 97 128
68 84 108
77 93 118
76 97 128
77 94 118
76 96 128
71 91 121
82 100 128
69 85 109
78 98 128
76 97 128
75 92 118
78 94 118
75 96 128
66 83 108
76 94 121
78 98 128
78 98 128
73 92 121
80 99 128
66 82 107
74 92 118
82 100 128
80 99 128
76 97 128
80 99 128
77 97 128
74 92 118
77 95 121
80 95 118
83 101 128
73 91 118
74 95 128
79 98 128
80 99 128
82 100 128
81 99 128
83 101 128
77 97 128
78 95 121
74 96 128
70 87 112
83 101 128
78 95 121
74 96 128
77 97 128
74 96 128
65 83 112
72 88 112
76 94 121
82 98 121
69 88 118
70 87 112
78 95 121
83 101 128
74 95 128
76 92 116
76 94 121
70 89 118
79 99 128
77 97 128
82 100 128
76 92 116
84 102 128
75 92 118
81 100 128
74 91 116
74 96 128
78 94 118
69 86 112
78 98 128
80 99 128
86 102 128
75 91 116
74 95 128
80 99 128
81 100 128
76 93 118
76 94 121
65 82 106
74 93 121
65 82 108
81 99 128
81 100 128
69 86 112
81 100 128
72 92 121
79 99 128
77 97 128
80 99 128
74 95 128
85 102 128
82 100 128
75 96 128
70 89 116
80 99 128
81 100 128
76 97 128
80 96 121
72 92 121
80 99 128
77 97 128
84 101 128
80 99 128
83 101 128
73 92 121
76 94 121
63 81 108
75 94 121
76 93 118
78 98 128
83 101 128
85 102 128
86 103 128
75 92 118
84 101 128
73 95 128
77 94 118
67 82 105
67 85 112
79 98 128
75 96 128
73 89 115
63 79 102
71 89 115
71 89 118
78 98 128
79 99 128
72 91 118
76 97 128
67 87 118
63 81 108
67 82 105
72 89 116
79 98 128
79 98 128
77 97 128
74 91 115
74 92 118
73 92 121
74 91 118
76 94 121
67 80 99
76 97 128
73 92 121
76 91 115
77 97 128
78 95 121
67 82 105
56 69 89
77 97 128
78 95 121
73 92 121
79 98 128
55 68 88
84 101 128
53 70 96
81 99 128
64 82 109
68 82 102
82 100 128
55 66 83
67 87 118
70 88 116
60 75 99
71 87 112
80 99 128
74 91 118
80 99 128
56 69 90
65 80 104
59 76 102
70 87 112
80 96 121
74 93 121
61 76 97
70 85 108
69 88 116
79 96 121
58 73 96
78 94 118
69 87 115
60 76 100
64 77 96
76 94 121
59 75 99
76 93 118
67 81 102
63 80 107
70 88 116
69 84 108
68 84 109
59 72 91
83 101 128
74 95 128
70 85 108
61 73 92
75 92 118
59 75 99
69 84 106
52 66 86
62 75 96
50 61 77
70 86 112
65 78 99
37 46 60
73 90 116
51 61 77
62 78 102
66 84 112
63 76 96
65 78 99
70 86 110
47 57 72
53 64 81
46 56 72
64 76 92
43 54 70
54 66 83
53 64 81
48 58 73
56 69 87
59 71 90
66 79 99
49 57 70
60 71 87
45 54 67
50 58 71
44 53 68
44 53 65
50 61 77
59 71 89
51 61 76
46 56 71
45 53 64
23 27 33
42 50 63
43 52 64
44 52 63
45 53 66
44 52 64
19 22 28
29 34 42
31 37 45
41 48 59
70 82 99
30 35 42
51 60 74
23 27 34
46 55 68
33 38 47
28 34 42
53 62 75
28 32 39
29 36 45
19 23 28
29 35 43
28 33 40
36 43 54
28 33 40
23 28 36
56 65 79
40 48 59
37 43 53
43 50 60
36 42 51
49 57 69
23 27 33
46 55 67
50 58 70
49 58 71
44 53 65
38 45 56
29 34 41
59 70 86
40 47 59
42 50 62
33 40 50
35 42 54
53 62 77
46 55 68
36 43 53
66 78 96
35 42 53
44 52 65
50 59 73
53 64 80
45 56 72
43 51 64
32 38 47
54 66 84
67 81 102
46 57 74
58 72 93
67 83 105
39 47 58
52 62 76
47 58 73
62 76 99
60 76 99
67 81 102
51 61 77
50 60 75
43 52 65
53 65 83
45 57 75
62 77 100
62 77 99
48 59 76
72 85 106
62 76 98
47 58 73
57 71 92
58 74 96
70 83 102
56 70 89
50 61 78
60 73 93
79 96 121
73 90 115
77 93 118
69 84 106
68 83 106
73 90 115
65 81 105
68 84 108
64 77 96
76 89 108
54 68 88
69 86 112
62 77 100
67 82 106
64 78 99
71 83 102
57 71 92
58 73 96
62 75 96
73 89 112
70 87 112
78 94 118
68 87 115
80 96 121
52 65 83
67 84 108
75 90 112
83 98 121
57 70 90
60 76 99
66 82 105
68 82 104
77 97 128
77 94 121
74 92 118
75 92 118
71 87 112
67 85 112
70 87 112
74 92 118
71 86 108
61 75 96
76 94 121
65 81 105
79 96 121
77 97 128
70 88 116
69 89 118
81 100 128
81 100 128
64 80 103
75 96 128
74 91 116
72 89 115
77 97 128
69 88 116
84 101 128
60 75 99
74 91 116
66 84 112
81 100 128
74 93 121
76 97 128
80 99 128
66 82 106
62 78 102
76 97 128
72 92 121
72 92 121
83 101 128
75 91 116
77 97 128
74 91 118
72 91 121
70 89 118
78 98 128
78 94 116
76 93 118
75 91 115
75 93 121
75 93 121
77 97 128
71 91 121
75 91 116
69 84 108
81 100 128
79 98 128
75 92 118
82 100 128
77 95 121
67 88 118
85 102 128
67 85 112
75 93 121
86 103 128
75 92 118
78 98 128
73 95 128
67 85 112
79 96 121
80 99 128
76 94 121
78 98 128
67 85 112
62 76 99
70 88 115
77 97 128
79 99 128
75 93 121
67 85 112
69 87 115
75 92 118
80 99 128
83 101 128
82 100 128
78 98 128
69 84 107
77 97 128
73 91 118
76 97 128
75 96 128
72 94 128
80 99 128
78 98 128
73 92 121
83 101 128
70 90 121
79 98 128
76 96 128
69 89 118
77 95 121
78 95 121
75 96 128
82 100 128
72 90 118
81 100 128
73 91 118
80 99 128
83 101 128
71 89 116
67 86 115
78 98 128
80 99 128
69 88 116
78 95 121
78 98 128
85 102 128
81 99 128
78 98 128
80 99 128
76 97 128
79 98 128
82 100 128
76 97 128
76 93 118
74 95 128
79 98 128
84 101 128
76 94 121
76 94 121
83 101 128
80 99 128
77 94 121
78 98 128
74 91 118
70 88 116
84 101 128
75 94 121
80 99 128
71 90 118
68 88 118
78 98 128
80 99 128
75 92 118
67 83 106
75 94 121
73 92 121
70 89 118
80 99 128
74 93 121
82 100 128
66 82 105
80 99 128
74 92 118
77 93 118
74 93 121
65 81 105
84 101 128
71 91 121
60 73 93
80 99 128
69 86 112
79 98 128
83 101 128
75 96 128
83 101 128
72 91 118
67 82 105
79 99 128
58 73 96
78 98 128
75 94 121
77 94 121
73 92 121
80 96 121
70 89 118
84 99 121
71 89 118
73 90 116
72 92 121
81 100 128
64 78 100
75 92 118
79 98 128
82 100 128
72 90 118
81 99 128
67 87 118
75 93 121
66 87 118
73 92 121
76 97 128
66 83 108
71 90 118
77 95 121
73 91 118
78 95 121
81 100 128
73 92 121
61 77 102
65 82 108
62 78 103
77 92 116
71 87 112
75 90 112
83 101 128
69 87 115
78 98 128
74 90 115
69 85 109
81 99 128
72 90 118
81 100 128
73 95 128
71 91 121
75 94 121
75 93 121
67 85 112
70 88 115
79 99 128
64 77 96
79 98 128
73 90 115
74 90 115
61 76 99
56 68 87
72 91 118
73 91 118
51 63 83
69 86 112
61 75 96
61 77 100
71 85 106
65 81 106
66 83 108
67 84 108
59 72 92
71 86 109
64 78 99
65 80 103
63 79 103
75 91 115
69 85 109
55 65 81
68 80 100
57 68 84
41 50 64
56 70 89
69 86 112
59 74 97
79 99 128
68 82 104
59 72 92
46 56 72
67 84 109
71 87 112
56 70 92
58 71 92
57 69 87
56 70 92
57 72 94
67 80 99
38 45 54
46 57 73
63 78 100
58 69 87
79 95 118
63 76 96
35 44 57
41 49 62
63 77 99
44 52 64
52 65 84
70 82 102
55 66 83
53 64 80
60 71 87
54 66 84
47 57 73
60 72 90
70 84 105
44 52 65
59 70 88
54 65 81
44 53 65
50 59 72
45 54 67
26 32 41
28 34 42
34 41 52
58 69 84
58 69 85
43 52 64
41 48 58
43 52 65
43 52 64
30 35 42
34 42 52
44 52 64
28 33 39
19 22 26
33 39 49
35 40 48
44 51 62
42 49 60
24 28 34
24 28 34
27 31 38
27 31 38
26 31 38
32 38 46
27 32 39
22 26 32
46 55 68
34 41 51
57 66 81
38 45 55
23 28 35
13 15 19
17 20 25
49 57 71
30 35 44
38 44 53
48 56 68
46 54 66
38 44 55
41 49 61
55 64 79
65 76 93
43 51 64
43 51 64
57 68 85
58 68 84
32 38 47
44 55 71
47 58 74
57 68 84
36 41 50
48 59 74
75 88 108
19 24 31
66 78 96
63 76 94
50 61 77
34 41 52
39 49 64
41 50 62
38 45 56
59 73 94
64 78 99
66 80 100
55 68 86
61 75 96
48 58 73
65 79 99
62 74 92
44 55 72
68 81 100
55 68 87
58 72 94
62 77 100
66 82 105
68 83 105
50 63 83
62 75 94
61 76 99
54 65 83
51 60 74
70 88 116
77 93 118
76 94 121
61 73 92
71 86 108
67 81 103
70 84 106
68 81 102
52 62 78
68 83 105
65 79 100
75 94 121
45 57 75
53 66 86
61 79 106
64 81 107
70 89 118
76 94 121
57 72 94
68 84 108
70 89 118
74 91 118
83 101 128
77 97 128
64 81 105
61 77 102
73 89 115
65 80 102
54 67 87
71 88 115
56 72 96
78 94 118
61 79 106
62 76 99
79 95 118
73 90 116
67 86 115
73 88 112
77 97 128
70 84 106
66 81 104
68 82 103
71 89 118
65 82 106
53 67 88
79 98 128
56 72 97
81 99 128
76 93 118
68 88 118
81 97 121
76 93 118
70 85 108
73 90 115
77 97 128
80 96 121
83 101 128
65 82 107
64 79 102
77 94 121
64 80 104
77 97 128
79 99 128
62 77 99
76 94 121
63 81 108
69 90 121
77 97 128
69 87 115
80 97 121
82 100 128
79 98 128
70 88 115
78 98 128
70 87 112
75 92 118
79 98 128
75 96 128
80 99 128
61 76 98
78 98 128
69 85 109
75 93 121
74 91 116
71 90 118
79 98 128
57 74 99
78 98 128
71 90 118
78 95 121
77 95 121
73 91 118
81 99 128
66 84 112
73 91 118
77 97 128
80 99 128
72 88 112
75 92 118
77 97 128
82 100 128
81 100 128
81 100 128
77 94 121
68 88 118
74 90 115
81 97 121
67 87 118
77 97 128
74 93 121
80 99 128
71 90 118
79 98 128
67 83 108
63 81 107
76 94 121
81 99 128
82 100 128
78 98 128
72 86 106
66 82 105
68 85 112
80 99 128
68 88 118
77 95 121
81 100 128
72 90 118
77 95 121
78 98 128
78 98 128
76 97 128
76 97 128
80 99 128
78 98 128
73 90 115
81 99 128
80 99 128
78 98 128
80 99 128
77 97 128
76 93 118
75 93 121
86 102 128
74 93 121
80 97 121
75 93 121
77 97 128
74 93 121
78 95 121
76 93 118
77 95 121
76 96 128
73 90 116
77 95 121
79 99 128
85 102 128
77 97 128
82 100 128
83 101 128
82 100 128
72 94 128
69 86 112
77 97 128
75 96 128
81 99 128
78 98 128
73 91 118
83 101 128
82 100 128
73 92 121
82 100 128
78 98 128
72 90 118
76 97 128
73 90 116
81 99 128
66 83 107
77 97 128
78 98 128
78 98 128
77 97 128
67 85 112
81 100 128
74 92 118
77 97 128
79 98 128
69 85 108
81 100 128
68 85 112
85 102 128
73 91 118
82 100 128
72 90 118
76 96 128
75 93 121
61 78 105
74 91 116
73 89 112
71 89 115
75 96 128
84 102 128
78 93 115
78 94 118
78 98 128
71 94 128
70 88 116
70 86 112
74 92 118
75 94 121
74 91 115
79 98 128
77 97 128
76 93 118
75 96 128
67 83 109
57 74 99
65 84 112
72 89 115
69 88 115
69 89 118
76 94 121
81 100 128
79 96 121
72 89 115
81 100 128
70 85 108
79 96 121
76 93 118
86 102 128
65 83 112
72 87 109
77 93 118
74 92 118
81 97 121
79 99 128
71 89 115
77 97 128
75 96 128
64 80 104
72 89 115
67 83 108
73 92 121
66 82 106
63 79 104
71 91 121
78 95 121
70 88 115
71 90 118
67 83 108
68 85 112
75 93 121
75 93 121
60 74 96
59 77 103
72 90 118
70 86 108
81 99 128
63 81 108
60 81 112
70 83 102
58 72 92
69 85 109
69 86 112
59 75 99
66 80 102
63 77 99
66 81 102
76 96 128
66 80 102
71 88 115
70 85 108
69 83 106
75 93 121
70 86 112
64 79 102
62 74 93
54 65 83
78 95 121
74 89 112
58 68 84
64 78 100
52 64 84
74 92 118
69 84 105
51 64 83
68 83 106
61 77 100
71 88 115
72 89 115
65 81 105
68 83 107
80 97 121
67 81 102
65 79 99
45 55 71
57 69 88
54 66 84
63 78 100
50 59 73
47 58 74
60 72 90
48 59 74
53 64 82
80 95 118
40 48 59
59 70 86
40 48 60
46 56 70
42 51 65
44 53 65
60 72 89
42 51 64
61 75 96
53 61 74
48 59 74
23 28 35
17 21 28
42 50 62
43 51 64
48 57 71
39 46 57
41 49 61
55 64 79
33 38 46
20 24 29
30 35 43
43 51 63
45 54 67
64 77 96
46 55 68
35 41 52
50 59 74
50 60 74
38 44 55
20 23 29
32 37 46
61 70 84
28 33 40
27 32 39
41 49 60
45 53 65
19 22 27
67 78 96
35 40 49
50 59 72
31 37 46
30 35 42
27 31 38
29 33 41
50 59 73
27 32 40
44 52 64
48 56 67
32 38 47
28 33 41
26 31 38
38 44 54
44 52 63
44 53 66
46 54 66
58 69 86
46 55 69
45 52 62
60 71 86
44 51 62
33 40 50
48 57 72
40 48 61
25 30 38
51 60 74
36 44 57
49 60 77
57 68 86
47 57 72
61 71 87
59 71 90
42 50 62
64 74 90
66 79 99
48 58 74
58 68 84
46 54 68
65 79 99
61 75 96
45 54 69
62 77 99
61 72 90
55 66 81
53 67 86
75 90 112
76 92 118
66 82 106
55 69 89
70 87 112
62 74 92
52 64 81
76 93 118
63 79 102
70 85 108
60 74 96
73 89 115
66 82 105
57 70 89
61 73 92
58 74 97
77 93 118
67 83 108
59 71 88
56 71 93
58 75 99
70 85 108
69 84 106
68 85 112
65 82 109
46 59 78
62 74 93
50 64 84
76 97 128
71 86 109
62 76 99
68 83 105
68 87 115
73 91 118
73 92 121
60 72 89
68 87 115
75 92 118
62 77 99
74 90 115
76 94 121
68 83 107
69 83 105
75 94 121
70 85 108
65 83 109
65 79 100
78 98 128
68 83 106
75 96 128
65 82 108
68 83 107
79 96 121
70 86 110
77 95 121
61 79 105
76 94 121
82 100 128
63 80 106
74 90 115
69 87 115
69 85 108
73 95 128
74 91 118
79 96 121
75 94 121
72 89 116
78 96 121
62 76 96
76 94 121
83 101 128
75 96 128
79 95 118
82 98 121
63 77 99
80 99 128
73 91 118
69 87 115
78 94 118
80 99 128
79 98 128
65 80 104
85 102 128
75 91 115
70 91 121
75 92 118
83 101 128
75 91 115
65 81 106
68 88 118
69 86 112
73 92 121
73 92 121
78 98 128
71 91 121
83 101 128
74 92 118
80 99 128
74 95 128
73 91 118
74 90 116
73 92 121
72 90 118
77 93 118
67 83 108
80 99 128
77 95 121
70 88 115
75 93 121
78 98 128
85 102 128
77 97 128
71 89 116
73 92 121
72 89 115
77 93 118
80 99 128
71 86 108
78 98 128
67 84 108
77 94 121
82 100 128
73 92 121
78 94 118
77 94 121
69 86 112
72 91 118
70 89 118
70 89 118
80 99 128
72 90 118
78 98 128
75 96 128
80 99 128
80 99 128
72 90 115
73 90 116
75 92 118
71 89 115
81 99 128
78 94 118
73 91 118
76 97 128
76 94 121
72 92 121
83 101 128
77 97 128
77 94 121
75 92 118
83 101 128
71 90 118
77 97 128
81 99 128
68 85 112
73 92 121
74 91 118
72 90 118
77 97 128
70 89 118
79 98 128
77 97 128
82 100 128
69 86 112
79 98 128
78 98 128
78 98 128
77 95 121
79 95 118
73 91 118
75 92 118
79 96 121
81 99 128
74 92 118
82 100 128
73 91 118
83 101 128
71 89 116
86 103 128
72 89 115
70 90 121
78 98 128
74 90 115
78 98 128
76 97 128
83 101 128
82 100 128
77 94 118
73 90 115
70 88 115
73 91 118
80 99 128
76 94 121
75 94 121
70 88 116
74 93 121
78 95 121
74 92 118
80 99 128
79 99 128
68 86 112
72 90 118
69 89 118
66 83 108
75 96 128
71 86 109
71 89 116
73 91 118
79 99 128
73 92 121
81 99 128
80 99 128
77 95 121
72 90 118
80 96 121
70 90 121
76 93 118
84 101 128
64 82 108
80 99 128
74 91 115
64 81 106
80 99 128
71 90 118
69 87 115
67 84 108
81 100 128
79 95 118
74 90 116
81 97 121
80 99 128
73 91 118
72 88 112
75 96 128
76 97 128
61 76 99
74 93 121
78 95 121
73 91 118
75 91 115
83 101 128
59 73 96
63 74 90
74 93 121
78 98 128
58 74 99
82 100 128
74 93 121
75 92 118
77 95 121
72 87 109
74 93 121
78 98 128
73 95 128
64 81 106
75 92 118
67 85 112
67 83 108
73 90 115
80 99 128
80 99 128
65 81 105
79 98 128
71 89 115
69 85 108
65 84 112
56 69 88
65 81 105
76 91 115
69 84 106
64 78 100
71 87 112
71 89 115
81 100 128
82 100 128
75 92 118
68 85 112
74 90 115
62 76 96
62 76 96
73 91 118
72 86 108
84 102 128
56 70 90
57 75 102
57 70 89
72 88 112
73 87 109
70 87 112
57 69 87
70 86 112
70 87 112
55 69 90
77 95 121
54 65 81
56 68 86
61 76 99
49 58 72
64 81 105
51 62 78
51 63 81
46 57 73
65 77 96
49 60 78
60 74 96
72 90 118
64 76 96
53 66 84
62 73 90
71 83 102
67 81 104
61 73 92
39 47 60
42 51 65
71 86 108
58 70 88
66 79 99
38 46 59
45 55 69
61 72 88
66 80 100
44 53 68
43 53 68
57 68 83
47 57 71
56 68 86
39 47 58
65 79 100
30 36 45
54 63 77
62 74 93
48 58 72
55 65 80
33 40 50
37 45 57
35 42 52
41 50 64
47 54 66
63 74 90
53 64 81
38 45 55
34 40 50
50 59 73
35 43 54
49 58 72
25 30 38
46 54 65
29 34 42
38 46 58
25 30 37
30 37 48
57 67 81
63 75 93
34 40 49
34 40 50
30 35 43
44 51 62
31 36 44
46 55 67
21 26 33
43 51 64
30 36 45
36 43 52
43 51 62
40 47 58
35 42 52
40 48 59
49 58 71
31 37 48
35 42 51
57 69 86
29 33 40
36 43 54
48 58 75
40 46 56
19 23 31
55 66 82
62 73 90
44 52 65
56 67 84
69 83 105
55 68 86
69 84 106
53 65 82
39 47 61
47 56 71
32 38 48
43 52 65
65 78 96
47 56 70
58 71 90
61 75 95
86 103 128
49 61 80
50 61 77
59 73 92
34 42 54
52 63 78
61 73 92
69 86 112
72 86 108
55 68 86
63 75 92
49 59 74
55 69 89
69 85 108
55 69 91
72 88 112
60 71 88
44 55 72
67 86 115
54 65 83
53 64 82
82 100 128
47 56 70
46 57 74
53 65 84
66 82 106
75 93 121
72 87 109
53 67 88
58 70 89
77 93 118
70 89 118
62 76 96
75 90 112
81 100 128
49 60 76
73 91 118
71 91 121
61 75 96
69 85 108
80 97 121
68 88 118
58 73 96
61 74 93
58 72 93
61 76 99
81 100 128
70 89 118
65 81 106
66 84 112
84 101 128
73 88 112
72 88 112
60 75 99
62 78 102
64 80 104
71 89 116
73 91 118
73 92 121
73 92 121
70 88 115
74 91 116
57 70 90
73 90 116
80 99 128
77 95 121
77 92 116
64 81 106
70 86 109
64 82 108
80 99 128
67 80 99
72 88 112
71 87 112
65 85 115
81 100 128
77 97 128
74 89 112
73 90 115
70 86 112
67 87 118
71 87 112
77 94 118
76 94 121
82 100 128
70 89 118
64 80 105
73 92 121
76 97 128
78 94 118
69 85 108
71 91 121
78 95 121
76 93 118
81 100 128
76 94 121
79 96 121
72 91 121
80 99 128
73 91 118
77 97 128
82 100 128
75 94 121
77 94 121
78 98 128
75 96 128
74 93 121
66 84 112
73 91 118
66 81 104
72 91 121
71 90 118
80 99 128
77 97 128
74 93 121
73 91 118
76 93 118
82 100 128
63 78 102
79 98 128
68 84 108
75 96 128
78 95 121
81 100 128
82 100 128
67 87 118
80 99 128
78 98 128
83 101 128
85 102 128
75 92 118
78 98 128
72 91 118
84 101 128
69 87 115
76 93 118
65 83 109
79 98 128
65 86 118
72 89 115
67 87 118
70 91 121
72 92 121
82 100 128
75 92 118
83 101 128
70 89 118
83 101 128
74 91 116
79 99 128
78 98 128
79 99 128
78 98 128
75 96 128
75 91 115
70 89 118
77 97 128
76 96 128
74 93 121
78 98 128
81 100 128
79 98 128
75 92 118
76 97 128
77 97 128
77 97 128
71 90 118
76 94 121
78 98 128
64 82 108
78 98 128
78 98 128
74 91 118
75 92 118
80 99 128
76 94 121
74 88 110
79 95 118
76 97 128
79 98 128
68 88 118
70 89 118
71 90 118
74 92 118
72 94 128
76 97 128
75 96 128
82 100 128
77 94 121
81 100 128
69 83 104
70 87 112
77 97 128
73 88 112
77 97 128
66 84 112
76 92 116
71 91 121
76 94 121
84 101 128
79 98 128
69 90 121
78 98 128
77 92 115
80 99 128
72 91 121
79 99 128
74 92 118
75 93 121
70 89 118
79 99 128
70 90 121
69 88 118
79 98 128
64 80 102
71 87 112
78 98 128
75 92 118
85 102 128
79 98 128
75 96 128
80 99 128
80 99 128
66 80 102
82 100 128
76 94 121
75 92 118
81 99 128
81 99 128
69 86 112
67 84 108
80 99 128
83 101 128
80 99 128
78 94 118
66 84 112
71 90 118
77 95 121
72 92 121
66 82 105
68 83 105
76 94 121
65 82 108
60 77 102
73 87 108
76 97 128
69 85 108
64 82 108
74 90 115
82 100 128
62 78 102
82 100 128
75 93 121
76 93 118
79 96 121
73 91 118
71 90 118
73 91 118
76 97 128
65 81 106
72 88 112
79 98 128
77 97 128
58 72 92
77 97 128
79 99 128
72 91 118
67 81 103
85 102 128
74 92 118
75 92 118
58 72 92
79 96 121
82 100 128
68 87 116
65 81 106
64 81 105
58 73 95
71 85 105
68 83 105
71 90 118
68 85 112
75 93 121
69 83 105
63 79 104
67 87 118
76 94 121
62 76 96
67 83 108
68 87 116
72 91 118
63 78 100
56 70 90
72 92 121
70 83 102
58 74 97
74 92 118
75 91 115
41 50 64
75 90 112
67 82 104
64 78 99
72 88 112
67 83 108
60 74 96
60 73 92
59 70 88
44 54 68
76 92 116
69 86 112
55 69 89
65 79 100
46 58 75
75 89 112
56 69 89
67 78 95
46 55 68
51 64 84
56 68 86
48 58 72
47 56 68
40 51 67
70 86 108
58 69 87
60 72 90
59 71 89
53 64 82
61 75 96
42 50 62
52 66 86
57 70 90
33 39 50
50 59 73
41 49 62
59 71 89
53 61 75
43 52 65
38 45 57
71 83 102
43 51 65
61 72 90
33 41 53
60 71 88
40 49 61
53 62 76
54 65 81
44 52 64
28 33 41
37 45 56
19 22 27
70 83 102
36 43 55
36 42 52
37 44 53
38 45 54
37 44 54
44 53 65
53 63 77
42 51 64
31 37 45
54 63 76
38 45 56
48 56 69
27 33 41
36 44 56
44 50 60
25 29 36
57 67 82
39 46 58
48 57 70
48 57 70
39 45 55
40 47 56
34 41 51
45 53 65
24 29 37
43 52 65
28 32 39
42 50 61
54 65 82
34 40 49
40 47 57
41 49 62
26 31 40
63 77 96
53 64 81
55 68 86
57 69 88
58 68 83
52 62 76
48 57 72
41 49 63
27 32 40
59 71 90
49 59 75
51 61 76
42 50 63
54 65 83
77 91 112
45 55 71
67 80 99
48 57 71
80 95 118
60 75 97
57 67 83
64 77 96
59 72 92
64 77 96
39 48 61
46 54 67
59 70 87
69 82 102
61 75 96
47 56 71
53 67 88
49 59 75
58 70 87
59 72 90
61 76 100
79 96 121
60 75 96
60 73 92
63 79 102
84 101 128
61 77 102
80 96 121
62 78 104
68 86 112
71 89 118
64 82 108
78 98 128
62 77 99
78 98 128
61 74 93
64 76 96
46 58 77
66 81 105
64 76 94
73 95 128
71 86 109
60 73 94
57 72 94
66 82 107
61 74 94
65 83 110
69 88 116
74 87 105
59 76 102
77 93 116
62 74 93
73 92 121
75 91 116
59 75 100
71 89 116
68 84 109
71 87 112
67 89 121
75 92 118
69 84 105
75 94 121
67 83 106
78 98 128
58 71 89
68 86 115
70 89 118
75 96 128
61 77 103
76 94 121
80 99 128
74 89 112
77 94 121
66 83 108
72 89 116
59 73 95
74 91 118
69 84 108
67 84 110
78 95 121
75 91 115
67 81 102
79 96 121
74 93 121
71 89 116
74 91 118
77 92 115
76 93 118
80 99 128
73 92 121
80 99 128
65 84 112
75 91 115
63 81 109
66 84 112
69 85 108
77 97 128
82 100 128
80 99 128
77 97 128
79 99 128
80 99 128
76 94 121
84 101 128
69 84 106
74 93 121
81 99 128
73 89 115
82 100 128
80 99 128
68 87 115
78 98 128
79 98 128
71 88 115
69 88 116
79 99 128
77 93 118
80 99 128
75 96 128
79 99 128
55 72 96
79 96 121
68 86 112
65 81 105
64 81 106
71 87 112
69 86 112
76 93 118
75 93 121
73 91 118
74 92 118
83 101 128
73 91 118
74 92 118
77 95 121
80 99 128
79 98 128
77 97 128
82 100 128
80 99 128
76 94 121
77 93 118
80 99 128
77 97 128
68 84 108
74 93 121
82 100 128
79 98 128
78 98 128
82 100 128
73 95 128
80 99 128
70 88 115
81 100 128
83 101 128
78 98 128
77 97 128
71 90 118
75 93 121
59 73 96
81 99 128
78 98 128
82 100 128
80 99 128
81 100 128
74 95 128
79 98 128
79 98 128
73 92 121
71 88 115
75 96 128
75 94 121
67 85 112
78 98 128
77 97 128
76 92 115
85 102 128
74 96 128
78 98 128
76 97 128
75 94 121
78 98 128
73 92 121
81 100 128
78 98 128
82 100 128
65 81 106
65 80 104
77 93 118
80 99 128
79 95 118
76 93 118
80 99 128
80 99 128
75 96 128
76 92 118
83 101 128
63 80 105
75 94 121
81 99 128
76 97 128
67 85 112
79 98 128
76 97 128
73 95 128
74 90 115
81 100 128
75 93 121
80 99 128
76 96 128
77 97 128
70 89 118
80 99 128
82 100 128
76 97 128
81 97 121
74 91 118
75 92 118
79 98 128
75 92 118
80 99 128
71 90 118
75 89 112
75 92 118
73 90 116
77 97 128
70 88 116
67 82 105
71 87 112
74 92 118
68 84 108
75 92 118
71 90 118
78 98 128
76 96 128
76 94 121
74 91 118
75 92 118
74 92 118
61 77 102
78 95 121
81 100 128
73 88 112
82 100 128
77 93 116
69 84 107
73 90 115
81 100 128
74 92 118
65 82 108
72 88 112
55 71 96
71 89 118
74 93 121
79 96 121
75 92 118
64 81 107
59 74 96
68 83 105
71 87 112
52 65 86
72 89 116
68 87 115
66 84 112
69 85 109
71 94 128
80 99 128
70 89 118
75 91 115
76 96 128
54 69 92
78 95 121
64 80 105
47 63 87
79 98 128
79 96 121
71 89 116
83 98 121
65 79 99
61 79 106
62 74 93
84 101 128
81 100 128
68 83 107
60 73 94
62 78 102
79 96 121
55 68 87
66 83 108
75 91 115
48 59 76
64 80 104
70 87 112
73 88 110
65 83 108
64 79 102
78 94 116
59 75 99
64 79 102
76 94 121
69 84 108
64 78 99
62 77 100
73 92 121
57 69 88
73 90 115
56 68 87
60 73 93
55 66 84
74 88 109
66 78 96
63 77 99
74 89 112
43 55 72
60 72 89
57 70 89
52 62 78
44 54 70
76 93 118
64 77 96
64 77 96
48 59 76
54 65 82
50 59 73
63 75 92
43 51 63
76 91 115
64 76 94
34 42 53
47 57 72
63 76 96
34 40 50
47 58 73
46 53 64
48 61 81
36 43 54
38 46 58
41 50 62
51 60 73
56 67 84
53 64 81
62 77 100
21 26 33
40 46 56
25 30 38
47 56 70
31 37 46
40 48 60
35 42 52
64 76 96
47 56 69
37 43 53
65 79 100
30 35 43
58 68 84
38 46 57
56 67 84
36 44 55
35 43 54
44 53 66
44 53 65
61 74 93
41 48 59
46 55 68
38 46 57
51 59 71
39 47 58
48 58 73
54 63 76
37 44 54
35 42 53
22 26 33
43 51 63
42 50 62
28 35 46
48 57 70
45 55 70
30 37 48
66 79 99
51 59 72
58 69 87
41 49 61
55 66 84
34 43 55
58 69 86
54 65 81
34 41 51
65 80 102
54 63 77
55 65 81
42 51 64
43 50 61
53 64 81
63 75 92
73 89 112
45 54 68
52 61 73
59 70 86
52 63 80
64 75 92
50 58 71
51 62 80
52 65 83
42 51 65
57 68 84
70 85 109
56 70 90
42 51 65
66 80 102
69 84 106
56 68 86
76 93 118
47 58 75
55 68 87
35 42 52
57 71 92
72 89 116
57 68 83
71 86 109
44 54 70
69 86 112
46 57 73
55 67 86
84 101 128
60 76 100
66 82 106
74 91 118
62 77 99
80 95 118
57 69 88
55 68 89
67 83 106
67 87 116
63 78 100
67 82 105
59 74 96
73 86 105
61 76 99
79 96 121
63 76 96
77 95 121
69 88 116
67 83 108
82 100 128
74 95 128
78 94 118
46 58 75
72 88 112
76 94 121
43 54 70
75 88 108
59 75 99
78 98 128
72 90 116
60 73 93
76 94 121
76 94 121
69 85 108
72 90 118
82 100 128
72 90 116
78 98 128
76 93 118
63 76 96
73 88 112
77 92 115
62 76 96
69 84 105
81 97 121
66 81 105
78 98 128
79 98 128
77 97 128
76 94 121
71 87 112
69 88 115
69 86 110
81 100 128
69 87 115
77 97 128
74 92 118
67 84 109
70 87 112
71 89 116
77 97 128
69 85 109
69 86 112
82 100 128
88 104 128
56 74 102
79 98 128
75 91 115
73 95 128
81 100 128
67 82 105
61 76 99
65 83 110
69 86 112
69 88 116
70 87 112
82 100 128
69 85 108
74 90 115
81 100 128
70 87 112
75 92 118
72 91 118
73 92 121
81 100 128
84 101 128
80 97 121
68 87 116
74 93 121
76 97 128
80 95 118
50 66 90
57 73 96
72 91 118
70 85 107
74 93 121
81 100 128
78 98 128
79 99 128
76 91 115
68 84 108
69 85 108
73 92 121
72 89 115
80 99 128
67 82 105
77 97 128
76 97 128
67 87 118
70 89 118
77 97 128
62 80 106
77 97 128
66 83 108
63 81 108
54 66 84
81 99 128
77 97 128
78 98 128
70 88 116
80 99 128
73 89 115
77 95 121
85 102 128
82 100 128
80 99 128
72 90 118
77 97 128
80 99 128
77 97 128
76 94 121
84 101 128
82 100 128
83 101 128
82 100 128
74 93 121
77 95 121
58 74 97
73 91 118
77 97 128
84 99 121
77 97 128
77 97 128
80 99 128
82 100 128
65 77 96
73 92 121
75 92 118
68 88 118
80 95 118
67 84 109
70 88 115
76 93 118
80 99 128
74 92 118
77 97 128
76 96 128
78 98 128
80 99 128
74 92 118
84 101 128
76 93 118
76 97 128
79 94 118
76 97 128
80 99 128
77 97 128
64 80 105
69 89 118
78 98 128
68 86 112
80 99 128
79 99 128
75 92 118
76 97 128
77 97 128
81 100 128
82 100 128
74 93 121
81 99 128
79 98 128
75 96 128
84 101 128
83 101 128
82 98 121
74 90 116
77 97 128
78 95 121
72 94 128
76 97 128
81 99 128
76 97 128
80 99 128
70 88 115
65 78 99
81 99 128
72 87 109
78 98 128
81 99 128
78 98 128
72 90 118
75 91 115
70 86 112
75 96 128
83 101 128
81 100 128
80 99 128
60 74 96
84 101 128
67 85 112
78 98 128
85 102 128
75 92 118
71 86 109
81 100 128
70 87 112
59 73 93
70 84 106
53 68 91
77 93 118
73 91 118
74 92 118
69 85 108
69 86 112
80 96 121
67 84 109
77 93 118
79 95 118
70 89 118
74 92 118
70 85 109
78 95 121
80 99 128
73 90 115
62 77 99
62 81 108
78 98 128
60 73 92
74 90 115
69 83 105
76 92 115
69 89 118
72 88 112
72 90 118
76 94 121
63 77 100
74 92 118
80 99 128
68 85 109
62 76 96
63 78 102
78 94 118
67 82 104
69 86 112
77 92 115
58 72 94
73 90 116
71 87 112
80 99 128
54 69 92
76 93 118
59 72 91
51 64 85
66 79 100
65 81 105
78 98 128
58 72 92
77 95 121
75 92 118
69 86 112
67 84 109
65 80 103
68 83 106
65 82 107
61 75 96
64 77 98
59 72 90
55 71 96
56 70 90
60 73 93
73 91 118
43 53 68
67 81 102
56 70 91
73 88 109
61 74 93
55 67 84
73 87 108
73 87 108
51 61 76
40 54 73
54 65 82
67 83 105
57 73 97
59 71 89
57 69 88
54 65 81
68 85 109
67 81 102
54 66 86
62 73 89
34 41 50
56 68 87
29 34 42
45 57 74
52 62 77
28 34 42
50 59 74
52 65 84
63 77 99
51 61 77
41 50 62
52 62 78
63 75 93
40 49 61
53 66 87
59 70 87
47 54 66
56 68 84
39 48 61
39 48 62
50 61 77
49 58 71
34 42 52
56 67 85
41 49 62
51 61 77
34 40 49
44 53 65
51 61 75
40 49 61
34 41 51
19 23 29
41 47 57
64 77 96
51 61 76
43 52 65
40 47 57
45 53 66
42 50 62
42 50 61
32 39 49
48 57 71
27 34 44
39 45 56
28 33 40
51 59 73
46 55 68
27 32 39
45 53 65
13 15 19
36 44 56
59 70 88
45 54 69
50 61 77
64 77 96
39 47 60
24 29 37
34 41 53
27 31 39
35 42 53
32 39 50
55 66 83
42 52 67
41 50 63
31 36 44
48 57 70
34 41 53
57 70 89
57 70 89
53 64 80
58 72 92
48 58 73
48 58 72
53 66 86
44 53 66
68 84 109
67 80 100
75 91 115
68 82 102
58 71 91
54 66 84
57 70 89
53 64 80
56 69 88
60 73 94
60 69 83
56 67 84
62 74 92
66 81 102
66 79 99
60 75 99
69 84 106
59 71 89
56 68 85
47 56 70
70 84 105
58 70 88
70 85 108
60 74 96
65 81 105
71 86 109
63 76 96
53 65 82
50 61 79
64 79 102
76 90 112
63 78 100
52 63 80
65 78 99
69 82 102
59 71 89
59 75 99
64 81 105
75 92 118
66 82 106
64 80 105
73 92 121
73 90 116
65 86 118
74 91 118
46 59 78
79 98 128
62 74 93
62 76 97
61 77 102
50 64 85
70 87 112
75 92 118
76 97 128
76 90 112
59 74 96
65 79 99
71 90 118
71 90 118
66 87 118
71 88 115
57 73 96
73 91 118
67 85 112
79 98 128
75 93 121
72 90 118
71 87 112
62 77 99
78 95 121
75 92 118
65 81 104
66 81 104
71 91 121
76 94 121
66 83 108
77 95 121
71 90 118
83 101 128
64 81 107
74 93 121
78 95 121
65 82 109
73 88 112
66 81 105
78 98 128
73 89 115
79 94 118
61 77 102
68 83 105
73 91 118
72 88 112
67 84 109
69 84 107
64 80 105
80 99 128
76 97 128
69 89 118
82 100 128
76 93 118
84 101 128
63 79 102
66 87 118
78 98 128
80 99 128
72 90 118
70 89 118
73 91 118
70 87 112
76 97 128
73 91 118
85 102 128
76 97 128
78 98 128
66 81 105
80 99 128
71 89 115
73 95 128
79 95 118
66 82 105
70 87 112
78 95 121
75 93 121
73 95 128
73 92 121
73 92 121
81 100 128
69 89 118
78 95 121
70 89 118
85 102 128
76 97 128
81 99 128
75 92 118
78 98 128
77 97 128
77 97 128
79 98 128
80 97 121
75 91 115
75 92 118
79 99 128
77 93 118
81 99 128
79 96 121
73 91 118
77 93 118
76 96 128
75 92 118
79 99 128
82 100 128
75 96 128
87 103 128
75 91 116
72 90 118
80 96 121
71 91 121
86 103 128
81 100 128
70 89 118
80 99 128
75 96 128
63 80 106
78 98 128
70 91 121
69 86 112
84 102 128
80 99 128
79 98 128
74 89 112
78 98 128
70 89 118
69 87 115
73 95 128
82 97 121
80 99 128
79 96 121
73 90 116
74 93 121
78 98 128
76 94 121
81 100 128
75 96 128
80 99 128
79 96 121
82 100 128
84 101 128
77 93 118
57 71 92
72 88 112
76 96 128
77 97 128
66 84 112
65 81 106
78 98 128
82 100 128
80 99 128
82 100 128
81 100 128
82 100 128
79 96 121
82 100 128
76 94 121
76 97 128
79 98 128
60 77 102
81 100 128
78 98 128
62 78 102
65 81 106
70 88 115
76 97 128
76 94 121
81 99 128
83 101 128
75 92 118
79 96 121
78 94 118
66 81 105
78 98 128
68 86 112
77 97 128
77 93 118
77 93 118
74 93 121
71 89 115
61 78 105
77 94 121
67 83 108
76 94 121
73 92 121
75 96 128
71 90 118
83 101 128
66 84 112
76 93 118
76 92 116
85 102 128
65 80 103
61 77 102
75 94 121
77 93 118
71 90 118
71 90 118
76 97 128
77 97 128
63 79 103
59 72 92
75 92 118
82 100 128
74 93 121
75 91 115
72 91 121
73 90 116
70 89 118
79 98 128
65 84 112
69 85 109
67 82 105
70 86 112
79 99 128
74 91 116
68 84 108
63 80 106
79 99 128
76 92 116
70 90 121
67 80 100
69 87 115
76 93 118
73 89 112
66 82 107
71 88 115
54 67 86
82 100 128
67 84 108
70 89 118
59 74 96
59 74 96
66 83 108
73 91 118
75 93 121
77 95 121
66 82 105
65 81 105
69 86 112
74 90 115
83 101 128
57 71 92
56 69 89
65 82 108
56 67 85
50 63 83
68 82 102
50 61 78
66 79 100
69 85 110
71 87 112
63 77 98
52 64 83
70 89 118
64 79 102
68 84 108
75 92 118
61 74 94
59 73 94
67 84 108
74 91 116
55 67 84
63 79 102
74 93 121
42 51 65
62 73 89
63 74 90
51 62 78
54 66 84
44 53 67
56 68 84
40 53 72
72 90 118
54 65 80
52 64 82
59 74 96
60 76 100
66 79 100
61 75 96
59 72 93
42 50 62
53 64 81
71 84 105
38 46 57
60 72 89
57 68 84
51 62 78
61 73 92
41 50 62
57 68 84
74 89 112
48 57 70
48 56 69
48 58 74
52 61 75
50 62 80
40 48 60
29 35 44
27 33 44
37 45 56
47 56 69
60 69 84
52 61 76
45 54 68
68 80 99
37 43 53
46 54 66
38 45 56
38 47 59
33 40 51
45 53 66
50 59 72
55 66 83
34 40 49
36 42 52
30 36 46
30 35 44
41 49 62
71 85 107
67 79 97
67 81 103
41 49 61
40 48 60
47 59 77
53 61 75
32 37 46
40 48 60
60 70 86
56 67 83
65 78 96
73 89 112
54 66 84
44 52 64
64 75 92
31 37 45
39 48 62
48 58 72
60 73 91
48 58 72
55 66 84
65 76 93
56 67 84
44 52 63
63 74 91
60 72 90
47 58 73
51 61 76
54 65 81
42 51 63
55 65 80
43 53 69
55 65 81
46 54 67
70 86 108
69 84 106
59 70 88
40 48 60
74 91 118
63 75 94
58 71 90
58 70 89
49 59 74
47 59 76
37 46 60
68 83 106
59 72 92
66 80 102
54 65 83
62 76 97
55 71 95
69 84 105
59 72 93
52 64 82
65 76 93
47 56 70
66 79 100
73 92 121
65 82 109
74 90 115
63 79 102
71 87 112
74 93 121
72 88 112
62 77 99
56 70 90
48 58 72
79 94 118
76 92 116
69 85 109
72 90 118
52 64 81
62 81 108
74 91 116
62 77 99
74 89 110
73 91 118
72 90 118
81 99 128
67 82 105
71 86 108
76 90 112
72 92 121
67 80 99
74 93 121
73 91 118
67 83 106
71 87 112
79 98 128
67 83 105
68 84 107
64 81 106
70 85 108
69 86 112
76 93 118
79 99 128
78 98 128
72 88 112
82 100 128
67 81 102
68 85 112
75 96 128
64 83 112
81 100 128
65 78 96
74 89 112
76 94 121
65 79 100
76 97 128
66 83 109
71 90 118
77 97 128
82 100 128
59 75 99
80 99 128
73 91 118
66 79 99
77 97 128
74 93 121
79 99 128
71 85 105
66 82 105
77 95 121
65 86 118
77 93 118
79 96 121
83 101 128
76 94 121
67 84 108
79 96 121
62 77 99
82 100 128
69 88 118
77 94 121
74 91 118
79 98 128
76 93 118
67 84 108
75 93 121
66 81 105
72 90 116
68 85 110
78 98 128
75 93 121
67 83 108
78 98 128
76 94 121
77 97 128
69 85 108
71 90 118
74 96 128
79 96 121
75 92 118
78 94 118
76 97 128
79 96 121
82 100 128
65 81 105
78 98 128
75 96 128
81 99 128
70 85 108
81 99 128
62 77 100
55 69 91
82 98 121
70 88 116
79 94 118
80 99 128
76 96 128
74 93 121
77 97 128
66 83 108
80 99 128
75 94 121
80 99 128
78 95 121
73 92 121
77 94 121
83 101 128
76 96 128
75 96 128
79 98 128
82 100 128
81 100 128
78 95 121
78 98 128
76 97 128
77 97 128
80 99 128
72 92 121
74 95 128
82 100 128
70 89 118
72 89 115
84 101 128
71 91 121
82 100 128
81 99 128
72 90 116
73 90 116
73 91 118
64 82 108
77 95 121
77 94 121
66 86 116
77 97 128
78 98 128
81 99 128
79 98 128
80 99 128
83 101 128
84 102 128
74 92 118
78 98 128
61 77 102
78 98 128
77 97 128
78 98 128
78 94 118
78 98 128
79 99 128
77 97 128
68 88 118
81 99 128
72 91 118
66 83 108
68 89 121
70 85 108
82 100 128
79 99 128
76 93 118
70 87 112
81 100 128
67 85 112
77 97 128
72 89 116
77 93 118
72 90 118
77 97 128
75 92 118
82 100 128
84 102 128
58 72 93
77 97 128
82 100 128
69 88 115
77 95 121
77 93 118
73 91 118
67 84 109
78 98 128
69 86 112
70 88 115
71 90 118
83 101 128
81 100 128
78 95 121
66 83 109
79 98 128
66 82 106
75 92 118
83 101 128
71 90 118
85 102 128
74 92 118
74 92 118
75 96 128
53 67 89
85 102 128
75 91 116
71 90 118
67 81 104
68 84 108
67 84 109
70 88 115
85 102 128
79 99 128
76 92 118
77 95 121
78 95 121
73 90 115
63 78 100
81 100 128
81 100 128
79 96 121
80 99 128
71 89 116
76 93 118
76 92 116
78 95 121
79 94 118
77 97 128
80 96 121
73 87 108
68 84 108
81 100 128
70 84 106
79 95 118
70 87 112
43 53 67
62 74 92
73 90 115
69 85 108
65 81 105
75 92 118
78 95 121
53 67 88
80 99 128
66 81 105
64 83 112
78 98 128
63 80 106
62 77 100
68 84 109
74 89 112
72 87 108
76 94 121
79 99 128
72 86 108
66 81 102
59 72 92
69 86 112
58 71 90
77 93 118
77 95 121
64 79 102
72 87 109
67 82 104
69 88 116
78 94 118
52 62 76
54 67 86
75 92 116
75 92 116
62 76 96
69 83 105
61 75 96
62 77 99
38 46 57
70 83 102
76 94 121
59 73 92
76 92 116
60 74 93
61 75 96
59 72 92
72 86 108
60 73 93
57 69 87
62 75 96
49 59 75
43 52 65
52 64 83
61 72 89
50 60 76
63 75 92
64 78 99
46 57 73
48 58 73
70 84 106
68 82 102
41 49 62
62 76 97
40 49 63
49 59 73
56 69 88
41 51 66
43 54 71
49 60 76
70 87 112
49 60 77
56 69 87
45 54 68
47 57 72
50 61 78
35 41 51
52 63 80
61 74 93
31 38 49
47 56 71
61 74 94
55 66 83
38 47 60
48 56 69
44 54 68
33 40 50
46 53 65
45 54 68
40 50 65
33 39 49
33 41 53
66 78 96
39 48 61
25 29 36
42 51 64
38 45 55
20 24 30
31 36 45
33 39 49
39 47 58
40 47 57
46 54 65
49 59 74
19 22 28
54 65 81
62 73 89
40 48 61
54 66 83
48 58 72
35 43 54
46 56 70
53 65 83
42 50 62
36 43 54
48 59 75
53 63 80
58 67 80
65 77 96
57 70 89
58 69 87
43 52 66
66 79 100
70 84 104
61 75 96
62 75 96
72 84 103
64 78 100
54 66 83
47 57 72
72 88 112
45 55 69
66 80 102
63 74 90
63 77 99
42 50 62
77 94 121
66 80 102
55 68 88
55 64 77
66 80 100
67 80 99
59 74 96
66 80 102
63 78 100
56 66 82
60 76 99
69 82 102
50 63 83
60 73 93
72 86 107
57 68 84
52 64 81
59 73 94
67 85 112
63 78 102
63 76 96
64 79 102
80 96 121
64 79 100
77 95 121
51 65 86
61 76 99
62 78 102
52 62 78
54 65 81
66 83 108
65 80 103
62 77 99
65 77 96
81 99 128
83 101 128
70 89 118
64 79 100
66 82 107
79 96 121
71 88 115
69 87 115
64 79 102
54 66 84
72 89 115
68 84 108
55 67 86
60 75 99
75 93 121
62 77 100
51 66 87
73 91 118
70 88 115
63 80 106
72 88 112
49 60 78
70 89 118
67 81 102
80 99 128
56 69 89
74 92 118
76 94 121
73 89 115
85 102 128
71 87 112
63 79 102
67 84 108
77 93 118
68 86 112
68 87 116
77 94 121
78 98 128
76 94 121
73 91 118
81 99 128
74 93 121
76 93 118
81 99 128
63 77 99
55 68 86
68 84 108
84 102 128
71 89 115
61 77 102
73 92 121
64 82 108
76 94 121
72 94 128
70 88 115
67 83 108
74 92 118
76 94 121
78 98 128
85 98 118
76 97 128
80 96 121
68 87 116
81 100 128
70 89 118
68 84 108
79 98 128
81 96 118
75 96 128
60 74 96
74 91 118
76 97 128
81 99 128
79 96 121
74 96 128
77 97 128
79 98 128
77 94 121
76 93 118
66 82 105
73 91 118
86 102 128
78 95 121
74 91 118
82 100 128
67 82 105
75 94 121
68 87 116
83 101 128
79 96 121
79 96 121
73 90 116
63 79 103
74 92 118
80 99 128
80 95 118
67 83 108
82 100 128
81 99 128
70 86 110
76 97 128
73 90 115
79 96 121
76 97 128
74 93 121
80 99 128
72 90 118
62 76 99
75 96 128
69 85 108
82 100 128
75 96 128
85 102 128
75 93 121
78 98 128
78 98 128
74 96 128
76 97 128
73 93 121
82 100 128
75 96 128
77 97 128
68 87 115
69 89 118
69 88 116
71 90 118
71 94 128
80 99 128
78 94 118
84 102 128
57 71 93
74 93 121
81 100 128
82 100 128
76 97 128
71 91 121
80 99 128
74 96 128
76 96 128
81 100 128
80 99 128
79 98 128
77 97 128
72 91 118
79 99 128
79 96 121
81 100 128
75 96 128
83 101 128
62 80 106
72 94 128
82 100 128
78 94 118
75 92 118
77 97 128
80 99 128
74 95 128
69 86 112
70 89 118
68 87 115
76 97 128
73 92 121
71 90 118
67 83 108
75 92 118
75 92 118
72 92 121
70 89 118
77 97 128
74 92 118
80 99 128
62 77 100
77 94 121
79 98 128
76 93 118
74 93 121
74 92 118
71 91 121
77 94 121
76 96 128
78 98 128
83 98 121
69 90 121
69 85 108
74 93 121
77 95 121
73 91 118
77 97 128
68 84 108
80 96 121
69 85 108
68 84 108
78 98 128
72 90 118
80 99 128
70 89 118
78 98 128
78 95 121
74 93 121
76 94 121
70 85 108
72 87 109
63 78 102
69 86 112
74 93 121
73 91 118
72 94 128
75 92 118
73 92 121
72 89 115
78 98 128
70 86 112
61 75 96
70 89 118
66 83 109
77 93 118
79 96 121
65 80 102
76 94 121
69 86 112
67 81 102
59 75 100
64 78 99
81 100 128
58 73 96
79 99 128
72 90 118
69 86 112
63 77 99
75 93 121
49 62 83
64 83 112
72 90 116
70 87 112
76 94 121
64 82 109
70 85 108
61 76 99
53 69 92
63 78 102
64 82 108
76 93 118
63 80 106
78 98 128
72 89 115
62 77 100
78 98 128
72 87 108
76 94 121
72 90 118
76 94 121
70 87 112
66 83 108
54 70 93
68 84 108
67 83 106
70 89 118
77 94 118
67 81 102
53 66 86
60 74 96
66 79 100
67 86 115
62 74 93
51 60 73
66 83 109
64 82 108
80 95 118
69 87 116
51 64 83
53 64 80
58 72 92
57 71 92
80 96 121
58 70 86
53 64 81
64 77 96
37 47 63
57 71 91
79 96 121
64 76 94
80 99 128
63 77 99
64 77 96
62 77 99
61 75 96
52 62 77
65 80 103
70 82 102
54 67 88
55 68 88
54 65 82
63 76 96
63 78 102
45 55 70
48 56 68
47 56 71
38 48 63
42 51 64
52 63 80
48 58 72
51 63 81
35 42 53
58 68 84
30 37 48
50 60 75
41 49 60
54 65 81
60 71 88
58 71 90
68 82 102
76 92 116
54 63 77
55 67 85
72 84 103
36 44 56
51 61 77
50 59 73
45 54 68
48 59 75
61 73 90
29 34 42
48 59 75
44 52 64
49 59 74
29 34 42
41 50 64
48 57 72
46 54 65
40 47 57
53 62 77
41 48 59
59 69 84
38 45 56
45 55 70
36 42 53
54 64 79
70 83 102
34 42 53
54 63 78
56 68 86
57 69 87
53 64 80
53 64 82
65 79 99
49 58 72
50 60 75
60 73 91
39 47 59
54 66 84
64 77 97
54 63 77
38 44 54
36 44 56
37 46 59
67 80 99
67 80 99
72 88 112
36 46 60
56 68 87
47 58 74
63 76 96
68 81 100
51 62 78
57 70 89
78 94 118
45 56 71
55 68 88
62 74 93
64 78 98
71 85 106
62 77 99
54 68 88
46 54 67
60 73 92
73 90 115
62 76 96
53 66 85
59 74 96
69 85 108
59 74 96
63 76 96
66 82 105
65 76 92
63 78 100
69 86 112
66 78 96
44 54 68
55 69 89
74 89 112
60 73 92
77 93 118
59 75 99
46 56 71
53 65 84
64 78 99
70 83 102
69 85 108
54 71 96
57 69 87
69 81 100
83 101 128
65 79 99
56 69 90
67 85 112
56 72 96
70 85 108
66 83 108
65 78 97
70 85 108
82 100 128
75 92 118
63 77 99
66 82 105
68 83 106
67 85 112
66 81 103
59 72 92
71 86 108
67 81 102
77 93 118
62 75 96
63 80 105
73 87 108
64 78 99
85 102 128
80 99 128
62 78 103
68 81 102
59 73 94
72 94 128
68 86 112
77 97 128
70 85 108
64 81 106
71 90 118
75 96 128
66 84 112
67 86 115
65 81 105
85 102 128
68 85 112
79 98 128
74 90 115
67 84 108
71 90 118
76 94 121
73 91 118
72 91 121
74 91 116
65 83 110
73 92 121
71 87 112
77 94 118
75 96 128
74 89 112
64 82 108
71 90 118
77 95 121
66 80 102
75 92 118
68 88 118
68 85 110
70 86 112
67 82 105
66 80 102
73 89 112
71 90 118
60 76 100
59 76 102
75 94 121
72 91 121
70 89 118
64 80 104
81 97 121
78 95 121
73 95 128
71 89 116
62 79 105
80 99 128
70 89 118
82 100 128
60 74 96
72 86 108
74 95 128
75 96 128
68 83 106
78 94 116
69 88 115
82 100 128
75 92 118
77 95 121
75 91 115
74 91 118
83 101 128
71 86 108
76 93 118
77 93 118
73 91 118
75 93 121
73 89 115
71 91 121
75 94 121
74 91 118
71 86 108
72 88 112
72 87 109
74 92 118
71 89 116
71 94 128
76 97 128
79 99 128
71 90 118
82 100 128
66 86 116
77 97 128
71 89 116
76 96 128
74 92 118
80 99 128
80 99 128
78 98 128
77 95 121
79 94 118
71 90 118
73 91 118
78 98 128
81 99 128
76 97 128
77 97 128
77 93 118
76 93 118
79 99 128
77 95 121
72 91 121
69 86 112
80 99 128
71 90 118
76 97 128
74 93 121
77 97 128
71 89 116
80 96 121
75 91 115
78 98 128
72 88 112
79 98 128
76 93 118
76 96 128
70 91 121
81 96 118
76 92 116
77 92 115
85 102 128
80 99 128
76 94 121
71 86 109
74 92 118
59 76 102
78 98 128
73 90 115
84 102 128
80 99 128
77 97 128
71 88 115
67 86 115
76 97 128
73 91 118
80 99 128
76 92 118
79 99 128
71 89 116
79 99 128
67 84 108
78 98 128
75 94 121
78 94 118
75 96 128
77 97 128
74 89 112
82 100 128
75 96 128
74 93 121
86 103 128
78 98 128
72 91 121
67 84 108
62 78 102
65 80 102
81 99 128
78 98 128
77 97 128
69 85 110
71 90 118
69 89 118
70 88 116
77 94 118
79 98 128
81 100 128
72 86 108
75 91 115
68 81 102
75 90 112
73 92 121
68 87 116
76 94 121
66 85 115
68 84 108
81 100 128
65 80 102
74 91 118
68 87 116
72 92 121
76 94 121
78 98 128
70 86 109
66 82 107
76 93 118
62 76 96
84 101 128
72 89 115
83 101 128
73 91 118
79 98 128
83 101 128
66 81 102
76 94 121
71 86 108
77 92 116
71 86 108
66 81 104
77 95 121
61 76 99
64 80 105
60 74 96
67 82 105
70 86 108
75 93 121
76 93 118
72 89 115
75 90 112
78 95 121
57 70 90
69 86 112
76 93 118
62 78 102
49 63 83
56 69 89
58 71 90
67 80 99
67 82 106
76 94 121
68 84 108
73 91 118
61 75 96
68 83 105
59 72 93
63 77 99
62 74 93
68 83 106
67 81 102
72 87 108
62 76 96
52 66 87
40 48 59
52 65 84
64 77 96
52 66 87
45 54 68
60 72 89
57 71 91
52 66 87
63 79 102
54 67 86
59 75 99
74 89 112
71 87 112
69 84 105
44 54 68
72 85 105
47 57 73
67 82 105
73 88 112
49 59 74
75 92 118
61 73 93
68 83 105
53 63 78
52 64 80
47 58 74
65 81 105
43 53 69
71 87 110
56 68 86
39 47 60
51 63 80
44 52 64
53 64 80
58 69 86
67 81 102
66 83 109
53 65 83
38 47 59
48 56 69
43 51 62
55 65 80
53 64 80
58 69 86
43 51 63
66 82 105
56 69 87
67 79 99
71 84 103
55 67 84
56 68 88
31 38 48
49 58 71
42 51 64
39 47 58
63 76 96
18 22 28
42 50 63
48 56 69
56 66 82
46 56 71
55 67 84
61 72 89
51 61 75
53 63 77
61 74 94
58 69 86
65 79 99
64 76 94
69 83 104
25 30 37
41 50 64
50 61 78
47 57 72
39 46 57
48 59 74
59 71 89
54 65 82
47 57 72
57 69 87
37 44 54
57 69 86
67 80 99
24 29 37
43 53 68
61 73 90
46 54 66
52 63 80
42 52 68
35 42 52
64 75 93
35 45 59
60 71 88
69 83 105
28 34 43
58 72 94
41 48 60
61 75 96
56 67 83
41 50 64
61 74 94
45 53 67
62 74 92
65 78 98
60 73 93
59 73 93
43 52 66
53 63 78
66 78 97
82 100 128
56 68 85
63 76 96
47 58 76
78 93 116
55 67 85
60 71 87
59 74 96
69 83 105
74 88 108
60 75 97
65 82 108
55 65 80
63 77 99
72 89 115
69 83 105
69 86 112
37 45 57
57 70 89
79 94 116
73 89 112
75 92 118
70 87 112
70 87 112
72 86 108
71 86 108
60 74 96
84 101 128
68 84 108
56 69 89
78 94 118
58 71 90
70 87 112
65 78 99
77 97 128
62 78 102
67 84 109
71 90 118
71 87 112
81 97 121
56 68 87
81 100 128
73 88 112
79 99 128
66 82 106
53 66 85
46 57 75
64 80 105
74 88 108
52 69 94
73 88 112
56 70 92
72 88 112
72 90 118
60 77 102
78 94 118
80 99 128
79 96 121
68 85 112
66 83 108
69 84 106
69 89 118
77 97 128
79 98 128
82 100 128
70 93 128
75 96 128
67 83 107
80 99 128
74 95 128
79 98 128
74 96 128
70 86 112
66 86 115
79 98 128
74 91 115
65 83 108
74 92 118
73 90 115
79 99 128
75 92 118
80 95 118
72 90 118
60 74 96
86 102 128
64 82 108
71 90 118
71 86 109
77 97 128
73 87 108
65 80 102
77 97 128
71 90 118
78 98 128
76 97 128
75 92 118
72 91 121
71 89 115
78 96 121
77 97 128
60 74 96
76 97 128
68 88 118
73 88 112
73 90 115
78 98 128
74 96 128
74 92 118
76 94 121
70 84 105
73 95 128
70 89 118
83 101 128
68 88 116
84 101 128
76 97 128
79 99 128
75 92 118
75 92 118
75 96 128
73 95 128
72 89 115
74 93 121
73 92 121
64 78 99
80 99 128
79 96 121
77 97 128
59 75 99
69 86 112
71 91 121
78 98 128
74 92 118
75 92 118
73 91 118
76 96 128
85 102 128
86 102 128
76 93 118
82 100 128
81 99 128
78 98 128
80 99 128
67 84 108
83 101 128
76 93 118
73 91 118
69 89 118
64 77 97
76 97 128
77 97 128
79 99 128
84 101 128
73 95 128
77 97 128
80 99 128
83 101 128
78 98 128
78 95 121
78 98 128
84 101 128
65 81 105
76 94 121
68 88 118
66 84 112
79 99 128
80 99 128
69 88 116
76 97 128
79 98 128
73 92 121
83 101 128
76 96 128
79 98 128
77 97 128
66 83 108
70 89 118
69 87 115
84 102 128
72 88 112
75 92 118
80 95 118
69 86 112
77 97 128
69 88 115
68 88 118
65 82 107
75 92 118
69 89 118
78 98 128
66 85 115
81 97 121
73 91 118
80 99 128
83 101 128
67 83 108
74 93 121
72 89 116
78 95 121
73 90 115
71 90 118
74 93 121
74 89 112
74 91 118
81 100 128
85 102 128
78 98 128
79 99 128
67 87 118
76 94 121
74 93 121
78 98 128
72 92 121
78 98 128
77 95 121
80 99 128
77 97 128
49 60 77
74 91 118
68 84 108
79 94 118
77 93 118
77 93 118
70 88 116
63 78 102
76 97 128
80 99 128
60 76 100
74 91 116
75 94 121
62 78 102
61 79 106
70 89 118
67 87 118
68 84 108
71 89 118
70 89 118
81 99 128
77 95 121
76 92 116
74 91 116
69 85 108
84 101 128
53 66 86
67 82 106
68 87 115
61 76 99
63 77 99
68 87 116
67 82 105
70 89 118
74 93 121
73 92 121
79 99 128
72 90 116
85 102 128
80 99 128
75 96 128
75 93 121
53 65 83
68 85 112
64 81 107
76 97 128
67 85 112
74 92 118
70 87 112
78 94 118
63 76 96
66 81 102
69 85 108
60 76 100
64 79 102
71 90 118
79 95 118
79 96 121
51 64 83
66 84 112
81 97 121
50 63 83
75 93 121
70 83 102
74 90 115
72 88 112
73 90 115
50 62 81
64 78 99
70 83 102
75 91 115
64 76 94
57 68 84
70 87 112
55 66 84
65 81 105
52 64 83
68 84 108
66 84 112
46 59 78
72 84 104
69 82 102
51 63 80
72 85 105
55 67 86
58 72 92
62 76 96
66 82 105
74 90 115
47 56 71
71 87 112
69 84 106
53 67 86
52 62 76
68 82 104
72 88 112
65 81 106
64 78 100
41 50 64
39 48 62
57 69 88
50 61 78
72 88 112
40 51 68
53 67 88
60 74 94
69 84 106
61 74 92
53 66 84
63 76 97
50 61 77
51 61 77
68 79 97
65 78 99
51 64 83
73 88 110
61 72 88
60 70 86
38 45 56
52 62 78
58 69 86
43 51 64
41 48 59
58 71 89
54 64 80
48 57 70
73 88 112
50 60 75
31 38 48
72 87 108
50 60 75
32 39 50
52 62 77
16 20 26
71 86 109
50 61 78
63 78 100
63 76 96
42 49 59
37 44 54
52 62 77
46 54 67
63 77 99
64 76 95
43 52 65
58 70 88
55 66 83
67 80 100
57 68 84
69 85 109
73 87 108
52 60 73
60 72 89
40 49 62
49 59 74
46 53 64
37 45 56
53 64 80
46 56 70
66 82 105
37 45 57
49 60 76
59 72 92
66 79 99
41 48 58
70 85 108
67 79 96
53 62 77
67 82 105
62 74 92
68 80 99
53 66 85
44 53 67
39 47 59
60 73 92
68 82 102
68 82 102
49 60 76
60 73 93
44 52 65
40 50 64
68 83 106
72 87 109
46 57 72
62 73 90
57 70 90
68 82 102
71 86 108
57 71 92
68 85 110
60 73 92
70 86 109
52 63 80
43 53 68
69 84 108
63 77 99
60 76 99
63 77 99
82 100 128
66 83 109
62 76 96
65 82 108
54 67 87
74 90 115
55 71 94
76 91 115
57 69 87
44 57 75
63 78 99
62 77 99
54 68 89
59 77 105
75 94 121
68 84 108
58 72 93
57 71 92
68 87 116
77 93 118
64 78 99
54 65 81
69 88 116
63 78 102
67 84 110
66 82 105
82 100 128
66 80 102
81 96 118
54 67 87
78 98 128
65 79 100
59 74 96
69 86 112
73 91 118
66 82 106
71 86 108
74 91 118
66 83 109
67 82 105
64 78 99
76 92 115
70 88 116
62 76 96
82 100 128
64 81 106
71 87 112
69 85 109
74 90 115
71 90 118
80 99 128
67 86 115
73 91 118
77 95 121
68 84 109
55 70 93
63 81 108
61 79 105
79 98 128
68 84 108
83 101 128
71 90 118
82 100 128
82 100 128
72 91 118
78 98 128
80 99 128
70 84 105
74 93 121
85 102 128
64 80 105
82 100 128
68 83 105
65 83 112
81 99 128
76 94 121
73 89 115
72 90 118
60 78 105
65 80 102
69 84 106
78 98 128
71 86 109
77 93 118
73 87 108
72 92 121
75 93 121
83 101 128
77 97 128
81 100 128
63 81 108
70 89 118
74 96 128
79 99 128
84 102 128
76 97 128
69 87 116
78 98 128
82 100 128
77 95 121
71 90 118
72 92 121
73 92 121
69 87 115
83 101 128
75 93 121
79 98 128
80 99 128
84 101 128
70 89 118
82 100 128
73 92 121
71 90 118
62 78 103
72 90 118
80 99 128
71 87 112
79 98 128
73 92 121
78 98 128
78 98 128
75 93 121
70 87 112
78 98 128
86 103 128
75 93 121
75 96 128
75 94 121
81 100 128
66 84 112
79 98 128
84 101 128
72 88 112
71 87 112
71 89 118
75 93 121
83 101 128
80 99 128
80 99 128
72 90 118
83 101 128
78 98 128
72 91 118
82 100 128
77 97 128
74 91 118
79 99 128
78 98 128
78 95 121
73 90 116
79 98 128
77 97 128
84 101 128
74 92 118
76 96 128
79 96 121
82 100 128
70 87 112
76 96 128
83 101 128
81 100 128
75 96 128
83 101 128
74 91 116
69 89 118
79 96 121
78 98 128
80 95 118
78 95 121
75 96 128
69 86 112
63 80 106
76 97 128
84 101 128
72 89 115
80 99 128
78 98 128
70 88 115
70 85 108
76 93 118
70 85 108
75 94 121
65 83 110
73 91 118
82 100 128
78 94 118
74 91 118
79 98 128
78 95 121
66 82 105
84 101 128
75 93 121
73 91 118
80 99 128
77 97 128
59 75 99
71 89 115
71 90 118
80 99 128
75 92 118
75 92 118
82 100 128
72 88 112
80 99 128
72 92 121
71 86 109
78 95 121
84 101 128
69 84 108
72 89 116
79 94 118
85 102 128
63 76 96
71 90 118
67 84 109
69 82 102
74 93 121
63 79 104
63 80 105
73 91 118
64 84 115
75 92 118
79 98 128
73 91 118
61 77 102
68 85 112
68 85 112
77 92 115
75 96 128
72 88 112
69 90 121
63 76 96
76 92 118
80 99 128
80 99 128
62 76 97
65 83 109
69 86 112
74 92 118
66 80 102
64 78 100
75 89 112
67 82 105
60 75 97
77 97 128
76 97 128
75 92 118
66 82 105
64 81 105
73 87 108
68 85 112
72 90 116
71 90 118
62 77 99
64 78 100
82 100 128
72 92 121
52 66 87
70 86 109
56 72 96
68 84 109
58 72 92
76 93 118
74 91 115
72 91 118
68 84 108
51 64 84
73 88 110
61 76 99
71 87 112
79 99 128
68 83 105
50 61 76
47 58 74
79 98 128
70 86 110
77 94 121
68 82 104
72 85 106
55 67 84
51 63 81
74 91 118
69 85 108
67 84 108
58 73 96
75 92 118
57 69 87
61 75 98
62 75 96
69 83 105
67 83 106
42 53 68
51 62 78
61 74 94
68 81 102
57 70 91
80 99 128
53 64 80
47 58 75
45 57 75
53 65 84
52 65 84
62 75 94
66 82 105
54 64 80
53 66 87
48 59 75
59 71 90
52 61 76
54 67 88
57 67 83
60 72 89
65 78 97
47 57 74
48 59 75
52 64 84
59 71 88
50 58 71
48 58 72
53 62 76
48 58 73
36 43 55
68 83 105
45 58 76
47 56 69
50 62 78
55 66 83
58 67 81
79 96 121
32 38 47
44 53 65
49 58 71
65 77 96
52 62 77
48 56 68
50 59 73
40 48 59
49 61 79
82 100 128
64 76 94
42 49 60
61 73 90
47 56 70
54 64 80
41 50 64
57 67 84
47 57 71
40 48 61
59 72 92
45 55 71
43 52 65
35 40 48
54 65 83
51 61 77
48 58 72
55 65 80
46 57 74
61 75 96
44 51 62
57 69 86
52 62 79
54 64 78
57 68 85
67 82 105
57 68 84
48 58 73
57 70 91
69 85 108
63 78 100
67 81 102
56 68 86
66 81 103
35 44 58
55 65 81
61 77 100
53 63 78
55 69 89
57 70 91
77 95 121
55 67 84
59 70 87
45 55 71
62 76 97
66 77 93
31 41 55
60 74 96
69 84 106
42 54 71
67 79 99
52 65 84
73 89 112
71 86 109
72 87 109
48 60 77
67 84 108
66 81 103
57 69 87
70 83 102
55 68 88
57 69 88
61 73 92
76 93 118
66 81 104
60 74 95
63 78 102
77 95 121
68 84 108
79 95 118
69 85 108
50 61 78
58 74 97
65 79 99
56 71 92
61 74 92
61 74 92
57 70 90
71 86 108
81 100 128
62 78 102
55 67 84
65 80 102
65 80 102
69 85 109
61 76 99
76 92 116
58 70 88
70 83 102
67 81 102
44 55 73
79 96 121
74 90 115
69 87 116
66 81 103
65 80 102
73 90 116
67 84 108
75 93 121
58 73 96
63 81 108
75 88 108
67 84 109
63 77 99
78 94 118
75 92 118
69 87 115
69 85 108
72 87 109
59 74 97
67 85 112
70 87 112
82 100 128
66 82 105
69 85 108
62 82 112
60 74 96
72 87 108
73 92 121
62 77 100
80 99 128
79 98 128
76 96 128
72 91 118
66 86 116
64 79 103
66 84 112
77 93 118
72 91 121
61 75 96
65 81 105
70 89 118
78 98 128
74 92 118
68 86 112
78 98 128
64 78 99
74 93 121
72 90 116
68 84 107
67 83 108
70 89 118
79 98 128
82 100 128
80 99 128
80 99 128
73 91 118
65 84 112
78 94 118
76 97 128
74 91 118
85 102 128
78 98 128
64 81 105
74 93 121
78 95 121
79 98 128
73 91 118
77 97 128
82 97 121
72 91 118
76 94 121
79 98 128
81 99 128
88 104 128
80 99 128
84 101 128
82 100 128
75 94 121
79 98 128
73 91 118
67 85 112
74 93 121
71 90 118
80 99 128
78 98 128
82 100 128
82 100 128
64 81 106
71 91 121
70 89 118
76 97 128
67 85 112
80 96 121
71 90 118
83 101 128
77 95 121
65 84 112
74 93 121
81 100 128
64 81 107
84 101 128
77 97 128
66 83 108
79 98 128
74 93 121
73 92 121
67 83 108
77 97 128
80 99 128
76 97 128
77 97 128
70 89 118
79 99 128
78 98 128
76 94 121
80 99 128
70 89 118
74 91 118
75 96 128
71 90 118
79 98 128
74 91 118
78 98 128
73 91 118
71 93 128
83 101 128
80 99 128
81 100 128
71 87 112
74 91 118
80 99 128
69 85 108
82 100 128
72 91 118
79 98 128
66 83 108
72 90 118
70 88 115
70 89 118
71 85 106
76 94 121
73 92 121
74 92 118
83 101 128
69 88 115
69 84 106
59 74 96
76 93 118
70 90 121
75 96 128
58 69 86
74 90 115
74 93 121
78 95 121
59 75 99
75 93 121
73 91 118
82 100 128
73 91 118
73 92 121
84 101 128
79 98 128
73 92 121
84 101 128
73 92 121
75 94 121
65 83 108
72 88 112
82 100 128
78 98 128
68 86 112
83 101 128
69 85 108
71 90 118
74 90 115
79 98 128
62 78 102
66 84 112
69 90 121
76 97 128
80 99 128
70 88 116
86 102 128
82 100 128
66 82 106
73 91 118
59 75 99
79 98 128
71 91 121
79 96 121
63 80 105
77 95 121
72 90 118
81 99 128
83 98 121
72 91 118
73 89 112
71 85 106
63 78 100
74 89 112
70 88 115
78 98 128
62 78 102
78 98 128
78 98 128
73 91 118
58 76 102
57 74 100
74 89 112
66 84 112
70 91 121
80 97 121
57 69 87
62 76 96
80 99 128
80 94 116
62 78 102
78 95 121
72 89 116
77 93 118
64 79 102
68 88 118
64 80 105
67 82 105
68 84 108
67 82 105
61 76 100
79 98 128
72 88 112
74 92 118
75 94 121
80 99 128
67 84 108
80 95 118
68 81 102
61 76 99
76 93 118
69 85 108
62 79 105
59 71 89
54 72 99
68 84 108
67 80 100
74 89 112
63 77 97
51 64 84
71 85 105
69 82 102
53 65 84
69 85 108
58 70 90
76 94 121
62 76 96
52 67 89
82 98 121
67 81 102
56 68 88
64 77 98
72 88 112
52 63 80
54 68 89
64 79 103
71 90 118
56 67 84
56 67 83
59 71 88
42 53 68
39 49 63
53 65 83
56 70 90
77 93 116
72 87 109
60 74 95
48 59 76
48 59 77
46 54 67
73 84 102
52 64 83
65 79 99
62 74 92
48 60 77
44 53 68
59 74 96
66 79 99
65 80 102
76 91 115
48 58 74
42 51 64
50 61 78
44 55 72
43 51 62
74 92 118
69 85 109
65 77 94
50 61 79
61 73 89
56 67 83
28 35 44
40 49 62
40 47 58
59 69 84
50 59 73
46 55 69
52 63 80
43 54 71
61 73 92
50 60 76
62 73 90
60 70 86
38 45 56
50 59 72
57 70 89
61 72 89
61 72 90
54 65 81
54 64 78
45 55 69
49 58 70
26 31 39
62 74 93
63 74 90
63 76 96
61 74 94
60 73 92
34 41 51
50 60 74
54 66 84
62 77 100
40 48 60
50 60 75
37 45 56
46 56 70
51 62 78
52 62 76
65 78 97
60 72 89
50 62 80
49 61 80
61 71 86
51 62 79
61 74 95
53 65 84
54 66 84
59 72 91
67 84 109
36 46 59
68 83 106
52 64 81
63 78 100
61 74 92
63 79 102
59 71 89
77 93 118
62 75 94
60 71 88
47 56 71
79 96 121
53 65 83
51 64 84
51 63 80
59 70 87
77 92 115
70 87 112
61 75 97
36 44 57
51 65 87
66 80 100
76 93 118
58 72 94
63 75 94
67 81 102
64 78 100
62 76 96
66 82 105
49 58 71
75 92 118
67 81 102
66 80 102
73 90 115
70 85 108
78 95 121
64 81 106
74 91 116
75 90 112
57 70 90
73 87 108
50 63 83
57 71 92
57 71 92
81 100 128
58 72 93
56 68 87
67 83 108
70 87 112
68 85 112
71 90 118
54 67 86
60 76 99
77 95 121
55 69 89
70 87 112
68 84 108
70 87 112
82 100 128
65 82 107
65 80 102
58 72 93
63 75 92
64 80 105
62 78 102
79 99 128
73 91 118
71 89 116
64 79 102
75 93 121
72 90 118
78 94 118
62 76 99
74 91 118
71 89 116
62 78 102
72 88 112
75 92 118
71 89 116
60 76 99
79 96 121
70 86 110
73 90 115
77 97 128
74 92 118
63 78 99
74 89 112
72 90 118
77 95 121
77 97 128
68 85 112
83 101 128
79 98 128
66 81 105
77 97 128
78 98 128
70 88 115
78 95 121
74 95 128
75 91 116
73 92 121
77 93 118
77 94 121
60 74 96
77 93 118
76 94 121
67 86 115
82 100 128
76 97 128
77 95 121
81 99 128
76 94 121
66 82 105
80 99 128
70 89 118
81 100 128
71 89 115
69 89 118
70 89 118
73 91 118
69 88 118
76 92 115
72 90 118
69 84 105
73 90 115
66 82 105
80 99 128
77 97 128
67 87 118
76 93 118
79 98 128
81 100 128
65 82 108
70 84 106
80 99 128
80 99 128
77 93 118
76 97 128
56 71 92
77 93 118
71 90 118
80 99 128
72 90 118
77 97 128
65 83 108
72 89 115
78 95 121
75 92 118
76 96 128
80 99 128
66 82 105
74 89 112
80 96 121
72 92 121
79 98 128
70 86 112
78 98 128
81 100 128
81 99 128
73 92 121
71 89 115
72 90 118
79 98 128
80 95 118
71 89 115
74 92 118
70 89 118
79 98 128
75 96 128
83 101 128
80 99 128
71 89 115
80 99 128
72 92 121
72 90 118
77 97 128
72 90 118
73 91 118
76 93 118
80 96 121
73 92 121
77 97 128
75 94 121
74 95 128
66 80 102
73 91 118
59 77 104
83 101 128
81 99 128
79 99 128
67 85 112
73 90 115
70 89 118
75 96 128
72 90 118
71 89 116
66 86 115
76 93 118
68 84 108
75 91 115
79 98 128
76 97 128
76 97 128
73 90 116
80 99 128
73 90 116
75 96 128
79 96 121
74 92 118
74 95 128
68 83 105
70 85 108
77 97 128
70 88 116
78 98 128
74 93 121
58 74 99
79 96 121
69 87 115
74 93 121
72 92 121
64 78 100
62 79 105
75 92 118
81 100 128
67 82 106
78 98 128
70 88 115
63 78 100
74 96 128
81 97 121
70 87 112
75 91 116
73 91 118
61 76 99
60 74 96
68 85 109
71 89 116
74 91 118
74 90 115
59 75 99
77 97 128
77 95 121
82 100 128
83 101 128
68 84 108
62 79 105
76 94 121
64 78 99
64 79 102
67 83 106
75 92 118
76 94 121
73 90 115
72 92 121
72 88 112
85 102 128
66 84 112
80 99 128
73 91 118
69 83 105
77 97 128
80 99 128
74 92 118
77 95 121
76 97 128
72 87 108
73 91 118
76 93 118
77 97 128
69 84 105
69 85 108
74 89 112
82 100 128
71 86 108
77 97 128
63 75 95
73 86 105
68 82 104
70 89 118
66 84 112
59 74 96
73 91 118
65 81 106
64 78 100
72 87 108
63 78 102
59 71 89
79 96 121
67 82 105
60 76 100
77 95 121
59 72 90
47 58 75
58 69 86
54 68 90
50 59 74
70 86 110
69 88 118
58 73 97
59 71 88
56 71 92
52 63 80
62 74 93
69 86 112
66 80 102
53 63 79
56 68 86
65 81 106
51 64 83
70 87 112
59 72 92
59 72 93
69 84 106
68 84 108
54 66 84
78 95 121
56 72 95
73 91 118
56 68 87
79 96 121
60 77 102
53 65 83
67 82 104
68 84 109
65 78 99
55 69 89
74 87 108
67 82 105
50 61 76
47 56 70
40 48 61
46 57 74
48 58 72
49 59 74
58 72 92
59 73 94
50 60 76
45 54 68
47 57 72
62 75 95
58 70 88
40 49 64
46 55 69
67 80 100
55 66 83
38 46 58
45 52 63
62 74 91
45 53 65
47 55 68
36 45 58
60 73 92
47 57 73
60 72 91
53 62 77
57 66 80
52 63 80
37 44 53
46 57 73
42 51 66
50 62 80
56 67 83
55 64 78
35 43 55
48 58 74
33 41 53
42 53 68
60 71 88
50 60 73
54 65 83
45 54 66
48 57 71
51 61 77
73 88 112
64 76 94
34 40 48
73 88 109
57 68 86
50 60 77
47 59 76
64 77 96
74 90 115
48 58 75
43 53 66
57 68 85
58 69 86
38 46 57
53 67 88
43 52 64
48 58 72
58 69 87
36 43 55
60 72 89
37 44 54
47 59 76
61 75 95
64 78 99
24 30 39
57 68 84
51 60 75
70 83 102
47 59 77
63 78 100
68 83 106
66 80 102
50 64 84
57 69 87
66 81 102
51 63 80
77 93 118
57 70 89
51 63 81
62 76 97
58 71 91
55 68 86
54 65 81
55 69 90
58 69 86
65 81 105
60 74 97
62 79 105
71 90 118
52 65 84
73 89 112
59 73 92
48 60 77
62 80 106
59 74 96
55 67 84
59 74 96
73 91 118
64 79 102
47 56 71
58 71 89
80 95 118
54 67 87
68 83 106
76 92 116
47 57 73
77 95 121
54 67 85
68 84 108
59 73 92
61 73 92
68 83 105
74 91 116
69 86 112
69 87 115
54 68 89
61 76 99
43 56 74
69 85 109
51 60 73
65 80 102
63 76 96
60 74 96
71 88 115
74 92 118
72 88 112
65 79 100
53 66 86
70 86 112
71 90 118
83 101 128
70 89 118
69 84 106
59 73 93
64 78 99
78 95 121
62 80 108
68 86 112
69 88 118
69 86 112
67 84 108
68 84 108
68 84 108
76 94 121
77 93 118
67 82 105
76 94 121
70 84 105
69 86 112
79 99 128
72 90 118
62 77 100
59 75 99
76 93 118
79 94 118
69 90 121
81 100 128
64 83 112
66 79 99
77 97 128
77 95 121
65 81 105
71 87 112
77 93 118
71 88 115
76 97 128
69 86 112
69 85 109
60 79 107
63 79 102
54 67 86
64 80 105
83 101 128
74 95 128
81 100 128
80 99 128
81 99 128
76 94 121
76 93 118
72 91 118
71 86 108
81 100 128
71 87 112
73 92 121
73 93 121
67 83 107
74 92 118
66 82 105
75 93 121
83 101 128
81 100 128
65 79 100
75 96 128
77 97 128
76 92 116
69 86 112
81 99 128
85 102 128
80 99 128
75 92 118
78 95 121
74 96 128
79 99 128
66 83 108
75 94 121
65 82 108
80 99 128
72 89 115
73 91 118
82 100 128
84 102 128
76 94 121
78 94 118
81 100 128
72 91 118
54 69 93
75 93 121
85 99 121
81 100 128
87 103 128
72 92 121
87 103 128
71 88 115
59 74 96
80 99 128
65 83 108
78 94 118
71 87 112
69 84 107
74 92 118
76 93 118
75 96 128
79 98 128
76 93 118
78 98 128
80 99 128
64 79 102
81 100 128
78 98 128
80 99 128
59 74 96
69 90 121
61 74 94
74 91 118
66 79 100
80 99 128
75 93 121
77 93 118
74 91 118
64 82 109
81 100 128
75 96 128
79 98 128
75 92 118
87 103 128
78 94 118
84 102 128
61 76 99
81 100 128
79 96 121
67 84 109
71 91 121
73 90 116
76 92 118
69 89 118
77 97 128
72 88 112
73 92 121
71 89 115
79 98 128
79 99 128
60 77 102
82 100 128
72 90 118
69 87 115
71 87 112
68 87 116
73 90 115
76 94 121
71 90 118
71 89 115
72 91 121
74 91 118
71 87 112
79 96 121
78 98 128
78 98 128
78 98 128
72 92 121
78 98 128
75 91 115
71 87 112
62 79 105
80 99 128
77 97 128
85 102 128
81 99 128
78 98 128
72 88 112
81 99 128
69 86 112
74 93 121
73 92 121
77 97 128
74 89 112
76 92 115
54 69 92
69 90 121
54 69 92
67 81 102
81 100 128
76 93 118
81 99 128
58 72 92
76 94 121
77 94 118
57 74 100
73 90 116
76 93 118
72 90 118
57 70 89
67 82 105
82 100 128
66 83 108
73 91 118
81 100 128
67 82 105
72 91 118
73 91 118
67 83 108
77 95 121
69 88 116
73 90 116
75 92 118
63 76 96
74 96 128
76 93 118
61 79 106
71 87 112
70 89 116
70 85 108
80 99 128
67 85 112
70 88 115
71 87 112
68 88 118
57 72 96
62 75 95
59 74 96
75 94 121
53 66 87
80 97 121
60 71 88
61 76 99
67 81 102
45 56 73
66 79 98
61 78 102
55 67 84
67 81 102
47 58 74
65 81 105
69 84 106
69 85 110
69 83 105
60 74 96
68 84 109
64 81 105
53 64 81
57 70 89
76 94 121
67 83 108
54 64 78
76 94 121
68 84 108
34 41 51
66 79 99
61 75 96
51 64 84
80 99 128
62 76 97
72 88 112
68 85 110
56 70 91
73 90 115
58 72 93
53 63 80
56 70 93
54 66 84
53 67 87
54 67 86
61 75 95
71 85 105
50 60 75
56 69 90
66 82 105
67 80 100
48 57 71
49 60 76
50 60 75
57 67 83
46 56 72
57 69 87
58 68 85
52 64 81
42 51 64
77 93 118
56 70 90
50 61 77
52 62 78
56 68 87
62 75 93
55 67 86
76 92 116
47 56 71
73 91 118
76 92 116
47 55 68
58 70 89
41 50 64
56 67 84
58 71 90
55 67 86
52 63 78
55 65 81
47 57 73
38 46 59
57 70 91
60 72 89
47 58 75
70 83 102
61 71 87
61 75 96
51 59 72
59 70 86
49 59 73
58 71 90
44 52 64
67 78 94
60 70 86
62 74 92
44 52 65
60 72 89
56 70 91
43 52 67
38 46 58
46 56 71
39 46 57
55 67 85
47 56 70
58 69 85
46 53 65
55 67 86
42 50 62
67 82 105
60 72 90
61 75 96
39 47 58
51 63 80
57 70 89
73 87 109
55 68 87
67 79 99
69 83 105
49 63 84
45 54 67
66 80 102
52 66 88
60 76 99
49 59 73
67 79 96
48 58 73
60 74 96
40 50 64
62 74 92
73 86 105
61 76 99
46 58 76
52 64 81
67 81 102
57 70 89
73 90 116
57 72 93
70 86 112
58 72 92
43 54 70
50 63 82
55 68 88
55 68 87
47 59 76
56 69 89
65 78 99
48 60 77
66 82 107
62 75 96
63 77 99
63 76 96
69 86 112
64 81 106
58 71 90
66 80 100
73 87 108
52 65 84
59 75 99
41 50 63
74 92 118
67 81 103
59 74 96
64 78 99
61 75 96
70 85 107
70 84 105
70 89 118
69 85 109
76 97 128
50 62 80
65 78 99
63 80 105
70 89 118
69 86 112
75 94 121
51 62 80
73 92 121
70 85 108
66 81 102
75 93 121
69 84 108
67 82 105
62 75 96
77 94 121
59 73 96
66 81 104
74 90 115
55 72 96
79 98 128
76 93 118
71 87 112
85 102 128
64 82 108
71 87 112
72 88 112
77 95 121
85 102 128
80 99 128
65 81 106
70 89 118
65 82 108
72 89 116
52 65 86
71 89 116
74 93 121
75 93 121
77 97 128
71 87 112
59 72 93
80 99 128
48 60 77
68 84 108
68 83 107
78 98 128
70 91 121
80 99 128
72 90 118
81 100 128
74 90 115
80 99 128
74 92 118
70 89 118
71 87 112
68 82 102
77 93 118
74 91 118
70 89 118
69 89 118
70 85 108
57 75 102
71 91 121
73 92 121
61 80 108
82 100 128
72 89 116
77 94 121
83 101 128
81 99 128
80 99 128
73 91 118
73 95 128
78 98 128
78 96 121
74 93 121
74 92 118
68 88 118
72 91 118
76 96 128
64 81 106
72 89 115
83 101 128
78 98 128
82 100 128
70 88 115
70 89 118
71 90 118
71 91 121
77 97 128
67 85 112
68 88 118
69 86 112
79 99 128
84 102 128
83 101 128
72 90 118
80 99 128
78 98 128
75 91 115
77 93 118
68 84 108
71 91 121
79 99 128
75 96 128
72 86 108
75 94 121
78 98 128
73 91 118
76 93 118
79 98 128
74 93 121
72 88 112
77 97 128
79 98 128
75 96 128
78 98 128
82 100 128
80 99 128
72 89 116
76 96 128
75 94 121
74 95 128
78 98 128
79 98 128
72 90 116
74 92 118
75 94 121
77 97 128
74 93 121
69 89 118
79 98 128
74 91 118
82 100 128
76 96 128
82 100 128
75 91 115
79 98 128
69 89 118
74 92 118
78 98 128
63 77 99
68 87 116
58 73 96
76 93 118
66 83 108
79 93 115
76 93 118
70 89 118
76 90 112
74 91 116
78 98 128
64 79 102
72 89 115
68 85 112
81 100 128
76 92 116
78 96 121
73 93 121
67 84 109
71 87 112
71 88 115
65 82 106
74 90 115
69 86 112
65 80 102
82 100 128
86 102 128
83 98 121
67 84 110
79 96 121
77 97 128
71 89 116
77 94 121
75 94 121
55 69 89
68 84 108
75 92 118
71 87 112
60 75 96
74 93 121
73 91 118
75 94 121
79 98 128
76 97 128
87 103 128
75 94 121
71 89 115
60 74 96
72 90 118
79 99 128
75 92 118
80 99 128
72 86 108
83 101 128
70 89 118
74 92 118
72 88 112
72 89 116
82 100 128
60 74 96
85 102 128
71 91 121
73 91 118
73 91 118
80 99 128
77 93 118
70 84 105
67 85 112
66 82 105
79 96 121
79 96 121
72 86 108
72 91 118
74 92 118
55 66 83
77 95 121
70 88 115
73 89 112
74 89 112
72 87 108
68 88 118
73 91 118
76 91 115
72 91 118
82 100 128
60 73 92
70 84 105
65 81 105
58 72 93
70 86 112
68 83 105
67 84 108
66 83 109
57 72 94
60 74 96
62 74 94
69 87 116
75 90 112
56 69 90
74 90 115
57 69 88
67 80 100
69 84 105
71 87 110
55 67 86
74 93 121
66 82 105
45 55 69
67 80 100
77 92 116
51 64 83
72 90 116
64 77 97
55 69 89
63 79 102
49 63 84
71 90 118
66 82 105
46 61 83
73 91 116
66 80 102
51 62 79
65 81 107
50 62 80
55 70 94
63 80 105
53 65 83
61 74 94
70 85 108
51 63 81
44 55 71
47 59 78
59 72 91
43 56 74
61 75 96
37 45 59
66 82 105
44 53 66
54 65 81
46 57 73
53 65 84
77 94 118
68 84 108
38 45 56
70 85 108
47 58 75
56 69 89
69 85 108
54 66 85
60 72 89
59 72 91
66 77 94
35 42 54
54 65 80
58 70 89
32 39 49
53 64 80
56 70 93
53 67 88
52 61 76
30 37 47
48 59 74
47 56 69
53 65 83
64 75 92
48 57 71
49 59 75
53 65 83
55 65 81
45 55 70
61 72 90
67 83 106
39 48 61
51 60 75
49 59 75
63 76 94
57 70 89
41 49 62
50 61 77
34 42 54
42 50 62
40 48 61
35 41 51
62 72 88
50 61 77
57 68 85
39 49 64
81 97 121
48 57 70
52 66 88
69 85 108
61 74 92
60 71 88
69 84 106
40 48 60
56 67 84
42 50 63
51 61 77
62 73 89
47 56 70
61 72 89
58 71 90
44 53 67
41 49 61
68 80 99
64 77 96
60 73 92
54 66 84
50 61 78
60 73 92
45 53 66
56 68 88
46 54 67
55 68 88
45 58 77
56 67 84
41 49 61
64 75 92
65 79 100
62 73 89
56 68 86
57 69 88
74 91 118
57 68 84
55 66 84
82 100 128
66 80 100
38 48 64
58 70 88
62 77 99
67 83 107
57 71 91
59 74 96
70 83 102
47 58 73
50 61 78
65 80 102
55 68 86
56 69 89
75 93 121
63 76 96
53 64 80
54 66 83
54 65 81
67 82 105
59 72 92
62 77 100
72 88 112
66 80 102
60 73 92
61 75 97
59 74 96
78 94 118
46 59 77
58 73 96
74 89 112
48 61 81
71 90 118
70 85 108
73 89 112
61 74 93
76 93 118
66 84 112
54 68 89
70 86 112
65 81 104
65 80 102
66 79 100
59 74 96
77 97 128
54 68 88
82 97 121
77 93 118
71 88 115
80 99 128
65 78 99
72 92 121
75 92 118
54 70 94
78 98 128
84 101 128
70 89 118
76 93 118
64 80 105
74 92 118
77 94 121
62 77 100
80 99 128
59 75 99
72 89 115
64 79 102
73 91 118
75 92 118
67 84 108
76 94 121
81 100 128
75 93 121
69 89 118
74 89 112
69 89 118
80 99 128
70 85 108
85 102 128
84 101 128
72 88 112
75 92 118
73 88 112
60 77 103
80 99 128
77 93 118
73 92 121
77 95 121
77 97 128
70 86 112
74 90 116
77 97 128
66 81 105
84 102 128
75 92 118
64 83 112
77 97 128
67 87 118
71 90 118
83 101 128
77 95 121
73 92 121
71 90 118
73 91 118
78 98 128
73 91 118
77 94 121
83 98 121
61 75 96
80 99 128
75 91 115
74 92 118
80 99 128
80 99 128
74 93 121
80 99 128
79 96 121
62 81 108
81 100 128
69 85 108
86 103 128
66 84 112
68 88 118
73 91 118
73 95 128
72 89 115
76 97 128
77 97 128
65 81 105
69 85 108
66 84 112
71 90 118
67 84 108
80 99 128
74 96 128
80 99 128
76 94 121
81 100 128
77 97 128
76 94 121
80 96 121
75 93 121
70 89 118
75 96 128
78 95 121
81 99 128
78 98 128
80 99 128
78 98 128
81 99 128
78 98 128
74 93 121
77 97 128
82 100 128
76 96 128
77 94 121
64 82 109
72 90 118
79 98 128
73 92 121
71 89 115
62 78 102
69 88 115
83 101 128
67 83 108
78 94 118
76 93 118
77 93 118
77 94 121
74 92 118
66 83 108
76 96 128
78 98 128
74 91 118
62 76 98
66 83 108
65 83 112
67 86 115
64 80 103
78 94 118
84 102 128
77 97 128
77 97 128
79 96 121
69 87 115
70 87 112
67 87 116
68 87 115
74 93 121
79 99 128
76 97 128
59 76 100
72 90 118
72 91 118
68 84 108
73 91 118
56 70 92
75 94 121
69 85 108
81 100 128
78 98 128
80 96 121
67 82 105
79 98 128
68 88 118
68 88 118
82 100 128
77 97 128
73 91 118
71 89 115
74 89 112
76 93 118
66 84 112
76 97 128
75 92 118
75 92 118
53 65 84
70 88 115
66 81 104
75 96 128
71 90 118
68 85 112
80 95 118
77 97 128
79 94 118
65 82 106
81 100 128
75 91 115
77 97 128
74 90 116
65 82 108
72 89 115
64 78 99
81 100 128
65 82 108
74 90 115
76 91 115
74 92 118
81 96 118
66 84 112
73 91 118
73 90 115
69 85 108
73 90 115
72 87 108
80 96 121
71 87 112
80 99 128
58 72 94
68 85 112
76 97 128
67 82 105
78 94 118
82 100 128
60 75 97
73 87 109
75 96 128
65 81 106
80 96 121
73 92 121
49 63 83
59 71 90
57 70 91
61 76 99
41 52 69
65 79 100
74 89 112
72 88 112
65 82 108
74 88 108
71 89 115
84 101 128
56 70 90
71 87 112
63 76 96
42 52 67
66 82 105
70 84 105
81 97 121
70 85 108
67 84 108
47 59 76
75 89 112
56 71 92
75 90 112
75 96 128
79 96 121
73 88 109
59 71 89
60 75 96
63 77 99
44 54 70
70 85 108
55 67 86
64 80 105
60 75 99
72 87 109
44 55 72
63 78 99
51 63 80
57 70 90
51 64 84
60 73 92
76 92 115
52 62 79
60 75 96
63 76 96
66 81 103
65 80 103
67 80 100
60 73 92
61 76 100
50 61 77
59 72 92
70 84 105
57 71 92
52 64 81
48 58 73
48 59 75
42 51 65
38 46 56
55 68 86
42 51 64
63 77 99
43 53 68
31 38 48
64 78 99
49 60 75
67 84 109
43 52 66
48 58 73
47 55 68
74 90 115
56 67 84
46 55 67
63 75 93
40 49 61
50 59 73
65 78 99
50 58 72
55 68 88
32 38 47
46 55 68
57 72 93
43 52 64
56 69 88
63 77 99
55 67 85
43 52 65
62 75 96
76 93 118
41 50 64
33 40 51
70 84 105
39 47 59
52 62 77
66 80 100
63 75 92
57 68 84
47 57 73
60 72 89
34 41 52
67 79 96
69 83 103
57 68 84
49 59 75
56 71 95
63 76 95
67 80 99
45 54 67
62 76 96
59 72 91
55 67 86
60 72 90
67 82 105
56 66 80
66 82 105
41 50 64
43 51 65
38 45 55
56 67 83
59 72 90
64 76 94
60 73 92
68 83 105
44 55 71
68 84 108
51 61 76
65 80 104
33 39 49
43 53 69
66 83 107
56 69 89
65 77 96
66 79 99
25 30 37
73 88 109
59 74 96
45 56 72
49 59 75
55 66 84
52 63 81
69 82 102
83 101 128
64 81 106
45 58 77
74 90 115
60 72 91
72 88 112
67 81 102
74 90 115
39 48 61
69 86 112
57 71 93
60 72 89
56 72 96
84 102 128
77 93 118
69 80 97
65 80 102
56 71 93
68 82 102
60 77 102
61 75 96
63 78 99
60 70 87
72 86 107
56 67 83
59 76 100
63 76 96
61 77 102
67 81 102
68 85 112
72 85 105
76 93 118
55 67 84
72 91 118
70 84 106
66 79 99
62 77 100
74 91 118
71 91 121
60 75 98
53 64 81
56 71 92
68 84 108
65 81 106
53 68 89
70 88 116
69 86 112
59 73 93
72 94 128
78 93 116
60 75 97
73 91 118
61 75 97
51 66 89
68 83 106
74 92 118
70 87 112
77 93 118
69 89 118
75 94 121
71 86 110
73 91 118
78 98 128
63 81 108
76 97 128
81 99 128
74 88 109
76 97 128
73 90 116
61 80 108
61 76 99
74 95 128
75 91 115
72 92 121
76 92 118
74 91 116
76 93 118
71 90 118
75 92 118
76 93 118
65 81 104
64 78 99
77 93 116
73 92 121
70 86 109
77 92 115
70 89 118
82 100 128
72 91 118
79 98 128
68 85 112
75 92 118
73 91 118
70 86 112
70 83 104
81 100 128
62 78 100
76 94 121
81 100 128
76 97 128
78 98 128
84 102 128
76 93 118
76 97 128
68 85 112
67 84 108
82 100 128
72 92 121
76 94 121
77 93 118
74 95 128
83 101 128
70 86 112
75 96 128
82 100 128
70 89 118
71 87 112
62 78 102
72 90 118
80 99 128
87 103 128
75 94 121
77 97 128
76 94 121
71 87 112
59 74 96
81 100 128
78 98 128
54 68 90
73 92 121
76 94 121
62 81 108
58 73 96
76 97 128
72 90 118
71 94 128
76 94 121
74 92 118
82 100 128
77 95 121
77 94 121
74 93 121
81 100 128
82 100 128
78 95 121
81 100 128
82 100 128
69 86 112
81 100 128
74 91 118
63 77 99
82 100 128
78 98 128
74 93 121
73 91 118
77 94 121
69 89 118
81 99 128
69 86 112
78 95 121
71 91 121
77 94 121
76 94 121
74 93 121
76 94 121
80 99 128
74 92 118
67 85 112
61 75 97
78 98 128
75 96 128
75 96 128
67 84 108
66 83 108
75 93 121
79 99 128
63 81 108
68 88 118
78 98 128
75 93 121
70 87 112
67 84 109
72 89 115
81 100 128
78 94 118
78 95 121
72 90 118
72 88 112
85 102 128
73 92 121
78 95 121
82 100 128
79 98 128
77 93 118
69 84 108
68 85 112
73 91 118
65 79 99
68 88 118
79 98 128
83 101 128
74 91 118
71 91 121
67 79 99
70 87 112
71 89 116
68 84 108
64 79 102
84 101 128
73 90 115
79 98 128
77 97 128
84 101 128
81 99 128
69 87 115
81 97 121
77 97 128
66 83 108
78 98 128
76 94 121
77 97 128
66 83 108
70 88 115
69 86 112
62 77 99
78 94 118
80 99 128
68 83 105
56 71 93
70 87 112
82 100 128
74 93 121
58 73 96
74 92 118
73 91 118
63 80 105
64 79 102
60 78 104
57 72 95
76 96 128
73 90 116
73 91 118
82 100 128
76 94 121
63 81 109
64 78 99
70 89 118
62 76 97
74 92 118
78 94 118
67 85 112
66 80 103
70 85 108
67 84 109
64 77 96
62 74 92
69 83 105
62 76 99
68 87 115
76 97 128
69 84 105
71 90 118
46 55 70
75 92 118
70 89 118
80 95 118
61 75 96
63 79 102
66 82 105
61 75 96
54 67 86
70 85 108
71 90 118
71 86 108
66 84 112
76 94 121
68 84 109
77 97 128
59 74 96
76 94 121
83 101 128
69 83 105
70 85 109
81 96 118
49 60 77
69 88 115
63 80 106
62 77 99
72 90 118
67 82 105
58 72 93
74 89 112
54 65 81
66 83 108
59 74 96
54 67 86
45 54 66
75 91 115
77 94 118
43 54 71
49 63 83
73 86 105
48 57 72
51 62 78
37 43 53
74 91 116
82 97 121
54 65 83
75 93 121
45 55 72
45 55 68
72 85 105
48 64 87
50 61 79
45 55 70
67 79 97
68 83 105
68 81 102
48 57 71
65 78 97
42 52 67
33 40 50
38 46 58
57 68 86
55 68 88
49 59 74
58 73 96
66 79 99
55 66 82
37 46 58
44 52 66
52 63 79
67 82 105
60 72 89
57 69 86
53 64 80
55 68 87
67 80 99
56 67 84
72 88 112
51 61 77
57 69 87
49 60 77
46 56 71
33 39 49
66 82 106
52 65 85
37 45 56
61 74 93
71 83 102
59 73 94
60 74 96
47 56 71
53 65 84
56 69 88
51 61 75
42 51 65
38 47 60
56 68 86
41 49 61
59 73 92
47 56 69
47 57 72
42 49 60
57 70 89
51 62 79
59 72 92
27 31 39
50 62 79
38 47 59
59 70 88
52 63 80
62 77 99
67 83 105
52 64 80
55 67 86
62 75 96
74 89 112
33 41 53
48 58 73
60 73 93
61 73 92
41 53 70
48 58 73
54 66 84
48 59 75
65 79 100
51 61 77
62 79 103
44 54 68
49 59 75
71 86 109
57 71 93
58 73 96
60 73 94
55 68 87
64 77 97
69 85 108
80 99 128
80 96 121
49 59 73
60 72 89
62 76 96
58 72 94
61 73 92
73 91 118
51 64 84
60 75 99
63 77 99
65 78 99
55 68 87
63 81 109
58 72 93
57 71 92
66 80 102
64 77 96
77 92 116
59 72 92
69 85 108
68 83 105
72 86 108
75 91 116
68 83 105
61 76 100
62 73 91
60 75 97
71 86 108
66 81 102
62 77 100
57 72 94
74 92 118
68 83 105
74 92 118
70 84 105
76 93 118
49 59 73
68 84 109
50 65 87
62 80 107
71 90 118
69 84 107
68 82 102
76 94 121
75 94 121
74 92 118
57 69 88
54 67 87
66 83 108
57 73 97
68 84 108
71 86 108
63 79 104
72 91 118
60 75 97
69 83 105
65 81 106
70 88 115
76 92 118
78 98 128
65 83 108
69 90 121
75 93 121
74 89 112
77 93 118
68 83 106
81 100 128
56 71 92
72 90 118
71 86 108
74 90 115
74 93 121
73 91 118
73 92 121
81 100 128
77 91 112
68 85 112
76 93 118
71 86 109
73 91 118
84 101 128
78 98 128
76 93 118
73 90 115
75 96 128
81 100 128
71 90 118
71 87 112
83 101 128
72 90 118
76 94 121
73 91 118
67 84 108
70 85 109
72 89 116
75 92 118
70 88 115
78 98 128
66 82 105
83 101 128
70 89 118
77 97 128
80 95 118
50 62 80
75 92 118
61 74 94
66 83 108
65 84 112
62 74 94
71 91 121
71 91 121
69 86 112
70 89 118
79 96 121
84 101 128
66 82 106
74 92 118
79 99 128
80 99 128
74 93 121
58 74 98
67 83 108
68 88 118
75 94 121
74 89 112
75 91 115
75 94 121
72 87 108
73 91 118
77 93 118
75 92 118
80 99 128
76 94 121
67 88 121
79 99 128
73 90 115
67 83 108
76 94 121
74 88 109
67 88 118
68 88 118
83 101 128
71 86 108
78 98 128
78 98 128
81 100 128
69 88 116
79 98 128
72 88 112
59 73 94
78 98 128
74 91 118
83 101 128
76 97 128
81 100 128
80 99 128
76 93 118
71 91 121
76 94 121
66 83 109
70 86 109
83 101 128
81 100 128
72 90 118
73 91 118
83 101 128
80 99 128
82 100 128
82 100 128
62 78 103
74 95 128
71 88 115
80 99 128
75 94 121
69 87 115
79 99 128
76 97 128
67 85 112
82 100 128
80 97 121
65 81 107
70 85 108
78 98 128
79 98 128
73 90 115
76 97 128
70 89 116
74 93 121
79 99 128
62 79 105
82 100 128
76 94 121
76 93 118
72 89 116
68 85 112
76 94 121
66 82 105
76 93 118
72 91 118
78 95 121
76 94 121
74 91 118
72 87 110
77 97 128
72 87 108
67 81 102
68 86 112
71 87 112
70 83 103
75 93 121
62 81 108
77 97 128
74 88 108
72 90 118
75 90 112
77 93 118
80 99 128
81 97 121
81 100 128
72 92 121
72 87 109
76 96 128
79 98 128
77 95 121
67 84 108
73 92 121
67 82 106
73 95 128
64 80 104
68 85 112
72 88 112
76 93 118
79 98 128
79 96 121
77 92 115
80 95 118
63 78 102
71 90 118
75 92 118
59 72 93
67 83 105
75 91 116
75 92 118
73 91 118
67 83 108
74 89 112
59 75 99
54 68 88
68 84 109
72 86 108
77 95 121
67 82 105
57 74 99
72 90 118
61 78 105
61 75 96
51 65 85
74 93 121
66 81 105
78 95 121
75 91 115
55 68 87
75 93 121
44 56 73
76 94 121
75 96 128
54 68 90
69 86 112
66 80 102
69 85 108
59 73 93
67 81 102
73 90 116
63 75 92
66 81 102
75 91 116
68 82 102
76 97 128
56 73 100
62 76 96
57 72 93
58 70 88
73 91 118
77 91 112
58 70 89
57 70 90
67 84 110
64 78 99
62 78 104
35 43 55
51 61 76
76 93 118
55 66 83
57 70 89
54 67 86
63 77 99
52 69 95
63 79 102
78 93 116
59 74 96
76 90 112
49 60 77
53 65 84
59 72 92
60 74 96
72 86 108
62 77 100
51 62 79
65 78 97
59 74 96
41 50 64
46 58 76
57 68 84
61 76 97
57 73 96
56 70 90
54 65 82
39 48 62
40 50 65
61 73 92
64 76 93
54 64 78
37 45 57
61 76 99
60 71 87
49 59 75
48 59 76
66 78 97
62 76 96
58 71 90
59 73 93
48 58 74
63 74 92
59 71 88
61 72 90
52 63 80
48 61 80
69 82 100
54 63 77
44 54 70
62 73 90
62 77 99
47 59 76
74 89 112
62 76 96
33 40 50
46 55 70
73 86 105
64 76 94
48 58 73
56 68 85
59 72 92
69 80 96
49 59 75
62 75 94
56 68 85
40 49 61
61 75 96
64 78 100
64 77 96
42 50 63
47 59 77
64 76 93
68 83 105
61 72 89
69 83 105
38 46 59
43 52 65
38 47 60
52 63 79
50 59 72
76 94 121
65 77 96
61 72 90
44 52 65
54 67 86
44 53 67
53 66 84
53 66 85
63 79 102
57 69 87
57 66 80
58 72 92
37 45 58
58 71 89
71 86 108
57 70 89
64 78 99
72 88 112
57 71 93
64 76 94
53 65 83
52 65 86
60 75 96
71 84 105
64 79 100
33 40 52
45 56 72
56 69 89
68 83 105
61 76 99
76 94 121
71 87 112
36 42 52
81 100 128
55 69 89
74 92 118
59 70 87
64 79 102
60 74 96
65 80 102
47 60 80
66 81 102
68 83 105
70 87 112
65 77 96
47 57 73
65 78 99
56 71 93
63 77 100
72 86 108
66 82 104
68 81 102
75 91 115
52 64 81
61 76 99
75 91 116
60 75 97
56 68 86
74 91 116
70 84 105
58 72 92
71 86 109
68 84 108
61 75 96
70 91 121
63 77 99
75 92 118
77 97 128
83 101 128
53 68 90
74 92 118
46 56 71
71 91 121
56 68 87
71 90 118
64 81 106
85 102 128
60 77 102
69 89 118
74 95 128
76 94 121
64 78 100
67 83 106
73 91 118
80 96 121
73 95 128
62 81 108
76 94 121
65 82 108
84 101 128
79 99 128
66 81 103
79 96 121
81 100 128
60 77 102
77 97 128
75 93 121
83 99 121
85 102 128
72 88 112
76 93 118
60 74 96
72 90 118
67 83 107
74 93 121
73 91 118
77 94 121
81 100 128
75 91 116
60 79 108
81 99 128
77 97 128
71 87 112
76 94 121
75 91 115
82 100 128
69 83 105
72 92 121
77 95 121
67 86 115
66 81 105
72 90 118
80 99 128
75 92 118
79 99 128
81 100 128
67 83 107
84 101 128
71 87 112
84 101 128
71 91 121
82 100 128
56 69 90
80 99 128
83 101 128
88 104 128
79 96 121
80 96 121
77 95 121
76 94 121
64 83 112
70 89 118
71 84 104
60 76 99
67 87 118
68 87 116
79 96 121
74 93 121
70 89 116
81 100 128
60 74 96
72 92 121
77 97 128
81 100 128
71 90 118
71 86 108
67 88 118
79 96 121
85 102 128
81 99 128
78 95 121
69 86 112
82 100 128
76 93 118
78 98 128
69 86 112
70 89 118
77 95 121
77 97 128
80 99 128
80 95 118
73 91 118
72 91 121
71 87 112
79 98 128
71 90 118
71 93 128
74 93 121
68 88 118
79 98 128
73 91 118
76 93 118
77 97 128
77 97 128
75 96 128
75 92 118
78 98 128
68 84 108
78 95 121
73 95 128
72 92 121
84 101 128
79 95 118
72 90 118
70 88 116
74 92 118
74 89 112
70 89 118
73 91 118
76 97 128
84 101 128
74 93 121
75 96 128
77 94 121
73 95 128
66 83 108
64 79 102
81 100 128
78 98 128
75 94 121
77 97 128
81 100 128
70 89 118
77 95 121
80 99 128
80 99 128
74 90 115
66 82 106
81 100 128
71 91 121
65 80 102
64 80 105
78 95 121
64 81 105
65 80 104
77 97 128
81 97 121
83 101 128
81 100 128
75 92 118
68 85 112
64 78 100
74 95 128
78 95 121
80 99 128
81 99 128
74 89 112
71 91 121
71 86 109
70 89 118
83 101 128
67 81 102
52 65 85
68 84 108
79 94 118
67 85 112
75 92 118
74 91 116
66 81 103
72 88 112
83 101 128
68 82 104
61 74 93
67 80 99
74 93 121
65 82 108
75 96 128
72 89 115
66 83 108
77 93 118
69 87 115
62 78 102
77 95 121
71 87 112
71 86 108
72 90 118
59 74 96
66 81 105
76 97 128
69 84 105
80 97 121
75 93 121
68 87 115
77 95 121
70 89 118
82 100 128
64 77 97
73 89 112
64 79 102
67 81 102
69 89 118
79 98 128
66 82 107
63 78 102
73 95 128
60 74 96
66 80 102
54 71 96
85 102 128
62 77 99
55 67 86
72 89 116
69 84 106
69 83 105
60 74 94
55 69 90
66 82 105
62 76 96
74 88 109
66 81 102
60 75 99
72 88 112
57 72 96
73 90 116
64 83 112
49 60 77
72 92 121
59 73 96
76 97 128
69 83 105
68 83 105
55 68 87
72 90 116
60 74 96
70 89 118
63 80 106
44 54 69
60 75 96
57 70 89
67 83 106
69 83 105
53 67 87
58 70 89
60 73 92
50 63 84
39 49 64
68 84 108
55 66 84
71 86 108
75 92 118
67 82 105
40 50 64
57 72 93
62 80 105
63 79 102
50 63 83
75 93 121
57 69 88
49 59 75
53 66 86
61 75 96
52 64 80
43 52 66
44 55 71
65 79 99
69 84 106
56 68 87
46 57 74
58 70 89
75 89 112
61 76 99
46 57 73
48 60 76
55 66 83
47 58 75
53 64 80
52 65 84
44 53 68
55 68 86
51 60 75
43 52 66
46 55 69
52 63 78
62 78 102
73 86 106
67 85 112
55 68 87
43 51 62
43 51 64
54 65 81
46 56 70
63 79 102
46 58 75
64 77 96
62 77 100
73 88 109
52 63 80
53 64 80
70 85 108
54 64 80
46 56 70
39 49 65
41 50 64
54 65 81
60 76 99
38 47 59
57 70 90
50 59 73
60 72 91
39 47 57
56 66 83
52 63 79
84 102 128
54 66 85
48 62 84
54 65 81
53 65 84
52 63 80
37 44 55
64 78 99
55 68 88
59 71 89
47 59 77
67 80 99
56 72 96
78 93 116
52 62 76
46 55 69
58 70 87
42 50 62
56 68 86
76 93 118
62 73 91
69 84 107
52 66 86
63 75 93
37 44 56
71 86 109
55 66 83
59 72 92
58 71 92
65 81 105
63 78 99
58 71 90
48 57 72
56 69 89
53 66 87
46 56 71
65 79 99
84 102 128
44 54 68
58 73 96
59 72 90
53 63 79
71 85 106
60 74 96
74 92 118
43 55 74
64 77 97
60 75 99
69 85 108
60 73 92
45 56 73
79 95 118
71 88 115
59 74 97
61 73 92
62 77 99
70 87 112
69 86 112
70 86 109
60 76 100
60 73 92
67 85 112
77 91 112
72 87 109
82 98 121
67 85 112
53 67 88
52 63 79
54 67 88
65 82 108
59 72 91
60 74 94
62 77 99
63 79 102
74 89 112
74 91 118
67 84 108
72 87 109
80 96 121
61 77 102
62 78 102
69 85 108
76 93 118
64 80 105
83 101 128
69 84 106
62 78 102
66 83 108
84 101 128
66 84 112
80 99 128
62 77 99
77 95 121
58 69 86
57 71 91
76 94 121
69 85 109
61 77 100
79 99 128
76 96 128
70 87 112
58 70 89
72 87 109
58 74 99
72 86 107
65 78 96
81 97 121
72 90 118
74 93 121
81 100 128
71 89 115
62 78 102
80 99 128
72 89 115
85 102 128
80 99 128
70 86 112
58 73 96
72 90 118
75 93 121
69 85 109
70 88 115
77 93 118
64 78 99
83 101 128
70 89 118
78 98 128
68 88 118
75 91 116
78 98 128
59 75 99
74 88 108
79 98 128
70 87 112
76 97 128
68 83 106
71 86 108
70 88 116
76 96 128
79 98 128
81 100 128
76 94 121
73 91 118
68 88 118
77 95 121
65 82 109
79 98 128
81 100 128
80 99 128
67 83 108
73 92 121
76 93 118
82 100 128
72 91 118
80 99 128
80 97 121
70 87 112
74 90 116
72 89 115
81 100 128
78 95 121
77 97 128
72 89 115
71 87 112
75 96 128
73 91 118
78 98 128
78 98 128
70 89 118
67 86 115
80 97 121
68 84 108
82 100 128
73 90 115
79 98 128
79 98 128
77 97 128
74 89 112
75 96 128
76 94 121
74 92 118
78 94 118
71 90 118
81 100 128
81 100 128
77 95 121
84 101 128
72 89 115
84 101 128
68 87 116
67 88 118
83 101 128
81 100 128
64 79 102
77 97 128
75 96 128
79 98 128
78 98 128
69 87 116
72 90 118
79 98 128
80 99 128
67 82 105
70 89 118
79 98 128
84 101 128
73 91 118
70 89 116
65 82 108
73 91 118
76 97 128
65 81 105
77 94 121
77 97 128
82 100 128
76 93 118
53 66 84
75 94 121
50 62 81
72 92 121
66 81 105
72 90 116
83 101 128
77 97 128
77 95 121
72 90 118
85 102 128
72 94 128
77 95 121
78 98 128
73 95 128
70 84 105
74 95 128
80 99 128
75 96 128
73 87 109
65 81 105
71 90 118
72 87 108
76 96 128
67 82 105
84 101 128
76 94 121
69 89 118
78 98 128
74 91 118
81 99 128
84 101 128
65 82 108
74 92 118
74 93 121
65 80 102
61 74 94
68 84 108
66 83 108
75 96 128
80 99 128
69 86 112
65 82 108
68 85 112
74 93 121
69 86 112
69 84 108
73 87 108
85 102 128
67 86 115
77 97 128
71 86 108
70 88 115
78 95 121
67 83 108
70 84 106
82 100 128
67 83 107
64 79 102
63 81 108
59 72 92
74 91 118
60 74 96
57 70 90
68 83 105
60 77 104
70 85 108
63 77 99
72 86 108
78 94 118
72 88 112
80 99 128
73 88 112
68 84 108
67 85 112
73 92 121
70 85 108
81 99 128
68 84 108
63 79 104
76 93 118
64 80 104
68 84 108
73 92 121
71 86 109
72 91 118
68 81 100
78 94 118
67 83 108
65 81 106
73 91 118
75 92 118
70 87 112
71 85 105
62 74 93
58 71 90
71 87 112
58 72 93
61 75 96
64 81 105
79 98 128
61 74 94
62 77 99
55 66 83
73 88 112
70 84 105
68 83 106
65 85 116
49 60 76
65 78 99
60 76 100
76 91 115
81 99 128
70 87 112
57 73 96
79 96 121
51 63 81
63 79 102
70 86 110
52 64 81
58 73 96
69 87 116
73 90 115
73 90 115
44 53 68
66 83 108
59 72 92
62 77 99
56 70 90
54 67 88
44 54 68
64 75 92
59 75 99
51 63 80
62 76 96
65 80 102
61 74 92
59 72 92
55 67 84
60 72 91
51 63 80
77 92 115
63 75 92
49 61 80
42 50 61
51 64 84
37 45 57
41 51 65
55 68 87
49 58 73
65 81 105
36 42 52
51 60 73
50 62 80
58 73 96
65 79 100
47 57 72
49 60 77
53 64 81
52 65 86
58 72 92
75 89 110
45 57 74
61 74 95
48 58 73
67 82 104
47 57 73
64 77 96
57 68 84
51 63 80
47 55 68
52 64 81
53 65 83
45 52 63
70 84 105
47 57 72
70 83 103
54 66 84
45 57 74
58 70 89
44 54 68
61 73 91
40 49 64
64 78 99
64 77 96
33 41 53
69 85 109
46 56 70
52 63 80
28 34 43
65 77 96
70 85 108
31 38 50
34 42 55
52 62 77
60 71 88
45 55 72
51 64 83
54 66 84
69 84 106
63 73 89
58 72 93
73 88 112
51 60 74
62 77 99
48 60 77
59 74 96
48 57 72
42 52 66
58 70 89
43 52 65
70 87 112
60 72 91
57 70 89
30 39 52
68 83 105
38 46 58
52 63 79
64 79 102
69 86 112
74 89 112
70 87 112
58 72 92
63 79 103
61 74 93
58 70 89
65 79 99
73 86 107
64 79 102
64 80 105
65 80 102
51 65 87
56 68 86
69 85 108
61 75 96
69 83 105
63 79 102
63 78 100
78 95 121
76 94 121
58 70 89
67 81 102
63 79 102
61 76 97
59 73 94
61 76 99
55 68 89
79 96 121
63 74 91
81 99 128
72 86 106
69 86 112
62 77 99
65 82 108
66 82 105
52 64 83
68 85 112
77 95 121
75 90 112
74 91 116
65 81 105
69 85 108
61 76 99
70 85 108
63 79 102
72 88 112
70 84 105
74 93 121
55 68 89
76 94 121
51 62 80
77 97 128
70 86 108
61 79 106
64 82 108
68 88 118
68 83 105
75 94 121
75 92 118
68 85 112
72 87 108
70 87 112
63 78 102
75 96 128
85 102 128
63 78 102
59 75 99
70 87 112
65 84 112
72 90 118
57 68 85
65 79 100
67 85 112
60 78 105
61 76 99
76 94 121
66 82 105
82 100 128
79 96 121
77 95 121
63 81 107
74 96 128
73 91 118
76 93 118
75 92 118
62 76 96
73 95 128
53 67 88
69 86 112
67 82 105
71 90 118
74 93 121
75 93 121
75 92 118
81 100 128
67 84 108
76 97 128
77 97 128
73 90 116
71 87 112
62 78 102
73 91 118
73 92 121
73 91 118
67 84 108
68 84 108
71 87 110
71 90 118
83 101 128
73 91 118
72 90 118
70 86 108
81 100 128
84 102 128
83 101 128
76 96 128
74 91 118
78 95 121
76 96 128
67 84 109
62 77 99
73 90 116
65 85 116
65 79 100
67 86 115
74 92 118
80 99 128
75 92 118
73 91 118
71 90 118
67 86 115
75 96 128
77 97 128
81 97 121
73 91 118
78 98 128
74 93 121
80 99 128
76 97 128
73 89 115
82 100 128
82 100 128
75 91 115
71 86 108
69 88 118
68 86 112
67 82 105
76 97 128
71 90 118
82 100 128
82 100 128
71 90 118
70 85 108
71 91 121
79 98 128
77 97 128
63 81 108
72 88 112
71 88 115
77 97 128
59 76 102
71 90 118
67 85 112
76 97 128
67 85 112
73 92 121
72 90 118
80 99 128
86 103 128
77 94 121
73 91 118
82 100 128
80 99 128
73 91 118
80 99 128
84 102 128
70 86 112
82 100 128
69 90 121
75 94 121
74 96 128
77 95 121
64 79 100
65 80 102
71 91 121
78 98 128
76 97 128
76 90 112
67 83 107
71 88 115
70 87 112
82 100 128
72 88 112
81 100 128
80 99 128
83 101 128
64 82 109
80 99 128
75 94 121
83 101 128
73 90 115
82 100 128
77 97 128
79 99 128
81 99 128
79 98 128
77 97 128
78 95 121
81 100 128
74 93 121
79 96 121
71 87 112
76 90 112
73 92 121
83 101 128
81 100 128
80 99 128
71 87 112
79 95 118
75 96 128
66 81 103
73 91 118
73 90 115
68 83 106
74 92 118
80 99 128
65 82 107
81 97 121
69 88 115
60 77 102
72 87 109
74 93 121
82 98 121
68 84 108
83 101 128
73 92 121
81 97 121
59 75 99
73 87 109
63 80 105
76 93 118
69 86 112
60 78 106
73 91 118
77 97 128
77 94 121
75 92 118
54 67 86
63 80 105
68 88 118
65 82 106
76 94 121
62 76 99
72 86 108
74 90 115
76 93 118
63 79 102
72 88 112
68 84 108
74 93 121
67 82 105
70 85 108
79 95 118
65 78 97
64 79 102
64 81 107
78 95 121
59 72 92
76 91 115
61 78 102
75 92 118
60 74 96
62 77 99
71 84 103
68 83 105
70 86 112
69 86 112
82 100 128
58 70 89
60 74 96
61 76 99
60 74 96
49 59 73
60 71 88
76 94 121
69 83 105
68 83 105
64 79 102
75 93 121
76 91 115
50 62 80
55 67 86
67 80 99
52 62 78
69 85 108
68 85 112
56 71 94
69 85 109
68 84 109
72 86 108
66 80 100
67 81 102
50 62 80
45 53 66
64 78 99
75 92 118
58 72 93
62 75 95
64 80 103
62 74 92
52 63 79
75 89 112
64 77 96
46 55 68
70 84 105
61 75 96
53 62 76
48 59 77
70 84 105
54 66 84
61 76 98
63 77 99
53 66 86
50 61 78
41 50 64
63 75 92
50 63 84
67 81 102
39 46 57
57 68 84
53 65 82
53 67 88
66 80 102
63 74 92
51 64 83
70 85 108
69 85 109
36 44 57
53 64 81
42 53 70
59 73 96
43 52 66
38 47 62
59 71 89
66 82 106
50 60 75
61 75 96
57 68 83
49 57 70
44 54 69
58 71 91
55 66 83
53 63 78
53 63 78
33 39 50
62 77 100
65 79 100
40 50 64
68 82 102
62 75 94
58 70 87
52 66 88
64 78 99
66 82 105
55 68 87
68 83 106
77 92 115
66 83 108
70 83 102
30 36 46
66 78 96
59 71 90
65 79 100
48 59 76
56 67 84
71 85 106
75 92 118
62 77 99
48 58 74
53 64 81
50 63 83
51 62 79
58 70 89
54 69 92
52 63 80
65 80 102
51 62 80
60 69 83
59 74 96
56 68 86
77 93 118
60 71 89
66 82 107
70 85 108
73 86 105
65 77 96
57 70 89
66 82 105
46 59 78
65 79 100
74 89 112
64 77 96
51 66 87
65 80 102
76 93 118
79 95 118
64 79 102
75 93 121
72 86 108
64 78 99
55 70 94
53 65 83
44 53 67
76 93 118
61 77 100
66 81 105
70 84 105
55 70 93
61 75 96
73 90 116
70 86 108
75 92 118
58 70 89
71 87 112
65 79 99
85 102 128
60 76 100
68 84 108
70 89 118
65 84 112
75 91 116
67 83 108
44 54 69
69 86 112
71 89 115
62 80 108
60 74 96
65 79 100
57 72 94
50 60 76
83 101 128
73 90 115
57 71 93
57 70 89
62 76 99
80 99 128
74 95 128
81 97 121
53 67 87
75 91 115
59 75 99
72 90 115
73 89 112
67 84 108
59 76 100
67 84 109
58 72 92
76 97 128
63 79 102
67 84 108
72 90 116
86 103 128
65 79 100
74 93 121
79 98 128
80 96 121
59 74 97
65 84 112
67 81 103
69 89 118
74 93 121
68 85 112
67 82 105
81 97 121
77 95 121
72 91 118
78 95 121
65 83 112
66 79 99
80 99 128
72 89 116
73 88 112
66 83 108
68 84 108
62 76 96
73 91 118
77 92 116
72 91 121
71 90 118
81 99 128
74 93 121
62 79 104
63 80 106
68 84 108
74 93 121
74 90 115
79 98 128
71 91 121
67 80 99
79 99 128
68 84 108
66 83 108
80 95 118
76 94 121
72 90 116
80 99 128
77 97 128
81 100 128
68 84 108
80 99 128
74 92 118
58 72 94
67 84 108
68 84 108
75 94 121
73 88 112
73 90 116
77 97 128
72 87 109
74 90 116
75 92 118
77 94 121
79 98 128
73 91 118
82 100 128
79 99 128
79 95 118
79 96 121
82 100 128
75 94 121
80 99 128
72 90 118
84 101 128
79 98 128
72 90 118
72 92 121
64 78 99
79 99 128
70 89 118
75 92 118
76 97 128
61 79 106
76 97 128
76 97 128
69 88 118
73 92 121
78 98 128
77 97 128
74 93 121
64 79 102
79 98 128
73 92 121
76 97 128
82 100 128
62 76 97
75 93 121
75 94 121
79 98 128
72 91 121
79 99 128
83 101 128
60 76 99
74 91 118
76 94 121
76 97 128
67 84 108
72 91 118
72 90 118
81 100 128
76 97 128
81 100 128
76 94 121
78 98 128
82 100 128
74 90 116
73 91 118
84 101 128
82 100 128
80 99 128
69 85 110
80 99 128
76 97 128
66 82 106
79 99 128
77 97 128
84 102 128
77 93 118
79 98 128
65 84 112
86 103 128
75 92 118
79 98 128
63 77 99
66 83 109
73 89 112
73 92 121
78 98 128
73 91 118
69 89 118
75 92 118
69 86 112
75 92 118
67 83 106
74 93 121
82 100 128
78 94 118
65 78 99
65 82 109
74 92 118
76 94 121
74 93 121
79 98 128
68 84 109
70 89 118
78 94 118
73 91 118
73 92 121
76 90 112
61 80 107
77 95 121
84 101 128
75 92 118
64 78 99
66 80 100
62 81 109
66 84 112
80 99 128
67 80 100
68 84 108
72 88 112
68 84 108
67 84 108
80 99 128
73 90 116
58 73 96
74 91 118
88 104 128
77 97 128
72 92 121
72 88 112
58 70 89
61 76 99
68 84 108
75 91 115
73 88 112
78 94 118
72 89 115
56 71 93
78 94 118
67 83 108
61 75 96
53 68 89
70 88 115
62 78 102
70 88 115
78 93 115
80 96 121
66 80 102
71 90 118
76 93 118
64 83 112
77 97 128
69 83 105
66 81 103
69 85 108
58 72 92
74 93 121
62 77 100
72 88 112
72 89 116
71 87 112
74 91 116
62 77 99
71 88 115
77 94 118
80 96 121
65 80 102
64 77 97
67 81 102
65 79 99
76 93 118
63 77 99
64 79 102
78 94 118
67 82 105
45 54 67
55 68 87
53 65 84
64 78 99
43 53 67
54 68 89
71 87 112
63 79 102
65 81 106
61 74 92
55 69 89
67 81 103
66 84 112
56 67 84
50 62 80
78 95 121
67 80 99
67 83 108
55 68 87
49 62 80
55 69 89
54 68 90
66 82 105
70 84 105
75 92 118
53 64 80
64 81 106
42 53 69
48 59 75
59 73 94
63 81 108
63 76 96
63 77 99
64 77 96
60 76 100
42 52 66
60 72 89
63 78 99
67 79 99
58 70 89
49 58 72
60 75 97
45 57 74
56 68 87
55 67 86
55 67 86
52 67 90
62 74 92
53 64 81
47 58 75
60 73 93
53 66 87
40 49 62
55 66 84
52 63 80
46 57 74
44 54 70
77 93 118
67 84 109
56 69 88
55 67 85
56 68 87
56 67 83
53 65 82
49 60 77
66 80 100
44 54 68
48 57 70
49 59 73
57 68 84
71 86 108
67 79 97
38 47 60
68 83 106
57 68 86
50 61 78
61 76 99
50 59 72
45 55 68
54 63 77
29 38 50
60 72 90
65 79 100
42 50 62
58 71 89
51 62 78
62 74 92
53 64 81
69 85 108
50 60 74
63 76 96
63 78 100
62 76 96
85 102 128
66 79 99
73 88 112
39 47 60
59 74 96
48 59 77
74 89 112
47 56 71
56 68 87
51 62 77
63 77 99
54 66 84
76 93 118
67 82 105
58 69 86
64 82 108
58 70 89
64 77 96
62 74 92
70 84 106
71 87 112
70 85 108
64 80 104
50 62 80
64 76 96
59 74 96
62 76 96
66 79 99
62 77 99
64 77 96
68 81 102
54 65 83
56 71 92
73 87 107
69 84 105
59 74 96
74 92 118
70 87 112
58 72 92
64 78 100
64 79 102
63 78 99
71 91 121
68 85 112
62 76 97
62 79 106
76 94 121
70 88 115
66 82 106
62 79 103
74 89 112
66 83 108
55 69 89
72 85 105
74 88 108
83 101 128
68 85 112
65 78 99
58 71 90
48 58 72
75 92 118
70 85 108
61 73 91
69 88 116
64 77 98
76 93 118
72 89 115
68 87 115
79 99 128
74 92 118
69 86 112
57 72 93
73 91 118
63 77 99
72 88 112
68 86 112
78 94 118
78 95 121
73 89 112
67 83 108
69 85 108
85 102 128
73 90 116
67 86 116
72 89 116
85 102 128
70 85 108
78 95 121
66 83 108
68 85 112
67 84 108
57 71 93
74 92 118
78 98 128
79 98 128
76 93 118
83 101 128
72 91 118
70 85 108
76 93 118
59 75 99
74 93 121
81 100 128
71 89 118
57 71 93
80 97 121
71 87 112
75 96 128
71 87 112
79 98 128
82 98 121
83 101 128
77 97 128
71 87 112
66 84 112
60 75 99
75 91 116
74 91 116
83 101 128
69 86 112
61 76 99
78 98 128
76 94 121
75 91 116
68 84 109
79 94 118
74 95 128
81 100 128
74 88 108
77 94 118
78 98 128
83 101 128
63 80 105
80 99 128
72 91 121
76 97 128
78 94 118
82 100 128
68 84 109
80 99 128
79 96 121
77 93 118
73 91 118
77 94 121
78 95 121
62 76 99
80 99 128
81 99 128
77 97 128
81 100 128
73 90 116
62 75 94
73 91 118
75 92 118
78 95 121
75 92 118
82 100 128
72 90 118
75 93 121
85 102 128
75 93 121
77 95 121
76 97 128
68 86 115
81 99 128
70 88 115
73 92 121
81 99 128
78 98 128
71 90 118
77 97 128
77 97 128
84 101 128
79 98 128
78 94 118
74 92 118
75 92 118
65 83 112
67 86 115
65 82 108
70 89 118
78 95 121
76 94 121
84 101 128
73 95 128
77 95 121
71 84 104
72 92 121
82 100 128
73 91 118
80 99 128
79 96 121
72 91 121
79 98 128
69 86 112
79 96 121
68 84 107
74 93 121
72 91 118
73 91 118
72 88 112
74 91 116
73 91 118
70 87 112
68 84 108
75 93 121
75 92 118
75 94 121
73 90 116
78 98 128
59 70 87
70 89 118
75 93 121
74 93 121
76 94 121
72 88 112
74 93 121
81 99 128
83 101 128
71 87 112
80 99 128
76 94 121
84 101 128
82 100 128
58 71 90
79 99 128
75 96 128
76 96 128
60 76 100
69 83 105
86 103 128
81 99 128
65 83 109
79 96 121
79 94 118
72 87 108
77 97 128
74 95 128
59 70 87
74 93 121
77 95 121
63 79 102
71 89 115
69 86 112
73 89 112
70 91 121
78 98 128
70 84 105
65 80 102
74 91 116
73 92 121
72 88 112
77 93 118
80 99 128
65 80 102
78 94 118
81 97 121
58 73 96
78 98 128
76 94 121
72 90 116
75 93 121
64 80 105
80 97 121
67 85 112
60 73 92
79 98 128
74 91 118
79 96 121
66 85 115
71 88 115
80 95 118
72 92 121
74 91 118
83 101 128
73 90 115
74 92 118
67 84 108
58 74 97
61 75 96
69 88 116
69 89 118
73 87 108
60 74 96
69 82 102
84 101 128
68 87 116
79 96 121
75 91 116
69 85 109
73 89 112
73 87 109
68 84 108
80 99 128
76 93 118
51 62 80
68 86 112
55 67 86
79 96 121
78 94 118
64 76 96
64 79 100
62 78 102
74 88 108
72 87 110
67 80 100
81 100 128
56 69 88
72 91 121
77 97 128
46 57 72
70 85 107
75 90 112
75 93 121
53 65 83
64 78 100
55 69 89
51 66 88
66 80 100
56 67 84
51 63 80
56 70 93
74 92 118
56 69 88
67 83 106
51 63 81
53 64 80
57 67 83
67 82 106
66 81 103
65 79 99
49 61 80
67 79 97
71 87 112
66 79 100
50 62 80
71 84 105
73 87 110
45 54 68
71 87 112
59 71 89
44 55 70
62 77 99
80 96 121
68 85 109
68 83 105
71 87 112
50 64 86
36 45 60
51 61 76
62 77 99
51 63 80
64 77 96
68 80 99
59 71 88
66 81 103
51 64 83
54 66 83
53 65 83
58 69 84
64 79 100
56 67 84
60 73 92
48 60 76
55 67 84
51 61 76
60 74 95
80 96 121
46 57 75
57 69 87
47 58 74
58 71 90
47 56 70
56 68 88
35 44 58
41 50 64
44 53 67
40 51 67
57 72 93
66 79 100
30 37 47
70 85 108
54 66 84
72 87 109
71 85 105
50 60 74
45 54 67
56 69 88
54 67 87
56 67 85
43 53 67
52 62 78
67 80 99
41 49 62
46 57 74
43 54 69
45 55 69
49 62 80
69 85 108
63 79 103
51 61 76
60 76 100
59 74 96
60 72 91
66 79 99
57 70 88
50 61 78
44 54 68
61 75 96
67 79 99
62 75 94
55 70 93
57 69 87
57 70 90
75 90 112
71 85 105
55 68 87
61 77 100
58 70 88
83 101 128
44 54 70
49 63 83
50 61 78
71 86 108
52 66 87
37 45 58
62 76 97
66 84 110
68 80 99
72 88 112
69 83 105
61 75 96
55 68 88
46 55 68
81 97 121
59 70 86
66 84 110
67 82 105
74 93 121
58 70 88
69 85 108
73 89 112
73 90 115
87 103 128
77 97 128
66 79 99
49 60 77
64 79 102
58 74 96
63 79 102
70 88 115
66 84 112
53 66 86
58 71 90
70 89 118
74 91 118
62 76 96
62 77 99
63 78 102
42 53 71
46 57 72
65 81 105
56 70 92
68 84 108
71 90 118
65 78 96
68 82 102
60 78 105
55 70 92
76 93 118
68 82 102
70 84 106
73 92 121
73 91 118
79 94 118
76 94 121
73 90 116
63 78 102
74 92 118
62 77 100
58 74 97
78 92 115
59 72 91
69 88 118
80 95 118
72 91 118
71 89 116
69 83 104
72 90 118
61 77 102
70 85 108
80 96 121
65 81 105
63 79 102
74 92 118
69 85 108
82 100 128
76 92 115
67 84 108
67 84 108
56 72 97
56 71 92
76 93 118
73 91 118
59 76 102
72 89 115
59 75 99
70 86 112
80 95 118
56 72 96
73 91 118
67 85 112
70 88 115
69 85 108
77 95 121
60 76 100
76 97 128
58 72 93
69 86 112
81 97 121
77 93 118
78 98 128
79 99 128
72 87 108
62 79 105
82 100 128
63 81 108
62 78 102
69 83 105
78 94 118
71 86 108
66 82 105
73 91 118
76 94 121
77 95 121
78 98 128
79 95 118
74 91 116
79 96 121
73 89 112
72 90 118
65 81 105
73 95 128
81 100 128
72 90 118
75 92 118
71 89 116
79 98 128
80 99 128
79 98 128
70 89 118
76 97 128
71 90 118
83 101 128
70 85 108
78 98 128
64 82 108
73 92 121
79 98 128
68 85 112
78 98 128
73 91 118
69 87 115
74 92 118
76 93 118
68 84 108
70 89 118
68 82 102
75 96 128
73 91 118
78 95 121
70 87 112
75 92 118
69 89 118
76 97 128
81 100 128
80 99 128
74 93 121
74 93 121
72 90 118
69 89 118
82 100 128
76 97 128
70 86 108
77 97 128
75 92 118
80 99 128
78 98 128
66 82 106
85 102 128
71 87 112
68 84 108
72 88 112
66 83 108
70 89 118
75 96 128
83 101 128
72 90 118
78 98 128
72 87 108
64 81 105
81 99 128
75 94 121
69 89 118
80 99 128
71 90 118
79 99 128
75 92 118
74 95 128
82 100 128
73 93 121
69 86 112
76 97 128
72 90 118
79 96 121
71 89 115
71 94 128
49 60 77
77 97 128
74 96 128
63 82 109
68 81 102
77 95 121
68 83 105
71 89 116
69 85 108
79 98 128
77 97 128
63 76 96
71 90 118
80 99 128
76 94 121
74 91 116
72 90 118
58 73 96
79 95 118
79 98 128
73 88 112
65 81 106
65 83 108
79 98 128
66 83 109
83 101 128
82 100 128
71 89 118
63 82 110
64 78 100
71 86 108
67 84 108
62 79 105
62 76 96
78 98 128
55 67 86
70 87 112
71 89 116
64 79 102
72 90 118
70 87 112
63 81 108
66 83 109
64 82 108
62 74 92
69 86 112
73 88 112
61 74 93
73 91 118
77 97 128
75 92 118
63 79 102
57 73 96
69 88 116
74 92 118
46 57 74
61 76 99
71 86 108
69 89 118
80 99 128
67 85 112
71 90 118
64 79 103
70 84 106
64 80 105
75 91 116
75 96 128
82 100 128
77 93 118
73 91 118
67 81 102
76 94 121
72 91 118
75 94 121
70 86 112
65 81 105
66 81 105
64 79 102
58 72 92
71 89 116
60 74 96
64 77 97
72 90 118
57 70 90
61 74 93
71 86 108
76 93 118
69 84 105
58 70 89
57 70 90
67 81 102
68 80 99
75 92 118
78 94 118
64 78 99
82 100 128
62 75 96
77 92 115
71 87 112
70 84 106
74 87 108
70 83 102
56 68 86
69 85 108
67 81 102
81 99 128
52 64 83
72 89 116
73 90 115
77 93 118
59 72 93
71 89 116
74 88 108
47 59 76
51 63 80
56 68 86
69 86 112
59 72 92
45 55 71
58 72 93
55 68 87
52 62 78
74 89 112
59 71 90
47 59 76
55 67 86
50 62 80
49 60 78
70 85 108
55 68 88
49 60 76
62 76 96
48 59 77
67 81 102
69 84 105
47 58 75
56 69 89
47 58 73
62 79 105
73 91 118
54 67 86
54 66 85
69 83 105
67 84 108
39 48 61
72 90 118
48 59 76
39 47 59
58 69 86
65 77 96
48 60 78
50 61 76
56 70 90
57 68 86
56 71 92
55 65 80
79 94 116
63 78 99
67 82 105
56 68 87
64 78 99
72 87 110
45 54 68
51 63 80
59 70 87
52 65 83
61 77 100
58 70 89
56 68 87
78 93 115
44 55 70
66 81 105
65 81 105
69 84 107
69 85 108
78 93 116
61 74 92
61 77 100
71 86 108
52 63 80
77 93 118
65 78 98
60 73 93
62 75 96
55 68 86
63 76 96
85 102 128
72 89 115
41 49 61
48 58 73
60 73 94
52 65 85
58 74 99
69 84 106
81 97 121
53 68 89
74 90 115
63 74 92
59 71 89
62 74 93
61 73 92
68 86 112
70 87 112
51 62 80
76 91 115
82 100 128
70 88 116
60 76 100
88 104 128
60 72 90
53 65 83
63 76 96
63 74 90
62 75 96
49 61 80
54 70 95
53 65 84
46 56 72
66 78 97
60 72 90
61 76 99
44 57 76
75 92 118
70 85 107
57 71 92
61 76 99
74 88 108
57 68 86
67 84 109
64 76 94
64 75 93
70 87 112
53 65 84
82 97 121
58 73 96
75 96 128
70 84 106
62 78 102
59 73 95
62 77 100
71 86 108
64 81 105
73 93 121
84 101 128
53 64 81
82 100 128
76 92 116
68 82 102
66 87 118
46 57 74
79 98 128
59 74 97
76 92 116
75 92 118
68 84 108
82 98 121
64 81 105
76 96 128
71 86 108
69 82 103
69 86 112
66 79 100
74 91 118
74 95 128
69 86 112
69 85 108
67 84 108
72 90 118
83 101 128
60 75 99
81 100 128
57 73 96
63 80 105
67 83 108
64 80 104
69 86 112
76 96 128
68 84 108
69 89 118
81 100 128
68 82 102
70 84 105
66 81 105
66 82 105
77 94 121
70 88 115
60 77 102
66 84 112
81 100 128
64 82 110
60 77 102
70 88 115
68 84 107
76 93 118
75 92 118
79 96 121
75 89 110
71 90 118
74 91 118
70 87 112
75 91 115
77 94 121
76 96 128
78 95 121
79 96 121
70 87 112
68 84 108
69 87 115
79 99 128
72 90 118
75 91 115
70 88 115
80 99 128
75 93 121
81 99 128
78 96 121
80 99 128
64 77 96
78 95 121
74 92 118
73 90 115
70 88 115
72 91 121
78 95 121
66 82 107
78 95 121
77 97 128
83 101 128
81 99 128
73 91 118
78 98 128
75 92 118
67 86 115
71 90 118
82 100 128
70 91 121
81 100 128
81 99 128
69 88 115
71 88 115
82 100 128
60 76 100
72 91 118
73 92 121
66 83 108
64 82 108
67 84 109
78 98 128
80 99 128
85 102 128
72 89 115
73 95 128
63 83 112
78 98 128
68 85 112
73 90 116
68 83 105
72 90 118
78 98 128
81 99 128
78 98 128
76 97 128
83 101 128
81 100 128
78 98 128
62 81 108
77 97 128
75 96 128
70 89 118
72 90 118
77 93 118
77 95 121
71 90 118
78 98 128
77 95 121
73 92 121
77 94 121
76 96 128
79 98 128
68 84 108
71 90 118
75 89 112
64 81 106
78 98 128
80 99 128
64 81 105
68 87 115
68 86 115
85 102 128
70 85 108
72 88 112
66 83 108
75 92 118
80 99 128
81 97 121
66 81 105
72 91 118
79 98 128
68 83 105
73 91 118
71 91 121
63 80 106
79 98 128
80 99 128
66 80 102
76 93 118
72 92 121
74 95 128
75 93 121
79 98 128
59 73 94
77 91 112
68 85 112
81 97 121
60 77 102
67 83 107
62 77 100
70 88 115
70 86 112
70 88 116
70 87 112
82 100 128
67 83 108
58 71 89
77 93 118
78 94 118
73 91 118
71 89 116
67 85 112
65 81 105
73 88 112
79 98 128
72 89 115
72 94 128
76 94 121
60 76 99
77 97 128
77 97 128
76 93 118
70 87 112
77 97 128
81 97 121
75 92 118
76 94 121
66 87 118
74 91 118
59 73 93
56 69 89
59 73 94
70 87 112
67 82 105
63 80 106
73 90 115
75 90 112
55 71 96
75 96 128
69 86 112
62 77 99
51 64 83
53 67 87
68 84 108
58 71 92
69 86 112
81 100 128
55 68 88
67 85 112
73 87 108
74 90 115
67 83 107
62 76 96
74 93 121
67 82 105
75 92 118
75 91 115
62 77 99
56 68 87
55 68 87
70 85 108
67 82 105
57 73 96
59 73 96
72 90 118
77 93 118
80 96 121
72 90 118
70 84 106
61 75 96
64 78 100
77 93 116
62 77 99
74 92 118
57 70 89
77 92 115
81 100 128
59 74 96
74 92 118
65 80 102
70 91 121
74 92 118
78 94 118
79 96 121
44 54 70
61 74 95
77 91 112
69 82 102
74 88 108
54 66 84
49 62 82
58 73 94
60 78 105
69 85 109
48 60 78
57 70 91
68 83 105
75 92 116
40 49 64
64 78 99
52 62 78
47 61 80
72 89 115
52 65 84
61 73 92
53 67 88
65 79 100
70 85 109
60 75 97
56 69 90
54 67 88
54 63 78
52 63 80
61 74 94
65 81 105
62 77 99
66 82 106
66 82 106
66 79 99
54 68 89
61 73 91
67 81 102
68 83 105
54 67 86
64 78 100
66 80 100
61 75 96
41 51 65
56 65 79
55 65 80
61 74 93
34 43 56
44 53 67
55 68 87
52 62 76
72 85 106
42 52 66
63 77 99
32 38 48
79 96 121
46 55 68
50 60 74
46 55 68
74 89 112
56 68 87
56 71 93
63 76 96
68 81 102
54 66 84
56 68 87
71 85 105
47 57 72
57 67 83
56 68 87
62 74 91
56 72 96
67 81 102
60 71 89
45 55 71
60 74 94
81 100 128
67 81 102
68 84 108
50 62 81
53 66 87
64 81 105
54 65 83
65 78 99
46 57 72
76 92 116
50 59 72
79 96 121
65 81 106
46 60 80
59 70 88
69 84 106
61 75 96
68 81 102
76 92 116
62 75 96
58 71 92
56 69 89
55 70 92
78 94 118
66 81 104
55 66 83
65 81 105
57 70 90
72 86 108
73 90 115
57 69 87
61 77 100
71 87 110
65 77 96
66 79 99
76 97 128
53 66 85
72 88 112
63 77 99
71 88 115
76 92 116
52 62 77
74 90 115
49 61 78
84 101 128
61 75 96
72 88 112
64 79 102
57 73 98
67 79 99
51 65 87
60 75 96
71 87 112
70 89 118
64 78 99
69 85 108
59 74 96
73 91 118
72 89 115
74 92 118
61 75 96
67 85 112
66 83 108
61 80 108
67 85 112
78 94 118
56 68 87
78 98 128
65 81 105
67 80 100
78 98 128
81 99 128
79 96 121
66 83 108
62 78 104
62 78 102
78 98 128
79 96 121
64 80 104
70 88 115
72 90 118
75 93 121
82 100 128
66 80 102
60 74 96
74 93 121
75 92 118
74 91 116
66 84 112
66 83 108
61 76 99
74 91 118
66 82 105
66 83 109
77 93 118
84 101 128
45 57 74
66 81 102
77 93 118
74 90 115
64 79 102
73 95 128
67 84 109
64 80 106
77 93 118
71 90 118
81 100 128
68 84 108
76 91 115
59 76 102
75 94 121
68 82 102
70 87 112
70 88 116
79 99 128
70 85 108
80 99 128
70 84 105
71 91 121
64 81 106
66 87 118
59 73 92
72 90 118
68 83 107
65 80 102
53 69 94
65 83 112
75 92 118
63 77 99
78 98 128
75 92 118
69 89 118
72 87 109
81 100 128
67 83 106
68 85 112
63 80 106
70 86 112
77 94 121
82 100 128
58 74 97
70 86 109
66 83 108
78 98 128
79 98 128
71 91 121
69 86 112
64 80 105
79 98 128
74 96 128
78 98 128
59 76 102
74 96 128
66 83 108
71 87 112
83 101 128
66 83 108
81 100 128
71 90 118
73 88 112
72 91 118
68 85 112
62 79 105
65 84 112
70 89 118
74 92 118
71 89 115
82 100 128
69 89 118
80 99 128
63 81 108
74 95 128
78 98 128
80 99 128
65 82 108
76 92 115
77 97 128
75 92 118
72 90 118
79 98 128
78 98 128
74 93 121
76 97 128
78 98 128
70 86 112
65 80 102
85 102 128
82 98 121
62 79 105
81 99 128
79 99 128
80 99 128
76 94 121
75 92 118
73 91 118
79 94 118
67 84 109
80 99 128
68 86 112
82 100 128
78 98 128
76 93 118
84 102 128
62 78 102
85 102 128
74 90 115
73 92 121
73 92 121
82 100 128
80 99 128
73 90 115
75 94 121
79 98 128
58 75 102
78 98 128
70 88 115
63 80 106
78 98 128
75 91 116
74 91 115
83 101 128
77 97 128
79 99 128
67 85 112
70 86 108
76 94 121
76 93 118
67 84 108
84 102 128
80 96 121
68 84 108
70 87 112
72 90 118
69 90 121
77 97 128
69 87 115
83 101 128
68 85 112
74 93 121
73 90 115
68 85 112
78 98 128
83 101 128
69 86 112
77 97 128
67 84 108
80 99 128
79 99 128
70 87 112
81 100 128
58 71 90
74 92 118
60 77 102
81 100 128
74 93 121
76 97 128
60 76 100
62 78 102
68 83 104
50 66 90
73 91 116
75 91 116
79 96 121
65 80 102
64 77 96
69 86 112
63 82 112
75 96 128
85 102 128
73 91 118
66 87 118
76 97 128
66 82 105
71 86 110
76 97 128
57 71 91
59 74 96
60 74 96
78 95 121
69 83 105
82 98 121
82 100 128
56 72 96
76 96 128
76 94 121
70 85 108
66 82 105
79 93 115
69 86 112
61 75 97
71 89 116
66 82 104
63 78 102
62 77 99
82 100 128
71 89 116
67 83 108
76 93 118
70 89 118
59 72 91
68 83 105
67 83 108
69 87 115
68 80 99
62 74 92
68 84 109
64 78 99
71 85 107
76 90 112
68 88 118
73 86 106
57 74 100
73 88 110
67 83 109
50 62 80
75 90 112
47 58 74
71 86 108
80 96 121
69 83 103
67 81 102
78 93 116
71 89 115
52 64 80
63 76 96
65 81 105
79 96 121
64 80 105
64 78 99
79 96 121
56 70 92
68 84 108
71 85 106
57 69 86
65 81 105
61 76 99
47 59 77
71 86 108
54 66 83
58 74 97
56 71 95
70 84 106
59 73 93
68 82 103
66 81 102
44 54 68
62 77 99
66 78 96
45 55 69
84 101 128
72 85 105
59 71 88
73 91 118
76 93 118
52 64 81
71 87 112
64 81 106
75 92 118
78 95 121
60 72 91
73 88 112
64 81 105
42 53 70
55 67 86
45 56 73
62 77 99
60 73 92
47 60 80
51 63 80
62 77 100
53 65 82
65 79 100
52 63 81
65 78 96
58 69 85
60 73 93
50 60 76
58 71 91
72 86 108
57 70 90
58 72 92
64 78 100
61 76 99
70 85 108
49 59 73
49 60 75
66 82 105
63 77 99
62 75 95
65 81 105
58 72 92
68 81 102
61 75 97
61 75 96
80 95 118
51 62 80
49 61 79
55 66 84
60 72 90
77 93 116
59 74 96
67 84 108
53 64 81
62 76 96
51 61 76
69 82 102
49 64 87
63 78 100
53 66 84
67 78 96
61 76 97
62 76 97
76 91 115
64 77 96
68 83 105
66 82 106
55 66 83
61 77 102
66 81 102
52 64 83
57 70 90
55 66 83
51 64 82
60 71 89
49 60 77
55 68 88
77 92 116
81 96 118
43 53 68
73 90 116
68 84 109
64 77 97
67 84 108
70 85 108
65 80 102
71 87 112
56 69 89
63 80 106
53 65 83
67 81 102
65 80 102
49 61 80
75 91 115
59 72 93
55 68 87
59 74 95
55 68 88
62 78 102
64 79 103
67 83 109
70 85 108
72 88 112
75 93 121
83 101 128
73 90 115
77 91 112
75 92 118
61 79 105
51 63 83
65 84 112
54 68 89
71 89 118
88 104 128
78 93 116
58 72 92
80 99 128
80 99 128
69 85 108
60 73 92
76 97 128
60 72 90
73 91 118
70 88 115
54 65 83
75 93 121
65 78 99
80 99 128
67 86 115
66 83 109
74 91 116
80 97 121
70 91 121
72 90 118
78 95 121
74 92 118
58 72 92
56 69 88
61 76 100
67 80 99
62 76 99
85 102 128
71 86 109
72 92 121
71 90 118
73 87 108
71 86 108
70 87 112
76 94 121
73 91 118
72 88 112
70 86 112
66 83 108
70 86 110
85 102 128
72 92 121
67 82 104
65 80 102
55 68 88
77 94 121
65 80 103
66 82 106
70 86 109
73 91 118
69 84 108
77 93 118
77 94 121
80 96 121
65 80 102
70 85 109
75 92 118
68 87 115
76 93 118
68 89 121
77 95 121
65 79 100
67 85 112
72 90 118
69 85 108
74 92 118
59 73 96
78 98 128
73 92 121
79 98 128
82 100 128
86 103 128
77 95 121
71 86 108
71 90 118
61 78 103
72 86 108
80 99 128
68 83 105
66 83 108
76 93 118
84 102 128
53 68 90
73 91 118
73 91 118
69 89 118
65 82 108
78 95 121
55 69 90
72 91 118
83 101 128
75 93 121
80 99 128
70 86 109
83 101 128
79 99 128
73 90 115
70 89 118
74 91 118
76 94 121
66 84 112
82 100 128
81 97 121
77 97 128
83 101 128
73 90 116
74 93 121
70 91 121
72 92 121
76 96 128
74 89 112
83 101 128
83 101 128
84 101 128
75 92 118
79 95 118
82 100 128
79 98 128
73 91 118
81 99 128
69 85 108
84 101 128
64 81 107
74 91 116
70 86 112
65 81 106
67 84 108
75 96 128
83 101 128
68 86 112
61 76 99
75 92 118
82 100 128
72 92 121
82 100 128
66 84 112
72 92 121
75 92 118
73 92 121
82 98 121
72 91 118
83 101 128
75 96 128
72 90 116
66 83 108
75 93 121
75 94 121
61 76 99
76 92 115
75 93 121
78 98 128
76 94 121
79 98 128
69 89 118
67 85 112
73 95 128
74 92 118
78 98 128
78 94 118
70 89 118
74 89 112
80 99 128
71 87 112
72 92 121
60 75 97
75 92 118
75 96 128
79 99 128
70 89 118
77 94 118
79 95 118
74 93 121
82 100 128
73 91 118
70 89 118
72 89 116
60 76 99
79 96 121
74 89 112
83 101 128
76 93 118
77 93 118
78 98 128
76 94 121
73 88 112
77 97 128
68 87 116
76 92 118
61 76 99
77 92 115
73 91 118
83 101 128
78 95 121
66 82 105
62 80 106
76 93 118
60 76 100
76 97 128
79 95 118
68 84 108
72 91 118
79 98 128
67 85 112
77 93 118
72 85 104
70 85 108
70 89 118
75 93 121
68 84 108
68 87 116
85 102 128
65 83 109
66 81 104
61 76 99
64 82 108
57 73 96
62 77 99
71 89 116
53 65 84
65 79 100
64 82 108
76 97 128
82 100 128
80 99 128
70 86 112
56 68 86
67 84 108
81 100 128
72 90 116
59 75 99
68 80 99
68 85 112
55 70 93
68 83 105
75 89 112
69 84 107
67 81 102
59 72 92
63 79 102
66 80 102
81 97 121
57 71 92
64 80 104
66 80 102
61 75 96
66 82 106
56 72 96
67 82 104
69 84 107
77 92 115
59 71 89
79 95 118
59 70 87
63 77 100
73 89 112
80 96 121
72 88 112
74 90 115
41 53 70
55 67 84
58 72 92
56 69 89
69 85 109
50 64 84
48 58 73
66 80 102
39 49 64
48 61 80
62 77 100
58 73 96
50 63 81
63 80 106
65 80 102
64 81 106
60 74 94
63 76 96
49 61 77
63 76 96
69 86 112
53 65 83
48 59 76
56 71 93
54 67 86
49 60 76
55 69 90
65 81 106
51 61 77
52 62 78
52 65 84
71 85 105
75 92 118
62 74 93
60 72 92
57 68 86
77 92 115
61 75 96
73 87 109
55 68 88
61 75 96
61 75 97
74 89 112
53 65 84
51 62 79
58 75 100
53 65 84
53 64 79
50 60 76
68 83 105
63 75 92
71 86 108
57 68 83
53 66 85
44 55 72
59 73 93
56 69 87
51 60 74
62 77 99
51 63 81
69 85 108
57 69 88
53 67 88
50 62 80
72 88 112
51 63 80
52 63 80
67 82 105
77 91 112
62 74 92
67 82 106
67 79 96
48 59 76
60 73 93
51 62 79
78 94 118
52 63 80
56 67 84
43 54 71
47 57 74
48 59 75
59 74 96
61 73 92
64 78 99
76 93 118
66 81 103
69 86 112
70 83 103
53 66 87
76 92 116
83 101 128
64 76 92
75 93 121
65 80 102
57 68 85
65 83 108
65 81 105
48 58 73
45 55 70
75 91 115
65 80 102
61 74 92
62 76 98
65 80 102
57 67 84
53 66 85
57 71 92
54 65 83
54 67 88
68 84 108
69 84 107
81 96 118
57 70 89
68 84 109
72 92 121
81 100 128
64 79 102
62 74 92
65 78 99
60 76 99
53 65 83
65 82 107
71 86 108
73 88 112
76 92 116
61 76 99
46 59 77
60 75 99
59 72 90
65 80 104
55 65 80
69 85 110
71 90 118
77 92 115
63 76 96
65 81 105
67 78 96
52 62 78
75 91 115
53 63 79
52 64 80
78 95 121
66 80 103
46 57 74
65 81 105
56 68 86
48 62 83
66 80 100
71 86 108
78 93 116
70 88 115
70 86 109
65 78 99
73 88 112
60 74 96
64 80 104
77 93 118
52 65 84
75 92 118
73 91 118
67 84 109
78 98 128
77 97 128
78 95 121
77 97 128
65 82 107
63 78 102
72 90 116
73 91 118
81 99 128
78 98 128
73 88 112
79 94 115
74 92 118
63 80 106
66 82 107
68 86 112
72 92 121
82 100 128
68 85 112
61 76 99
72 92 121
60 75 97
73 88 112
76 97 128
74 91 116
74 91 115
76 93 118
66 83 109
73 91 118
73 92 121
62 81 108
83 101 128
78 95 121
67 84 109
68 82 102
59 74 96
65 81 105
72 88 112
71 87 112
72 90 118
77 95 121
78 94 118
78 98 128
77 97 128
64 80 105
75 92 118
71 88 115
66 81 102
52 67 89
84 101 128
62 78 102
70 88 116
59 74 97
72 90 118
66 82 106
69 86 112
71 90 118
75 93 121
81 100 128
77 97 128
63 75 94
83 101 128
83 101 128
68 87 115
80 99 128
80 99 128
85 102 128
65 81 105
80 99 128
70 88 115
76 93 118
73 91 118
67 85 112
75 93 121
82 100 128
79 94 118
76 94 121
82 100 128
72 90 118
70 85 108
75 92 118
64 80 105
69 88 118
79 96 121
78 98 128
76 97 128
76 93 118
69 86 112
73 91 118
74 93 121
73 89 112
72 91 118
78 98 128
78 94 118
63 80 106
80 99 128
78 98 128
68 88 118
78 98 128
64 86 118
68 84 108
78 98 128
79 98 128
71 91 121
80 97 121
73 91 118
72 90 118
75 96 128
76 93 118
82 100 128
79 98 128
78 95 121
78 98 128
60 74 96
65 81 105
83 101 128
66 84 112
75 91 115
80 99 128
74 92 118
75 93 121
77 97 128
65 83 108
64 82 108
77 95 121
56 68 87
65 84 112
73 90 116
64 82 108
63 78 99
81 99 128
71 87 110
65 84 112
75 96 128
80 99 128
73 91 118
78 96 121
65 83 108
76 94 121
76 94 121
70 86 112
70 88 115
67 86 115
77 95 121
76 93 118
61 76 97
67 86 115
67 83 108
77 93 118
76 97 128
50 65 87
67 83 107
71 86 110
74 91 116
77 97 128
76 94 121
71 86 108
74 93 121
71 90 118
80 97 121
76 97 128
63 81 108
72 90 116
66 83 108
71 87 112
83 101 128
82 97 121
63 77 97
66 83 108
73 87 108
64 82 108
76 96 128
75 92 118
64 79 102
81 100 128
66 78 96
71 87 110
74 92 118
71 86 108
65 81 105
73 92 121
75 93 121
73 88 112
69 88 118
72 91 121
65 83 112
55 69 89
75 96 128
73 91 118
64 80 105
69 88 116
81 100 128
66 82 106
77 94 121
71 86 108
80 99 128
60 78 106
81 100 128
45 56 74
65 84 112
74 92 118
75 96 128
70 86 112
75 91 115
68 87 115
78 98 128
68 86 112
48 60 78
69 88 116
68 88 118
65 78 99
76 94 121
76 94 121
68 83 106
80 99 128
54 67 86
66 83 108
69 88 118
52 64 84
65 84 112
69 85 108
82 100 128
66 82 105
67 83 106
65 82 108
69 89 118
53 67 88
63 75 92
69 85 108
72 91 121
83 101 128
63 76 96
51 64 83
56 69 89
62 77 99
70 84 106
39 50 67
74 89 112
60 75 99
69 84 107
64 79 100
60 74 96
63 76 96
55 66 82
60 73 92
46 56 72
47 59 77
71 87 112
81 100 128
48 60 77
62 75 94
48 58 74
63 78 100
72 88 112
79 94 118
38 46 59
54 67 86
62 73 91
71 86 109
55 67 84
79 94 116
58 73 96
67 78 96
43 54 71
67 82 105
59 74 97
53 66 86
59 71 90
54 63 77
63 77 99
50 61 78
51 66 88
77 91 112
65 81 105
62 76 96
49 60 77
66 78 96
71 84 105
55 69 90
63 75 93
52 67 89
64 79 102
65 79 99
64 77 97
71 89 116
75 92 118
57 70 90
67 81 103
73 86 106
34 42 53
61 74 93
49 61 78
83 101 128
75 90 112
81 97 121
49 59 73
51 62 78
50 63 81
51 61 76
60 72 91
65 80 103
53 63 80
63 80 106
58 71 89
55 68 86
64 78 98
63 79 102
65 82 107
61 75 97
46 59 78
67 80 100
55 68 88
62 73 90
63 77 99
54 66 83
48 59 76
53 65 83
57 74 99
58 72 93
77 95 121
50 61 77
81 99 128
65 80 103
58 75 100
63 77 97
62 75 94
50 62 80
63 74 90
55 65 81
50 60 75
77 93 118
42 50 62
44 56 73
68 84 108
65 81 106
52 63 80
56 69 90
64 79 100
70 86 109
63 76 94
71 87 112
79 96 121
48 60 79
46 56 70
71 86 108
85 102 128
60 73 92
63 76 96
53 64 80
67 84 108
40 48 61
67 84 108
69 83 105
68 82 103
61 74 92
65 82 108
76 94 121
70 84 105
66 82 106
50 62 80
75 96 128
60 76 99
50 61 76
65 80 104
60 73 94
59 72 92
79 99 128
71 89 116
74 91 118
79 96 121
55 71 96
65 79 102
73 91 118
59 73 93
69 82 102
57 71 92
51 60 74
80 96 121
69 85 109
56 72 96
63 79 102
78 95 121
75 96 128
61 75 96
52 63 81
73 92 121
78 95 121
63 78 102
71 87 112
53 66 86
74 91 118
58 71 91
66 82 106
67 84 108
68 84 108
67 87 118
71 87 112
70 86 109
58 74 99
56 69 89
69 83 104
64 81 107
74 93 121
64 78 99
62 76 96
63 79 103
61 76 99
52 64 82
64 81 105
82 100 128
81 100 128
65 81 105
62 76 96
67 82 105
59 73 94
85 102 128
65 82 108
66 82 105
79 99 128
71 89 118
88 104 128
67 84 108
73 92 121
69 85 108
72 91 118
60 78 106
82 100 128
60 77 102
66 84 112
67 84 109
77 97 128
77 93 118
71 87 112
69 89 118
64 79 102
74 91 118
78 95 121
68 88 118
65 82 108
79 96 121
78 98 128
78 95 121
67 86 115
74 88 108
74 92 118
81 100 128
67 84 108
71 86 108
75 96 128
56 72 96
71 91 121
75 93 121
73 92 121
64 81 107
71 90 118
65 80 102
82 100 128
67 83 106
63 80 105
74 92 118
58 72 92
77 93 118
69 86 112
79 95 118
62 81 108
72 88 112
79 98 128
61 76 99
65 81 105
71 89 116
53 69 93
78 98 128
67 82 105
68 85 112
70 89 118
68 84 108
75 94 121
70 88 115
79 98 128
74 93 121
69 86 112
69 86 112
81 99 128
74 89 112
75 96 128
65 83 109
80 99 128
76 94 121
76 93 118
74 93 121
61 76 99
80 99 128
81 100 128
75 96 128
83 101 128
78 94 118
85 102 128
82 100 128
80 99 128
83 101 128
78 98 128
80 99 128
79 94 118
73 90 116
79 98 128
70 89 118
80 99 128
70 89 118
67 82 106
78 94 118
58 74 97
67 85 112
69 84 107
85 102 128
74 95 128
71 87 112
68 83 106
74 93 121
71 90 118
70 89 118
73 91 118
72 89 115
82 100 128
72 90 118
72 89 115
75 92 118
70 86 110
78 98 128
67 84 109
85 102 128
57 70 89
75 91 116
72 89 115
77 95 121
83 101 128
65 81 105
81 97 121
70 88 115
70 91 121
64 81 105
71 89 115
69 85 108
80 99 128
74 96 128
70 89 118
73 92 121
68 84 108
82 100 128
59 77 104
76 94 121
69 81 100
71 89 116
65 81 105
76 93 118
69 86 112
57 73 96
79 96 121
62 80 107
70 86 108
68 85 112
71 91 121
63 80 106
76 93 118
72 90 118
78 98 128
67 84 108
66 79 99
72 92 121
75 92 118
63 80 106
77 94 121
74 92 118
74 92 118
74 92 118
77 92 115
68 84 108
68 84 108
74 91 118
67 81 102
74 89 112
66 83 108
69 83 103
66 80 102
77 93 118
71 86 108
63 80 106
66 81 102
74 88 108
57 73 96
76 96 128
67 83 106
64 79 102
65 86 118
67 85 112
60 74 96
67 86 115
59 73 92
80 99 128
72 85 105
55 66 83
72 87 108
75 92 118
49 62 83
83 101 128
68 88 118
65 80 103
78 98 128
75 92 118
63 80 106
73 91 116
70 87 112
81 100 128
67 83 106
69 84 106
50 61 77
68 83 106
72 91 118
81 97 121
72 89 116
66 78 96
69 87 115
50 63 83
58 70 88
68 83 107
66 79 99
62 78 102
79 93 115
59 71 89
68 82 103
68 83 106
63 76 96
63 77 99
60 72 89
61 72 90
65 79 100
66 83 108
62 78 104
74 92 118
59 72 92
60 75 97
74 89 112
79 93 115
54 69 91
66 82 106
69 83 104
53 66 84
65 78 99
58 70 88
54 66 84
70 87 112
61 75 96
57 71 93
59 73 94
54 66 85
53 65 83
59 74 96
65 80 102
65 78 99
63 78 102
63 76 96
59 72 93
67 80 100
62 75 96
50 61 79
61 73 91
56 70 93
74 91 116
60 76 99
62 73 91
60 74 96
63 75 94
68 84 108
52 63 80
80 99 128
63 76 96
60 72 89
62 76 96
62 76 97
73 90 115
39 47 59
49 61 80
49 61 80
64 78 99
55 67 85
58 71 92
61 74 93
57 70 90
37 46 59
44 55 72
53 66 85
55 65 80
53 63 80
47 60 81
49 59 73
65 80 104
66 79 99
54 65 83
66 80 100
59 72 90
66 80 100
45 57 75
58 72 92
56 68 86
77 92 115
53 67 87
67 80 100
66 80 100
57 70 89
49 61 80
64 78 99
55 67 86
66 80 102
62 73 89
53 64 80
57 69 88
70 88 116
54 67 86
65 79 99
56 66 80
60 73 93
74 89 112
70 85 108
75 92 118
75 91 115
77 95 121
49 60 78
53 66 86
77 93 118
61 74 94
55 66 84
49 59 75
48 60 76
59 72 90
60 73 91
66 82 106
62 76 98
62 78 102
50 62 80
64 79 102
59 73 94
53 64 80
63 77 99
63 79 102
58 71 90
51 62 78
77 95 121
81 100 128
57 67 83
68 84 108
67 82 104
67 82 106
69 85 108
77 93 118
80 96 121
70 89 118
57 68 84
61 75 96
74 92 118
77 93 118
68 85 112
45 56 73
67 84 108
62 78 102
73 88 112
75 94 121
70 85 108
75 91 116
72 88 112
72 90 118
68 83 106
65 82 106
65 83 108
73 91 118
68 83 106
73 87 109
74 91 116
69 86 112
73 88 112
66 83 108
72 89 115
66 83 109
81 99 128
76 97 128
72 85 105
51 67 90
66 83 108
59 72 91
66 80 102
55 68 88
56 70 91
57 70 90
47 60 78
67 86 115
71 86 108
70 86 110
59 74 96
63 76 96
73 91 118
77 93 118
76 96 128
51 61 77
74 93 121
68 85 112
57 72 96
65 78 99
81 99 128
78 95 121
77 97 128
68 83 105
78 94 118
72 88 112
67 85 112
63 76 97
60 75 99
78 98 128
64 80 105
74 96 128
58 73 95
73 88 110
64 79 102
58 70 89
56 72 96
67 82 105
83 101 128
77 94 121
77 92 116
71 90 118
72 91 118
77 94 118
65 79 100
88 104 128
62 77 99
67 83 107
78 93 116
79 99 128
71 88 115
74 91 116
74 93 121
74 91 118
76 96 128
71 87 112
72 89 115
75 96 128
75 93 121
76 93 118
80 96 121
73 91 118
69 84 108
43 57 77
71 90 118
71 91 121
81 100 128
75 96 128
65 81 106
77 95 121
80 96 121
63 80 106
64 78 99
59 72 93
79 95 118
76 94 121
76 94 121
71 87 112
70 86 112
73 95 128
70 86 112
76 96 128
60 77 102
72 90 118
77 95 121
72 90 118
77 97 128
65 82 108
73 90 115
79 99 128
83 101 128
82 100 128
79 99 128
70 88 116
65 83 109
78 98 128
82 100 128
78 95 121
87 103 128
79 99 128
77 94 121
81 99 128
67 83 108
81 99 128
74 93 121
79 99 128
79 98 128
77 97 128
79 99 128
67 85 112
78 98 128
60 76 99
71 86 109
72 90 118
83 101 128
62 81 109
77 92 115
74 93 121
81 97 121
79 98 128
84 102 128
71 89 115
81 100 128
62 76 96
71 87 112
71 91 121
82 98 121
70 89 118
63 78 102
64 82 109
80 99 128
73 95 128
68 84 108
73 92 121
71 90 118
69 89 118
83 101 128
74 92 118
78 98 128
71 86 109
79 98 128
71 88 115
71 89 116
78 98 128
74 93 121
75 94 121
72 90 118
79 99 128
73 90 116
77 97 128
69 87 115
73 92 121
67 84 108
83 101 128
83 101 128
77 97 128
76 93 118
64 78 99
63 80 106
70 84 106
64 82 108
69 88 118
80 99 128
64 80 105
73 88 112
66 86 115
73 95 128
75 96 128
67 84 108
74 89 112
75 93 121
68 84 108
63 79 103
73 91 118
72 90 118
55 67 84
57 70 89
79 98 128
72 88 112
75 96 128
63 81 107
77 95 121
71 86 108
79 95 118
60 73 92
77 97 128
57 72 96
70 86 108
70 85 109
57 71 92
66 82 106
64 82 108
61 76 100
66 82 106
76 97 128
77 93 118
51 64 83
68 84 108
63 76 96
68 83 104
75 91 116
56 68 87
55 68 88
69 85 109
64 77 97
73 88 112
74 93 121
79 96 121
75 96 128
64 81 106
81 96 118
77 93 118
74 91 118
70 89 118
67 85 112
78 95 121
61 76 99
65 82 108
64 82 109
82 97 121
71 89 115
70 88 115
68 83 105
66 83 108
64 81 105
70 87 112
72 90 118
61 78 102
56 70 90
77 92 115
77 93 118
57 71 93
69 88 116
84 102 128
73 91 118
66 82 105
72 90 118
76 94 121
66 83 108
82 100 128
77 93 118
52 69 93
58 71 91
60 76 99
54 66 84
64 78 100
52 65 84
56 71 92
62 76 96
61 77 100
63 77 100
63 76 97
72 88 112
57 69 87
46 57 75
77 94 118
73 89 112
66 84 112
73 90 116
70 85 108
73 88 112
65 80 103
76 93 118
55 68 88
70 81 99
65 80 102
68 84 108
50 62 80
53 66 85
73 86 107
56 68 87
48 58 75
65 82 108
71 89 115
62 75 93
59 70 88
62 75 96
78 94 118
52 63 80
75 92 118
60 73 93
74 89 112
56 70 92
64 79 102
67 82 105
47 57 73
59 72 92
62 76 96
52 65 84
62 78 102
66 79 100
65 80 103
68 83 105
47 56 70
51 62 80
60 72 89
67 83 108
57 69 86
75 92 116
71 90 118
65 80 102
80 95 118
70 89 118
56 69 88
55 70 94
58 68 83
66 79 99
44 53 68
71 89 115
53 66 84
47 58 75
68 84 107
57 68 84
61 72 89
58 71 90
62 77 99
75 90 112
66 82 105
64 77 97
69 85 109
63 79 104
59 71 91
64 77 96
63 76 96
58 69 86
61 72 88
61 75 97
66 80 102
63 74 90
75 91 115
47 59 77
68 85 112
47 58 74
68 84 108
66 82 105
57 68 86
68 84 107
71 88 115
60 73 93
59 69 84
66 82 105
49 59 75
46 56 71
68 83 105
52 63 80
65 82 108
75 91 116
51 65 84
60 75 99
55 68 88
72 87 109
70 83 104
72 86 108
64 79 102
59 72 92
73 90 115
67 82 106
71 87 112
63 75 95
63 77 99
66 79 98
63 76 96
79 98 128
65 78 99
67 83 106
62 77 100
71 87 112
70 85 108
54 69 90
65 77 96
68 81 102
73 91 118
73 90 116
64 79 102
67 82 106
37 45 58
58 72 93
76 90 112
75 94 121
84 101 128
74 89 112
55 68 87
54 66 84
68 80 100
80 96 121
79 94 118
69 86 112
76 93 118
77 90 110
60 76 100
59 75 100
68 84 108
73 89 115
59 73 93
54 69 92
67 84 109
59 78 107
74 91 118
54 68 90
64 82 108
55 70 92
69 85 108
76 94 121
52 65 85
64 79 102
66 82 105
75 94 121
75 93 121
70 86 112
71 87 112
66 83 109
77 97 128
74 91 118
78 93 115
62 79 105
70 85 108
83 101 128
77 97 128
75 94 121
80 99 128
72 90 116
70 87 112
77 93 118
76 96 128
60 75 96
82 100 128
62 77 100
80 99 128
72 92 121
62 78 102
71 89 116
79 96 121
62 77 99
68 84 107
75 93 121
78 95 121
64 80 105
80 99 128
74 89 112
80 96 121
79 93 115
79 99 128
67 84 110
73 93 121
72 90 118
71 91 121
70 85 108
80 99 128
73 89 112
79 98 128
75 94 121
72 91 118
68 87 115
79 99 128
76 97 128
80 99 128
73 95 128
71 87 112
68 83 106
71 90 118
80 99 128
68 83 105
65 80 102
69 86 112
77 92 116
82 100 128
73 91 118
74 93 121
79 96 121
71 89 115
73 95 128
66 84 112
80 99 128
80 99 128
64 83 112
58 74 97
64 79 102
82 100 128
83 98 121
83 101 128
76 94 121
72 91 121
76 94 121
74 91 118
77 95 121
82 100 128
73 95 128
65 82 108
78 98 128
74 90 116
73 92 121
65 82 106
83 101 128
72 90 118
84 101 128
69 87 115
74 93 121
70 91 121
70 86 110
79 98 128
79 98 128
65 82 108
75 92 118
66 84 109
73 91 118
72 88 112
79 98 128
71 94 128
76 97 128
77 97 128
87 103 128
72 92 121
75 92 118
80 96 121
76 93 118
72 86 108
77 97 128
78 95 121
76 92 118
81 100 128
76 94 121
76 93 118
79 98 128
76 94 121
77 97 128
78 98 128
72 90 118
78 94 118
80 99 128
82 100 128
79 98 128
78 98 128
72 89 115
74 92 118
70 85 108
76 93 118
80 99 128
62 75 96
76 93 118
78 98 128
75 93 121
76 93 118
86 103 128
90 105 128
82 100 128
83 101 128
78 95 121
75 96 128
75 93 121
79 96 121
79 99 128
82 100 128
73 91 118
78 98 128
56 70 92
80 99 128
74 93 121
72 89 116
75 93 121
79 98 128
74 90 115
69 86 110
72 90 118
78 98 128
69 88 118
75 93 121
83 101 128
72 89 115
69 86 112
67 82 105
81 97 121
80 99 128
73 92 121
56 71 92
78 93 116
82 100 128
67 79 97
77 97 128
80 99 128
77 93 118
69 90 121
75 93 121
74 91 118
69 84 105
78 95 121
61 75 97
73 91 118
69 86 112
61 77 102
61 73 92
79 95 118
58 70 88
72 90 118
76 93 118
74 93 121
60 79 108
64 79 102
75 91 115
57 72 93
81 97 121
68 85 112
85 102 128
82 100 128
80 99 128
59 76 102
73 91 118
72 90 118
76 92 115
49 63 84
75 92 118
70 87 112
68 83 105
62 78 102
83 101 128
63 77 100
81 99 128
78 95 121
66 82 106
65 81 105
80 99 128
73 95 128
69 85 108
61 75 96
66 81 105
58 73 96
68 84 108
61 77 102
70 85 108
61 78 102
73 90 116
72 90 116
78 98 128
60 74 96
65 83 108
58 75 99
52 64 83
65 80 102
75 91 115
75 92 118
70 89 118
66 83 108
63 78 99
71 89 115
75 93 121
64 83 112
66 78 96
68 84 108
59 74 96
66 82 106
67 82 106
83 101 128
75 91 116
61 71 88
63 77 98
81 100 128
61 74 93
65 82 108
55 67 84
46 56 71
68 82 102
53 68 89
77 93 118
57 70 89
76 93 118
58 70 89
61 78 102
68 83 107
72 87 108
44 55 71
69 84 106
59 72 91
66 83 109
74 88 110
67 82 104
57 72 96
64 80 103
65 78 97
73 90 115
75 92 118
84 99 121
68 83 106
69 87 115
71 84 105
50 63 83
50 62 79
78 94 118
54 68 91
61 76 99
64 81 105
59 72 92
61 75 96
52 63 80
64 78 99
61 74 93
62 75 96
63 76 96
65 77 96
59 74 96
60 72 90
61 75 96
75 94 121
70 87 112
61 76 99
53 64 80
59 70 88
48 57 71
61 74 95
70 85 108
65 80 102
61 76 97
50 62 80
61 76 99
52 63 80
61 78 102
55 66 83
43 53 69
69 83 105
58 72 92
45 55 71
59 74 96
69 83 105
54 66 84
60 74 96
63 79 102
43 52 65
46 58 77
50 63 81
51 64 83
76 91 115
56 69 89
59 73 93
59 72 91
69 86 112
54 67 88
49 60 77
62 75 96
57 72 94
63 76 95
71 90 118
45 55 70
67 81 102
75 91 116
70 87 112
54 66 84
52 65 84
52 65 84
58 72 92
65 80 102
76 93 118
55 66 83
62 76 97
61 76 99
58 71 92
74 92 118
70 83 102
75 92 118
47 57 72
54 68 89
65 78 97
51 60 75
62 78 102
55 68 86
53 64 80
60 71 88
62 75 94
67 80 99
76 94 121
67 80 100
59 72 92
58 74 96
62 76 99
60 75 97
65 77 96
74 91 116
64 78 99
64 81 106
76 92 116
75 92 118
66 83 108
74 89 112
66 81 102
76 94 121
54 67 87
80 96 121
62 76 97
64 78 99
60 74 96
71 90 118
62 74 92
62 80 108
72 88 112
58 74 99
74 91 118
54 67 86
72 88 112
60 76 99
63 80 105
74 91 118
65 83 109
68 82 103
55 67 86
69 88 118
59 70 86
77 97 128
61 78 104
66 82 106
81 100 128
70 88 116
59 73 93
80 99 128
59 72 91
85 102 128
78 98 128
67 81 102
55 65 82
70 84 105
78 94 118
74 91 116
70 86 109
72 89 116
69 86 112
69 89 118
62 78 102
73 90 115
61 76 100
71 90 118
74 93 121
78 98 128
80 96 121
68 84 109
72 90 118
73 91 118
78 94 118
72 89 115
70 85 106
63 81 108
80 99 128
58 72 94
56 68 87
68 84 108
64 78 99
77 95 121
76 94 121
80 99 128
79 95 118
72 88 112
59 72 93
79 99 128
66 82 105
82 100 128
67 82 105
64 79 102
76 97 128
67 84 108
74 92 118
77 94 121
76 94 121
72 88 112
69 85 108
57 70 89
63 80 104
71 90 118
76 94 121
64 83 112
72 91 121
67 85 112
76 97 128
81 99 128
76 97 128
72 89 115
64 80 104
66 84 112
69 88 116
82 100 128
79 99 128
84 101 128
84 101 128
75 92 118
78 98 128
78 95 121
78 98 128
75 92 118
69 85 108
75 96 128
75 93 121
73 92 121
83 101 128
75 93 121
72 90 116
78 98 128
77 93 118
79 99 128
69 85 108
79 98 128
72 89 116
75 92 118
66 84 110
81 100 128
71 91 121
69 86 112
77 95 121
85 102 128
79 98 128
75 94 121
77 92 115
75 92 118
79 98 128
69 88 118
74 91 118
81 97 121
81 99 128
71 90 118
79 99 128
76 97 128
74 93 121
78 98 128
70 85 108
69 85 109
73 91 118
80 99 128
62 78 102
74 92 118
70 89 118
80 99 128
82 98 121
70 88 116
56 72 96
64 83 112
62 78 102
77 97 128
78 96 121
78 95 121
75 92 118
64 81 106
68 83 106
73 88 112
74 89 112
77 94 118
71 90 118
74 96 128
62 77 99
73 91 116
75 94 121
76 94 121
72 89 116
65 81 105
65 80 104
79 98 128
63 80 105
64 81 105
64 81 105
77 92 115
79 98 128
76 93 118
75 92 116
70 84 107
75 91 116
64 82 108
75 96 128
72 91 118
69 89 118
73 91 118
79 98 128
77 92 116
74 96 128
71 90 118
70 89 118
70 84 105
74 91 118
75 94 121
71 89 116
62 78 102
74 93 121
87 103 128
71 86 109
86 102 128
65 78 99
59 76 102
73 91 118
77 93 118
63 80 105
67 82 105
74 91 118
77 97 128
79 98 128
66 87 118
75 92 118
78 94 118
77 95 121
63 81 108
74 95 128
64 82 109
80 99 128
63 77 99
74 90 115
74 93 121
60 74 96
50 60 73
54 69 91
62 78 102
71 88 115
52 67 89
76 93 118
63 77 99
57 70 91
78 95 121
73 91 118
68 86 112
60 74 96
66 83 108
74 92 118
71 87 112
64 79 103
65 80 102
73 86 106
75 92 118
63 77 99
77 97 128
53 65 83
72 88 112
72 88 112
59 73 93
73 92 121
74 92 118
64 78 100
65 78 96
60 75 99
51 64 84
74 93 121
69 84 105
81 100 128
68 83 106
72 86 108
79 96 121
64 75 93
69 85 108
72 89 116
79 95 118
83 101 128
70 86 112
56 70 89
69 84 105
44 54 70
62 74 92
78 95 121
60 75 96
78 95 121
62 76 97
76 93 118
71 90 118
68 87 115
43 55 73
75 92 116
64 81 105
77 95 121
56 67 83
60 73 92
54 66 82
65 79 99
79 95 118
66 81 103
68 84 108
59 72 91
62 77 99
75 92 118
48 61 81
64 78 100
66 83 108
52 64 80
78 94 118
57 69 86
60 72 89
75 96 128
69 86 112
65 81 106
54 68 88
52 64 84
53 65 83
65 80 102
61 71 86
59 74 96
47 58 73
68 84 108
66 79 99
60 71 88
64 78 98
80 96 121
53 64 81
54 68 89
54 66 84
48 59 77
59 74 96
64 78 99
69 84 108
57 69 86
61 73 91
64 77 96
71 86 109
50 63 83
63 76 96
72 88 112
62 78 102
55 67 86
52 62 79
72 87 108
56 67 84
49 62 81
47 57 72
71 85 107
68 83 105
66 81 105
64 77 96
36 44 55
56 69 89
63 77 99
53 66 86
66 78 96
77 93 118
46 56 72
45 57 74
70 86 108
58 70 90
60 74 96
58 68 83
59 74 96
62 77 99
59 75 99
71 90 118
71 87 112
62 77 99
60 73 94
61 74 92
52 63 78
57 68 86
70 86 112
44 55 72
62 77 99
67 80 100
70 85 108
68 84 109
50 61 76
37 47 60
55 69 90
58 71 89
75 92 118
70 84 107
65 80 102
73 87 108
56 70 91
69 85 108
74 93 121
56 70 91
64 78 100
60 74 96
72 90 118
61 77 100
56 68 87
44 56 73
69 89 118
53 63 78
73 91 118
59 71 89
65 83 109
72 91 118
61 77 102
38 48 64
66 79 99
64 79 102
60 73 92
52 63 80
58 68 84
55 65 80
76 93 118
84 101 128
60 74 96
44 53 67
59 72 90
68 83 106
66 82 106
64 83 112
57 72 94
61 75 97
71 86 108
61 76 99
72 87 109
72 92 121
65 81 106
65 80 102
73 91 118
68 83 106
57 69 88
70 89 118
64 77 96
53 66 85
55 72 96
43 51 65
52 64 81
54 71 96
54 71 96
70 84 105
72 88 112
80 97 121
76 94 121
74 90 115
80 99 128
64 81 108
60 78 105
66 79 99
64 82 108
58 71 91
68 82 103
64 79 103
68 84 108
79 98 128
68 84 108
73 90 116
68 83 105
59 73 94
72 87 109
62 79 103
67 84 108
61 75 94
74 91 118
78 98 128
76 93 118
62 77 100
70 86 112
82 100 128
61 77 100
58 70 90
79 98 128
80 99 128
69 85 108
75 91 116
69 86 112
72 88 112
76 97 128
76 97 128
82 98 121
82 100 128
75 96 128
81 100 128
78 98 128
63 75 92
74 92 118
78 94 118
83 98 121
77 95 121
76 97 128
71 85 105
75 93 121
58 74 96
80 99 128
63 76 96
68 83 105
58 74 97
66 84 112
63 77 99
68 85 112
75 91 116
66 84 112
70 88 115
71 91 121
75 96 128
62 77 99
75 91 116
81 97 121
66 82 106
78 95 121
68 84 108
76 94 121
73 95 128
64 77 97
77 94 121
72 90 118
79 96 121
68 85 112
70 85 107
73 92 121
69 89 118
72 91 118
71 87 112
67 83 108
77 97 128
78 98 128
61 80 108
79 98 128
70 89 116
77 97 128
77 93 118
77 93 118
72 88 112
74 93 121
62 78 102
80 99 128
81 100 128
72 90 118
80 99 128
67 85 112
76 94 121
73 91 118
73 90 116
62 75 95
70 89 118
75 92 118
67 82 106
78 98 128
67 82 105
71 91 121
78 94 118
81 100 128
77 97 128
77 92 116
77 97 128
78 98 128
70 89 118
63 78 100
71 87 112
78 95 121
83 101 128
66 83 108
71 89 118
78 98 128
81 100 128
68 85 112
75 92 118
76 93 118
81 100 128
75 92 118
69 89 118
75 96 128
78 94 118
68 88 118
72 89 115
71 90 118
76 94 121
72 92 121
62 76 96
81 100 128
71 90 118
58 72 92
80 99 128
60 77 102
66 84 112
75 92 116
79 98 128
80 99 128
69 87 115
71 87 112
75 92 118
78 98 128
74 90 115
74 92 118
61 75 96
77 94 121
76 94 121
64 79 102
61 78 102
72 88 112
73 90 115
76 94 121
73 91 118
63 77 99
65 80 103
80 99 128
66 84 110
67 85 112
76 92 115
75 92 118
71 87 112
69 85 108
66 84 112
72 90 116
82 100 128
63 80 105
64 78 99
79 94 118
81 100 128
74 92 118
64 81 106
75 96 128
72 89 115
78 98 128
60 75 99
70 85 108
80 99 128
69 85 108
80 99 128
83 101 128
63 81 108
64 82 109
72 88 112
70 88 116
67 82 105
72 90 116
82 100 128
74 91 118
63 80 105
68 80 99
64 81 108
64 81 106
56 70 92
70 91 121
66 81 105
57 73 96
75 91 115
69 87 115
73 91 118
59 75 99
67 85 112
77 94 121
65 81 106
74 92 118
77 97 128
71 90 118
60 74 95
50 62 80
65 81 105
70 86 112
68 85 112
76 92 115
67 82 105
62 77 99
75 91 116
61 76 100
70 84 105
73 87 109
52 64 84
68 88 118
74 91 115
72 86 108
66 82 106
73 92 121
68 82 103
83 101 128
74 92 118
59 72 92
74 88 108
56 69 87
62 74 93
77 95 121
63 79 102
65 82 108
72 88 112
63 76 96
82 100 128
58 72 92
72 89 116
67 83 107
61 77 100
66 83 109
81 100 128
63 77 99
68 83 105
70 88 115
61 76 97
41 54 73
59 71 89
71 87 112
80 96 121
61 75 97
76 92 116
43 52 66
58 70 89
64 80 104
75 91 115
68 84 108
48 59 76
67 81 102
62 79 105
74 88 109
62 77 100
68 84 108
58 73 94
48 61 80
65 80 102
60 72 89
43 53 68
67 82 105
71 87 112
56 68 86
70 85 108
64 81 105
51 62 78
60 72 89
68 84 108
69 83 106
58 71 91
44 56 75
52 63 80
61 75 96
63 75 94
66 79 99
68 83 105
61 75 96
55 66 84
49 60 77
61 77 102
66 82 105
61 74 93
68 81 102
69 84 105
71 86 108
61 74 93
72 88 112
64 76 95
58 74 97
63 76 96
54 68 89
74 89 112
70 86 112
74 89 112
68 84 107
59 71 90
46 54 67
54 69 91
71 87 112
69 83 103
54 66 84
66 79 99
67 84 108
75 92 118
58 72 92
53 65 83
66 79 99
58 71 92
48 60 77
65 81 104
64 82 108
62 74 93
74 90 115
39 50 65
59 74 96
63 76 96
55 68 88
72 89 115
65 79 100
45 55 70
71 87 112
72 90 118
58 70 89
43 52 65
71 90 118
70 84 105
44 56 73
61 74 92
62 78 102
51 63 80
63 77 98
59 75 99
58 69 85
67 80 99
68 83 105
57 72 94
63 77 99
57 67 83
68 82 103
66 82 105
56 68 86
47 60 78
65 79 100
70 88 115
53 64 80
59 72 91
48 58 74
59 69 85
60 70 86
64 78 100
66 83 108
68 85 112
61 75 96
62 76 97
68 84 108
73 88 109
55 68 89
77 94 118
57 70 90
67 79 99
68 85 112
66 82 106
64 79 102
63 81 108
68 84 107
80 95 118
56 68 86
59 75 99
76 93 118
69 84 105
67 82 106
66 80 102
84 101 128
65 82 108
78 94 118
68 83 105
75 92 118
63 80 105
78 98 128
55 68 87
71 89 115
83 101 128
51 63 81
71 84 103
68 83 105
67 82 106
78 94 118
70 89 118
56 68 86
67 79 99
64 81 105
53 66 86
54 68 89
75 92 118
54 67 87
58 72 94
60 76 99
76 94 121
50 61 78
73 90 116
59 73 96
76 90 112
73 92 121
50 63 82
71 87 112
79 95 118
72 89 115
65 77 96
81 100 128
71 86 109
72 89 115
64 79 100
72 89 116
76 93 118
67 86 115
63 80 105
73 91 116
65 81 105
71 87 112
72 90 118
66 81 103
64 78 99
78 92 115
57 71 92
76 94 121
71 91 121
75 92 118
63 79 103
79 99 128
67 85 112
73 91 118
71 88 115
75 89 109
76 94 121
71 86 108
77 97 128
76 97 128
77 95 121
81 97 121
66 82 105
71 91 121
67 82 105
66 83 109
83 101 128
61 79 105
65 81 106
60 75 96
73 90 116
73 90 116
79 98 128
69 90 121
78 95 121
72 89 116
74 88 110
71 87 112
78 98 128
71 90 118
55 70 92
65 80 102
73 91 118
71 86 108
74 90 115
74 92 118
78 94 118
66 84 112
70 88 116
82 100 128
79 96 121
64 83 112
68 86 112
87 103 128
75 92 118
69 84 107
71 90 118
71 87 112
68 85 112
67 83 109
70 87 112
73 91 118
72 94 128
68 85 109
72 90 118
73 88 112
79 98 128
80 99 128
79 98 128
79 96 121
81 100 128
77 97 128
70 90 121
78 98 128
85 102 128
75 92 118
68 87 115
77 92 115
72 94 128
77 97 128
83 101 128
75 96 128
59 73 93
70 86 110
85 102 128
79 99 128
67 83 106
76 94 121
76 93 118
76 94 121
71 90 118
66 87 118
73 92 121
79 96 121
76 94 121
68 86 112
69 87 115
82 100 128
70 87 112
73 88 112
77 95 121
56 72 96
78 98 128
74 92 118
64 79 103
59 75 99
80 99 128
75 93 121
78 98 128
79 98 128
78 95 121
72 90 116
65 82 108
84 101 128
80 99 128
71 86 110
78 98 128
70 87 112
76 97 128
68 83 106
76 93 118
72 89 115
74 89 112
75 94 121
76 97 128
77 97 128
57 75 102
74 88 109
85 102 128
83 101 128
81 100 128
73 92 121
76 93 118
73 91 118
81 100 128
79 96 121
81 100 128
62 76 96
70 86 112
68 87 115
79 95 118
66 84 112
63 77 99
80 94 116
58 73 96
79 96 121
66 83 108
67 84 108
66 80 102
72 86 107
74 92 118
70 90 121
57 71 93
60 77 102
72 88 112
65 81 105
69 86 112
78 98 128
65 80 102
64 78 100
60 74 94
71 86 109
69 86 112
77 94 121
68 84 108
66 83 110
72 91 118
84 102 128
64 79 102
64 76 96
80 99 128
75 90 112
69 85 110
75 92 118
68 84 108
74 93 121
71 87 112
49 61 77
65 77 96
76 92 116
71 89 116
64 79 102
67 84 110
48 58 74
72 87 108
66 83 109
76 94 121
80 99 128
66 82 106
62 76 96
68 83 106
66 83 108
56 69 89
67 83 107
65 81 106
53 67 88
57 70 88
71 89 116
77 94 118
73 90 115
76 93 118
77 95 121
50 60 75
66 80 102
63 76 96
73 91 118
56 70 91
57 72 96
55 68 86
68 81 102
46 57 75
88 104 128
50 59 73
67 84 108
61 76 99
48 60 77
70 87 112
60 74 94
76 92 118
81 97 121
59 75 100
56 68 86
64 79 102
82 100 128
48 58 72
64 81 105
43 55 72
66 79 99
61 74 93
51 63 83
68 84 108
62 75 96
60 76 99
74 88 109
65 82 106
74 91 115
57 69 87
70 88 116
55 67 84
71 90 118
49 60 77
58 71 89
59 71 91
54 72 99
46 55 70
73 90 116
56 71 93
68 84 109
63 76 96
59 71 90
70 83 102
75 96 128
60 72 90
66 80 102
79 96 121
61 73 92
64 78 99
57 73 97
60 74 96
75 88 108
62 77 100
58 72 93
43 53 68
75 93 121
57 69 88
60 75 97
55 69 89
48 60 77
65 79 99
71 86 108
45 56 74
71 86 108
57 69 87
49 60 77
58 70 89
60 72 90
65 79 99
53 67 89
55 71 94
76 93 118
62 77 100
61 74 93
67 82 106
67 84 109
55 69 90
67 82 104
60 75 96
48 57 71
67 82 104
68 85 109
62 74 91
37 47 62
62 75 94
78 94 118
73 89 112
59 71 88
66 81 104
46 57 75
69 84 107
47 59 77
63 75 94
69 85 109
69 82 100
68 84 108
73 88 112
65 77 96
52 65 84
63 76 96
43 52 65
45 56 74
59 74 96
66 79 100
62 74 93
59 71 89
57 71 93
73 90 116
76 92 115
56 69 89
63 77 100
66 81 102
62 74 92
65 80 102
60 73 93
65 80 102
69 85 108
66 82 107
68 81 100
66 80 102
78 95 121
77 92 115
57 70 89
67 85 112
73 95 128
65 81 105
79 96 121
69 85 108
46 57 73
52 64 83
63 79 102
69 88 116
74 90 115
82 100 128
62 74 92
61 76 99
67 82 105
59 72 92
72 90 118
67 83 106
61 76 99
54 66 84
78 94 118
69 81 99
76 93 118
58 72 94
56 68 87
77 93 118
64 78 100
70 86 112
49 62 81
61 73 92
69 84 107
73 87 108
70 86 109
72 86 108
73 91 118
66 80 102
52 68 92
60 76 99
71 90 118
67 80 99
62 79 104
70 89 118
66 83 108
64 77 96
55 68 88
79 98 128
63 80 107
70 87 112
65 80 102
56 72 96
70 88 116
65 80 102
72 89 116
67 81 102
68 87 115
64 82 109
73 90 116
83 101 128
52 66 86
66 80 103
69 88 118
63 77 97
68 84 108
77 93 118
83 101 128
74 89 112
60 74 95
75 93 121
59 75 99
81 100 128
65 81 107
62 77 100
63 81 108
75 91 116
66 83 108
80 97 121
71 84 104
74 92 118
62 79 105
68 85 112
76 97 128
72 92 121
76 93 118
63 79 102
74 93 121
68 85 112
71 88 115
76 97 128
74 91 116
68 81 100
66 82 105
78 98 128
65 81 104
69 86 112
76 93 118
75 91 115
61 78 104
75 96 128
84 101 128
73 91 118
84 102 128
73 91 118
80 99 128
72 90 118
75 96 128
62 80 107
65 84 112
73 92 121
77 95 121
69 88 118
74 96 128
78 98 128
72 91 118
80 99 128
68 84 108
69 89 118
82 100 128
76 93 118
70 86 112
80 99 128
74 93 121
77 93 118
75 96 128
63 79 103
76 96 128
71 86 109
73 91 118
79 98 128
66 80 102
59 75 99
76 97 128
75 92 118
70 89 118
72 91 118
70 88 115
68 85 110
78 95 121
74 93 121
71 91 121
68 84 109
76 93 118
75 92 118
73 90 116
78 98 128
77 93 116
75 93 121
77 97 128
71 90 118
75 93 121
72 90 118
71 91 121
69 86 112
83 101 128
73 89 115
72 90 118
71 86 109
66 86 115
71 89 116
78 98 128
71 87 112
71 86 108
79 95 118
81 100 128
76 93 118
81 100 128
73 90 115
80 99 128
76 94 121
79 98 128
83 101 128
75 94 121
81 99 128
77 97 128
72 89 115
71 87 112
65 83 108
81 99 128
68 85 110
77 93 118
74 90 115
75 96 128
74 93 121
75 96 128
75 93 121
80 96 121
71 91 121
83 101 128
80 99 128
81 100 128
57 73 96
64 77 96
69 84 105
68 86 112
77 93 118
76 92 115
75 93 121
78 98 128
76 94 121
76 94 121
66 79 100
78 95 121
74 93 121
82 100 128
84 101 128
80 99 128
68 85 112
60 79 106
71 90 118
61 77 102
63 80 105
60 75 99
76 97 128
79 95 118
66 86 115
71 85 106
69 88 118
70 88 116
79 98 128
72 90 118
63 78 99
68 86 112
76 93 118
75 91 116
66 83 110
84 101 128
76 94 121
69 86 112
78 98 128
68 84 109
76 94 121
71 87 112
75 92 118
67 83 106
61 79 105
72 87 109
78 98 128
69 89 118
71 90 118
60 77 102
77 97 128
69 85 108
61 76 100
58 74 99
73 90 116
78 94 118
66 84 112
74 88 110
75 92 118
60 72 89
84 102 128
72 89 116
55 70 92
75 91 115
65 78 99
66 80 102
56 69 88
70 84 105
62 77 99
66 83 108
74 92 118
69 84 105
76 97 128
71 86 108
67 84 109
57 70 89
61 76 99
57 68 86
69 89 118
63 81 109
70 85 108
65 81 105
68 87 115
78 94 118
58 71 90
76 93 118
74 91 118
77 93 118
59 73 94
71 87 112
55 67 84
75 92 118
68 84 108
71 87 112
66 82 106
67 81 102
69 86 112
62 78 102
53 65 83
73 91 118
72 92 121
62 78 102
74 91 116
49 62 80
55 69 91
70 87 112
68 84 108
57 69 88
58 71 90
58 71 89
51 64 83
78 98 128
65 79 100
76 90 112
71 87 112
68 84 108
66 80 102
56 68 87
52 63 79
66 83 108
58 72 94
60 74 96
48 59 75
73 87 108
60 73 92
47 58 74
51 66 88
74 92 118
40 52 71
71 85 105
73 88 112
67 84 109
62 76 97
59 75 99
65 77 96
53 65 83
51 61 77
49 63 82
62 76 96
79 95 118
57 72 95
59 74 97
63 76 95
63 74 91
61 75 96
67 82 105
63 77 99
50 61 77
65 78 99
58 70 89
47 56 70
73 88 112
76 89 108
74 89 112
57 69 86
47 59 78
70 86 112
54 65 80
58 71 90
70 85 107
82 100 128
68 84 108
64 78 100
65 82 106
63 76 96
49 59 74
70 85 108
62 75 96
61 73 92
56 69 90
70 85 108
72 90 118
61 74 93
57 68 86
62 74 92
72 90 118
70 84 105
44 54 68
45 55 71
50 60 75
32 37 46
60 75 96
55 68 86
67 85 112
64 79 100
58 73 96
57 70 88
61 74 94
65 81 106
46 57 75
63 82 112
63 78 100
79 98 128
63 79 102
66 78 96
62 77 100
66 82 106
68 85 112
68 81 100
65 81 105
51 63 81
69 85 108
69 85 108
70 91 121
69 84 107
70 85 108
71 90 118
53 65 84
71 89 116
53 66 86
66 82 105
73 88 112
67 82 105
66 82 107
54 67 86
72 89 115
78 94 118
56 69 89
76 94 121
62 79 104
54 67 87
68 85 112
60 72 89
58 69 87
63 78 100
66 82 105
51 65 86
70 87 112
62 78 102
76 93 118
53 68 90
77 93 118
70 86 112
68 83 105
52 65 85
75 89 110
69 87 115
76 93 118
73 91 118
64 83 112
72 90 118
48 60 77
61 76 99
63 77 99
69 86 112
53 65 84
75 92 118
65 78 98
66 83 108
64 82 108
81 97 121
62 75 96
76 94 121
59 70 86
75 93 121
74 88 108
61 76 97
66 80 102
66 82 105
78 98 128
70 87 112
62 78 102
65 81 106
83 101 128
80 99 128
63 78 100
72 88 112
72 89 115
75 92 118
63 77 99
82 100 128
78 95 121
75 96 128
76 93 118
62 78 102
58 71 90
75 96 128
61 74 94
80 99 128
59 71 90
83 101 128
50 65 87
67 81 103
81 97 121
72 86 106
70 86 112
77 97 128
66 83 108
79 96 121
69 88 116
66 82 105
54 67 87
67 81 102
63 80 105
77 95 121
52 67 89
72 90 116
71 90 118
68 88 116
67 85 112
64 77 97
74 96 128
79 96 121
77 93 118
67 85 112
71 87 112
80 99 128
72 90 118
80 99 128
60 77 102
69 88 116
82 100 128
70 89 118
67 86 115
72 88 112
56 72 96
70 88 116
70 86 109
64 83 112
77 97 128
79 96 121
73 93 121
61 76 97
68 82 102
68 84 109
68 84 109
68 85 110
78 95 121
61 80 107
84 101 128
67 83 109
74 93 121
75 92 118
76 93 118
71 86 109
69 85 108
76 96 128
77 95 121
67 85 112
75 93 121
64 81 105
64 82 108
67 82 106
68 82 102
74 92 118
74 93 121
76 97 128
77 97 128
61 77 100
64 82 108
80 99 128
81 100 128
75 94 121
76 94 121
67 85 112
67 85 112
77 93 118
70 90 121
56 69 89
66 83 108
72 89 115
70 89 118
67 81 102
67 85 112
76 97 128
69 85 108
74 91 118
71 90 118
75 90 112
79 99 128
79 98 128
76 94 121
76 97 128
80 99 128
84 102 128
62 78 102
84 102 128
77 95 121
79 98 128
73 90 116
72 92 121
75 94 121
74 93 121
84 102 128
78 95 121
73 87 109
81 100 128
74 91 116
78 93 116
68 85 112
67 82 105
80 99 128
81 99 128
75 96 128
74 93 121
54 67 86
67 85 112
74 89 112
75 92 118
72 90 118
69 89 118
80 99 128
79 96 121
80 99 128
71 85 106
68 85 112
69 89 118
66 84 112
81 100 128
64 82 108
71 85 105
75 92 118
73 91 118
72 92 121
75 92 118
67 83 106
77 97 128
75 94 121
75 92 118
81 100 128
70 87 112
82 100 128
62 75 96
64 81 105
84 102 128
71 90 118
68 84 108
68 83 105
65 81 105
64 79 103
69 84 105
70 86 109
75 96 128
65 81 105
73 86 105
77 97 128
79 94 118
75 93 121
69 87 115
63 80 106
78 94 118
65 82 108
73 92 121
67 84 108
70 87 112
56 71 93
72 90 118
80 99 128
70 85 108
63 80 106
78 98 128
62 78 102
80 99 128
73 91 118
76 93 118
60 78 105
71 90 118
70 91 121
64 81 107
55 68 87
78 98 128
73 87 108
72 90 118
81 99 128
73 89 115
74 92 118
65 82 108
72 88 112
58 74 99
76 92 116
81 99 128
69 89 118
69 84 105
68 82 102
75 91 115
72 90 118
69 85 108
56 70 92
67 83 108
68 84 107
52 67 90
66 81 104
67 84 108
57 71 93
62 76 96
55 68 89
68 86 112
56 65 78
46 57 72
60 72 90
58 74 97
53 68 90
63 77 97
75 92 118
67 85 112
59 73 94
77 93 118
62 75 96
71 87 112
67 84 108
76 93 118
72 86 108
73 88 110
68 86 112
69 86 112
53 65 82
82 96 118
57 70 90
72 88 112
47 60 80
75 90 112
72 85 105
79 95 118
57 70 90
39 50 66
77 92 115
48 58 74
61 72 90
67 84 108
53 69 92
74 89 112
70 84 105
68 81 102
58 74 99
61 75 96
80 95 118
52 63 80
83 101 128
68 82 102
66 81 102
49 62 80
51 63 81
67 82 105
61 76 99
63 81 108
61 74 93
47 59 76
43 54 69
72 85 105
79 96 121
76 94 121
57 69 86
48 58 74
74 89 112
46 56 71
81 99 128
62 77 100
58 72 94
46 56 72
63 76 96
63 75 92
73 88 112
68 83 105
62 76 97
61 73 92
62 75 93
69 83 105
74 89 112
56 69 89
47 59 77
62 75 96
65 79 100
49 60 76
46 57 75
83 97 118
54 66 84
67 82 105
81 97 121
69 83 105
64 78 100
78 95 121
72 88 112
67 85 112
81 97 121
62 76 97
44 52 64
50 61 78
67 81 102
71 87 112
51 63 80
58 71 91
76 92 116
64 78 99
79 98 128
57 70 89
65 80 103
62 74 92
62 76 98
72 87 108
69 87 115
75 91 115
64 78 99
46 58 76
73 86 105
58 71 91
55 67 86
59 71 90
47 59 76
55 71 95
78 95 121
71 89 116
55 67 85
70 86 112
67 83 107
62 77 99
83 101 128
58 73 96
75 89 112
74 89 112
76 92 116
57 70 89
54 68 90
59 71 88
66 80 102
55 68 88
64 80 104
69 86 112
76 92 118
69 85 108
76 94 121
67 82 105
72 88 112
85 102 128
72 88 112
72 91 118
66 80 102
48 61 81
73 88 112
77 94 118
80 96 121
65 83 109
63 80 106
71 87 112
81 97 121
73 91 118
53 66 86
42 52 68
74 93 121
59 73 94
75 94 121
63 77 96
62 74 93
69 85 109
65 81 104
66 82 105
63 79 102
53 67 89
77 97 128
62 77 99
76 94 121
57 68 84
67 83 108
78 94 118
75 93 121
72 90 118
74 89 112
68 86 112
69 85 108
52 70 97
83 101 128
71 87 112
74 91 118
61 77 102
63 77 100
67 86 115
75 93 121
69 84 107
74 95 128
62 77 100
72 87 110
69 84 107
50 62 80
81 100 128
76 93 118
68 86 112
53 66 86
65 80 102
75 94 121
74 93 121
66 83 108
75 92 118
65 80 102
69 88 118
77 94 121
78 98 128
59 72 92
84 101 128
71 87 112
62 77 99
75 96 128
76 94 121
66 83 108
69 86 112
63 76 96
69 85 108
67 84 110
65 82 108
72 90 118
73 95 128
64 79 102
83 101 128
76 93 118
75 90 112
67 81 102
77 94 121
69 85 108
61 79 105
76 94 121
77 97 128
66 84 112
60 76 100
72 91 118
77 93 118
63 77 99
69 86 112
69 85 109
80 99 128
78 98 128
68 86 115
71 91 121
83 101 128
80 99 128
62 78 102
65 83 109
59 74 96
72 89 115
70 84 105
69 89 118
67 85 112
75 96 128
73 92 121
69 84 106
70 86 112
79 98 128
69 84 106
74 93 121
65 83 109
70 89 118
76 97 128
80 99 128
82 100 128
81 100 128
85 102 128
84 101 128
76 94 121
74 89 112
73 92 121
56 72 96
85 102 128
81 99 128
73 91 118
78 95 121
76 96 128
71 87 112
75 94 121
72 92 121
66 86 115
79 96 121
67 81 102
65 79 102
79 98 128
88 104 128
67 85 112
74 91 118
65 81 105
71 87 112
66 83 108
68 84 108
72 92 121
76 94 121
78 98 128
78 98 128
80 99 128
67 85 112
72 89 116
69 87 115
71 90 118
85 102 128
74 92 118
78 98 128
80 99 128
78 98 128
65 81 105
79 99 128
76 93 118
81 100 128
71 90 118
73 90 116
73 95 128
76 94 121
59 72 92
65 82 108
72 91 121
82 100 128
71 89 115
70 86 108
82 100 128
79 98 128
70 89 118
78 98 128
69 85 108
75 96 128
65 81 105
68 84 108
69 86 112
69 86 112
79 98 128
69 84 108
71 90 118
67 81 102
77 94 121
65 80 102
60 76 100
82 100 128
72 87 108
65 79 100
72 88 112
60 75 99
60 74 96
76 94 121
82 100 128
62 80 108
72 94 128
63 77 99
65 80 102
65 86 118
86 103 128
78 94 118
56 69 89
83 101 128
70 85 108
60 74 96
75 91 115
68 85 110
75 92 118
67 84 109
65 83 112
71 87 112
82 100 128
77 97 128
61 75 96
71 87 112
54 72 100
70 89 118
75 92 118
76 94 121
67 84 108
58 76 102
79 98 128
67 82 106
63 80 106
71 89 115
79 94 118
71 89 116
70 87 112
59 72 93
73 91 118
76 94 121
67 81 102
59 73 95
72 92 121
79 95 118
70 87 112
61 79 106
64 81 107
75 93 121
68 88 118
68 81 100
58 73 96
60 77 102
77 92 115
49 61 79
54 68 90
61 78 102
66 83 108
54 65 81
72 87 109
62 79 104
65 81 105
69 89 118
70 84 105
72 89 115
71 87 112
71 88 115
69 86 110
62 75 96
68 84 108
79 95 118
71 86 108
67 81 102
69 86 112
77 95 121
63 76 96
73 91 118
67 82 105
56 70 90
62 76 97
69 83 105
64 79 102
76 96 128
78 98 128
62 78 102
65 81 105
70 86 108
69 86 112
61 76 99
61 76 100
66 81 102
47 59 76
58 75 99
66 83 108
52 63 80
82 100 128
66 80 102
71 89 115
65 82 108
64 78 99
75 91 115
53 66 86
75 92 118
65 77 96
59 72 92
51 64 84
69 86 112
56 70 91
68 81 100
60 74 94
68 83 105
72 90 116
73 88 112
71 87 112
48 59 76
73 88 110
50 62 81
71 90 118
59 73 92
53 65 83
74 93 121
57 70 90
63 77 99
65 80 102
55 70 93
51 61 77
76 93 118
82 100 128
58 70 89
52 63 80
74 91 118
62 77 99
59 72 92
59 75 99
60 74 96
60 73 93
56 69 89
61 73 92
66 82 105
55 68 87
50 63 81
53 64 80
51 65 85
69 85 108
73 87 108
67 84 108
55 67 84
61 74 93
67 84 108
70 88 115
52 63 80
61 76 99
77 97 128
44 53 66
65 80 102
50 63 84
77 95 121
56 68 88
70 84 106
38 48 63
62 73 91
68 81 102
66 82 106
58 71 89
57 70 89
70 85 108
68 83 105
54 66 83
45 56 73
46 58 76
69 88 115
64 78 100
55 67 85
44 54 70
46 56 72
59 72 92
67 85 112
64 79 100
66 81 105
69 83 105
63 76 96
64 77 97
77 97 128
53 66 84
57 71 91
68 84 108
63 78 99
65 81 105
58 73 96
61 77 100
69 82 102
59 72 92
78 95 121
70 86 112
77 93 118
62 75 96
54 66 83
60 75 96
76 93 118
61 79 106
66 81 102
60 76 99
78 94 118
81 99 128
71 86 108
56 70 91
69 86 112
58 74 99
76 94 121
57 72 95
56 69 90
57 70 90
59 71 90
73 90 115
56 68 86
57 70 89
54 68 89
65 82 108
65 82 109
63 80 105
81 100 128
63 77 99
64 83 110
59 75 99
68 88 118
64 80 104
76 91 115
64 77 96
64 80 105
66 82 105
74 91 116
62 78 102
78 98 128
67 84 108
83 101 128
72 92 121
78 98 128
71 87 112
52 64 83
71 90 118
65 81 106
60 72 90
76 94 121
79 98 128
53 68 89
84 102 128
73 89 115
74 91 116
62 76 99
72 90 118
76 92 118
56 71 93
78 94 118
80 99 128
49 62 81
74 91 116
77 94 118
80 99 128
69 85 108
60 74 96
72 90 118
61 79 105
78 98 128
74 91 116
69 86 112
72 90 118
60 73 93
68 82 103
68 88 118
78 98 128
82 100 128
77 93 118
78 95 121
69 88 115
79 99 128
85 102 128
76 94 121
63 79 103
79 94 118
57 71 92
60 78 105
82 100 128
67 87 118
70 86 112
70 86 112
83 101 128
79 99 128
73 91 118
69 85 108
54 69 91
76 97 128
66 82 105
78 95 121
76 93 118
78 98 128
72 90 116
82 100 128
72 88 112
80 99 128
68 83 105
64 81 105
71 90 118
64 78 99
59 74 96
72 92 121
71 90 118
65 80 102
69 89 118
76 97 128
74 91 115
82 100 128
66 80 102
65 81 105
79 96 121
77 95 121
66 79 99
86 103 128
64 80 103
81 100 128
78 98 128
70 89 118
79 98 128
65 80 102
67 83 108
79 99 128
72 90 118
71 89 116
72 92 121
81 99 128
68 88 118
79 99 128
79 99 128
79 98 128
77 93 118
75 92 118
73 91 118
77 95 121
81 99 128
78 95 121
72 91 118
72 92 121
71 91 121
82 100 128
77 92 116
80 99 128
79 98 128
76 97 128
80 99 128
78 94 118
77 95 121
77 97 128
79 98 128
75 96 128
73 92 121
74 93 121
71 88 115
75 94 121
77 95 121
76 94 121
72 90 118
71 88 115
78 94 118
69 88 116
73 91 118
79 99 128
74 93 121
74 93 121
83 101 128
66 83 108
81 100 128
67 82 105
80 99 128
73 89 112
67 83 108
78 98 128
75 93 121
83 98 121
68 84 107
75 92 118
62 78 104
68 84 109
61 76 99
60 76 100
72 90 118
71 88 115
78 98 128
63 78 102
78 94 118
75 89 112
74 92 118
67 87 116
77 94 121
80 99 128
61 74 92
77 97 128
82 100 128
60 76 99
67 85 112
79 94 118
67 88 118
72 91 118
61 75 96
75 94 121
62 76 97
71 90 118
74 91 118
62 74 92
76 96 128
70 91 121
69 86 112
53 68 90
64 81 107
82 100 128
80 99 128
81 99 128
74 95 128
79 98 128
78 98 128
78 98 128
69 86 112
60 77 102
60 76 99
73 91 118
71 86 109
82 100 128
80 99 128
83 101 128
70 89 116
72 89 115
75 94 121
73 88 112
72 90 118
57 70 91
60 76 100
73 88 112
69 89 118
69 86 112
50 66 89
58 72 93
72 91 121
82 100 128
70 88 115
76 93 118
74 89 112
81 100 128
83 101 128
84 102 128
64 78 99
70 86 109
53 67 87
59 75 99
72 90 116
77 93 118
77 94 118
71 86 108
73 88 112
76 97 128
82 100 128
67 85 112
70 84 106
76 94 121
60 74 94
63 77 99
74 89 112
73 91 118
75 89 112
70 89 118
86 102 128
77 93 118
78 95 121
60 78 105
74 89 112
49 63 84
64 79 102
71 88 115
61 75 96
72 88 112
52 64 81
58 71 90
67 82 105
80 99 128
72 91 118
64 78 100
61 75 97
72 86 107
69 83 106
65 80 102
82 100 128
67 84 108
63 76 96
66 79 100
73 90 116
66 84 112
61 75 96
67 80 99
52 64 84
74 91 116
57 70 89
54 68 89
63 77 97
54 67 86
68 83 106
76 93 118
70 87 112
72 91 118
62 76 96
66 84 112
53 66 86
53 66 84
64 76 95
65 83 108
48 58 75
63 77 97
53 66 84
46 58 76
52 63 80
79 94 118
71 85 105
68 83 106
60 74 96
52 66 87
50 64 84
38 45 57
76 92 116
38 49 65
58 71 90
63 78 102
59 74 96
59 72 93
45 54 69
60 72 90
57 69 87
57 71 92
58 73 96
46 55 68
72 88 112
66 81 102
54 66 84
66 80 102
72 88 112
54 65 82
59 71 89
57 72 93
69 84 106
75 91 116
60 70 86
47 58 73
67 81 102
78 94 118
79 93 116
68 83 106
77 93 118
57 70 90
62 77 99
48 61 80
55 68 88
61 73 92
53 63 78
67 83 106
66 80 102
72 91 118
73 86 106
68 83 105
71 88 115
53 65 83
62 75 96
53 65 83
70 83 102
62 75 96
69 82 102
58 70 89
51 62 79
63 76 94
80 95 118
53 66 86
68 83 106
57 68 84
58 71 91
57 69 87
66 82 106
80 96 121
74 89 112
59 73 96
80 99 128
55 66 83
61 75 96
72 86 108
56 68 86
50 62 80
69 85 108
57 70 90
54 67 86
74 92 118
39 47 60
61 76 99
76 93 118
63 75 94
78 93 116
48 61 81
60 74 96
66 83 108
72 92 121
66 80 102
67 83 108
68 83 105
78 98 128
68 85 112
75 93 121
76 93 118
58 71 92
69 84 106
72 90 118
64 76 96
65 81 105
68 83 105
76 94 121
52 62 78
80 97 121
67 82 105
55 69 89
50 62 80
56 70 91
73 87 108
63 75 93
70 88 115
81 99 128
69 86 112
59 76 102
66 82 106
73 91 118
63 77 99
73 91 118
74 92 118
74 89 112
68 81 102
84 102 128
83 101 128
77 97 128
68 83 106
58 71 90
60 74 96
70 89 118
57 71 91
81 97 121
72 90 118
59 71 90
71 91 121
73 89 115
70 86 110
64 78 99
76 94 121
66 82 107
70 89 118
76 92 116
70 86 112
57 70 90
71 87 112
68 83 105
81 100 128
67 85 112
72 88 112
68 83 105
72 91 121
72 84 102
61 77 103
61 81 112
69 89 118
73 91 118
72 88 112
66 83 108
79 96 121
70 87 112
73 89 112
80 99 128
73 89 115
76 92 115
71 91 121
65 78 99
78 98 128
69 84 108
72 90 118
74 90 115
83 101 128
81 99 128
75 94 121
76 94 121
78 94 118
63 80 106
78 98 128
70 86 112
70 85 108
76 94 121
80 99 128
73 95 128
72 90 118
72 88 112
67 85 112
77 97 128
68 83 105
72 91 118
71 86 108
67 82 105
62 78 102
78 94 118
82 100 128
72 92 121
77 97 128
85 102 128
70 86 112
59 79 108
75 92 118
58 72 94
82 100 128
75 92 116
73 91 118
68 83 105
69 88 118
77 97 128
82 100 128
65 81 105
74 93 121
69 85 108
76 93 118
69 86 112
80 99 128
66 83 109
80 96 121
75 91 115
67 83 108
82 98 121
67 85 112
82 100 128
65 83 108
81 99 128
74 96 128
68 88 118
82 100 128
67 87 118
77 95 121
68 84 108
69 86 112
68 80 99
80 99 128
73 91 118
74 90 115
76 94 121
80 99 128
77 95 121
70 85 108
80 96 121
71 89 118
68 86 115
63 78 102
71 90 118
67 83 107
69 86 112
66 80 102
72 89 116
74 95 128
65 82 106
78 98 128
65 83 108
70 88 116
76 94 121
82 100 128
78 94 118
81 99 128
63 79 102
76 92 115
79 98 128
71 90 118
72 88 112
66 84 112
82 100 128
71 86 109
76 97 128
74 90 115
79 99 128
71 90 118
70 89 118
72 89 115
60 75 97
79 99 128
81 100 128
62 77 99
63 80 105
79 98 128
68 84 108
77 95 121
72 86 108
79 98 128
66 83 108
57 70 89
71 88 115
78 94 118
74 92 118
73 91 118
72 86 106
76 97 128
77 93 118
68 83 105
69 89 118
68 87 115
71 85 105
84 102 128
70 89 118
73 90 116
76 97 128
59 78 106
62 76 97
75 92 118
68 86 112
78 98 128
80 99 128
79 96 121
74 93 121
63 79 104
66 84 112
60 73 92
69 89 118
55 68 88
57 71 93
64 83 110
74 92 118
70 85 108
79 96 121
67 84 110
77 97 128
71 88 115
71 89 116
72 91 118
65 79 100
76 93 118
57 69 87
78 95 121
82 100 128
76 94 121
67 85 112
75 94 121
66 81 104
77 94 118
65 82 108
69 88 116
67 84 109
69 85 109
62 77 99
54 66 83
65 81 105
67 81 102
79 98 128
64 77 98
67 80 100
60 74 96
73 87 108
72 89 116
65 78 99
69 83 105
83 101 128
61 74 94
68 82 102
76 93 118
76 94 121
52 64 84
69 84 106
66 81 103
77 97 128
69 86 112
66 82 106
59 76 102
74 90 116
67 82 105
62 77 99
73 92 121
78 98 128
71 88 115
64 78 99
56 70 90
63 75 92
57 71 92
65 83 112
71 90 118
59 75 99
51 65 86
70 86 112
68 81 102
51 65 86
70 88 115
71 87 112
51 64 83
65 83 109
64 82 108
62 80 106
68 83 104
70 83 102
80 99 128
65 81 105
62 77 100
75 92 118
68 83 107
68 86 112
61 76 99
62 81 108
74 89 112
64 77 96
64 79 102
76 90 112
62 78 102
69 86 112
67 82 106
53 66 86
55 69 88
59 73 94
60 75 97
53 67 88
57 69 88
57 70 89
72 86 107
54 65 81
61 76 99
73 87 109
64 79 102
65 82 108
64 78 99
41 52 68
74 89 112
45 58 77
52 63 80
57 69 87
66 80 102
44 53 66
50 63 84
48 58 73
66 81 102
56 65 80
65 80 102
45 54 69
65 78 97
64 78 100
52 66 86
67 84 108
73 91 118
50 61 76
56 69 88
48 60 77
57 71 92
66 82 106
69 85 109
71 86 109
54 66 84
47 61 81
64 77 97
42 54 71
57 72 93
52 65 84
60 77 102
46 55 68
76 94 121
66 80 102
63 76 96
73 91 118
57 71 92
70 88 115
59 74 96
65 78 99
75 88 108
65 82 108
59 72 92
68 83 107
48 60 78
71 87 112
62 77 99
60 72 90
58 69 87
60 74 96
53 65 83
60 73 92
75 93 121
79 96 121
60 73 92
71 85 105
46 57 73
68 81 102
69 86 112
62 73 89
61 75 96
86 102 128
75 96 128
65 81 105
65 77 96
55 70 92
65 79 99
70 85 108
62 75 96
48 60 78
61 75 96
58 71 90
76 93 118
52 64 80
82 100 128
61 75 96
66 80 100
64 82 109
70 85 108
73 92 121
52 64 83
76 93 118
71 87 112
72 87 108
68 85 112
63 79 104
77 93 118
68 84 109
72 92 121
66 84 112
71 87 112
64 82 108
77 95 121
64 79 102
71 86 108
66 79 99
73 89 112
71 86 108
72 88 112
62 76 99
63 78 102
55 69 91
69 85 108
59 72 92
61 76 99
73 90 116
63 78 100
56 70 91
60 74 96
60 73 94
78 95 121
57 69 88
70 89 118
63 78 102
71 90 118
55 71 95
69 85 109
67 84 108
74 96 128
69 88 116
72 89 115
62 77 99
70 87 112
78 98 128
64 78 99
75 91 115
68 86 112
67 83 107
68 85 112
70 87 112
78 98 128
69 85 109
64 82 108
74 90 115
70 86 109
63 76 96
65 82 108
85 102 128
68 83 105
56 67 85
66 83 108
60 76 100
74 92 118
65 81 106
68 84 110
72 91 118
73 91 118
62 78 100
79 99 128
63 77 99
77 97 128
70 87 112
51 66 89
73 91 118
72 88 112
71 89 116
76 93 118
65 80 102
74 91 118
79 98 128
77 97 128
67 86 115
66 83 108
75 92 118
74 91 115
72 86 108
74 92 118
75 96 128
81 100 128
73 92 121
88 104 128
73 92 121
73 92 121
78 98 128
67 82 104
66 81 105
78 94 118
73 91 118
70 86 112
76 93 118
83 101 128
75 92 118
74 93 121
67 86 116
78 98 128
73 90 115
71 87 110
85 102 128
68 84 108
70 89 118
69 86 112
73 91 118
76 94 121
76 93 118
80 99 128
79 99 128
75 92 118
62 80 105
75 93 121
76 94 121
60 76 99
80 99 128
64 79 102
72 90 116
68 84 108
73 90 116
72 91 118
73 92 121
68 85 112
72 91 118
73 92 121
75 92 118
77 97 128
73 91 118
72 91 118
65 79 100
79 99 128
66 83 108
72 87 110
61 80 109
72 88 112
74 93 121
76 97 128
70 89 118
80 99 128
77 97 128
73 91 118
70 86 112
70 89 118
69 86 112
72 91 118
80 99 128
66 83 108
74 87 106
77 95 121
71 87 112
73 95 128
83 101 128
76 92 115
64 80 105
76 96 128
69 88 118
74 92 118
71 86 108
60 75 96
64 81 105
82 100 128
75 93 121
73 89 112
75 92 118
66 83 108
71 87 112
72 91 118
69 85 108
79 98 128
73 91 118
76 93 118
78 98 128
71 90 118
70 87 112
77 97 128
83 101 128
78 98 128
73 90 116
75 93 121
67 81 102
76 94 121
65 84 112
80 96 121
82 100 128
73 88 110
78 98 128
64 81 106
76 93 118
71 90 118
68 85 110
69 87 115
67 83 108
75 94 121
77 93 118
70 86 112
55 68 87
67 80 100
72 90 118
52 66 87
65 80 103
71 86 108
80 96 121
63 78 100
73 90 115
55 68 87
64 82 108
77 97 128
66 83 108
72 94 128
73 91 118
58 72 92
60 73 92
81 100 128
63 78 99
68 85 112
79 99 128
73 90 115
75 92 118
70 85 108
68 83 105
78 98 128
76 97 128
83 101 128
69 88 116
63 80 105
69 89 118
71 87 112
70 89 118
63 80 107
76 93 118
80 95 118
65 80 103
77 95 121
79 96 121
60 75 97
42 54 71
56 72 96
82 100 128
72 89 115
69 85 108
76 94 121
64 78 99
65 77 96
69 86 112
70 84 106
60 75 97
68 85 112
76 94 121
56 67 83
79 96 121
77 97 128
72 90 118
49 60 78
77 97 128
76 97 128
72 88 112
66 82 105
60 72 89
65 82 107
66 81 104
65 82 108
59 75 100
76 93 118
57 71 92
45 56 72
73 90 115
53 63 77
63 80 106
82 100 128
84 101 128
49 63 84
56 70 92
63 78 99
80 99 128
73 89 112
69 85 108
61 74 92
66 78 96
64 79 102
57 69 87
62 79 105
59 72 92
73 92 121
77 93 118
68 83 105
68 84 108
53 64 80
71 85 105
65 81 105
75 91 115
57 72 94
69 85 108
68 83 106
80 96 121
71 86 109
61 77 100
57 74 99
86 103 128
64 77 98
76 92 115
67 81 103
63 76 97
56 70 89
64 79 102
44 54 70
47 62 84
64 77 96
76 93 118
66 83 108
60 73 93
69 88 118
65 79 99
73 89 112
70 87 112
60 75 97
71 85 105
72 89 115
66 78 96
60 74 96
55 68 86
69 86 112
65 80 103
66 79 99
61 75 96
66 82 106
75 89 112
69 83 105
66 79 99
61 76 100
73 88 112
54 67 87
71 87 112
56 69 89
73 87 108
63 78 99
58 73 96
66 81 104
71 87 112
59 74 97
65 81 106
60 75 96
50 62 80
59 74 97
56 67 83
59 72 92
48 61 80
65 80 102
69 88 116
72 85 105
71 87 112
79 98 128
80 99 128
51 62 78
68 84 108
59 72 91
68 82 102
63 77 99
63 79 102
66 79 100
69 86 112
51 61 76
67 83 107
79 98 128
70 87 112
65 81 105
72 87 108
68 83 105
60 74 96
60 76 100
69 85 109
72 88 112
77 93 118
71 86 108
75 94 121
61 75 97
79 95 118
60 75 99
55 70 91
76 92 115
85 102 128
67 84 108
68 85 112
67 81 102
66 80 100
68 84 108
57 72 94
56 70 89
65 80 102
64 81 107
61 75 96
68 84 108
59 73 92
77 95 121
66 80 102
83 101 128
76 94 121
71 86 108
70 87 112
67 80 100
44 55 71
69 81 100
68 84 108
71 89 116
63 79 102
59 75 100
65 83 109
68 86 112
60 74 96
61 76 99
53 65 84
71 85 105
67 83 108
74 87 108
48 60 80
79 95 118
78 94 118
67 84 108
71 87 112
72 89 115
80 99 128
76 94 121
73 92 121
70 86 112
55 68 87
60 75 97
80 99 128
70 87 112
79 96 121
64 77 97
75 96 128
63 76 96
69 86 112
77 93 116
71 88 115
49 60 77
65 78 97
73 91 118
64 80 106
68 87 115
71 90 118
70 85 108
70 84 106
63 76 96
80 99 128
68 87 115
70 85 109
56 69 89
67 85 112
78 98 128
74 91 116
72 90 116
80 99 128
75 91 115
68 84 110
76 93 118
68 84 109
75 90 112
67 86 115
73 91 118
63 79 102
75 92 118
72 89 116
78 95 121
80 95 118
72 88 112
66 82 105
51 69 96
73 90 115
64 80 105
66 82 105
75 93 121
59 74 96
75 92 118
70 89 118
71 87 112
74 91 116
75 93 121
77 97 128
71 90 118
65 80 104
78 98 128
82 100 128
74 91 118
65 80 102
72 87 108
58 73 96
80 99 128
67 87 116
79 99 128
69 86 112
75 89 112
71 86 108
67 82 105
79 98 128
65 83 108
81 99 128
66 82 105
57 70 91
77 93 118
74 91 118
69 84 105
74 92 118
75 96 128
74 91 118
83 101 128
73 90 116
83 101 128
69 88 116
70 88 115
72 88 112
74 93 121
73 91 118
73 92 121
78 98 128
80 99 128
72 88 112
80 99 128
74 89 112
83 101 128
67 84 109
81 100 128
75 91 116
79 98 128
79 98 128
74 91 118
75 93 121
72 92 121
75 96 128
83 101 128
75 92 118
75 92 118
60 74 96
73 92 121
76 93 118
64 81 107
72 94 128
77 97 128
72 92 121
72 86 108
60 79 106
74 91 118
73 91 118
66 82 106
70 87 112
84 101 128
79 98 128
68 85 112
77 93 118
70 87 112
83 101 128
80 99 128
84 101 128
60 77 102
77 95 121
69 86 112
77 97 128
69 87 115
79 98 128
72 90 118
70 89 118
57 71 92
74 93 121
66 86 116
58 73 96
81 100 128
80 99 128
70 90 121
77 95 121
75 93 121
67 82 105
77 92 115
75 93 121
60 74 96
69 88 118
84 101 128
65 80 102
66 82 106
77 94 118
69 88 115
64 80 104
71 86 108
78 98 128
80 97 121
75 89 112
71 94 128
61 74 93
57 72 93
71 90 118
77 94 121
72 90 118
81 100 128
74 90 115
62 77 100
70 84 106
80 99 128
75 93 121
59 75 100
74 93 121
62 80 105
65 81 107
64 79 102
71 86 108
46 60 80
84 101 128
68 83 105
75 91 115
70 89 118
73 91 118
78 98 128
61 76 99
67 80 99
64 82 108
56 70 91
61 78 102
56 67 84
76 92 118
63 77 99
73 91 118
74 93 121
73 89 112
55 69 89
78 98 128
63 76 96
63 78 100
71 83 102
62 74 92
74 91 118
75 92 118
74 93 121
67 85 112
78 94 118
49 62 81
77 93 118
53 65 83
70 87 112
75 91 115
79 93 116
71 89 115
67 84 110
78 94 118
84 101 128
66 81 102
77 93 118
55 66 82
61 76 100
74 93 121
71 86 108
79 96 121
73 91 118
75 91 115
57 71 92
81 97 121
62 76 99
58 69 86
75 92 118
64 78 99
74 88 108
67 83 108
65 79 99
63 76 96
55 68 87
71 89 116
48 61 80
68 84 107
73 91 118
59 72 91
76 93 118
74 87 106
65 77 96
58 72 92
68 83 105
62 73 91
68 84 108
62 79 103
74 89 112
61 75 96
60 75 98
72 91 121
67 83 108
61 76 99
71 88 115
58 72 93
59 73 94
69 86 112
69 83 105
77 94 118
63 77 99
64 78 100
70 88 115
53 65 84
57 69 88
51 63 80
60 74 97
76 94 121
67 83 106
67 85 112
66 82 105
70 85 108
61 76 99
72 91 118
64 79 102
59 71 90
67 83 107
64 82 108
57 73 97
56 66 81
58 70 88
69 85 108
74 90 115
71 88 115
56 70 90
77 92 115
70 84 105
55 71 96
41 50 64
56 69 87
67 81 102
69 85 108
53 66 86
50 60 77
58 72 92
56 68 86
54 65 82
65 79 100
64 79 102
66 80 100
63 76 96
49 59 73
66 80 102
59 73 93
58 70 89
57 70 89
52 65 84
65 79 99
56 68 86
63 78 100
73 88 112
68 81 100
61 76 100
46 55 68
62 76 96
56 70 90
71 86 109
63 78 102
75 90 112
71 87 112
61 77 102
54 68 88
67 81 103
70 86 108
67 82 105
76 92 115
48 57 71
66 78 96
74 89 112
52 66 86
75 89 110
68 83 106
54 67 87
62 76 96
55 67 87
66 82 106
73 87 108
60 74 96
68 83 106
80 97 121
59 74 96
64 76 94
68 86 112
59 76 102
58 70 88
70 86 112
48 56 68
73 90 115
59 74 96
65 82 108
71 89 118
55 67 87
57 69 86
71 87 112
64 77 98
65 83 108
74 91 115
60 77 102
73 91 118
52 67 90
68 83 105
67 84 108
69 83 104
79 98 128
71 86 108
59 72 92
70 85 108
68 86 112
79 96 121
63 76 96
77 95 121
63 74 90
55 68 88
60 76 100
67 83 108
56 69 89
60 77 102
51 62 80
57 73 96
54 66 85
74 92 118
60 74 93
66 81 102
76 92 115
57 70 89
66 83 108
66 83 108
70 88 115
55 65 80
71 90 118
82 100 128
73 88 112
63 80 106
54 67 87
66 83 108
80 99 128
67 82 105
77 95 121
73 91 118
62 78 102
68 86 112
76 93 118
61 77 102
72 90 118
79 95 118
61 77 102
74 90 115
54 68 88
59 75 99
61 80 108
67 81 102
70 86 108
73 87 110
71 89 116
69 88 118
68 86 112
76 93 118
63 79 102
69 85 109
80 99 128
71 91 121
75 93 121
68 81 102
71 90 118
53 68 89
81 95 118
71 87 112
69 82 102
59 74 96
69 86 112
79 98 128
75 92 118
67 85 112
79 98 128
69 82 102
61 77 100
71 87 112
63 80 105
68 85 112
68 84 108
67 82 105
68 83 105
73 92 121
67 86 115
78 95 121
71 90 118
68 85 109
77 94 121
79 96 121
68 80 99
71 90 118
66 80 102
74 92 118
75 92 118
79 96 121
78 98 128
68 87 115
70 88 116
81 99 128
80 99 128
75 92 118
76 93 118
69 85 109
84 101 128
67 84 108
60 75 97
72 90 118
72 92 121
66 82 106
70 89 118
77 95 121
83 101 128
65 82 108
80 99 128
77 95 121
76 94 121
80 96 121
69 85 108
63 79 102
67 82 105
75 92 118
71 89 115
81 99 128
62 80 108
61 76 99
80 99 128
75 92 118
73 91 118
65 82 108
75 92 118
80 96 121
69 84 105
72 90 116
76 97 128
79 99 128
82 100 128
78 95 121
75 93 121
72 88 112
71 88 115
79 98 128
77 95 121
74 91 116
72 89 115
73 88 112
82 100 128
71 90 118
76 97 128
73 91 118
70 86 109
70 89 118
71 88 115
67 87 116
73 95 128
74 93 121
72 92 121
69 84 107
82 100 128
73 88 112
73 90 115
70 89 118
76 94 121
72 92 121
71 91 121
66 83 108
76 94 121
75 92 118
72 90 118
79 98 128
81 100 128
74 90 115
64 82 108
78 95 121
68 84 108
73 88 112
67 83 108
77 92 116
73 92 121
70 88 115
85 102 128
70 88 116
78 95 121
73 91 118
72 88 112
73 92 121
73 90 115
76 97 128
65 84 112
65 82 107
64 81 105
56 72 96
66 86 115
80 99 128
67 83 108
80 99 128
79 99 128
83 98 121
56 69 88
77 93 118
64 80 104
71 87 110
67 86 115
66 84 112
70 85 108
72 89 115
73 92 121
66 82 107
75 91 116
75 96 128
81 100 128
59 75 99
63 78 100
66 80 102
76 93 118
77 92 115
69 88 116
71 89 115
77 92 116
82 100 128
59 76 100
73 91 118
64 82 108
70 86 112
70 86 109
78 98 128
67 80 100
67 84 108
69 85 109
72 90 116
74 90 115
75 92 118
78 98 128
64 83 112
70 87 112
68 84 108
70 85 108
71 89 116
71 89 115
76 93 118
74 90 115
53 65 83
63 83 112
75 92 118
73 90 115
57 73 99
59 75 100
75 91 116
65 81 105
60 77 102
75 94 121
68 84 108
55 67 84
59 73 96
63 80 105
73 89 112
65 82 109
69 86 112
58 72 93
81 97 121
64 80 105
78 98 128
69 86 112
69 86 112
61 75 96
59 74 96
69 85 108
68 84 108
66 82 105
81 96 118
67 81 102
64 77 97
61 76 99
69 89 118
73 93 121
65 80 103
66 82 106
71 86 108
60 75 96
71 90 118
49 60 77
68 81 100
74 89 112
76 94 121
62 75 96
66 83 108
67 82 105
66 84 112
64 78 100
49 60 76
52 63 81
67 84 109
75 91 115
62 80 108
69 85 108
61 76 98
76 93 118
66 81 102
75 90 112
68 84 108
68 83 105
63 77 99
62 76 96
61 74 94
77 92 115
54 67 86
54 66 83
62 76 97
61 76 100
60 76 99
59 72 92
71 85 106
65 82 107
51 66 87
71 85 105
83 101 128
75 91 115
78 98 128
56 67 84
77 94 118
65 81 106
55 69 91
68 84 108
47 58 75
83 101 128
54 68 90
64 76 94
61 75 96
62 75 96
38 47 60
73 90 115
51 66 89
72 88 112
71 85 106
66 82 105
62 79 106
71 86 108
58 70 87
72 88 112
72 89 115
47 58 76
71 90 118
68 83 105
61 75 96
54 67 87
65 78 99
52 65 86
60 77 102
64 78 100
43 53 67
47 58 74
44 55 71
51 62 77
74 89 112
53 68 90
78 95 121
51 64 83
53 64 81
66 82 106
59 73 94
63 79 102
53 66 86
65 80 103
65 78 99
52 65 86
68 85 112
78 95 121
64 78 100
70 85 109
70 89 118
74 92 118
78 95 121
48 61 80
61 76 99
48 58 74
57 71 93
61 76 99
81 97 121
85 102 128
67 84 109
40 49 62
73 90 115
76 91 115
76 94 121
54 69 93
67 83 107
68 85 112
65 77 95
67 80 99
63 77 99
75 90 112
65 82 107
51 63 81
60 74 96
64 79 102
54 67 87
77 93 118
66 84 110
65 81 106
68 83 105
61 76 97
57 70 90
58 73 96
71 87 112
67 83 108
69 83 105
51 64 84
61 75 96
56 70 92
76 93 118
78 95 121
73 90 115
55 69 89
62 76 99
65 79 100
78 95 121
81 100 128
81 99 128
76 93 118
63 77 99
68 86 112
73 92 121
64 78 99
73 91 118
72 91 121
73 95 128
57 68 84
60 76 99
78 94 118
73 91 118
72 90 118
67 85 112
69 89 118
67 85 112
66 79 99
66 81 104
73 88 110
64 82 108
83 101 128
73 91 118
71 87 112
75 94 121
67 86 116
67 83 107
62 77 99
77 94 118
59 74 96
73 91 118
72 91 121
63 80 105
55 67 85
74 90 115
70 84 105
81 96 118
59 75 99
74 93 121
74 93 121
71 86 108
74 91 118
71 90 118
60 76 99
72 90 118
67 82 105
71 86 108
66 81 105
79 99 128
83 101 128
61 76 99
68 85 112
70 89 118
75 93 121
59 78 105
72 88 112
64 81 106
75 89 112
60 74 96
65 79 100
66 83 108
78 94 118
68 83 105
73 91 118
80 99 128
78 95 121
77 93 118
69 86 112
66 87 118
73 90 115
78 94 118
76 93 118
75 90 112
78 98 128
79 96 121
70 88 116
75 92 118
79 96 121
68 86 112
70 85 108
72 89 115
70 85 108
81 99 128
68 85 112
61 78 102
78 94 118
63 78 100
66 83 109
78 95 121
72 90 118
77 97 128
71 90 118
79 98 128
75 93 121
79 94 118
68 84 109
71 88 115
74 93 121
83 101 128
78 98 128
74 96 128
71 89 116
74 91 118
65 83 110
82 100 128
75 93 121
74 93 121
71 89 116
52 67 91
73 92 121
75 92 118
66 83 108
66 83 108
79 98 128
66 82 106
65 84 112
69 89 118
74 95 128
74 93 121
80 99 128
72 94 128
70 90 121
65 85 116
79 99 128
75 92 118
73 88 112
73 88 112
70 86 109
86 102 128
77 97 128
81 100 128
79 96 121
74 93 121
74 93 121
72 88 112
77 94 118
73 90 116
66 84 112
74 93 121
79 98 128
75 94 121
72 91 118
60 76 99
76 92 116
84 101 128
78 98 128
71 91 121
76 97 128
80 99 128
79 99 128
64 78 100
78 95 121
86 102 128
79 99 128
63 80 107
76 93 118
75 89 112
68 87 116
81 100 128
75 92 118
79 99 128
67 83 108
72 90 118
71 90 118
68 87 115
82 100 128
75 92 118
69 89 118
86 102 128
70 87 112
74 92 118
66 83 108
72 90 118
61 76 99
82 100 128
79 98 128
72 89 115
69 83 105
82 100 128
72 89 116
60 73 92
73 95 128
75 92 118
63 80 105
63 79 102
76 93 118
69 87 116
78 95 121
79 98 128
70 88 116
78 98 128
83 101 128
83 101 128
71 90 118
56 73 99
73 90 115
66 80 102
71 87 112
80 99 128
77 93 116
80 99 128
68 83 105
72 94 128
77 95 121
62 78 102
70 84 105
64 80 103
74 91 116
77 95 121
80 99 128
70 86 112
75 93 121
74 93 121
69 86 112
77 93 118
74 93 121
66 86 115
69 86 112
71 91 121
56 71 93
61 75 96
70 88 115
69 82 103
77 93 118
70 89 118
74 93 121
78 91 112
64 85 115
72 87 110
76 94 121
75 92 118
71 90 118
75 93 121
84 101 128
66 82 105
76 91 115
75 96 128
70 87 112
72 90 116
67 83 108
62 78 102
65 81 105
67 86 115
65 81 106
73 92 121
67 81 102
76 94 121
73 91 118
67 82 105
70 85 108
71 87 112
64 82 108
46 57 74
68 86 112
79 99 128
55 69 89
65 84 112
67 83 106
74 88 108
54 68 89
63 77 99
73 90 116
81 100 128
65 82 108
64 82 108
65 79 100
61 75 97
78 94 118
57 72 94
71 91 121
59 74 97
67 84 109
78 98 128
56 69 89
66 79 99
62 76 96
75 92 118
70 89 118
43 54 71
77 95 121
55 67 86
76 90 112
55 67 87
71 88 115
68 83 107
70 84 105
58 71 89
70 88 116
65 78 98
39 48 63
80 95 118
71 86 109
58 70 88
51 61 77
65 81 106
74 91 118
62 78 103
78 95 121
60 73 93
68 85 112
67 83 107
54 66 84
64 79 102
81 95 116
45 55 72
65 82 108
51 62 78
73 88 112
57 73 97
68 84 108
71 84 105
56 69 88
71 89 116
73 91 118
76 93 118
71 85 107
55 67 86
49 60 76
62 77 99
56 69 88
44 55 72
60 77 102
67 83 107
73 85 104
59 70 86
65 78 99
51 62 78
69 84 105
73 91 118
66 80 100
65 78 99
60 74 94
65 78 96
61 73 90
79 98 128
59 71 89
50 59 74
69 85 108
64 77 96
52 65 84
73 88 112
63 78 100
69 84 108
76 89 108
56 72 96
63 79 102
63 81 109
55 70 92
60 77 102
50 63 82
64 78 99
68 83 105
72 87 109
60 73 92
68 85 112
70 87 112
72 87 110
61 78 103
64 78 99
61 79 106
73 92 121
70 87 112
64 77 96
63 79 102
67 82 106
60 74 95
74 92 118
70 82 100
50 62 80
74 92 118
67 84 109
58 72 93
72 87 108
67 84 108
71 86 108
67 83 108
73 91 118
59 72 92
63 79 102
58 72 93
58 70 89
69 86 112
64 82 110
55 69 89
56 71 92
41 51 68
74 91 116
69 85 108
72 90 118
70 88 115
69 82 102
54 66 84
71 86 110
75 92 118
60 78 105
65 80 102
66 84 112
62 79 104
68 85 112
60 73 93
61 74 93
53 67 87
61 76 99
82 100 128
70 87 112
56 73 99
72 90 118
74 91 115
61 76 99
77 93 118
78 94 118
46 57 74
76 93 118
60 76 100
80 99 128
64 82 109
80 99 128
63 81 108
77 93 118
74 90 115
69 85 108
75 92 118
70 86 108
66 82 105
61 76 99
76 92 115
81 100 128
86 103 128
76 93 118
61 79 105
63 76 96
73 91 118
48 60 79
62 78 102
77 93 118
77 95 121
74 90 116
68 83 107
58 74 97
75 94 121
75 93 121
69 90 121
53 67 89
74 91 118
72 88 112
60 74 96
75 96 128
81 100 128
65 78 97
81 100 128
73 88 112
74 93 121
52 65 85
59 76 100
73 90 116
80 97 121
82 100 128
66 82 106
64 81 106
61 77 102
78 94 118
68 89 121
73 92 121
62 77 99
64 79 100
72 89 115
67 83 106
77 92 115
65 85 115
78 98 128
77 93 118
78 95 121
56 70 89
71 89 115
69 85 108
70 85 108
80 99 128
69 84 106
56 69 90
75 92 118
78 94 118
74 90 115
63 79 102
72 89 115
84 101 128
58 72 93
76 93 118
66 84 112
52 66 87
64 80 106
60 72 90
72 90 118
60 76 99
64 82 109
73 91 118
65 82 108
66 82 107
76 93 118
75 93 121
77 93 118
73 91 118
70 89 118
72 86 107
82 100 128
75 94 121
78 98 128
78 94 118
59 74 96
72 91 118
76 94 121
75 93 121
70 87 112
75 96 128
74 90 115
70 87 112
75 96 128
77 97 128
80 99 128
77 97 128
74 91 118
82 100 128
84 102 128
78 94 118
71 89 116
80 99 128
74 93 121
70 88 115
65 82 108
68 83 105
83 101 128
70 88 116
78 95 121
74 92 118
76 94 121
74 95 128
62 79 105
76 92 116
75 93 121
65 85 115
71 91 121
74 90 115
67 85 112
75 92 118
74 92 118
73 90 115
70 84 105
72 90 118
65 81 105
71 86 107
78 93 115
71 89 116
66 83 108
68 85 109
78 98 128
77 93 118
87 103 128
64 83 112
75 92 118
68 88 118
68 80 100
76 94 121
74 95 128
73 91 118
80 96 121
80 99 128
68 83 105
59 75 100
66 85 115
83 101 128
80 99 128
68 88 118
80 99 128
77 97 128
70 89 118
67 85 112
72 90 116
63 76 96
77 95 121
82 100 128
58 73 94
64 82 109
70 90 121
79 96 121
70 91 121
65 84 112
77 97 128
80 94 115
76 97 128
76 97 128
84 101 128
61 76 99
71 90 118
77 95 121
76 94 121
73 88 112
74 92 118
74 90 115
69 87 115
68 85 112
61 75 96
79 96 121
74 92 118
70 89 118
52 66 86
75 92 118
73 88 112
76 93 118
68 84 108
76 92 116
75 92 118
71 87 112
73 92 121
61 76 97
80 99 128
65 82 108
72 92 121
69 86 112
81 99 128
70 85 108
52 66 87
79 95 118
86 103 128
67 86 116
58 70 89
77 93 118
61 75 96
60 73 92
75 94 121
72 88 112
77 93 118
81 100 128
72 90 118
60 75 97
74 91 118
80 99 128
73 90 116
77 97 128
56 71 93
64 77 96
77 95 121
60 75 96
58 73 96
70 86 109
71 90 118
76 94 121
77 97 128
72 86 106
73 87 108
81 100 128
72 89 115
83 101 128
68 83 105
59 72 91
56 71 92
62 77 100
69 84 105
78 98 128
73 88 112
74 92 118
55 70 92
77 94 118
62 76 99
65 81 105
66 83 108
64 83 112
74 91 116
76 94 121
75 92 118
70 86 112
53 64 80
71 87 112
59 73 93
73 89 115
48 60 78
79 98 128
76 92 118
67 83 108
79 95 118
78 95 121
70 88 115
72 89 115
67 85 112
62 78 103
70 84 105
53 64 81
77 93 118
61 76 99
58 72 92
58 72 93
63 79 103
67 82 105
51 63 81
47 58 74
83 101 128
64 79 102
47 60 80
79 98 128
76 97 128
82 100 128
70 86 112
72 89 115
55 69 91
58 73 96
67 83 106
71 89 118
60 75 96
73 89 112
64 80 105
61 75 96
52 63 80
60 74 96
61 75 96
55 70 91
61 74 94
65 81 105
72 89 116
61 75 96
78 98 128
66 80 100
58 72 93
62 77 99
70 85 108
74 90 116
50 61 76
58 72 92
79 94 118
67 82 104
62 75 96
70 84 105
54 69 92
55 68 87
66 80 100
66 81 104
53 67 87
71 87 112
64 78 99
65 79 100
61 73 92
62 76 96
71 88 115
77 97 128
68 81 102
65 84 112
37 44 56
54 65 83
59 73 93
73 88 112
83 101 128
63 78 100
59 73 93
72 88 112
57 72 94
67 82 105
77 94 118
71 87 112
47 59 78
72 90 118
75 92 118
69 85 109
59 73 94
53 65 82
75 92 118
78 98 128
77 95 121
62 80 106
59 73 93
73 91 118
61 75 96
60 76 100
71 87 112
78 95 121
54 68 89
67 84 109
65 82 109
61 75 97
63 76 96
66 81 105
58 69 87
71 87 112
65 83 112
72 86 108
75 89 112
62 76 96
53 67 88
60 74 96
57 70 89
63 80 105
67 82 105
60 74 96
64 81 106
57 67 83
73 87 109
64 79 100
76 93 118
68 83 105
58 70 88
50 64 86
64 79 102
58 73 96
65 77 96
75 92 118
61 76 99
76 92 115
70 87 112
78 95 121
78 98 128
57 71 93
57 70 89
79 96 121
53 67 88
68 85 112
67 85 112
59 75 99
77 95 121
85 102 128
82 100 128
72 88 112
55 70 92
70 85 108
61 77 100
76 94 121
79 96 121
77 93 118
60 73 94
80 95 118
59 72 92
75 91 115
67 83 108
76 94 121
74 91 118
72 90 118
64 79 102
54 68 89
68 80 100
78 98 128
69 84 107
54 67 87
60 75 99
59 74 96
75 92 118
67 87 118
62 79 105
66 82 105
56 70 92
76 97 128
84 101 128
43 54 70
79 96 121
59 74 97
74 92 118
70 84 105
68 85 112
67 85 112
62 77 100
80 99 128
73 87 108
69 88 118
69 89 118
63 76 96
68 88 118
75 90 112
72 87 108
72 89 116
69 84 106
78 98 128
78 95 121
62 80 106
81 97 121
71 90 118
73 91 118
66 82 107
72 91 118
71 90 118
69 86 110
76 96 128
70 89 118
67 83 106
75 92 118
68 88 118
76 93 118
74 91 116
60 74 96
60 76 99
60 76 99
62 80 109
57 72 96
81 100 128
85 102 128
75 91 116
81 100 128
72 89 115
65 83 110
77 94 121
69 85 108
74 92 118
70 86 112
64 79 102
57 72 96
67 86 116
77 97 128
73 89 112
73 91 118
68 88 118
78 94 118
68 87 116
70 88 116
69 85 108
77 97 128
73 91 118
79 99 128
69 85 110
71 89 116
71 88 115
65 82 106
69 86 112
73 90 115
81 99 128
76 94 121
79 98 128
68 84 109
69 88 116
72 92 121
84 102 128
59 74 96
59 76 102
61 78 102
79 99 128
79 99 128
78 95 121
82 98 121
74 93 121
77 97 128
79 98 128
75 91 115
75 92 118
79 96 121
81 100 128
80 99 128
74 93 121
85 102 128
79 98 128
64 78 99
69 86 112
78 98 128
59 73 92
70 85 108
73 91 118
69 85 108
82 97 121
78 94 118
79 98 128
72 90 118
73 91 118
71 89 116
76 94 121
62 76 99
71 87 112
83 101 128
64 80 105
71 87 112
73 91 118
69 86 112
54 71 96
73 90 115
80 99 128
69 87 115
75 93 121
73 91 118
70 89 118
74 91 118
67 85 112
72 94 128
61 77 102
82 100 128
60 76 100
58 71 89
78 95 121
79 99 128
69 86 112
73 89 115
71 89 115
76 93 118
66 81 105
65 81 105
68 85 112
78 98 128
79 96 121
63 77 97
63 81 108
77 93 118
76 94 121
83 101 128
64 80 105
72 94 128
75 93 121
73 88 112
75 93 121
69 86 112
66 83 108
57 71 92
72 88 112
68 86 112
76 94 121
79 98 128
71 90 118
58 72 92
57 73 96
79 99 128
76 93 118
51 62 80
78 95 121
61 77 100
58 76 104
67 83 108
73 90 115
76 93 118
56 70 90
76 94 121
66 81 104
58 72 93
78 98 128
78 98 128
72 88 112
61 74 94
78 98 128
74 92 118
68 83 105
63 80 105
56 72 96
70 87 112
56 69 89
81 100 128
68 82 103
65 78 99
69 85 109
61 77 100
84 102 128
75 92 118
56 71 92
66 83 108
72 85 105
66 84 112
62 79 104
85 102 128
81 100 128
57 70 90
83 101 128
69 86 112
64 83 112
61 75 97
58 71 90
74 90 115
60 74 96
80 96 121
70 85 108
64 82 109
69 86 112
74 89 112
54 67 87
66 80 102
65 81 106
66 81 104
66 79 98
65 79 102
53 64 81
68 83 105
61 76 98
56 68 86
68 88 118
74 93 121
79 96 121
81 100 128
71 88 115
70 85 108
64 78 99
77 91 112
73 91 118
75 90 112
60 73 92
61 75 96
58 72 94
61 79 105
49 64 88
72 88 112
61 77 100
58 69 87
68 84 108
46 56 72
67 82 106
75 92 118
54 66 83
61 73 92
59 71 89
57 71 92
58 69 87
74 92 118
59 71 89
62 75 96
47 59 76
78 94 118
59 75 99
74 88 109
71 90 118
61 76 99
51 63 80
50 61 77
65 80 102
72 88 112
61 76 99
52 63 80
55 69 91
80 99 128
62 79 105
71 89 116
64 78 99
65 81 106
68 85 112
62 74 92
56 68 86
58 71 89
67 84 109
66 83 109
78 95 121
74 90 116
60 72 89
56 68 85
65 77 96
65 81 106
70 86 109
66 79 99
42 52 68
68 82 103
59 73 94
71 89 115
68 83 105
76 93 118
51 63 80
74 91 118
64 80 104
61 78 103
60 74 96
67 81 102
58 72 93
60 73 94
67 81 103
66 83 109
67 81 102
63 75 92
53 64 80
59 75 99
65 82 108
64 77 96
62 75 96
63 75 92
64 77 96
53 68 89
73 87 108
72 87 109
82 97 121
75 90 112
58 72 93
67 85 112
70 89 118
49 62 82
79 96 121
69 85 108
75 91 116
63 75 92
70 86 109
69 85 108
69 85 108
68 88 118
75 92 118
59 71 89
41 51 66
65 82 106
71 87 112
76 94 121
73 91 118
51 62 80
64 79 102
64 79 102
69 85 109
61 75 96
67 81 102
70 85 108
68 84 109
64 79 102
72 87 110
72 87 108
71 90 118
68 85 112
76 94 121
62 74 92
80 97 121
65 81 105
71 87 112
52 65 85
64 80 104
77 93 118
59 72 92
67 81 102
84 101 128
64 82 108
49 62 80
62 74 92
65 79 99
58 70 89
74 91 115
72 92 121
66 82 105
56 69 88
68 83 105
58 73 96
79 98 128
69 85 108
58 71 90
70 86 112
75 92 118
64 82 108
72 88 112
78 98 128
62 78 102
66 81 102
74 91 118
75 92 118
64 81 107
70 85 108
57 71 93
54 68 88
75 89 112
63 79 102
71 86 108
77 93 118
67 83 108
40 50 64
67 84 109
72 90 118
69 85 108
80 99 128
70 87 112
69 85 108
66 83 108
61 76 100
63 78 100
66 81 105
72 87 108
77 93 118
68 88 118
61 79 106
66 78 96
67 83 108
72 91 118
62 79 105
63 78 100
65 81 105
72 91 121
73 91 118
76 94 121
74 91 118
75 92 118
62 77 100
72 91 118
84 101 128
67 85 112
70 89 118
68 86 112
68 83 107
63 79 103
87 103 128
71 87 112
65 81 104
69 84 106
73 92 121
72 90 118
74 92 118
78 98 128
59 73 93
70 87 112
74 95 128
63 76 97
66 80 102
85 102 128
84 101 128
74 88 109
68 85 112
71 87 112
78 96 121
75 92 118
72 87 108
77 97 128
58 70 89
75 96 128
78 94 118
79 98 128
76 93 118
70 84 106
76 91 115
77 97 128
65 78 99
67 82 105
75 92 118
71 90 118
72 90 118
78 95 121
71 90 118
81 100 128
69 86 112
79 98 128
66 86 116
75 94 121
75 96 128
60 72 90
80 99 128
78 98 128
82 100 128
69 86 112
83 101 128
70 86 109
75 93 121
78 95 121
79 96 121
75 91 115
76 94 121
63 81 108
72 90 118
76 94 121
57 74 99
73 90 115
74 96 128
74 92 118
71 89 116
58 73 95
81 100 128
76 96 128
60 74 96
76 96 128
75 92 118
61 79 105
79 98 128
81 100 128
81 100 128
74 90 115
58 74 99
68 86 112
72 89 115
71 90 118
82 100 128
78 98 128
69 88 118
77 95 121
73 91 118
79 98 128
74 93 121
70 85 108
78 98 128
78 98 128
77 95 121
72 90 118
76 94 121
70 91 121
68 87 116
77 97 128
60 77 102
69 89 118
74 91 118
61 76 99
77 94 121
65 80 102
68 86 112
73 92 121
72 92 121
62 78 102
68 87 116
73 91 118
71 90 118
76 92 116
70 88 115
72 91 118
73 95 128
74 96 128
63 78 102
69 85 110
72 91 118
66 84 112
70 84 106
80 96 121
64 81 106
78 95 121
70 86 110
72 88 112
81 99 128
65 81 106
76 92 115
71 89 116
63 81 107
69 85 108
72 90 118
75 92 118
78 94 118
63 78 102
66 82 105
75 92 116
80 99 128
72 91 118
74 92 118
70 87 112
67 83 107
69 85 108
57 73 96
64 83 112
74 93 121
82 100 128
61 77 102
62 78 102
78 98 128
63 79 102
68 87 115
77 95 121
70 88 116
65 82 106
69 86 112
60 77 102
67 85 112
62 79 105
76 92 115
74 92 118
72 90 118
76 91 115
69 83 106
72 88 112
69 85 109
59 74 97
75 93 121
70 89 118
71 87 112
72 89 115
72 89 115
71 91 121
75 96 128
71 87 110
59 70 86
65 81 106
62 77 100
76 94 121
74 93 121
65 80 102
50 62 80
46 57 73
73 91 118
78 98 128
64 79 102
75 88 108
65 83 109
74 90 116
79 98 128
67 83 105
59 74 97
68 83 105
67 83 106
61 74 93
45 58 77
79 99 128
57 71 92
48 61 80
74 93 121
76 90 112
70 87 112
79 96 121
69 83 105
74 92 118
67 83 106
70 91 121
71 86 109
57 68 85
60 73 92
72 92 121
53 69 93
64 77 96
73 90 116
80 99 128
70 88 115
73 91 118
63 79 102
68 83 105
81 99 128
76 91 115
57 69 86
65 79 102
58 74 99
63 80 105
74 91 118
61 78 103
79 96 121
38 48 64
64 82 108
66 82 105
60 74 96
62 77 99
77 93 118
65 80 102
78 93 116
81 97 121
68 82 103
66 78 97
73 88 110
58 71 91
49 59 73
59 71 90
63 80 106
75 90 112
69 86 112
43 56 75
76 91 115
66 83 108
54 69 90
70 87 112
65 84 112
83 101 128
58 72 93
64 80 105
60 75 96
63 78 102
66 79 99
62 77 99
75 92 118
54 67 85
33 40 52
52 64 84
72 90 118
67 82 105
60 74 94
79 98 128
61 75 96
63 77 97
64 78 100
64 77 96
74 89 112
75 92 118
60 74 96
64 83 110
70 87 112
77 91 112
62 75 94
63 76 96
75 91 115
70 87 112
71 90 118
66 81 103
59 74 97
60 72 90
51 63 80
58 72 94
71 86 108
75 92 118
71 87 112
66 79 99
54 68 89
64 78 99
69 85 108
80 95 118
67 82 105
72 89 115
72 86 108
68 81 102
54 66 85
53 65 83
71 88 115
75 92 118
64 78 99
54 67 87
51 65 86
74 91 118
73 90 115
74 89 112
67 84 108
66 83 107
50 60 76
69 88 115
73 87 108
56 71 92
55 71 96
64 77 96
45 56 74
59 71 89
79 94 118
69 85 108
45 58 77
48 61 79
72 91 118
62 77 100
75 92 118
47 58 74
56 72 96
75 91 115
80 99 128
85 102 128
60 73 94
53 65 84
60 76 99
51 63 81
67 82 105
79 96 121
60 74 96
74 93 121
81 100 128
58 72 93
55 67 86
71 89 115
72 89 116
76 92 116
65 80 102
67 85 112
63 79 102
60 76 99
75 93 121
64 79 102
58 73 96
68 84 108
52 67 89
68 87 115
61 76 99
79 96 121
68 83 106
73 88 112
67 81 102
77 97 128
64 80 106
79 96 121
77 93 118
63 81 108
80 99 128
81 97 121
51 61 77
72 91 121
75 93 121
65 81 107
75 92 118
68 83 106
53 66 84
61 76 99
71 86 108
64 79 102
76 97 128
70 85 108
63 77 99
78 98 128
72 88 112
68 84 108
68 84 108
54 70 93
76 94 121
69 88 115
78 98 128
74 92 118
72 91 118
81 99 128
79 96 121
72 91 118
77 97 128
70 84 104
81 100 128
74 93 121
71 90 118
68 85 112
67 83 108
74 93 121
74 93 121
66 83 108
75 91 116
71 90 118
82 100 128
60 75 97
71 88 115
70 87 112
64 80 105
72 90 118
63 80 105
66 82 105
74 91 118
71 88 115
69 86 112
63 80 105
70 89 118
73 92 121
60 75 96
73 90 116
74 90 116
63 77 99
76 97 128
67 85 112
80 99 128
83 101 128
78 94 118
60 77 102
70 85 107
68 88 118
63 81 108
70 89 118
61 79 105
72 91 118
82 100 128
77 94 121
75 92 118
64 79 102
75 92 118
72 88 112
73 91 118
73 91 118
69 85 108
59 75 99
78 98 128
75 94 121
53 71 99
69 86 112
83 101 128
68 88 118
81 100 128
70 87 112
62 79 104
73 95 128
77 97 128
76 94 121
63 80 105
81 100 128
73 91 118
68 85 112
73 95 128
81 100 128
70 89 118
