P3
400 225
255
204 226 255
204 226 255
204 226 255
204 226 255
204 226 255
204 226 255
204 226 255
204 226 255
204 226 255
204 226 255
204 226 255
204 226 255
204 226 255
204 226 255
204 226 255
204 226 255
203 226 255
203 226 255
203 226 255
203 226 255
203 226 255
203 226 255
203 226 255
203 225 255
203 225 255
203 225 255
203 225 255
203 225 255
203 225 255
203 225 255
203 225 255
203 225 255
202 225 255
202 225 255
202 225 255
202 225 255
202 225 255
202 225 255
202 225 255
202 225 255
202 225 255
202 225 255
202 225 255
202 225 255
202 225 255
202 225 255
202 225 255
202 225 255
201 225 255
201 225 255
201 225 255
201 225 255
201 225 255
201 224 255
201 224 255
201 224 255
201 224 255
201 224 255
201 224 255
201 224 255
201 224 255
201 224 255
201 224 255
200 224 255
200 224 255
200 224 255
200 224 255
200 224 255
200 224 255
200 224 255
200 224 255
200 224 255
200 224 255
200 224 255
200 224 255
200 224 255
200 224 255
199 224 255
199 224 255
199 224 255
199 223 255
199 223 255
199 223 255
199 223 255
199 223 255
199 223 255
199 223 255
199 223 255
199 223 255
199 223 255
199 223 255
198 223 255
198 223 255
198 223 255
198 223 255
198 223 255
198 223 255
198 223 255
198 223 255
198 223 255
198 223 255
198 223 255
198 223 255
198 223 255
198 223 255
198 223 255
197 223 255
197 222 255
197 222 255
197 222 255
197 222 255
197 222 255
197 222 255
197 222 255
197 222 255
197 222 255
197 222 255
197 222 255
197 222 255
197 222 255
197 222 255
196 222 255
196 222 255
196 222 255
196 222 255
196 222 255
196 222 255
196 222 255
196 222 255
196 222 255
196 222 255
196 222 255
196 222 255
196 222 255
196 222 255
196 221 255
196 221 255
195 221 255
195 221 255
195 221 255
195 221 255
195 221 255
195 221 255
195 221 255
195 221 255
195 221 255
195 221 255
195 221 255
195 221 255
195 221 255
195 221 255
195 221 255
195 221 255
195 221 255
195 221 255
194 221 255
194 221 255
194 221 255
194 221 255
194 221 255
194 221 255
194 221 255
194 221 255
194 221 255
194 221 255
194 221 255
194 221 255
194 221 255
194 221 255
194 221 255
194 221 255
194 221 255
194 221 255
194 221 255
194 221 255
194 221 255
194 221 255
194 220 255
194 220 255
194 220 255
194 220 255
194 220 255
194 220 255
194 220 255
194 220 255
194 220 255
193 220 255
193 220 255
193 220 255
193 220 255
193 220 255
193 220 255
193 220 255
193 220 255
193 220 255
193 220 255
193 220 255
193 220 255
193 220 255
193 220 255
193 220 255
193 220 255
193 220 255
193 220 255
193 220 255
193 220 255
193 220 255
193 220 255
193 220 255
193 220 255
193 220 255
193 220 255
193 220 255
194 220 255
194 220 255
194 220 255
194 220 255
194 220 255
194 220 255
194 220 255
194 220 255
194 220 255
194 220 255
194 221 255
194 221 255
194 221 255
194 221 255
194 221 255
194 221 255
194 221 255
194 221 255
194 221 255
194 221 255
194 221 255
194 221 255
194 221 255
194 221 255
194 221 255
194 221 255
194 221 255
194 221 255
194 221 255
194 221 255
194 221 255
194 221 255
195 221 255
195 221 255
195 221 255
195 221 255
195 221 255
195 221 255
195 221 255
195 221 255
195 221 255
195 221 255
195 221 255
195 221 255
195 221 255
195 221 255
195 221 255
195 221 255
195 221 255
195 221 255
195 221 255
196 221 255
196 222 255
196 222 255
196 222 255
196 222 255
196 222 255
196 222 255
196 222 255
196 222 255
196 222 255
196 222 255
196 222 255
196 222 255
196 222 255
196 222 255
197 222 255
197 222 255
197 222 255
197 222 255
197 222 255
197 222 255
197 222 255
197 222 255
197 222 255
197 222 255
197 222 255
197 222 255
197 222 255
197 222 255
197 223 255
198 223 255
198 223 255
198 223 255
198 223 255
198 223 255
198 223 255
198 223 255
198 223 255
198 223 255
198 223 255
198 223 255
198 223 255
198 223 255
198 223 255
199 223 255
199 223 255
199 223 255
199 223 255
199 223 255
199 223 255
199 223 255
199 223 255
199 223 255
199 223 255
199 223 255
199 223 255
199 224 255
199 224 255
199 224 255
200 224 255
200 224 255
200 224 255
200 224 255
200 224 255
200 224 255
200 224 255
200 224 255
200 224 255
200 224 255
200 224 255
200 224 255
200 224 255
200 224 255
201 224 255
201 224 255
201 224 255
201 224 255
201 224 255
201 224 255
201 224 255
201 224 255
201 224 255
201 224 255
201 225 255
201 225 255
201 225 255
201 225 255
201 225 255
202 225 255
202 225 255
202 225 255
202 225 255
202 225 255
202 225 255
202 225 255
202 225 255
202 225 255
202 225 255
202 225 255
202 225 255
202 225 255
202 225 255
202 225 255
202 225 255
203 225 255
203 225 255
203 225 255
203 225 255
203 225 255
203 225 255
203 225 255
203 225 255
203 225 255
203 226 255
203 226 255
203 226 255
203 226 255
203 226 255
203 226 255
203 226 255
204 226 255
204 226 255
204 226 255
204 226 255
204 226 255
204 226 255
204 226 255
204 226 255
204 226 255
204 226 255
204 226 255
204 226 255
204 226 255
204 226 255
204 226 255
204 226 255
204 226 255
204 226 255
204 226 255
204 226 255
204 226 255
204 226 255
204 226 255
204 226 255
204 226 255
204 226 255
204 226 255
204 226 255
204 226 255
204 226 255
204 226 255
204 226 255
204 226 255
204 226 255
203 226 255
203 226 255
203 226 255
203 226 255
203 226 255
203 226 255
203 226 255
203 226 255
203 225 255
203 225 255
203 225 255
203 225 255
203 225 255
203 225 255
203 225 255
203 225 255
203 225 255
202 225 255
202 225 255
202 225 255
202 225 255
202 225 255
202 225 255
202 225 255
202 225 255
202 225 255
202 225 255
202 225 255
202 225 255
202 225 255
202 225 255
202 225 255
201 225 255
201 225 255
201 225 255
201 225 255
201 224 255
201 224 255
201 224 255
201 224 255
201 224 255
201 224 255
201 224 255
201 224 255
201 224 255
201 224 255
201 224 255
200 224 255
200 224 255
200 224 255
200 224 255
200 224 255
200 224 255
200 224 255
200 224 255
200 224 255
200 224 255
200 224 255
200 224 255
200 224 255
200 224 255
199 224 255
199 224 255
199 224 255
199 223 255
199 223 255
199 223 255
199 223 255
199 223 255
199 223 255
199 223 255
199 223 255
199 223 255
199 223 255
199 223 255
199 223 255
198 223 255
198 223 255
198 223 255
198 223 255
198 223 255
198 223 255
198 223 255
198 223 255
198 223 255
198 223 255
198 223 255
198 223 255
198 223 255
198 223 255
197 223 255
197 222 255
197 222 255
197 222 255
197 222 255
197 222 255
197 222 255
197 222 255
197 222 255
197 222 255
197 222 255
197 222 255
197 222 255
197 222 255
197 222 255
196 222 255
196 222 255
196 222 255
196 222 255
196 222 255
196 222 255
196 222 255
196 222 255
196 222 255
196 222 255
196 222 255
196 222 255
196 222 255
196 222 255
196 221 255
196 221 255
195 221 255
195 221 255
195 221 255
195 221 255
195 221 255
195 221 255
195 221 255
195 221 255
195 221 255
195 221 255
195 221 255
195 221 255
195 221 255
195 221 255
195 221 255
195 221 255
195 221 255
195 221 255
195 221 255
194 221 255
194 221 255
194 221 255
194 221 255
194 221 255
194 221 255
194 221 255
194 221 255
194 221 255
194 221 255
194 221 255
194 221 255
194 221 255
194 221 255
194 221 255
194 221 255
194 221 255
194 221 255
194 221 255
194 221 255
194 221 255
194 221 255
194 221 255
194 221 255
194 221 255
194 220 255
194 220 255
194 220 255
194 220 255
194 220 255
194 220 255
194 220 255
194 220 255
194 220 255
194 220 255
194 220 255
194 220 255
194 220 255
194 220 255
194 220 255
194 220 255
194 220 255
194 220 255
194 220 255
194 220 255
194 220 255
194 220 255
194 220 255
194 220 255
194 220 255
194 220 255
194 220 255
194 220 255
194 220 255
194 220 255
194 220 255
194 220 255
194 220 255
194 220 255
194 221 255
194 221 255
194 221 255
194 221 255
194 221 255
194 221 255
194 221 255
194 221 255
194 221 255
194 221 255
194 221 255
194 221 255
194 221 255
194 221 255
194 221 255
194 221 255
194 221 255
194 221 255
194 221 255
194 221 255
194 221 255
194 221 255
194 221 255
194 221 255
195 221 255
195 221 255
195 221 255
195 221 255
195 221 255
195 221 255
195 221 255
195 221 255
195 221 255
195 221 255
195 221 255
195 221 255
195 221 255
195 221 255
195 221 255
195 221 255
195 221 255
195 221 255
195 221 255
195 221 255
196 221 255
196 222 255
196 222 255
196 222 255
196 222 255
196 222 255
196 222 255
196 222 255
196 222 255
196 222 255
196 222 255
196 222 255
196 222 255
196 222 255
196 222 255
196 222 255
197 222 255
197 222 255
197 222 255
197 222 255
197 222 255
197 222 255
197 222 255
197 222 255
197 222 255
197 222 255
197 222 255
197 222 255
197 222 255
197 222 255
197 222 255
198 223 255
198 223 255
198 223 255
198 223 255
198 223 255
198 223 255
198 223 255
198 223 255
198 223 255
198 223 255
198 223 255
198 223 255
198 223 255
198 223 255
199 223 255
199 223 255
199 223 255
199 223 255
199 223 255
199 223 255
199 223 255
199 223 255
199 223 255
199 223 255
199 223 255
199 223 255
199 224 255
199 224 255
200 224 255
200 224 255
200 224 255
200 224 255
200 224 255
200 224 255
200 224 255
200 224 255
200 224 255
200 224 255
200 224 255
200 224 255
200 224 255
200 224 255
200 224 255
201 224 255
201 224 255
201 224 255
201 224 255
201 224 255
201 224 255
201 224 255
201 224 255
201 224 255
201 224 255
201 224 255
201 225 255
201 225 255
201 225 255
201 225 255
202 225 255
202 225 255
202 225 255
202 225 255
202 225 255
202 225 255
202 225 255
202 225 255
202 225 255
202 225 255
202 225 255
202 225 255
202 225 255
202 225 255
202 225 255
202 225 255
203 225 255
203 225 255
203 225 255
203 225 255
203 225 255
203 225 255
203 225 255
203 225 255
203 225 255
203 226 255
203 226 255
203 226 255
203 226 255
203 226 255
203 226 255
203 226 255
204 226 255
204 226 255
204 226 255
204 226 255
204 226 255
204 226 255
204 226 255
204 226 255
204 226 255
204 226 255
204 226 255
204 226 255
204 226 255
204 226 255
204 226 255
204 226 255
204 226 255
204 226 255
205 226 255
205 226 255
204 226 255
204 226 255
204 226 255
204 226 255
204 226 255
204 226 255
204 226 255
204 226 255
204 226 255
204 226 255
204 226 255
204 226 255
204 226 255
204 226 255
204 226 255
204 226 255
204 226 255
204 226 255
203 226 255
203 226 255
203 226 255
203 226 255
203 226 255
203 226 255
203 226 255
203 225 255
203 225 255
203 225 255
203 225 255
203 225 255
203 225 255
203 225 255
203 225 255
203 225 255
202 225 255
202 225 255
202 225 255
202 225 255
202 225 255
202 225 255
202 225 255
202 225 255
202 225 255
202 225 255
202 225 255
202 225 255
202 225 255
202 225 255
202 225 255
202 225 255
201 225 255
201 225 255
201 225 255
201 225 255
201 224 255
201 224 255
201 224 255
201 224 255
201 224 255
201 224 255
201 224 255
201 224 255
201 224 255
201 224 255
201 224 255
200 224 255
200 224 255
200 224 255
200 224 255
200 224 255
200 224 255
200 224 255
200 224 255
200 224 255
200 224 255
200 224 255
200 224 255
200 224 255
200 224 255
199 224 255
199 224 255
199 224 255
199 223 255
199 223 255
199 223 255
199 223 255
199 223 255
199 223 255
199 223 255
199 223 255
199 223 255
199 223 255
199 223 255
199 223 255
198 223 255
198 223 255
198 223 255
198 223 255
198 223 255
198 223 255
198 223 255
198 223 255
198 223 255
198 223 255
198 223 255
198 223 255
198 223 255
198 223 255
198 223 255
197 222 255
197 222 255
197 222 255
197 222 255
197 222 255
197 222 255
197 222 255
197 222 255
197 222 255
197 222 255
197 222 255
197 222 255
197 222 255
197 222 255
196 222 255
196 222 255
196 222 255
196 222 255
196 222 255
196 222 255
196 222 255
196 222 255
196 222 255
196 222 255
196 222 255
196 222 255
196 222 255
196 222 255
196 222 255
196 221 255
195 221 255
195 221 255
195 221 255
195 221 255
195 221 255
195 221 255
195 221 255
195 221 255
195 221 255
195 221 255
195 221 255
195 221 255
195 221 255
195 221 255
195 221 255
195 221 255
195 221 255
195 221 255
195 221 255
195 221 255
195 221 255
194 221 255
194 221 255
194 221 255
194 221 255
194 221 255
194 221 255
194 221 255
194 221 255
194 221 255
194 221 255
194 221 255
194 221 255
194 221 255
194 221 255
194 221 255
194 221 255
194 221 255
194 221 255
194 221 255
194 221 255
194 221 255
194 221 255
194 221 255
194 221 255
194 221 255
194 221 255
194 221 255
194 221 255
194 221 255
194 221 255
194 221 255
194 220 255
194 220 255
194 220 255
194 220 255
194 220 255
194 220 255
194 220 255
194 220 255
194 220 255
194 220 255
194 220 255
194 220 255
194 220 255
194 220 255
194 221 255
194 220 255
194 221 255
194 221 255
194 221 255
194 221 255
194 221 255
194 221 255
194 221 255
194 221 255
194 221 255
194 221 255
194 221 255
194 221 255
194 221 255
194 221 255
194 221 255
194 221 255
194 221 255
194 221 255
194 221 255
194 221 255
194 221 255
194 221 255
194 221 255
194 221 255
194 221 255
194 221 255
194 221 255
194 221 255
194 221 255
194 221 255
195 221 255
195 221 255
195 221 255
195 221 255
195 221 255
195 221 255
195 221 255
195 221 255
195 221 255
195 221 255
195 221 255
195 221 255
195 221 255
195 221 255
195 221 255
195 221 255
195 221 255
195 221 255
195 221 255
195 221 255
196 221 255
196 222 255
196 222 255
196 222 255
196 222 255
196 222 255
196 222 255
196 222 255
196 222 255
196 222 255
196 222 255
196 222 255
196 222 255
196 222 255
196 222 255
196 222 255
197 222 255
197 222 255
197 222 255
197 222 255
197 222 255
197 222 255
197 222 255
197 222 255
197 222 255
197 222 255
197 222 255
197 222 255
197 222 255
197 222 255
197 222 255
198 223 255
198 223 255
198 223 255
198 223 255
198 223 255
198 223 255
198 223 255
198 223 255
198 223 255
198 223 255
198 223 255
198 223 255
198 223 255
198 223 255
198 223 255
199 223 255
199 223 255
199 223 255
199 223 255
199 223 255
199 223 255
199 223 255
199 223 255
199 223 255
199 223 255
199 223 255
199 224 255
199 224 255
199 224 255
200 224 255
200 224 255
200 224 255
200 224 255
200 224 255
200 224 255
200 224 255
200 224 255
200 224 255
200 224 255
200 224 255
200 224 255
200 224 255
200 224 255
201 224 255
201 224 255
201 224 255
201 224 255
201 224 255
201 224 255
201 224 255
201 224 255
201 224 255
201 224 255
201 224 255
201 225 255
201 225 255
201 225 255
201 225 255
202 225 255
202 225 255
202 225 255
202 225 255
202 225 255
202 225 255
202 225 255
202 225 255
202 225 255
202 225 255
202 225 255
202 225 255
202 225 255
202 225 255
202 225 255
202 225 255
203 225 255
203 225 255
203 225 255
203 225 255
203 225 255
203 225 255
203 225 255
203 225 255
203 225 255
203 226 255
203 226 255
203 226 255
203 226 255
203 226 255
203 226 255
203 226 255
204 226 255
204 226 255
204 226 255
204 226 255
204 226 255
204 226 255
204 226 255
204 226 255
204 226 255
204 226 255
204 226 255
204 226 255
204 226 255
204 226 255
204 226 255
204 226 255
204 226 255
204 226 255
205 226 255
205 226 255
205 226 255
205 226 255
205 226 255
205 226 255
204 226 255
204 226 255
204 226 255
204 226 255
204 226 255
204 226 255
204 226 255
204 226 255
204 226 255
204 226 255
204 226 255
204 226 255
204 226 255
204 226 255
204 226 255
204 226 255
204 226 255
204 226 255
203 226 255
203 226 255
203 226 255
203 226 255
203 226 255
203 226 255
203 226 255
203 226 255
203 225 255
203 225 255
203 225 255
203 225 255
203 225 255
203 225 255
203 225 255
203 225 255
203 225 255
202 225 255
202 225 255
202 225 255
202 225 255
202 225 255
202 225 255
202 225 255
202 225 255
202 225 255
202 225 255
202 225 255
202 225 255
202 225 255
202 225 255
202 225 255
201 225 255
201 225 255
201 225 255
201 225 255
201 225 255
201 224 255
201 224 255
201 224 255
201 224 255
201 224 255
201 224 255
201 224 255
201 224 255
201 224 255
201 224 255
200 224 255
200 224 255
200 224 255
200 224 255
200 224 255
200 224 255
200 224 255
200 224 255
200 224 255
200 224 255
200 224 255
200 224 255
200 224 255
200 224 255
200 224 255
199 224 255
199 224 255
199 223 255
199 223 255
199 223 255
199 223 255
199 223 255
199 223 255
199 223 255
199 223 255
199 223 255
199 223 255
199 223 255
199 223 255
198 223 255
198 223 255
198 223 255
198 223 255
198 223 255
198 223 255
198 223 255
198 223 255
198 223 255
198 223 255
198 223 255
198 223 255
198 223 255
198 223 255
197 223 255
197 222 255
197 222 255
197 222 255
197 222 255
197 222 255
197 222 255
197 222 255
197 222 255
197 222 255
197 222 255
197 222 255
197 222 255
197 222 255
197 222 255
196 222 255
196 222 255
196 222 255
196 222 255
196 222 255
196 222 255
196 222 255
196 222 255
196 222 255
196 222 255
196 222 255
196 222 255
196 222 255
196 222 255
196 222 255
196 222 255
196 221 255
195 221 255
195 221 255
195 221 255
195 221 255
195 221 255
195 221 255
195 221 255
195 221 255
195 221 255
195 221 255
195 221 255
195 221 255
195 221 255
195 221 255
195 221 255
195 221 255
195 221 255
195 221 255
195 221 255
195 221 255
195 221 255
194 221 255
194 221 255
194 221 255
194 221 255
194 221 255
194 221 255
194 221 255
194 221 255
194 221 255
194 221 255
194 221 255
194 221 255
194 221 255
194 221 255
194 221 255
194 221 255
194 221 255
194 221 255
194 221 255
194 221 255
194 221 255
194 221 255
194 221 255
194 221 255
194 221 255
194 221 255
194 221 255
194 221 255
194 221 255
194 221 255
194 221 255
194 221 255
194 221 255
194 221 255
194 221 255
194 221 255
194 221 255
194 221 255
194 221 255
194 221 255
194 221 255
194 221 255
194 221 255
194 221 255
194 221 255
194 221 255
194 221 255
194 221 255
194 221 255
194 221 255
194 221 255
194 221 255
194 221 255
194 221 255
194 221 255
194 221 255
194 221 255
194 221 255
194 221 255
194 221 255
194 221 255
194 221 255
194 221 255
194 221 255
194 221 255
194 221 255
194 221 255
194 221 255
194 221 255
194 221 255
195 221 255
195 221 255
195 221 255
195 221 255
195 221 255
195 221 255
195 221 255
195 221 255
195 221 255
195 221 255
195 221 255
195 221 255
195 221 255
195 221 255
195 221 255
195 221 255
195 221 255
195 221 255
195 221 255
195 221 255
196 221 255
196 221 255
196 222 255
196 222 255
196 222 255
196 222 255
196 222 255
196 222 255
196 222 255
196 222 255
196 222 255
196 222 255
196 222 255
196 222 255
196 222 255
196 222 255
196 222 255
196 222 255
197 222 255
197 222 255
197 222 255
197 222 255
197 222 255
197 222 255
197 222 255
197 222 255
197 222 255
197 222 255
197 222 255
197 222 255
197 222 255
197 222 255
197 223 255
198 223 255
198 223 255
198 223 255
198 223 255
198 223 255
198 223 255
198 223 255
198 223 255
198 223 255
198 223 255
198 223 255
198 223 255
198 223 255
198 223 255
199 223 255
199 223 255
199 223 255
199 223 255
199 223 255
199 223 255
199 223 255
199 223 255
199 223 255
199 223 255
199 223 255
199 223 255
199 224 255
199 224 255
199 224 255
200 224 255
200 224 255
200 224 255
200 224 255
200 224 255
200 224 255
200 224 255
200 224 255
200 224 255
200 224 255
200 224 255
200 224 255
200 224 255
201 224 255
201 224 255
201 224 255
201 224 255
201 224 255
201 224 255
201 224 255
201 224 255
201 224 255
201 224 255
201 224 255
201 224 255
201 225 255
201 225 255
201 225 255
201 225 255
202 225 255
202 225 255
202 225 255
202 225 255
202 225 255
202 225 255
202 225 255
202 225 255
202 225 255
202 225 255
202 225 255
202 225 255
202 225 255
202 225 255
202 225 255
203 225 255
203 225 255
203 225 255
203 225 255
203 225 255
203 225 255
203 225 255
203 225 255
203 225 255
203 226 255
203 226 255
203 226 255
203 226 255
203 226 255
203 226 255
203 226 255
203 226 255
204 226 255
204 226 255
204 226 255
204 226 255
204 226 255
204 226 255
204 226 255
204 226 255
204 226 255
204 226 255
204 226 255
204 226 255
204 226 255
204 226 255
204 226 255
204 226 255
204 226 255
205 226 255
205 226 255
205 226 255
205 226 255
205 226 255
205 226 255
205 226 255
205 226 255
205 226 255
205 226 255
205 226 255
205 226 255
204 226 255
204 226 255
204 226 255
204 226 255
204 226 255
204 226 255
204 226 255
204 226 255
204 226 255
204 226 255
204 226 255
204 226 255
204 226 255
204 226 255
204 226 255
204 226 255
204 226 255
203 226 255
203 226 255
203 226 255
203 226 255
203 226 255
203 226 255
203 226 255
203 226 255
203 225 255
203 225 255
203 225 255
203 225 255
203 225 255
203 225 255
203 225 255
203 225 255
203 225 255
202 225 255
202 225 255
202 225 255
202 225 255
202 225 255
202 225 255
202 225 255
202 225 255
202 225 255
202 225 255
202 225 255
202 225 255
202 225 255
202 225 255
202 225 255
202 225 255
201 225 255
201 225 255
201 225 255
201 225 255
201 224 255
201 224 255
201 224 255
201 224 255
201 224 255
201 224 255
201 224 255
201 224 255
201 224 255
201 224 255
200 224 255
200 224 255
200 224 255
200 224 255
200 224 255
200 224 255
200 224 255
200 224 255
200 224 255
200 224 255
200 224 255
200 224 255
200 224 255
200 224 255
200 224 255
199 224 255
199 224 255
199 223 255
199 223 255
199 223 255
199 223 255
199 223 255
199 223 255
199 223 255
199 223 255
199 223 255
199 223 255
199 223 255
199 223 255
198 223 255
198 223 255
198 223 255
198 223 255
198 223 255
198 223 255
198 223 255
198 223 255
198 223 255
198 223 255
198 223 255
198 223 255
198 223 255
198 223 255
197 223 255
197 222 255
197 222 255
197 222 255
197 222 255
197 222 255
197 222 255
197 222 255
197 222 255
197 222 255
197 222 255
197 222 255
197 222 255
197 222 255
197 222 255
197 222 255
196 222 255
196 222 255
196 222 255
196 222 255
196 222 255
196 222 255
196 222 255
196 222 255
196 222 255
196 222 255
196 222 255
196 222 255
196 222 255
196 222 255
196 222 255
196 221 255
196 221 255
195 221 255
195 221 255
195 221 255
195 221 255
195 221 255
195 221 255
195 221 255
195 221 255
195 221 255
195 221 255
195 221 255
195 221 255
195 221 255
195 221 255
195 221 255
195 221 255
195 221 255
195 221 255
195 221 255
195 221 255
195 221 255
194 221 255
194 221 255
194 221 255
194 221 255
194 221 255
194 221 255
194 221 255
194 221 255
194 221 255
194 221 255
194 221 255
194 221 255
194 221 255
194 221 255
194 221 255
194 221 255
194 221 255
194 221 255
194 221 255
194 221 255
194 221 255
194 221 255
194 221 255
194 221 255
194 221 255
194 221 255
194 221 255
194 221 255
194 221 255
194 221 255
194 221 255
194 221 255
194 221 255
194 221 255
194 221 255
194 221 255
194 221 255
194 221 255
194 221 255
194 221 255
194 221 255
194 221 255
194 221 255
194 221 255
194 221 255
194 221 255
194 221 255
194 221 255
194 221 255
194 221 255
194 221 255
194 221 255
194 221 255
194 221 255
194 221 255
194 221 255
194 221 255
194 221 255
194 221 255
194 221 255
194 221 255
194 221 255
194 221 255
195 221 255
195 221 255
195 221 255
195 221 255
195 221 255
195 221 255
195 221 255
195 221 255
195 221 255
195 221 255
195 221 255
195 221 255
195 221 255
195 221 255
195 221 255
195 221 255
195 221 255
195 221 255
195 221 255
195 221 255
195 221 255
195 221 255
196 221 255
196 221 255
196 222 255
196 222 255
196 222 255
196 222 255
196 222 255
196 222 255
196 222 255
196 222 255
196 222 255
196 222 255
196 222 255
196 222 255
196 222 255
196 222 255
196 222 255
197 222 255
197 222 255
197 222 255
197 222 255
197 222 255
197 222 255
197 222 255
197 222 255
197 222 255
197 222 255
197 222 255
197 222 255
197 222 255
197 222 255
197 222 255
198 223 255
198 223 255
198 223 255
198 223 255
198 223 255
198 223 255
198 223 255
198 223 255
198 223 255
198 223 255
198 223 255
198 223 255
198 223 255
198 223 255
198 223 255
199 223 255
199 223 255
199 223 255
199 223 255
199 223 255
199 223 255
199 223 255
199 223 255
199 223 255
199 223 255
199 223 255
199 223 255
199 224 255
199 224 255
199 224 255
200 224 255
200 224 255
200 224 255
200 224 255
200 224 255
200 224 255
200 224 255
200 224 255
200 224 255
200 224 255
200 224 255
200 224 255
200 224 255
200 224 255
201 224 255
201 224 255
201 224 255
201 224 255
201 224 255
201 224 255
201 224 255
201 224 255
201 224 255
201 224 255
201 225 255
201 225 255
201 225 255
201 225 255
201 225 255
202 225 255
202 225 255
202 225 255
202 225 255
202 225 255
202 225 255
202 225 255
202 225 255
202 225 255
202 225 255
202 225 255
202 225 255
202 225 255
202 225 255
202 225 255
203 225 255
203 225 255
203 225 255
203 225 255
203 225 255
203 225 255
203 225 255
203 225 255
203 225 255
203 226 255
203 226 255
203 226 255
203 226 255
203 226 255
203 226 255
203 226 255
204 226 255
204 226 255
204 226 255
204 226 255
204 226 255
204 226 255
204 226 255
204 226 255
204 226 255
204 226 255
204 226 255
204 226 255
204 226 255
204 226 255
204 226 255
204 226 255
204 226 255
204 226 255
205 226 255
205 226 255
205 226 255
205 226 255
205 226 255
205 226 255
205 226 255
205 227 255
205 227 255
205 226 255
205 226 255
205 226 255
205 226 255
205 226 255
205 226 255
205 226 255
204 226 255
204 226 255
204 226 255
204 226 255
204 226 255
204 226 255
204 226 255
204 226 255
204 226 255
204 226 255
204 226 255
204 226 255
204 226 255
204 226 255
204 226 255
204 226 255
204 226 255
204 226 255
203 226 255
203 226 255
203 226 255
203 226 255
203 226 255
203 226 255
203 226 255
203 225 255
203 225 255
203 225 255
203 225 255
203 225 255
203 225 255
203 225 255
203 225 255
203 225 255
202 225 255
202 225 255
202 225 255
202 225 255
202 225 255
202 225 255
202 225 255
202 225 255
202 225 255
202 225 255
202 225 255
202 225 255
202 225 255
202 225 255
202 225 255
201 225 255
201 225 255
201 225 255
201 225 255
201 225 255
201 224 255
201 224 255
201 224 255
201 224 255
201 224 255
201 224 255
201 224 255
201 224 255
201 224 255
201 224 255
200 224 255
200 224 255
200 224 255
200 224 255
200 224 255
200 224 255
200 224 255
200 224 255
200 224 255
200 224 255
200 224 255
200 224 255
200 224 255
200 224 255
200 224 255
199 224 255
199 224 255
199 223 255
199 223 255
199 223 255
199 223 255
199 223 255
199 223 255
199 223 255
199 223 255
199 223 255
199 223 255
199 223 255
199 223 255
198 223 255
198 223 255
198 223 255
198 223 255
198 223 255
198 223 255
198 223 255
198 223 255
198 223 255
198 223 255
198 223 255
198 223 255
198 223 255
198 223 255
198 223 255
197 222 255
197 222 255
197 222 255
197 222 255
197 222 255
197 222 255
197 222 255
197 222 255
197 222 255
197 222 255
197 222 255
197 222 255
197 222 255
197 222 255
197 222 255
196 222 255
196 222 255
196 222 255
196 222 255
196 222 255
196 222 255
196 222 255
196 222 255
196 222 255
196 222 255
196 222 255
196 222 255
196 222 255
196 222 255
196 222 255
196 222 255
196 221 255
196 221 255
195 221 255
195 221 255
195 221 255
195 221 255
195 221 255
195 221 255
195 221 255
195 221 255
195 221 255
195 221 255
195 221 255
195 221 255
195 221 255
195 221 255
195 221 255
195 221 255
195 221 255
195 221 255
195 221 255
195 221 255
195 221 255
195 221 255
195 221 255
194 221 255
194 221 255
194 221 255
194 221 255
194 221 255
194 221 255
194 221 255
194 221 255
194 221 255
194 221 255
194 221 255
194 221 255
194 221 255
194 221 255
194 221 255
194 221 255
194 221 255
194 221 255
194 221 255
194 221 255
194 221 255
194 221 255
194 221 255
194 221 255
194 221 255
194 221 255
194 221 255
194 221 255
194 221 255
194 221 255
194 221 255
194 221 255
194 221 255
194 221 255
194 221 255
194 221 255
194 221 255
194 221 255
194 221 255
194 221 255
194 221 255
194 221 255
194 221 255
194 221 255
194 221 255
194 221 255
194 221 255
194 221 255
194 221 255
194 221 255
194 221 255
194 221 255
194 221 255
194 221 255
195 221 255
195 221 255
195 221 255
195 221 255
195 221 255
195 221 255
195 221 255
195 221 255
195 221 255
195 221 255
195 221 255
195 221 255
195 221 255
195 221 255
195 221 255
195 221 255
195 221 255
195 221 255
195 221 255
195 221 255
195 221 255
195 221 255
195 221 255
196 221 255
196 221 255
196 222 255
196 222 255
196 222 255
196 222 255
196 222 255
196 222 255
196 222 255
196 222 255
196 222 255
196 222 255
196 222 255
196 222 255
196 222 255
196 222 255
196 222 255
196 222 255
197 222 255
197 222 255
197 222 255
197 222 255
197 222 255
197 222 255
197 222 255
197 222 255
197 222 255
197 222 255
197 222 255
197 222 255
197 222 255
197 222 255
197 222 255
198 223 255
198 223 255
198 223 255
198 223 255
198 223 255
198 223 255
198 223 255
198 223 255
198 223 255
198 223 255
198 223 255
198 223 255
198 223 255
198 223 255
198 223 255
199 223 255
199 223 255
199 223 255
199 223 255
199 223 255
199 223 255
199 223 255
199 223 255
199 223 255
199 223 255
199 223 255
199 223 255
199 224 255
199 224 255
200 224 255
200 224 255
200 224 255
200 224 255
200 224 255
200 224 255
200 224 255
200 224 255
200 224 255
200 224 255
200 224 255
200 224 255
200 224 255
200 224 255
200 224 255
201 224 255
201 224 255
201 224 255
201 224 255
201 224 255
201 224 255
201 224 255
201 224 255
201 224 255
201 224 255
201 225 255
201 225 255
201 225 255
201 225 255
202 225 255
202 225 255
202 225 255
202 225 255
202 225 255
202 225 255
202 225 255
202 225 255
202 225 255
202 225 255
202 225 255
202 225 255
202 225 255
202 225 255
202 225 255
202 225 255
203 225 255
203 225 255
203 225 255
203 225 255
203 225 255
203 225 255
203 225 255
203 225 255
203 226 255
203 226 255
203 226 255
203 226 255
203 226 255
203 226 255
203 226 255
203 226 255
204 226 255
204 226 255
204 226 255
204 226 255
204 226 255
204 226 255
204 226 255
204 226 255
204 226 255
204 226 255
204 226 255
204 226 255
204 226 255
204 226 255
204 226 255
204 226 255
204 226 255
204 226 255
205 226 255
205 226 255
205 226 255
205 226 255
205 226 255
205 226 255
205 226 255
205 227 255
205 227 255
205 227 255
205 227 255
205 227 255
205 227 255
205 226 255
205 226 255
205 226 255
205 226 255
205 226 255
205 226 255
205 226 255
205 226 255
204 226 255
204 226 255
204 226 255
204 226 255
204 226 255
204 226 255
204 226 255
204 226 255
204 226 255
204 226 255
204 226 255
204 226 255
204 226 255
204 226 255
204 226 255
204 226 255
204 226 255
203 226 255
203 226 255
203 226 255
203 226 255
203 226 255
203 226 255
203 226 255
203 225 255
203 225 255
203 225 255
203 225 255
203 225 255
203 225 255
203 225 255
203 225 255
203 225 255
202 225 255
202 225 255
202 225 255
202 225 255
202 225 255
202 225 255
202 225 255
202 225 255
202 225 255
202 225 255
202 225 255
202 225 255
202 225 255
202 225 255
202 225 255
202 225 255
201 225 255
201 225 255
201 225 255
201 225 255
201 225 255
201 224 255
201 224 255
201 224 255
201 224 255
201 224 255
201 224 255
201 224 255
201 224 255
201 224 255
201 224 255
200 224 255
200 224 255
200 224 255
200 224 255
200 224 255
200 224 255
200 224 255
200 224 255
200 224 255
200 224 255
200 224 255
200 224 255
200 224 255
200 224 255
199 224 255
199 224 255
199 223 255
199 223 255
199 223 255
199 223 255
199 223 255
199 223 255
199 223 255
199 223 255
199 223 255
199 223 255
199 223 255
199 223 255
198 223 255
198 223 255
198 223 255
198 223 255
198 223 255
198 223 255
198 223 255
198 223 255
198 223 255
198 223 255
198 223 255
198 223 255
198 223 255
198 223 255
198 223 255
197 222 255
197 222 255
197 222 255
197 222 255
197 222 255
197 222 255
197 222 255
197 222 255
197 222 255
197 222 255
197 222 255
197 222 255
197 222 255
197 222 255
197 222 255
197 222 255
196 222 255
196 222 255
196 222 255
196 222 255
196 222 255
196 222 255
196 222 255
196 222 255
196 222 255
196 222 255
196 222 255
196 222 255
196 222 255
196 222 255
196 222 255
196 221 255
196 221 255
195 221 255
195 221 255
195 221 255
195 221 255
195 221 255
195 221 255
195 221 255
195 221 255
195 221 255
195 221 255
195 221 255
195 221 255
195 221 255
195 221 255
195 221 255
195 221 255
195 221 255
195 221 255
195 221 255
195 221 255
195 221 255
195 221 255
195 221 255
195 221 255
195 221 255
195 221 255
195 221 255
194 221 255
194 221 255
194 221 255
194 221 255
194 221 255
194 221 255
194 221 255
194 221 255
194 221 255
194 221 255
194 221 255
194 221 255
194 221 255
194 221 255
194 221 255
194 221 255
194 221 255
194 221 255
194 221 255
194 221 255
194 221 255
194 221 255
194 221 255
194 221 255
194 221 255
194 221 255
194 221 255
194 221 255
194 221 255
194 221 255
194 221 255
194 221 255
194 221 255
194 221 255
194 221 255
194 221 255
194 221 255
194 221 255
194 221 255
194 221 255
194 221 255
194 221 255
195 221 255
195 221 255
195 221 255
195 221 255
195 221 255
195 221 255
195 221 255
195 221 255
195 221 255
195 221 255
195 221 255
195 221 255
195 221 255
195 221 255
195 221 255
195 221 255
195 221 255
195 221 255
195 221 255
195 221 255
195 221 255
195 221 255
195 221 255
195 221 255
195 221 255
195 221 255
195 221 255
196 221 255
196 221 255
196 222 255
196 222 255
196 222 255
196 222 255
196 222 255
196 222 255
196 222 255
196 222 255
196 222 255
196 222 255
196 222 255
196 222 255
196 222 255
196 222 255
196 222 255
197 222 255
197 222 255
197 222 255
197 222 255
197 222 255
197 222 255
197 222 255
197 222 255
197 222 255
197 222 255
197 222 255
197 222 255
197 222 255
197 222 255
197 222 255
197 222 255
198 223 255
198 223 255
198 223 255
198 223 255
198 223 255
198 223 255
198 223 255
198 223 255
198 223 255
198 223 255
198 223 255
198 223 255
198 223 255
198 223 255
198 223 255
199 223 255
199 223 255
199 223 255
199 223 255
199 223 255
199 223 255
199 223 255
199 223 255
199 223 255
199 223 255
199 223 255
199 223 255
199 224 255
199 224 255
200 224 255
200 224 255
200 224 255
200 224 255
200 224 255
200 224 255
200 224 255
200 224 255
200 224 255
200 224 255
200 224 255
200 224 255
200 224 255
200 224 255
201 224 255
201 224 255
201 224 255
201 224 255
201 224 255
201 224 255
201 224 255
201 224 255
201 224 255
201 224 255
201 225 255
201 225 255
201 225 255
201 225 255
201 225 255
202 225 255
202 225 255
202 225 255
202 225 255
202 225 255
202 225 255
202 225 255
202 225 255
202 225 255
202 225 255
202 225 255
202 225 255
202 225 255
202 225 255
202 225 255
202 225 255
203 225 255
203 225 255
203 225 255
203 225 255
203 225 255
203 225 255
203 225 255
203 225 255
203 225 255
203 226 255
203 226 255
203 226 255
203 226 255
203 226 255
203 226 255
203 226 255
204 226 255
204 226 255
204 226 255
204 226 255
204 226 255
204 226 255
204 226 255
204 226 255
204 226 255
204 226 255
204 226 255
204 226 255
204 226 255
204 226 255
204 226 255
204 226 255
204 226 255
205 226 255
205 226 255
205 226 255
205 226 255
205 226 255
205 226 255
205 226 255
205 226 255
205 227 255
205 227 255
205 227 255
205 227 255
205 227 255
205 227 255
205 227 255
205 227 255
205 227 255
205 227 255
205 227 255
205 226 255
205 226 255
205 226 255
205 226 255
205 226 255
205 226 255
205 226 255
204 226 255
204 226 255
204 226 255
204 226 255
204 226 255
204 226 255
204 226 255
204 226 255
204 226 255
204 226 255
204 226 255
204 226 255
204 226 255
204 226 255
204 226 255
204 226 255
204 226 255
203 226 255
203 226 255
203 226 255
203 226 255
203 226 255
203 226 255
203 226 255
203 226 255
203 225 255
203 225 255
203 225 255
203 225 255
203 225 255
203 225 255
203 225 255
203 225 255
202 225 255
202 225 255
202 225 255
202 225 255
202 225 255
202 225 255
202 225 255
202 225 255
202 225 255
202 225 255
202 225 255
202 225 255
202 225 255
202 225 255
202 225 255
202 225 255
201 225 255
201 225 255
201 225 255
201 225 255
201 224 255
201 224 255
201 224 255
201 224 255
201 224 255
201 224 255
201 224 255
201 224 255
201 224 255
201 224 255
201 224 255
200 224 255
200 224 255
200 224 255
200 224 255
200 224 255
200 224 255
200 224 255
200 224 255
200 224 255
200 224 255
200 224 255
200 224 255
200 224 255
200 224 255
199 224 255
199 224 255
199 224 255
199 223 255
199 223 255
199 223 255
199 223 255
199 223 255
199 223 255
199 223 255
199 223 255
199 223 255
199 223 255
199 223 255
198 223 255
198 223 255
198 223 255
198 223 255
198 223 255
198 223 255
198 223 255
198 223 255
198 223 255
198 223 255
198 223 255
198 223 255
198 223 255
198 223 255
198 223 255
197 222 255
197 222 255
197 222 255
197 222 255
197 222 255
197 222 255
197 222 255
197 222 255
197 222 255
197 222 255
197 222 255
197 222 255
197 222 255
197 222 255
197 222 255
197 222 255
196 222 255
196 222 255
196 222 255
196 222 255
196 222 255
196 222 255
196 222 255
196 222 255
196 222 255
196 222 255
196 222 255
196 222 255
196 222 255
196 222 255
196 222 255
196 222 255
196 222 255
196 221 255
195 221 255
195 221 255
195 221 255
195 221 255
195 221 255
195 221 255
195 221 255
195 221 255
195 221 255
195 221 255
195 221 255
195 221 255
195 221 255
195 221 255
195 221 255
195 221 255
195 221 255
195 221 255
195 221 255
195 221 255
195 221 255
195 221 255
195 221 255
195 221 255
195 221 255
195 221 255
195 221 255
195 221 255
195 221 255
195 221 255
195 221 255
194 221 255
194 221 255
194 221 255
194 221 255
194 221 255
194 221 255
194 221 255
194 221 255
194 221 255
194 221 255
194 221 255
194 221 255
194 221 255
194 221 255
194 221 255
194 221 255
194 221 255
194 221 255
194 221 255
194 221 255
194 221 255
194 221 255
194 221 255
194 221 255
194 221 255
194 221 255
194 221 255
194 221 255
195 221 255
195 221 255
195 221 255
195 221 255
195 221 255
195 221 255
195 221 255
195 221 255
195 221 255
195 221 255
195 221 255
195 221 255
195 221 255
195 221 255
195 221 255
195 221 255
195 221 255
195 221 255
195 221 255
195 221 255
195 221 255
195 221 255
195 221 255
195 221 255
195 221 255
195 221 255
195 221 255
195 221 255
195 221 255
195 221 255
196 221 255
196 221 255
196 222 255
196 222 255
196 222 255
196 222 255
196 222 255
196 222 255
196 222 255
196 222 255
196 222 255
196 222 255
196 222 255
196 222 255
196 222 255
196 222 255
196 222 255
196 222 255
196 222 255
197 222 255
197 222 255
197 222 255
197 222 255
197 222 255
197 222 255
197 222 255
197 222 255
197 222 255
197 222 255
197 222 255
197 222 255
197 222 255
197 222 255
197 222 255
197 223 255
198 223 255
198 223 255
198 223 255
198 223 255
198 223 255
198 223 255
198 223 255
198 223 255
198 223 255
198 223 255
198 223 255
198 223 255
198 223 255
198 223 255
199 223 255
199 223 255
199 223 255
199 223 255
199 223 255
199 223 255
199 223 255
199 223 255
199 223 255
199 223 255
199 223 255
199 223 255
199 223 255
199 224 255
199 224 255
200 224 255
200 224 255
200 224 255
200 224 255
200 224 255
200 224 255
200 224 255
200 224 255
200 224 255
200 224 255
200 224 255
200 224 255
200 224 255
200 224 255
201 224 255
201 224 255
201 224 255
201 224 255
201 224 255
201 224 255
201 224 255
201 224 255
201 224 255
201 224 255
201 225 255
201 225 255
201 225 255
201 225 255
201 225 255
202 225 255
202 225 255
202 225 255
202 225 255
202 225 255
202 225 255
202 225 255
202 225 255
202 225 255
202 225 255
202 225 255
202 225 255
202 225 255
202 225 255
202 225 255
203 225 255
203 225 255
203 225 255
203 225 255
203 225 255
203 225 255
203 225 255
203 225 255
203 225 255
203 225 255
203 226 255
203 226 255
203 226 255
203 226 255
203 226 255
203 226 255
203 226 255
204 226 255
204 226 255
204 226 255
204 226 255
204 226 255
204 226 255
204 226 255
204 226 255
204 226 255
204 226 255
204 226 255
204 226 255
204 226 255
204 226 255
204 226 255
204 226 255
204 226 255
205 226 255
205 226 255
205 226 255
205 226 255
205 226 255
205 226 255
205 226 255
205 227 255
205 227 255
205 227 255
205 227 255
205 227 255
205 227 255
205 227 255
205 227 255
205 227 255
205 227 255
205 227 255
205 227 255
205 227 255
205 227 255
205 227 255
205 227 255
205 226 255
205 226 255
205 226 255
205 226 255
205 226 255
205 226 255
205 226 255
205 226 255
204 226 255
204 226 255
204 226 255
204 226 255
204 226 255
204 226 255
204 226 255
204 226 255
204 226 255
204 226 255
204 226 255
204 226 255
204 226 255
204 226 255
204 226 255
204 226 255
204 226 255
203 226 255
203 226 255
203 226 255
203 226 255
203 226 255
203 226 255
203 226 255
203 225 255
203 225 255
203 225 255
203 225 255
203 225 255
203 225 255
203 225 255
203 225 255
203 225 255
202 225 255
202 225 255
202 225 255
202 225 255
202 225 255
202 225 255
202 225 255
202 225 255
202 225 255
202 225 255
202 225 255
202 225 255
202 225 255
202 225 255
202 225 255
201 225 255
201 225 255
201 225 255
201 225 255
201 225 255
201 224 255
201 224 255
201 224 255
201 224 255
201 224 255
201 224 255
201 224 255
201 224 255
201 224 255
201 224 255
200 224 255
200 224 255
200 224 255
200 224 255
200 224 255
200 224 255
200 224 255
200 224 255
200 224 255
200 224 255
200 224 255
200 224 255
200 224 255
200 224 255
199 224 255
199 224 255
199 223 255
199 223 255
199 223 255
199 223 255
199 223 255
199 223 255
199 223 255
199 223 255
199 223 255
199 223 255
199 223 255
199 223 255
198 223 255
198 223 255
198 223 255
198 223 255
198 223 255
198 223 255
198 223 255
198 223 255
198 223 255
198 223 255
198 223 255
198 223 255
198 223 255
198 223 255
198 223 255
197 223 255
197 222 255
197 222 255
197 222 255
197 222 255
197 222 255
197 222 255
197 222 255
197 222 255
197 222 255
197 222 255
197 222 255
197 222 255
197 222 255
197 222 255
197 222 255
196 222 255
196 222 255
196 222 255
196 222 255
196 222 255
196 222 255
196 222 255
196 222 255
196 222 255
196 222 255
196 222 255
196 222 255
196 222 255
196 222 255
196 222 255
196 222 255
196 222 255
196 222 255
196 221 255
196 221 255
195 221 255
195 221 255
195 221 255
195 221 255
195 221 255
195 221 255
195 221 255
195 221 255
195 221 255
195 221 255
195 221 255
195 221 255
195 221 255
195 221 255
195 221 255
195 221 255
195 221 255
195 221 255
195 221 255
195 221 255
195 221 255
195 221 255
195 221 255
195 221 255
195 221 255
195 221 255
195 221 255
195 221 255
195 221 255
195 221 255
195 221 255
195 221 255
195 221 255
195 221 255
195 221 255
195 221 255
195 221 255
195 221 255
195 221 255
195 221 255
195 221 255
195 221 255
195 221 255
195 221 255
195 221 255
195 221 255
195 221 255
195 221 255
195 221 255
195 221 255
195 221 255
195 221 255
195 221 255
195 221 255
195 221 255
195 221 255
195 221 255
195 221 255
195 221 255
195 221 255
195 221 255
195 221 255
195 221 255
195 221 255
195 221 255
195 221 255
195 221 255
195 221 255
195 221 255
195 221 255
195 221 255
195 221 255
195 221 255
195 221 255
195 221 255
195 221 255
195 221 255
195 221 255
195 221 255
195 221 255
195 221 255
195 221 255
195 221 255
196 221 255
196 222 255
196 222 255
196 222 255
196 222 255
196 222 255
196 222 255
196 222 255
196 222 255
196 222 255
196 222 255
196 222 255
196 222 255
196 222 255
196 222 255
196 222 255
196 222 255
196 222 255
197 222 255
197 222 255
197 222 255
197 222 255
197 222 255
197 222 255
197 222 255
197 222 255
197 222 255
197 222 255
197 222 255
197 222 255
197 222 255
197 222 255
197 222 255
197 222 255
198 223 255
198 223 255
198 223 255
198 223 255
198 223 255
198 223 255
198 223 255
198 223 255
198 223 255
198 223 255
198 223 255
198 223 255
198 223 255
198 223 255
198 223 255
199 223 255
199 223 255
199 223 255
199 223 255
199 223 255
199 223 255
199 223 255
199 223 255
199 223 255
199 223 255
199 223 255
199 223 255
199 223 255
199 224 255
199 224 255
200 224 255
200 224 255
200 224 255
200 224 255
200 224 255
200 224 255
200 224 255
200 224 255
200 224 255
200 224 255
200 224 255
200 224 255
200 224 255
200 224 255
201 224 255
201 224 255
201 224 255
201 224 255
201 224 255
201 224 255
201 224 255
201 224 255
201 224 255
201 224 255
201 225 255
201 225 255
201 225 255
201 225 255
201 225 255
202 225 255
202 225 255
202 225 255
202 225 255
202 225 255
202 225 255
202 225 255
202 225 255
202 225 255
202 225 255
202 225 255
202 225 255
202 225 255
202 225 255
202 225 255
203 225 255
203 225 255
203 225 255
203 225 255
203 225 255
203 225 255
203 225 255
203 225 255
203 225 255
203 226 255
203 226 255
203 226 255
203 226 255
203 226 255
203 226 255
203 226 255
204 226 255
204 226 255
204 226 255
204 226 255
204 226 255
204 226 255
204 226 255
204 226 255
204 226 255
204 226 255
204 226 255
204 226 255
204 226 255
204 226 255
204 226 255
204 226 255
204 226 255
205 226 255
205 226 255
205 226 255
205 226 255
205 226 255
205 226 255
205 226 255
205 226 255
205 227 255
205 227 255
205 227 255
205 227 255
205 227 255
205 227 255
205 227 255
205 227 255
205 227 255
205 227 255
205 227 255
205 227 255
205 227 255
205 227 255
205 227 255
205 227 255
205 227 255
205 227 255
205 227 255
205 227 255
205 226 255
205 226 255
205 226 255
205 226 255
205 226 255
205 226 255
205 226 255
205 226 255
204 226 255
204 226 255
204 226 255
204 226 255
204 226 255
204 226 255
204 226 255
204 226 255
204 226 255
204 226 255
204 226 255
204 226 255
204 226 255
204 226 255
204 226 255
204 226 255
204 226 255
203 226 255
203 226 255
203 226 255
203 226 255
203 226 255
203 226 255
203 226 255
203 225 255
203 225 255
203 225 255
203 225 255
203 225 255
203 225 255
203 225 255
203 225 255
203 225 255
202 225 255
202 225 255
202 225 255
202 225 255
202 225 255
202 225 255
202 225 255
202 225 255
202 225 255
202 225 255
202 225 255
202 225 255
202 225 255
202 225 255
202 225 255
201 225 255
201 225 255
201 225 255
201 225 255
201 225 255
201 224 255
201 224 255
201 224 255
201 224 255
201 224 255
201 224 255
201 224 255
201 224 255
201 224 255
201 224 255
200 224 255
200 224 255
200 224 255
200 224 255
200 224 255
200 224 255
200 224 255
200 224 255
200 224 255
200 224 255
200 224 255
200 224 255
200 224 255
200 224 255
199 224 255
199 224 255
199 224 255
199 223 255
199 223 255
199 223 255
199 223 255
199 223 255
199 223 255
199 223 255
199 223 255
199 223 255
199 223 255
199 223 255
199 223 255
198 223 255
198 223 255
198 223 255
198 223 255
198 223 255
198 223 255
198 223 255
198 223 255
198 223 255
198 223 255
198 223 255
198 223 255
198 223 255
198 223 255
198 223 255
197 222 255
197 222 255
197 222 255
197 222 255
197 222 255
197 222 255
197 222 255
197 222 255
197 222 255
197 222 255
197 222 255
197 222 255
197 222 255
197 222 255
197 222 255
197 222 255
196 222 255
196 222 255
196 222 255
196 222 255
196 222 255
196 222 255
196 222 255
196 222 255
196 222 255
196 222 255
196 222 255
196 222 255
196 222 255
196 222 255
196 222 255
196 222 255
196 222 255
196 222 255
196 221 255
196 221 255
195 221 255
195 221 255
195 221 255
195 221 255
195 221 255
195 221 255
195 221 255
195 221 255
195 221 255
195 221 255
195 221 255
195 221 255
195 221 255
195 221 255
195 221 255
195 221 255
195 221 255
195 221 255
195 221 255
195 221 255
195 221 255
195 221 255
195 221 255
195 221 255
195 221 255
195 221 255
195 221 255
195 221 255
195 221 255
195 221 255
195 221 255
195 221 255
195 221 255
195 221 255
195 221 255
195 221 255
195 221 255
195 221 255
195 221 255
195 221 255
195 221 255
195 221 255
195 221 255
195 221 255
195 221 255
195 221 255
195 221 255
195 221 255
195 221 255
195 221 255
195 221 255
195 221 255
195 221 255
195 221 255
195 221 255
195 221 255
195 221 255
195 221 255
195 221 255
195 221 255
195 221 255
195 221 255
195 221 255
195 221 255
195 221 255
195 221 255
195 221 255
195 221 255
195 221 255
195 221 255
195 221 255
195 221 255
195 221 255
195 221 255
195 221 255
195 221 255
196 221 255
196 221 255
196 222 255
196 222 255
196 222 255
196 222 255
196 222 255
196 222 255
196 222 255
196 222 255
196 222 255
196 222 255
196 222 255
196 222 255
196 222 255
196 222 255
196 222 255
196 222 255
196 222 255
196 222 255
197 222 255
197 222 255
197 222 255
197 222 255
197 222 255
197 222 255
197 222 255
197 222 255
197 222 255
197 222 255
197 222 255
197 222 255
197 222 255
197 222 255
197 222 255
197 222 255
198 223 255
198 223 255
198 223 255
198 223 255
198 223 255
198 223 255
198 223 255
198 223 255
198 223 255
198 223 255
198 223 255
198 223 255
198 223 255
198 223 255
198 223 255
199 223 255
199 223 255
199 223 255
199 223 255
199 223 255
199 223 255
199 223 255
199 223 255
199 223 255
199 223 255
199 223 255
199 223 255
199 224 255
199 224 255
200 224 255
200 224 255
200 224 255
200 224 255
200 224 255
200 224 255
200 224 255
200 224 255
200 224 255
200 224 255
200 224 255
200 224 255
200 224 255
200 224 255
200 224 255
201 224 255
201 224 255
201 224 255
201 224 255
201 224 255
201 224 255
201 224 255
201 224 255
201 224 255
201 224 255
201 225 255
201 225 255
201 225 255
201 225 255
201 225 255
202 225 255
202 225 255
202 225 255
202 225 255
202 225 255
202 225 255
202 225 255
202 225 255
202 225 255
202 225 255
202 225 255
202 225 255
202 225 255
202 225 255
202 225 255
203 225 255
203 225 255
203 225 255
203 225 255
203 225 255
203 225 255
203 225 255
203 225 255
203 225 255
203 226 255
203 226 255
203 226 255
203 226 255
203 226 255
203 226 255
203 226 255
204 226 255
204 226 255
204 226 255
204 226 255
204 226 255
204 226 255
204 226 255
204 226 255
204 226 255
204 226 255
204 226 255
204 226 255
204 226 255
204 226 255
204 226 255
204 226 255
204 226 255
205 226 255
205 226 255
205 226 255
205 226 255
205 226 255
205 226 255
205 226 255
205 226 255
205 227 255
205 227 255
205 227 255
205 227 255
205 227 255
205 227 255
205 227 255
205 227 255
205 227 255
205 227 255
205 227 255
206 227 255
206 227 255
206 227 255
205 227 255
205 227 255
205 227 255
205 227 255
205 227 255
205 227 255
205 227 255
205 227 255
205 227 255
205 227 255
205 227 255
205 226 255
205 226 255
205 226 255
205 226 255
205 226 255
205 226 255
205 226 255
204 226 255
204 226 255
204 226 255
204 226 255
204 226 255
204 226 255
204 226 255
204 226 255
204 226 255
204 226 255
204 226 255
204 226 255
204 226 255
204 226 255
204 226 255
204 226 255
204 226 255
204 226 255
203 226 255
203 226 255
203 226 255
203 226 255
203 226 255
203 226 255
203 226 255
203 225 255
203 225 255
203 225 255
203 225 255
203 225 255
203 225 255
203 225 255
203 225 255
202 225 255
202 225 255
202 225 255
202 225 255
202 225 255
202 225 255
202 225 255
202 225 255
202 225 255
202 225 255
202 225 255
202 225 255
202 225 255
202 225 255
202 225 255
201 225 255
201 225 255
201 225 255
201 225 255
201 225 255
201 224 255
201 224 255
201 224 255
201 224 255
201 224 255
201 224 255
201 224 255
201 224 255
201 224 255
201 224 255
200 224 255
200 224 255
200 224 255
200 224 255
200 224 255
200 224 255
200 224 255
200 224 255
200 224 255
200 224 255
200 224 255
200 224 255
200 224 255
200 224 255
200 224 255
199 224 255
199 224 255
199 223 255
199 223 255
199 223 255
199 223 255
199 223 255
199 223 255
199 223 255
199 223 255
199 223 255
199 223 255
199 223 255
199 223 255
198 223 255
198 223 255
198 223 255
198 223 255
198 223 255
198 223 255
198 223 255
198 223 255
198 223 255
198 223 255
198 223 255
198 223 255
198 223 255
198 223 255
198 223 255
197 223 255
197 222 255
197 222 255
197 222 255
197 222 255
197 222 255
197 222 255
197 222 255
197 222 255
197 222 255
197 222 255
197 222 255
197 222 255
197 222 255
197 222 255
197 222 255
197 222 255
196 222 255
196 222 255
196 222 255
196 222 255
196 222 255
196 222 255
196 222 255
196 222 255
196 222 255
196 222 255
196 222 255
196 222 255
196 222 255
196 222 255
196 222 255
196 222 255
196 222 255
196 222 255
196 221 255
196 221 255
196 221 255
195 221 255
195 221 255
195 221 255
195 221 255
195 221 255
195 221 255
195 221 255
195 221 255
195 221 255
195 221 255
195 221 255
195 221 255
195 221 255
195 221 255
195 221 255
195 221 255
195 221 255
195 221 255
195 221 255
195 221 255
195 221 255
195 221 255
195 221 255
195 221 255
195 221 255
195 221 255
195 221 255
195 221 255
195 221 255
195 221 255
195 221 255
195 221 255
195 221 255
195 221 255
195 221 255
195 221 255
195 221 255
195 221 255
195 221 255
195 221 255
195 221 255
195 221 255
195 221 255
195 221 255
195 221 255
195 221 255
195 221 255
195 221 255
195 221 255
195 221 255
195 221 255
195 221 255
195 221 255
195 221 255
195 221 255
195 221 255
195 221 255
195 221 255
195 221 255
195 221 255
195 221 255
195 221 255
195 221 255
195 221 255
195 221 255
195 221 255
195 221 255
195 221 255
195 221 255
196 221 255
196 222 255
196 222 255
196 222 255
196 222 255
196 222 255
196 222 255
196 222 255
196 222 255
196 222 255
196 222 255
196 222 255
196 222 255
196 222 255
196 222 255
196 222 255
196 222 255
196 222 255
196 222 255
196 222 255
197 222 255
197 222 255
197 222 255
197 222 255
197 222 255
197 222 255
197 222 255
197 222 255
197 222 255
197 222 255
197 222 255
197 222 255
197 222 255
197 222 255
197 222 255
197 222 255
197 223 255
198 223 255
198 223 255
198 223 255
198 223 255
198 223 255
198 223 255
198 223 255
198 223 255
198 223 255
198 223 255
198 223 255
198 223 255
198 223 255
198 223 255
198 223 255
199 223 255
199 223 255
199 223 255
199 223 255
199 223 255
199 223 255
199 223 255
199 223 255
199 223 255
199 223 255
199 223 255
199 223 255
199 224 255
199 224 255
200 224 255
200 224 255
200 224 255
200 224 255
200 224 255
200 224 255
200 224 255
200 224 255
200 224 255
200 224 255
200 224 255
200 224 255
200 224 255
200 224 255
200 224 255
201 224 255
201 224 255
201 224 255
201 224 255
201 224 255
201 224 255
201 224 255
201 224 255
201 224 255
201 224 255
201 225 255
201 225 255
201 225 255
201 225 255
202 225 255
202 225 255
202 225 255
202 225 255
202 225 255
202 225 255
202 225 255
202 225 255
202 225 255
202 225 255
202 225 255
202 225 255
202 225 255
202 225 255
202 225 255
203 225 255
203 225 255
203 225 255
203 225 255
203 225 255
203 225 255
203 225 255
203 225 255
203 225 255
203 226 255
203 226 255
203 226 255
203 226 255
203 226 255
203 226 255
203 226 255
204 226 255
204 226 255
204 226 255
204 226 255
204 226 255
204 226 255
204 226 255
204 226 255
204 226 255
204 226 255
204 226 255
204 226 255
204 226 255
204 226 255
204 226 255
204 226 255
204 226 255
204 226 255
205 226 255
205 226 255
205 226 255
205 226 255
205 226 255
205 226 255
205 226 255
205 227 255
205 227 255
205 227 255
205 227 255
205 227 255
205 227 255
205 227 255
205 227 255
205 227 255
205 227 255
205 227 255
205 227 255
206 227 255
206 227 255
206 227 255
206 227 255
206 227 255
206 227 255
206 227 255
206 227 255
205 227 255
205 227 255
205 227 255
205 227 255
205 227 255
205 227 255
205 227 255
205 227 255
205 227 255
205 227 255
205 227 255
205 226 255
205 226 255
205 226 255
205 226 255
205 226 255
205 226 255
205 226 255
204 226 255
204 226 255
204 226 255
204 226 255
204 226 255
204 226 255
204 226 255
204 226 255
204 226 255
204 226 255
204 226 255
204 226 255
204 226 255
204 226 255
204 226 255
204 226 255
204 226 255
203 226 255
203 226 255
203 226 255
203 226 255
203 226 255
203 226 255
203 226 255
203 225 255
203 225 255
203 225 255
203 225 255
203 225 255
203 225 255
203 225 255
203 225 255
203 225 255
202 225 255
202 225 255
202 225 255
202 225 255
202 225 255
202 225 255
202 225 255
202 225 255
202 225 255
202 225 255
202 225 255
202 225 255
202 225 255
202 225 255
202 225 255
201 225 255
201 225 255
201 225 255
201 225 255
201 224 255
201 224 255
201 224 255
201 224 255
201 224 255
201 224 255
201 224 255
201 224 255
201 224 255
201 224 255
200 224 255
200 224 255
200 224 255
200 224 255
200 224 255
200 224 255
200 224 255
200 224 255
200 224 255
200 224 255
200 224 255
200 224 255
200 224 255
200 224 255
200 224 255
199 224 255
199 224 255
199 223 255
199 223 255
199 223 255
199 223 255
199 223 255
199 223 255
199 223 255
199 223 255
199 223 255
199 223 255
199 223 255
199 223 255
198 223 255
198 223 255
198 223 255
198 223 255
198 223 255
198 223 255
198 223 255
198 223 255
198 223 255
198 223 255
198 223 255
198 223 255
198 223 255
198 223 255
198 223 255
197 223 255
197 222 255
197 222 255
197 222 255
197 222 255
197 222 255
197 222 255
197 222 255
197 222 255
197 222 255
197 222 255
197 222 255
197 222 255
197 222 255
197 222 255
197 222 255
197 222 255
197 222 255
196 222 255
196 222 255
196 222 255
196 222 255
196 222 255
196 222 255
196 222 255
196 222 255
196 222 255
196 222 255
196 222 255
196 222 255
196 222 255
196 222 255
196 222 255
196 222 255
196 222 255
196 222 255
196 222 255
196 221 255
196 221 255
196 221 255
195 221 255
195 221 255
195 221 255
195 221 255
195 221 255
195 221 255
195 221 255
195 221 255
195 221 255
195 221 255
195 221 255
195 221 255
195 221 255
195 221 255
195 221 255
195 221 255
195 221 255
195 221 255
195 221 255
195 221 255
195 221 255
195 221 255
195 221 255
195 221 255
195 221 255
195 221 255
195 221 255
195 221 255
195 221 255
195 221 255
195 221 255
195 221 255
195 221 255
195 221 255
195 221 255
195 221 255
195 221 255
195 221 255
195 221 255
195 221 255
195 221 255
195 221 255
195 221 255
195 221 255
195 221 255
195 221 255
195 221 255
195 221 255
195 221 255
195 221 255
195 221 255
195 221 255
195 221 255
195 221 255
195 221 255
195 221 255
195 221 255
195 221 255
195 221 255
196 221 255
196 221 255
196 221 255
196 222 255
196 222 255
196 222 255
196 222 255
196 222 255
196 222 255
196 222 255
196 222 255
196 222 255
196 222 255
196 222 255
196 222 255
196 222 255
196 222 255
196 222 255
196 222 255
196 222 255
196 222 255
196 222 255
196 222 255
196 222 255
197 222 255
197 222 255
197 222 255
197 222 255
197 222 255
197 222 255
197 222 255
197 222 255
197 222 255
197 222 255
197 222 255
197 222 255
197 222 255
197 222 255
197 222 255
197 222 255
198 223 255
198 223 255
198 223 255
198 223 255
198 223 255
198 223 255
198 223 255
198 223 255
198 223 255
198 223 255
198 223 255
198 223 255
198 223 255
198 223 255
198 223 255
198 223 255
199 223 255
199 223 255
199 223 255
199 223 255
199 223 255
199 223 255
199 223 255
199 223 255
199 223 255
199 223 255
199 223 255
199 223 255
199 224 255
199 224 255
199 224 255
200 224 255
200 224 255
200 224 255
200 224 255
200 224 255
200 224 255
200 224 255
200 224 255
200 224 255
200 224 255
200 224 255
200 224 255
200 224 255
200 224 255
201 224 255
201 224 255
201 224 255
201 224 255
201 224 255
201 224 255
201 224 255
201 224 255
201 224 255
201 224 255
201 225 255
201 225 255
201 225 255
201 225 255
202 225 255
202 225 255
202 225 255
202 225 255
202 225 255
202 225 255
202 225 255
202 225 255
202 225 255
202 225 255
202 225 255
202 225 255
202 225 255
202 225 255
202 225 255
203 225 255
203 225 255
203 225 255
203 225 255
203 225 255
203 225 255
203 225 255
203 225 255
203 225 255
203 226 255
203 226 255
203 226 255
203 226 255
203 226 255
203 226 255
203 226 255
203 226 255
204 226 255
204 226 255
204 226 255
204 226 255
204 226 255
204 226 255
204 226 255
204 226 255
204 226 255
204 226 255
204 226 255
204 226 255
204 226 255
204 226 255
204 226 255
204 226 255
205 226 255
205 226 255
205 226 255
205 226 255
205 226 255
205 226 255
205 226 255
205 227 255
205 227 255
205 227 255
205 227 255
205 227 255
205 227 255
205 227 255
205 227 255
205 227 255
205 227 255
205 227 255
205 227 255
206 227 255
206 227 255
206 227 255
206 227 255
206 227 255
206 227 255
206 227 255
206 227 255
206 227 255
206 227 255
206 227 255
206 227 255
206 227 255
205 227 255
205 227 255
205 227 255
205 227 255
205 227 255
205 227 255
205 227 255
205 227 255
205 227 255
205 227 255
205 227 255
205 226 255
205 226 255
205 226 255
205 226 255
205 226 255
205 226 255
205 226 255
205 226 255
204 226 255
204 226 255
204 226 255
204 226 255
204 226 255
204 226 255
204 226 255
204 226 255
204 226 255
204 226 255
204 226 255
204 226 255
204 226 255
204 226 255
204 226 255
204 226 255
203 226 255
203 226 255
203 226 255
203 226 255
203 226 255
203 226 255
203 226 255
203 225 255
203 225 255
203 225 255
203 225 255
203 225 255
203 225 255
203 225 255
203 225 255
203 225 255
202 225 255
202 225 255
202 225 255
202 225 255
202 225 255
202 225 255
202 225 255
202 225 255
202 225 255
202 225 255
202 225 255
202 225 255
202 225 255
202 225 255
202 225 255
201 225 255
201 225 255
201 225 255
201 225 255
201 225 255
201 224 255
201 224 255
201 224 255
201 224 255
201 224 255
201 224 255
201 224 255
201 224 255
201 224 255
201 224 255
200 224 255
200 224 255
200 224 255
200 224 255
200 224 255
200 224 255
200 224 255
200 224 255
200 224 255
200 224 255
200 224 255
200 224 255
200 224 255
200 224 255
199 224 255
199 224 255
199 223 255
199 223 255
199 223 255
199 223 255
199 223 255
199 223 255
199 223 255
199 223 255
199 223 255
199 223 255
199 223 255
199 223 255
199 223 255
198 223 255
198 223 255
198 223 255
198 223 255
198 223 255
198 223 255
198 223 255
198 223 255
198 223 255
198 223 255
198 223 255
198 223 255
198 223 255
198 223 255
198 223 255
197 222 255
197 222 255
197 222 255
197 222 255
197 222 255
197 222 255
197 222 255
197 222 255
197 222 255
197 222 255
197 222 255
197 222 255
197 222 255
197 222 255
197 222 255
197 222 255
197 222 255
196 222 255
196 222 255
196 222 255
196 222 255
196 222 255
196 222 255
196 222 255
196 222 255
196 222 255
196 222 255
196 222 255
196 222 255
196 222 255
196 222 255
196 222 255
196 222 255
196 222 255
196 222 255
196 222 255
196 222 255
196 222 255
196 222 255
196 221 255
196 221 255
195 221 255
195 221 255
195 221 255
195 221 255
195 221 255
195 221 255
195 221 255
195 221 255
195 221 255
195 221 255
195 221 255
195 221 255
195 221 255
195 221 255
195 221 255
195 221 255
195 221 255
195 221 255
195 221 255
195 221 255
195 221 255
195 221 255
195 221 255
195 221 255
195 221 255
195 221 255
195 221 255
195 221 255
195 221 255
195 221 255
195 221 255
195 221 255
195 221 255
195 221 255
195 221 255
195 221 255
195 221 255
195 221 255
195 221 255
195 221 255
195 221 255
195 221 255
195 221 255
195 221 255
195 221 255
195 221 255
195 221 255
195 221 255
195 221 255
195 221 255
195 221 255
196 221 255
196 221 255
196 221 255
196 222 255
196 222 255
196 222 255
196 222 255
196 222 255
196 222 255
196 222 255
196 222 255
196 222 255
196 222 255
196 222 255
196 222 255
196 222 255
196 222 255
196 222 255
196 222 255
196 222 255
196 222 255
196 222 255
196 222 255
196 222 255
197 222 255
197 222 255
197 222 255
197 222 255
197 222 255
197 222 255
197 222 255
197 222 255
197 222 255
197 222 255
197 222 255
197 222 255
197 222 255
197 222 255
197 222 255
197 222 255
197 222 255
197 223 255
198 223 255
198 223 255
198 223 255
198 223 255
198 223 255
198 223 255
198 223 255
198 223 255
198 223 255
198 223 255
198 223 255
198 223 255
198 223 255
198 223 255
198 223 255
198 223 255
199 223 255
199 223 255
199 223 255
199 223 255
199 223 255
199 223 255
199 223 255
199 223 255
199 223 255
199 223 255
199 223 255
199 224 255
199 224 255
199 224 255
200 224 255
200 224 255
200 224 255
200 224 255
200 224 255
200 224 255
200 224 255
200 224 255
200 224 255
200 224 255
200 224 255
200 224 255
200 224 255
200 224 255
201 224 255
201 224 255
201 224 255
201 224 255
201 224 255
201 224 255
201 224 255
201 224 255
201 224 255
201 224 255
201 224 255
201 225 255
201 225 255
201 225 255
201 225 255
202 225 255
202 225 255
202 225 255
202 225 255
202 225 255
202 225 255
202 225 255
202 225 255
202 225 255
202 225 255
202 225 255
202 225 255
202 225 255
202 225 255
202 225 255
203 225 255
203 225 255
203 225 255
203 225 255
203 225 255
203 225 255
203 225 255
203 225 255
203 225 255
203 226 255
203 226 255
203 226 255
203 226 255
203 226 255
203 226 255
203 226 255
204 226 255
204 226 255
204 226 255
204 226 255
204 226 255
204 226 255
204 226 255
204 226 255
204 226 255
204 226 255
204 226 255
204 226 255
204 226 255
204 226 255
204 226 255
204 226 255
204 226 255
205 226 255
205 226 255
205 226 255
205 226 255
205 226 255
205 226 255
205 226 255
205 227 255
205 227 255
205 227 255
205 227 255
205 227 255
205 227 255
205 227 255
205 227 255
205 227 255
205 227 255
205 227 255
206 227 255
206 227 255
206 227 255
206 227 255
206 227 255
206 227 255
206 227 255
206 227 255
206 227 255
206 227 255
206 227 255
206 227 255
206 227 255
206 227 255
206 227 255
206 227 255
206 227 255
206 227 255
206 227 255
205 227 255
205 227 255
205 227 255
205 227 255
205 227 255
205 227 255
205 227 255
205 227 255
205 227 255
205 227 255
205 227 255
205 226 255
205 226 255
205 226 255
205 226 255
205 226 255
205 226 255
205 226 255
204 226 255
204 226 255
204 226 255
204 226 255
204 226 255
204 226 255
204 226 255
204 226 255
204 226 255
204 226 255
204 226 255
204 226 255
204 226 255
204 226 255
204 226 255
204 226 255
203 226 255
203 226 255
203 226 255
203 226 255
203 226 255
203 226 255
203 226 255
203 226 255
203 225 255
203 225 255
203 225 255
203 225 255
203 225 255
203 225 255
203 225 255
203 225 255
202 225 255
202 225 255
202 225 255
202 225 255
202 225 255
202 225 255
202 225 255
202 225 255
202 225 255
202 225 255
202 225 255
202 225 255
202 225 255
202 225 255
202 225 255
202 225 255
201 225 255
201 225 255
201 225 255
201 225 255
201 224 255
201 224 255
201 224 255
201 224 255
201 224 255
201 224 255
201 224 255
201 224 255
201 224 255
201 224 255
200 224 255
200 224 255
200 224 255
200 224 255
200 224 255
200 224 255
200 224 255
200 224 255
200 224 255
200 224 255
200 224 255
200 224 255
200 224 255
200 224 255
200 224 255
199 224 255
199 224 255
199 223 255
199 223 255
199 223 255
199 223 255
199 223 255
199 223 255
199 223 255
199 223 255
199 223 255
199 223 255
199 223 255
199 223 255
198 223 255
198 223 255
198 223 255
198 223 255
198 223 255
198 223 255
198 223 255
198 223 255
198 223 255
198 223 255
198 223 255
198 223 255
198 223 255
198 223 255
198 223 255
198 223 255
197 222 255
197 222 255
197 222 255
197 222 255
197 222 255
197 222 255
197 222 255
197 222 255
197 222 255
197 222 255
197 222 255
197 222 255
197 222 255
197 222 255
197 222 255
197 222 255
197 222 255
197 222 255
196 222 255
196 222 255
196 222 255
196 222 255
196 222 255
196 222 255
196 222 255
196 222 255
196 222 255
196 222 255
196 222 255
196 222 255
196 222 255
196 222 255
196 222 255
196 222 255
196 222 255
196 222 255
196 222 255
196 222 255
196 222 255
196 222 255
196 222 255
196 222 255
196 221 255
196 221 255
196 221 255
195 221 255
195 221 255
195 221 255
195 221 255
195 221 255
195 221 255
195 221 255
195 221 255
195 221 255
195 221 255
195 221 255
195 221 255
195 221 255
195 221 255
195 221 255
195 221 255
195 221 255
195 221 255
195 221 255
195 221 255
195 221 255
195 221 255
195 221 255
195 221 255
195 221 255
195 221 255
195 221 255
195 221 255
195 221 255
195 221 255
195 221 255
195 221 255
195 221 255
195 221 255
195 221 255
195 221 255
195 221 255
195 221 255
196 221 255
196 221 255
196 221 255
196 221 255
196 222 255
196 222 255
196 222 255
196 222 255
196 222 255
196 222 255
196 222 255
196 222 255
196 222 255
196 222 255
196 222 255
196 222 255
196 222 255
196 222 255
196 222 255
196 222 255
196 222 255
196 222 255
196 222 255
196 222 255
196 222 255
196 222 255
196 222 255
196 222 255
197 222 255
197 222 255
197 222 255
197 222 255
197 222 255
197 222 255
197 222 255
197 222 255
197 222 255
197 222 255
197 222 255
197 222 255
197 222 255
197 222 255
197 222 255
197 222 255
197 222 255
198 223 255
198 223 255
198 223 255
198 223 255
198 223 255
198 223 255
198 223 255
198 223 255
198 223 255
198 223 255
198 223 255
198 223 255
198 223 255
198 223 255
198 223 255
198 223 255
199 223 255
199 223 255
199 223 255
199 223 255
199 223 255
199 223 255
199 223 255
199 223 255
199 223 255
199 223 255
199 223 255
199 223 255
199 224 255
199 224 255
199 224 255
200 224 255
200 224 255
200 224 255
200 224 255
200 224 255
200 224 255
200 224 255
200 224 255
200 224 255
200 224 255
200 224 255
200 224 255
200 224 255
200 224 255
201 224 255
201 224 255
201 224 255
201 224 255
201 224 255
201 224 255
201 224 255
201 224 255
201 224 255
201 224 255
201 225 255
201 225 255
201 225 255
201 225 255
201 225 255
202 225 255
202 225 255
202 225 255
202 225 255
202 225 255
202 225 255
202 225 255
202 225 255
202 225 255
202 225 255
202 225 255
202 225 255
202 225 255
202 225 255
203 225 255
203 225 255
203 225 255
203 225 255
203 225 255
203 225 255
203 225 255
203 225 255
203 225 255
203 226 255
203 226 255
203 226 255
203 226 255
203 226 255
203 226 255
203 226 255
204 226 255
204 226 255
204 226 255
204 226 255
204 226 255
204 226 255
204 226 255
204 226 255
204 226 255
204 226 255
204 226 255
204 226 255
204 226 255
204 226 255
204 226 255
204 226 255
204 226 255
205 226 255
205 226 255
205 226 255
205 226 255
205 226 255
205 226 255
205 226 255
205 227 255
205 227 255
205 227 255
205 227 255
205 227 255
205 227 255
205 227 255
205 227 255
205 227 255
205 227 255
205 227 255
206 227 255
206 227 255
206 227 255
206 227 255
206 227 255
206 227 255
206 227 255
206 227 255
206 227 255
206 227 255
206 227 255
206 227 255
206 227 255
206 227 255
206 227 255
206 227 255
206 227 255
206 227 255
206 227 255
206 227 255
206 227 255
206 227 255
206 227 255
205 227 255
205 227 255
205 227 255
205 227 255
205 227 255
205 227 255
205 227 255
205 227 255
205 227 255
205 227 255
205 227 255
205 227 255
205 226 255
205 226 255
205 226 255
205 226 255
205 226 255
205 226 255
205 226 255
204 226 255
204 226 255
204 226 255
204 226 255
204 226 255
204 226 255
204 226 255
204 226 255
204 226 255
204 226 255
204 226 255
204 226 255
204 226 255
204 226 255
204 226 255
204 226 255
204 226 255
203 226 255
203 226 255
203 226 255
203 226 255
203 226 255
203 226 255
203 226 255
203 225 255
203 225 255
203 225 255
203 225 255
203 225 255
203 225 255
203 225 255
203 225 255
203 225 255
202 225 255
202 225 255
202 225 255
202 225 255
202 225 255
202 225 255
202 225 255
202 225 255
202 225 255
202 225 255
202 225 255
202 225 255
202 225 255
202 225 255
202 225 255
201 225 255
201 225 255
201 225 255
201 225 255
201 224 255
201 224 255
201 224 255
201 224 255
201 224 255
201 224 255
201 224 255
201 224 255
201 224 255
201 224 255
200 224 255
200 224 255
200 224 255
200 224 255
200 224 255
200 224 255
200 224 255
200 224 255
200 224 255
200 224 255
200 224 255
200 224 255
200 224 255
200 224 255
200 224 255
199 224 255
199 224 255
199 223 255
199 223 255
199 223 255
199 223 255
199 223 255
199 223 255
199 223 255
199 223 255
199 223 255
199 223 255
199 223 255
199 223 255
199 223 255
198 223 255
198 223 255
198 223 255
198 223 255
198 223 255
198 223 255
198 223 255
198 223 255
198 223 255
198 223 255
198 223 255
198 223 255
198 223 255
198 223 255
198 223 255
198 223 255
197 222 255
197 222 255
197 222 255
197 222 255
197 222 255
197 222 255
197 222 255
197 222 255
197 222 255
197 222 255
197 222 255
197 222 255
197 222 255
197 222 255
197 222 255
197 222 255
197 222 255
197 222 255
196 222 255
196 222 255
196 222 255
196 222 255
196 222 255
196 222 255
196 222 255
196 222 255
196 222 255
196 222 255
196 222 255
196 222 255
196 222 255
196 222 255
196 222 255
196 222 255
196 222 255
196 222 255
196 222 255
196 222 255
196 222 255
196 222 255
196 222 255
196 222 255
196 222 255
196 222 255
196 222 255
196 221 255
196 221 255
196 221 255
196 221 255
196 221 255
196 221 255
195 221 255
195 221 255
195 221 255
195 221 255
195 221 255
195 221 255
195 221 255
195 221 255
195 221 255
195 221 255
195 221 255
195 221 255
195 221 255
195 221 255
195 221 255
195 221 255
195 221 255
195 221 255
195 221 255
195 221 255
196 221 255
195 221 255
196 221 255
196 221 255
196 221 255
196 222 255
196 221 255
196 222 255
196 222 255
196 222 255
196 222 255
196 222 255
196 222 255
196 222 255
196 222 255
196 222 255
196 222 255
196 222 255
196 222 255
196 222 255
196 222 255
196 222 255
196 222 255
196 222 255
196 222 255
196 222 255
196 222 255
196 222 255
196 222 255
196 222 255
196 222 255
196 222 255
196 222 255
197 222 255
197 222 255
197 222 255
197 222 255
197 222 255
197 222 255
197 222 255
197 222 255
197 222 255
197 222 255
197 222 255
197 222 255
197 222 255
197 222 255
197 222 255
197 222 255
197 222 255
197 222 255
197 223 255
198 223 255
198 223 255
198 223 255
198 223 255
198 223 255
198 223 255
198 223 255
198 223 255
198 223 255
198 223 255
198 223 255
198 223 255
198 223 255
198 223 255
198 223 255
198 223 255
199 223 255
199 223 255
199 223 255
199 223 255
199 223 255
199 223 255
199 223 255
199 223 255
199 223 255
199 223 255
199 223 255
199 223 255
199 224 255
199 224 255
200 224 255
200 224 255
200 224 255
200 224 255
200 224 255
200 224 255
200 224 255
200 224 255
200 224 255
200 224 255
200 224 255
200 224 255
200 224 255
200 224 255
200 224 255
201 224 255
201 224 255
201 224 255
201 224 255
201 224 255
201 224 255
201 224 255
201 224 255
201 224 255
201 224 255
201 225 255
201 225 255
201 225 255
201 225 255
201 225 255
202 225 255
202 225 255
202 225 255
202 225 255
202 225 255
202 225 255
202 225 255
202 225 255
202 225 255
202 225 255
202 225 255
202 225 255
202 225 255
202 225 255
202 225 255
203 225 255
203 225 255
203 225 255
203 225 255
203 225 255
203 225 255
203 225 255
203 225 255
203 226 255
203 226 255
203 226 255
203 226 255
203 226 255
203 226 255
203 226 255
204 226 255
204 226 255
204 226 255
204 226 255
204 226 255
204 226 255
204 226 255
204 226 255
204 226 255
204 226 255
204 226 255
204 226 255
204 226 255
204 226 255
204 226 255
204 226 255
204 226 255
205 226 255
205 226 255
205 226 255
205 226 255
205 226 255
205 226 255
205 226 255
205 227 255
205 227 255
205 227 255
205 227 255
205 227 255
205 227 255
205 227 255
205 227 255
205 227 255
205 227 255
205 227 255
206 227 255
206 227 255
206 227 255
206 227 255
206 227 255
206 227 255
206 227 255
206 227 255
206 227 255
206 227 255
206 227 255
206 227 255
206 227 255
206 227 255
206 227 255
206 227 255
206 227 255
206 227 255
206 227 255
206 227 255
206 227 255
206 227 255
206 227 255
206 227 255
206 227 255
206 227 255
206 227 255
206 227 255
206 227 255
205 227 255
205 227 255
205 227 255
205 227 255
205 227 255
205 227 255
205 227 255
205 227 255
205 227 255
205 227 255
205 227 255
205 226 255
205 226 255
205 226 255
205 226 255
205 226 255
205 226 255
205 226 255
204 226 255
204 226 255
204 226 255
204 226 255
204 226 255
204 226 255
204 226 255
204 226 255
204 226 255
204 226 255
204 226 255
204 226 255
204 226 255
204 226 255
204 226 255
204 226 255
203 226 255
203 226 255
203 226 255
203 226 255
203 226 255
203 226 255
203 226 255
203 225 255
203 225 255
203 225 255
203 225 255
203 225 255
203 225 255
203 225 255
203 225 255
203 225 255
202 225 255
202 225 255
202 225 255
202 225 255
202 225 255
202 225 255
202 225 255
202 225 255
202 225 255
202 225 255
202 225 255
202 225 255
202 225 255
202 225 255
202 225 255
201 225 255
201 225 255
201 225 255
201 225 255
201 225 255
201 224 255
201 224 255
201 224 255
201 224 255
201 224 255
201 224 255
201 224 255
201 224 255
201 224 255
201 224 255
200 224 255
200 224 255
200 224 255
200 224 255
200 224 255
200 224 255
200 224 255
200 224 255
200 224 255
200 224 255
200 224 255
200 224 255
200 224 255
200 224 255
199 224 255
199 224 255
199 223 255
199 223 255
199 223 255
199 223 255
199 223 255
199 223 255
199 223 255
199 223 255
199 223 255
199 223 255
199 223 255
199 223 255
199 223 255
198 223 255
198 223 255
198 223 255
198 223 255
198 223 255
198 223 255
198 223 255
198 223 255
198 223 255
198 223 255
198 223 255
198 223 255
198 223 255
198 223 255
198 223 255
198 223 255
197 223 255
197 222 255
197 222 255
197 222 255
197 222 255
197 222 255
197 222 255
197 222 255
197 222 255
197 222 255
197 222 255
197 222 255
197 222 255
197 222 255
197 222 255
197 222 255
197 222 255
197 222 255
197 222 255
196 222 255
196 222 255
196 222 255
196 222 255
196 222 255
196 222 255
196 222 255
196 222 255
196 222 255
196 222 255
196 222 255
196 222 255
196 222 255
196 222 255
196 222 255
196 222 255
196 222 255
196 222 255
196 222 255
196 222 255
196 222 255
196 222 255
196 222 255
196 222 255
196 222 255
196 222 255
196 222 255
196 222 255
196 222 255
196 222 255
196 222 255
196 222 255
196 222 255
196 222 255
196 222 255
196 222 255
196 221 255
196 222 255
196 222 255
196 222 255
196 222 255
196 222 255
196 222 255
196 222 255
196 222 255
196 222 255
196 222 255
196 222 255
196 222 255
196 222 255
196 222 255
196 222 255
196 222 255
196 222 255
196 222 255
196 222 255
196 222 255
196 222 255
196 222 255
196 222 255
196 222 255
196 222 255
196 222 255
196 222 255
196 222 255
196 222 255
196 222 255
196 222 255
196 222 255
196 222 255
196 222 255
196 222 255
196 222 255
196 222 255
196 222 255
196 222 255
196 222 255
196 222 255
196 222 255
197 222 255
197 222 255
197 222 255
197 222 255
197 222 255
197 222 255
197 222 255
197 222 255
197 222 255
197 222 255
197 222 255
197 222 255
197 222 255
197 222 255
197 222 255
197 222 255
197 222 255
197 222 255
197 222 255
197 223 255
198 223 255
198 223 255
198 223 255
198 223 255
198 223 255
198 223 255
198 223 255
198 223 255
198 223 255
198 223 255
198 223 255
198 223 255
198 223 255
198 223 255
198 223 255
198 223 255
199 223 255
199 223 255
199 223 255
199 223 255
199 223 255
199 223 255
199 223 255
199 223 255
199 223 255
199 223 255
199 223 255
199 223 255
199 223 255
199 224 255
199 224 255
200 224 255
200 224 255
200 224 255
200 224 255
200 224 255
200 224 255
200 224 255
200 224 255
200 224 255
200 224 255
200 224 255
200 224 255
200 224 255
200 224 255
201 224 255
201 224 255
201 224 255
201 224 255
201 224 255
201 224 255
201 224 255
201 224 255
201 224 255
201 224 255
201 224 255
201 225 255
201 225 255
201 225 255
201 225 255
202 225 255
202 225 255
202 225 255
202 225 255
202 225 255
202 225 255
202 225 255
202 225 255
202 225 255
202 225 255
202 225 255
202 225 255
202 225 255
202 225 255
202 225 255
203 225 255
203 225 255
203 225 255
203 225 255
203 225 255
203 225 255
203 225 255
203 225 255
203 226 255
203 226 255
203 226 255
203 226 255
203 226 255
203 226 255
203 226 255
203 226 255
204 226 255
204 226 255
204 226 255
204 226 255
204 226 255
204 226 255
204 226 255
204 226 255
204 226 255
204 226 255
204 226 255
204 226 255
204 226 255
204 226 255
204 226 255
204 226 255
205 226 255
205 226 255
205 226 255
205 226 255
205 226 255
205 226 255
205 226 255
205 226 255
205 227 255
205 227 255
205 227 255
205 227 255
205 227 255
205 227 255
205 227 255
205 227 255
205 227 255
205 227 255
206 227 255
206 227 255
206 227 255
206 227 255
206 227 255
206 227 255
206 227 255
206 227 255
206 227 255
206 227 255
206 227 255
206 227 255
206 227 255
206 227 255
206 227 255
206 227 255
206 227 255
206 227 255
206 227 255
206 227 255
206 227 255
206 227 255
206 227 255
206 227 255
206 227 255
206 227 255
206 227 255
206 227 255
206 227 255
206 227 255
206 227 255
206 227 255
206 227 255
206 227 255
206 227 255
205 227 255
205 227 255
205 227 255
205 227 255
205 227 255
205 227 255
205 227 255
205 227 255
205 227 255
205 227 255
205 226 255
205 226 255
205 226 255
205 226 255
205 226 255
205 226 255
205 226 255
204 226 255
204 226 255
204 226 255
204 226 255
204 226 255
204 226 255
204 226 255
204 226 255
204 226 255
204 226 255
204 226 255
204 226 255
204 226 255
204 226 255
204 226 255
204 226 255
204 226 255
203 226 255
203 226 255
203 226 255
203 226 255
203 226 255
203 226 255
203 226 255
203 225 255
203 225 255
203 225 255
203 225 255
203 225 255
203 225 255
203 225 255
203 225 255
202 225 255
202 225 255
202 225 255
202 225 255
202 225 255
202 225 255
202 225 255
202 225 255
202 225 255
202 225 255
202 225 255
202 225 255
202 225 255
202 225 255
202 225 255
201 225 255
201 225 255
201 225 255
201 225 255
201 225 255
201 224 255
201 224 255
201 224 255
201 224 255
201 224 255
201 224 255
201 224 255
201 224 255
201 224 255
201 224 255
200 224 255
200 224 255
200 224 255
200 224 255
200 224 255
200 224 255
200 224 255
200 224 255
200 224 255
200 224 255
200 224 255
200 224 255
200 224 255
200 224 255
200 224 255
199 224 255
199 223 255
199 223 255
199 223 255
199 223 255
199 223 255
199 223 255
199 223 255
199 223 255
199 223 255
199 223 255
199 223 255
199 223 255
199 223 255
199 223 255
198 223 255
198 223 255
198 223 255
198 223 255
198 223 255
198 223 255
198 223 255
198 223 255
198 223 255
198 223 255
198 223 255
198 223 255
198 223 255
198 223 255
198 223 255
198 223 255
197 223 255
197 222 255
197 222 255
197 222 255
197 222 255
197 222 255
197 222 255
197 222 255
197 222 255
197 222 255
197 222 255
197 222 255
197 222 255
197 222 255
197 222 255
197 222 255
197 222 255
197 222 255
197 222 255
197 222 255
196 222 255
196 222 255
196 222 255
196 222 255
196 222 255
196 222 255
196 222 255
196 222 255
196 222 255
196 222 255
196 222 255
196 222 255
196 222 255
196 222 255
196 222 255
196 222 255
196 222 255
196 222 255
196 222 255
196 222 255
196 222 255
196 222 255
196 222 255
196 222 255
196 222 255
196 222 255
196 222 255
196 222 255
196 222 255
196 222 255
196 222 255
196 222 255
196 222 255
196 222 255
196 222 255
196 222 255
196 222 255
196 222 255
196 222 255
196 222 255
196 222 255
196 222 255
196 222 255
196 222 255
196 222 255
196 222 255
196 222 255
196 222 255
196 222 255
196 222 255
196 222 255
196 222 255
196 222 255
196 222 255
196 222 255
196 222 255
196 222 255
196 222 255
196 222 255
196 222 255
196 222 255
196 222 255
196 222 255
196 222 255
196 222 255
196 222 255
196 222 255
196 222 255
196 222 255
196 222 255
196 222 255
196 222 255
197 222 255
197 222 255
197 222 255
197 222 255
197 222 255
197 222 255
197 222 255
197 222 255
197 222 255
197 222 255
197 222 255
197 222 255
197 222 255
197 222 255
197 222 255
197 222 255
197 222 255
197 222 255
197 222 255
197 223 255
198 223 255
198 223 255
198 223 255
198 223 255
198 223 255
198 223 255
198 223 255
198 223 255
198 223 255
198 223 255
198 223 255
198 223 255
198 223 255
198 223 255
198 223 255
198 223 255
198 223 255
199 223 255
199 223 255
199 223 255
199 223 255
199 223 255
199 223 255
199 223 255
199 223 255
199 223 255
199 223 255
199 223 255
199 223 255
199 224 255
199 224 255
199 224 255
200 224 255
200 224 255
200 224 255
200 224 255
200 224 255
200 224 255
200 224 255
200 224 255
200 224 255
200 224 255
200 224 255
200 224 255
200 224 255
200 224 255
201 224 255
201 224 255
201 224 255
201 224 255
201 224 255
201 224 255
201 224 255
201 224 255
201 224 255
201 224 255
201 225 255
201 225 255
201 225 255
201 225 255
202 225 255
202 225 255
202 225 255
202 225 255
202 225 255
202 225 255
202 225 255
202 225 255
202 225 255
202 225 255
202 225 255
202 225 255
202 225 255
202 225 255
202 225 255
202 225 255
203 225 255
203 225 255
203 225 255
203 225 255
203 225 255
203 225 255
203 225 255
203 225 255
203 226 255
203 226 255
203 226 255
203 226 255
203 226 255
203 226 255
203 226 255
204 226 255
204 226 255
204 226 255
204 226 255
204 226 255
204 226 255
204 226 255
204 226 255
204 226 255
204 226 255
204 226 255
204 226 255
204 226 255
204 226 255
204 226 255
204 226 255
204 226 255
205 226 255
205 226 255
205 226 255
205 226 255
205 226 255
205 226 255
205 226 255
205 227 255
205 227 255
205 227 255
205 227 255
205 227 255
205 227 255
205 227 255
205 227 255
205 227 255
205 227 255
206 227 255
206 227 255
206 227 255
206 227 255
206 227 255
206 227 255
206 227 255
206 227 255
206 227 255
206 227 255
206 227 255
206 227 255
206 227 255
206 227 255
206 227 255
206 227 255
206 227 255
206 227 255
206 227 255
207 227 255
207 227 255
206 227 255
206 227 255
206 227 255
206 227 255
206 227 255
206 227 255
206 227 255
206 227 255
206 227 255
206 227 255
206 227 255
206 227 255
206 227 255
206 227 255
206 227 255
206 227 255
206 227 255
206 227 255
206 227 255
205 227 255
205 227 255
205 227 255
205 227 255
205 227 255
205 227 255
205 227 255
205 227 255
205 227 255
205 227 255
205 227 255
205 226 255
205 226 255
205 226 255
205 226 255
205 226 255
205 226 255
205 226 255
204 226 255
204 226 255
204 226 255
204 226 255
204 226 255
204 226 255
204 226 255
204 226 255
204 226 255
204 226 255
204 226 255
204 226 255
204 226 255
204 226 255
204 226 255
204 226 255
203 226 255
203 226 255
203 226 255
203 226 255
203 226 255
203 226 255
203 226 255
203 225 255
203 225 255
203 225 255
203 225 255
203 225 255
203 225 255
203 225 255
203 225 255
203 225 255
202 225 255
202 225 255
202 225 255
202 225 255
202 225 255
202 225 255
202 225 255
202 225 255
202 225 255
202 225 255
202 225 255
202 225 255
202 225 255
202 225 255
202 225 255
201 225 255
201 225 255
201 225 255
201 225 255
201 224 255
201 224 255
201 224 255
201 224 255
201 224 255
201 224 255
201 224 255
201 224 255
201 224 255
201 224 255
200 224 255
200 224 255
200 224 255
200 224 255
200 224 255
200 224 255
200 224 255
200 224 255
200 224 255
200 224 255
200 224 255
200 224 255
200 224 255
200 224 255
199 224 255
199 224 255
199 224 255
199 223 255
199 223 255
199 223 255
199 223 255
199 223 255
199 223 255
199 223 255
199 223 255
199 223 255
199 223 255
199 223 255
199 223 255
199 223 255
199 223 255
198 223 255
198 223 255
198 223 255
198 223 255
198 223 255
198 223 255
198 223 255
198 223 255
198 223 255
198 223 255
198 223 255
198 223 255
198 223 255
198 223 255
198 223 255
198 223 255
197 222 255
197 222 255
197 222 255
197 222 255
197 222 255
197 222 255
197 222 255
197 222 255
197 222 255
197 222 255
197 222 255
197 222 255
197 222 255
197 222 255
197 222 255
197 222 255
197 222 255
197 222 255
197 222 255
197 222 255
197 222 255
197 222 255
196 222 255
196 222 255
196 222 255
196 222 255
196 222 255
196 222 255
196 222 255
196 222 255
196 222 255
196 222 255
196 222 255
196 222 255
196 222 255
196 222 255
196 222 255
196 222 255
196 222 255
196 222 255
196 222 255
196 222 255
196 222 255
196 222 255
196 222 255
196 222 255
196 222 255
196 222 255
196 222 255
196 222 255
196 222 255
196 222 255
196 222 255
196 222 255
196 222 255
196 222 255
196 222 255
196 222 255
196 222 255
196 222 255
196 222 255
196 222 255
196 222 255
196 222 255
196 222 255
196 222 255
196 222 255
196 222 255
196 222 255
196 222 255
196 222 255
196 222 255
196 222 255
196 222 255
196 222 255
196 222 255
196 222 255
196 222 255
196 222 255
196 222 255
196 222 255
196 222 255
196 222 255
196 222 255
197 222 255
197 222 255
197 222 255
197 222 255
197 222 255
197 222 255
197 222 255
197 222 255
197 222 255
197 222 255
197 222 255
197 222 255
197 222 255
197 222 255
197 222 255
197 222 255
197 222 255
197 222 255
197 222 255
197 222 255
197 222 255
197 223 255
198 223 255
198 223 255
198 223 255
198 223 255
198 223 255
198 223 255
198 223 255
198 223 255
198 223 255
198 223 255
198 223 255
198 223 255
198 223 255
198 223 255
198 223 255
198 223 255
198 223 255
199 223 255
199 223 255
199 223 255
199 223 255
199 223 255
199 223 255
199 223 255
199 223 255
199 223 255
199 223 255
199 223 255
199 223 255
199 223 255
199 224 255
199 224 255
200 224 255
200 224 255
200 224 255
200 224 255
200 224 255
200 224 255
200 224 255
200 224 255
200 224 255
200 224 255
200 224 255
200 224 255
200 224 255
200 224 255
201 224 255
201 224 255
201 224 255
201 224 255
201 224 255
201 224 255
201 224 255
201 224 255
201 224 255
201 224 255
201 224 255
201 225 255
201 225 255
201 225 255
201 225 255
202 225 255
202 225 255
202 225 255
202 225 255
202 225 255
202 225 255
202 225 255
202 225 255
202 225 255
202 225 255
202 225 255
202 225 255
202 225 255
202 225 255
202 225 255
203 225 255
203 225 255
203 225 255
203 225 255
203 225 255
203 225 255
203 225 255
203 225 255
203 225 255
203 226 255
203 226 255
203 226 255
203 226 255
203 226 255
203 226 255
204 226 255
204 226 255
204 226 255
204 226 255
204 226 255
204 226 255
204 226 255
204 226 255
204 226 255
204 226 255
204 226 255
204 226 255
204 226 255
204 226 255
204 226 255
204 226 255
204 226 255
205 226 255
205 226 255
205 226 255
205 226 255
205 226 255
205 226 255
205 226 255
205 226 255
205 227 255
205 227 255
205 227 255
205 227 255
205 227 255
205 227 255
205 227 255
205 227 255
205 227 255
205 227 255
206 227 255
206 227 255
206 227 255
206 227 255
206 227 255
206 227 255
206 227 255
206 227 255
206 227 255
206 227 255
206 227 255
206 227 255
206 227 255
206 227 255
206 227 255
206 227 255
206 227 255
206 227 255
206 227 255
207 227 255
207 227 255
207 227 255
207 227 255
207 227 255
207 227 255
206 227 255
206 227 255
206 227 255
206 227 255
206 227 255
206 227 255
206 227 255
206 227 255
206 227 255
206 227 255
206 227 255
206 227 255
206 227 255
206 227 255
206 227 255
206 227 255
206 227 255
206 227 255
206 227 255
205 227 255
205 227 255
205 227 255
205 227 255
205 227 255
205 227 255
205 227 255
205 227 255
205 227 255
205 227 255
205 227 255
205 226 255
205 226 255
205 226 255
205 226 255
205 226 255
205 226 255
205 226 255
204 226 255
204 226 255
204 226 255
204 226 255
204 226 255
204 226 255
204 226 255
204 226 255
204 226 255
204 226 255
204 226 255
204 226 255
204 226 255
204 226 255
204 226 255
204 226 255
204 226 255
203 226 255
203 226 255
203 226 255
203 226 255
203 226 255
203 226 255
203 226 255
203 225 255
203 225 255
203 225 255
203 225 255
203 225 255
203 225 255
203 225 255
203 225 255
202 225 255
202 225 255
202 225 255
202 225 255
202 225 255
202 225 255
202 225 255
202 225 255
202 225 255
202 225 255
202 225 255
202 225 255
202 225 255
202 225 255
202 225 255
201 225 255
201 225 255
201 225 255
201 225 255
201 224 255
201 224 255
201 224 255
201 224 255
201 224 255
201 224 255
201 224 255
201 224 255
201 224 255
201 224 255
201 224 255
200 224 255
200 224 255
200 224 255
200 224 255
200 224 255
200 224 255
200 224 255
200 224 255
200 224 255
200 224 255
200 224 255
200 224 255
200 224 255
200 224 255
199 224 255
199 224 255
199 224 255
199 223 255
199 223 255
199 223 255
199 223 255
199 223 255
199 223 255
199 223 255
199 223 255
199 223 255
199 223 255
199 223 255
199 223 255
199 223 255
198 223 255
198 223 255
198 223 255
198 223 255
198 223 255
198 223 255
198 223 255
198 223 255
198 223 255
198 223 255
198 223 255
198 223 255
198 223 255
198 223 255
198 223 255
198 223 255
198 223 255
197 223 255
197 222 255
197 222 255
197 222 255
197 222 255
197 222 255
197 222 255
197 222 255
197 222 255
197 222 255
197 222 255
197 222 255
197 222 255
197 222 255
197 222 255
197 222 255
197 222 255
197 222 255
197 222 255
197 222 255
197 222 255
197 222 255
197 222 255
197 222 255
196 222 255
196 222 255
196 222 255
196 222 255
196 222 255
196 222 255
196 222 255
196 222 255
196 222 255
196 222 255
196 222 255
196 222 255
196 222 255
196 222 255
196 222 255
196 222 255
196 222 255
196 222 255
196 222 255
196 222 255
196 222 255
196 222 255
196 222 255
196 222 255
196 222 255
196 222 255
196 222 255
196 222 255
196 222 255
196 222 255
196 222 255
196 222 255
196 222 255
196 222 255
196 222 255
196 222 255
196 222 255
196 222 255
196 222 255
196 222 255
196 222 255
196 222 255
196 222 255
196 222 255
196 222 255
196 222 255
196 222 255
196 222 255
196 222 255
196 222 255
196 222 255
196 222 255
197 222 255
197 222 255
197 222 255
197 222 255
197 222 255
197 222 255
197 222 255
197 222 255
197 222 255
197 222 255
197 222 255
197 222 255
197 222 255
197 222 255
197 222 255
197 222 255
197 222 255
197 222 255
197 222 255
197 222 255
197 222 255
197 222 255
197 222 255
198 223 255
198 223 255
198 223 255
198 223 255
198 223 255
198 223 255
198 223 255
198 223 255
198 223 255
198 223 255
198 223 255
198 223 255
198 223 255
198 223 255
198 223 255
198 223 255
198 223 255
198 223 255
199 223 255
199 223 255
199 223 255
199 223 255
199 223 255
199 223 255
199 223 255
199 223 255
199 223 255
199 223 255
199 223 255
199 223 255
199 223 255
199 224 255
199 224 255
200 224 255
200 224 255
200 224 255
200 224 255
200 224 255
200 224 255
200 224 255
200 224 255
200 224 255
200 224 255
200 224 255
200 224 255
200 224 255
200 224 255
200 224 255
201 224 255
201 224 255
201 224 255
201 224 255
201 224 255
201 224 255
201 224 255
201 224 255
201 224 255
201 224 255
201 225 255
201 225 255
201 225 255
201 225 255
201 225 255
202 225 255
202 225 255
202 225 255
202 225 255
202 225 255
202 225 255
202 225 255
202 225 255
202 225 255
202 225 255
202 225 255
202 225 255
202 225 255
202 225 255
202 225 255
203 225 255
203 225 255
203 225 255
203 225 255
203 225 255
203 225 255
203 225 255
203 225 255
203 226 255
203 226 255
203 226 255
203 226 255
203 226 255
203 226 255
203 226 255
203 226 255
204 226 255
204 226 255
204 226 255
204 226 255
204 226 255
204 226 255
204 226 255
204 226 255
204 226 255
204 226 255
204 226 255
204 226 255
204 226 255
204 226 255
204 226 255
204 226 255
205 226 255
205 226 255
205 226 255
205 226 255
205 226 255
205 226 255
205 226 255
205 227 255
205 227 255
205 227 255
205 227 255
205 227 255
205 227 255
205 227 255
205 227 255
205 227 255
205 227 255
205 227 255
206 227 255
206 227 255
206 227 255
206 227 255
206 227 255
206 227 255
206 227 255
206 227 255
206 227 255
206 227 255
206 227 255
206 227 255
206 227 255
206 227 255
206 227 255
206 227 255
206 227 255
206 227 255
206 227 255
207 227 255
207 227 255
207 227 255
207 227 255
207 228 255
207 228 255
207 228 255
207 227 255
207 227 255
207 227 255
207 227 255
206 227 255
206 227 255
206 227 255
206 227 255
206 227 255
206 227 255
206 227 255
206 227 255
206 227 255
206 227 255
206 227 255
206 227 255
206 227 255
206 227 255
206 227 255
206 227 255
206 227 255
206 227 255
206 227 255
205 227 255
205 227 255
205 227 255
205 227 255
205 227 255
205 227 255
205 227 255
205 227 255
205 227 255
205 227 255
205 227 255
205 226 255
205 226 255
205 226 255
205 226 255
205 226 255
205 226 255
205 226 255
204 226 255
204 226 255
204 226 255
204 226 255
204 226 255
204 226 255
204 226 255
204 226 255
204 226 255
204 226 255
204 226 255
204 226 255
204 226 255
204 226 255
204 226 255
204 226 255
203 226 255
203 226 255
203 226 255
203 226 255
203 226 255
203 226 255
203 226 255
203 225 255
203 225 255
203 225 255
203 225 255
203 225 255
203 225 255
203 225 255
203 225 255
202 225 255
202 225 255
202 225 255
202 225 255
202 225 255
202 225 255
202 225 255
202 225 255
202 225 255
202 225 255
202 225 255
202 225 255
202 225 255
202 225 255
202 225 255
201 225 255
201 225 255
201 225 255
201 225 255
201 225 255
201 224 255
201 224 255
201 224 255
201 224 255
201 224 255
201 224 255
201 224 255
201 224 255
201 224 255
201 224 255
200 224 255
200 224 255
200 224 255
200 224 255
200 224 255
200 224 255
200 224 255
200 224 255
200 224 255
200 224 255
200 224 255
200 224 255
200 224 255
200 224 255
200 224 255
199 224 255
199 224 255
199 224 255
199 223 255
199 223 255
199 223 255
199 223 255
199 223 255
199 223 255
199 223 255
199 223 255
199 223 255
199 223 255
199 223 255
199 223 255
199 223 255
198 223 255
198 223 255
198 223 255
198 223 255
198 223 255
198 223 255
198 223 255
198 223 255
198 223 255
198 223 255
198 223 255
198 223 255
198 223 255
198 223 255
198 223 255
198 223 255
198 223 255
197 222 255
197 222 255
197 222 255
197 222 255
197 222 255
197 222 255
197 222 255
197 222 255
197 222 255
197 222 255
197 222 255
197 222 255
197 222 255
197 222 255
197 222 255
197 222 255
197 222 255
197 222 255
197 222 255
197 222 255
197 222 255
197 222 255
197 222 255
197 222 255
197 222 255
197 222 255
196 222 255
196 222 255
196 222 255
196 222 255
196 222 255
196 222 255
196 222 255
196 222 255
196 222 255
196 222 255
196 222 255
196 222 255
196 222 255
196 222 255
196 222 255
196 222 255
196 222 255
196 222 255
196 222 255
196 222 255
196 222 255
196 222 255
196 222 255
196 222 255
196 222 255
196 222 255
196 222 255
196 222 255
196 222 255
196 222 255
196 222 255
196 222 255
196 222 255
196 222 255
196 222 255
196 222 255
196 222 255
196 222 255
196 222 255
196 222 255
196 222 255
197 222 255
197 222 255
197 222 255
197 222 255
197 222 255
197 222 255
197 222 255
197 222 255
197 222 255
197 222 255
197 222 255
197 222 255
197 222 255
197 222 255
197 222 255
197 222 255
197 222 255
197 222 255
197 222 255
197 222 255
197 222 255
197 222 255
197 222 255
197 222 255
197 222 255
197 223 255
198 223 255
198 223 255
198 223 255
198 223 255
198 223 255
198 223 255
198 223 255
198 223 255
198 223 255
198 223 255
198 223 255
198 223 255
198 223 255
198 223 255
198 223 255
198 223 255
198 223 255
198 223 255
199 223 255
199 223 255
199 223 255
199 223 255
199 223 255
199 223 255
199 223 255
199 223 255
199 223 255
199 223 255
199 223 255
199 223 255
199 223 255
199 224 255
199 224 255
199 224 255
200 224 255
200 224 255
200 224 255
200 224 255
200 224 255
200 224 255
200 224 255
200 224 255
200 224 255
200 224 255
200 224 255
200 224 255
200 224 255
200 224 255
200 224 255
201 224 255
201 224 255
201 224 255
201 224 255
201 224 255
201 224 255
201 224 255
201 224 255
201 224 255
201 224 255
201 225 255
201 225 255
201 225 255
201 225 255
201 225 255
202 225 255
202 225 255
202 225 255
202 225 255
202 225 255
202 225 255
202 225 255
202 225 255
202 225 255
202 225 255
202 225 255
202 225 255
202 225 255
202 225 255
202 225 255
203 225 255
203 225 255
203 225 255
203 225 255
203 225 255
203 225 255
203 225 255
203 225 255
203 226 255
203 226 255
203 226 255
203 226 255
203 226 255
203 226 255
203 226 255
204 226 255
204 226 255
204 226 255
204 226 255
204 226 255
204 226 255
204 226 255
204 226 255
204 226 255
204 226 255
204 226 255
204 226 255
204 226 255
204 226 255
204 226 255
204 226 255
205 226 255
205 226 255
205 226 255
205 226 255
205 226 255
205 226 255
205 226 255
205 227 255
205 227 255
205 227 255
205 227 255
205 227 255
205 227 255
205 227 255
205 227 255
205 227 255
205 227 255
205 227 255
206 227 255
206 227 255
206 227 255
206 227 255
206 227 255
206 227 255
206 227 255
206 227 255
206 227 255
206 227 255
206 227 255
206 227 255
206 227 255
206 227 255
206 227 255
206 227 255
206 227 255
206 227 255
206 227 255
207 227 255
207 227 255
207 227 255
207 227 255
207 227 255
207 228 255
207 228 255
207 228 255
207 228 255
207 228 255
207 228 255
207 228 255
207 227 255
207 227 255
207 227 255
207 227 255
207 227 255
206 227 255
206 227 255
206 227 255
206 227 255
206 227 255
206 227 255
206 227 255
206 227 255
206 227 255
206 227 255
206 227 255
206 227 255
206 227 255
206 227 255
206 227 255
206 227 255
206 227 255
206 227 255
206 227 255
205 227 255
205 227 255
205 227 255
205 227 255
205 227 255
205 227 255
205 227 255
205 227 255
205 227 255
205 227 255
205 227 255
205 226 255
205 226 255
205 226 255
205 226 255
205 226 255
205 226 255
204 226 255
204 226 255
204 226 255
204 226 255
204 226 255
204 226 255
204 226 255
204 226 255
204 226 255
204 226 255
204 226 255
204 226 255
204 226 255
204 226 255
204 226 255
204 226 255
204 226 255
203 226 255
203 226 255
203 226 255
203 226 255
203 226 255
203 226 255
203 225 255
203 225 255
203 225 255
203 225 255
203 225 255
203 225 255
203 225 255
203 225 255
203 225 255
202 225 255
202 225 255
202 225 255
202 225 255
202 225 255
202 225 255
202 225 255
202 225 255
202 225 255
202 225 255
202 225 255
202 225 255
202 225 255
202 225 255
202 225 255
201 225 255
201 225 255
201 225 255
201 225 255
201 224 255
201 224 255
201 224 255
201 224 255
201 224 255
201 224 255
201 224 255
201 224 255
201 224 255
201 224 255
201 224 255
200 224 255
200 224 255
200 224 255
200 224 255
200 224 255
200 224 255
200 224 255
200 224 255
200 224 255
200 224 255
200 224 255
200 224 255
200 224 255
200 224 255
199 224 255
199 224 255
199 224 255
199 223 255
199 223 255
199 223 255
199 223 255
199 223 255
199 223 255
199 223 255
199 223 255
199 223 255
199 223 255
199 223 255
199 223 255
199 223 255
198 223 255
198 223 255
198 223 255
198 223 255
198 223 255
198 223 255
198 223 255
198 223 255
198 223 255
198 223 255
198 223 255
198 223 255
198 223 255
198 223 255
198 223 255
198 223 255
198 223 255
198 223 255
198 223 255
198 223 255
197 222 255
197 222 255
197 222 255
197 222 255
197 222 255
197 222 255
197 222 255
197 222 255
197 222 255
197 222 255
197 222 255
197 222 255
197 222 255
197 222 255
197 222 255
197 222 255
197 222 255
197 222 255
197 222 255
197 222 255
197 222 255
197 222 255
197 222 255
197 222 255
197 222 255
197 222 255
197 222 255
197 222 255
197 222 255
197 222 255
197 222 255
196 222 255
196 222 255
196 222 255
196 222 255
196 222 255
196 222 255
196 222 255
196 222 255
196 222 255
196 222 255
196 222 255
196 222 255
196 222 255
196 222 255
196 222 255
196 222 255
196 222 255
196 222 255
196 222 255
196 222 255
196 222 255
197 222 255
197 222 255
197 222 255
197 222 255
197 222 255
197 222 255
197 222 255
197 222 255
197 222 255
197 222 255
197 222 255
197 222 255
197 222 255
197 222 255
197 222 255
197 222 255
197 222 255
197 222 255
197 222 255
197 222 255
197 222 255
197 222 255
197 222 255
197 222 255
197 222 255
197 222 255
197 222 255
197 222 255
197 222 255
197 222 255
197 222 255
197 222 255
198 223 255
198 223 255
198 223 255
198 223 255
198 223 255
198 223 255
198 223 255
198 223 255
198 223 255
198 223 255
198 223 255
198 223 255
198 223 255
198 223 255
198 223 255
198 223 255
198 223 255
198 223 255
198 223 255
199 223 255
199 223 255
199 223 255
199 223 255
199 223 255
199 223 255
199 223 255
199 223 255
199 223 255
199 223 255
199 223 255
199 223 255
199 223 255
199 223 255
199 224 255
199 224 255
200 224 255
200 224 255
200 224 255
200 224 255
200 224 255
200 224 255
200 224 255
200 224 255
200 224 255
200 224 255
200 224 255
200 224 255
200 224 255
200 224 255
200 224 255
201 224 255
201 224 255
201 224 255
201 224 255
201 224 255
201 224 255
201 224 255
201 224 255
201 224 255
201 224 255
201 224 255
201 225 255
201 225 255
201 225 255
201 225 255
201 225 255
202 225 255
202 225 255
202 225 255
202 225 255
202 225 255
202 225 255
202 225 255
202 225 255
202 225 255
202 225 255
202 225 255
202 225 255
202 225 255
202 225 255
203 225 255
203 225 255
203 225 255
203 225 255
203 225 255
203 225 255
203 225 255
203 225 255
203 226 255
203 226 255
203 226 255
203 226 255
203 226 255
203 226 255
203 226 255
204 226 255
204 226 255
204 226 255
204 226 255
204 226 255
204 226 255
204 226 255
204 226 255
204 226 255
204 226 255
204 226 255
204 226 255
204 226 255
204 226 255
204 226 255
204 226 255
204 226 255
205 226 255
205 226 255
205 226 255
205 226 255
205 226 255
205 226 255
205 226 255
205 227 255
205 227 255
205 227 255
205 227 255
205 227 255
205 227 255
205 227 255
205 227 255
205 227 255
205 227 255
206 227 255
206 227 255
206 227 255
206 227 255
206 227 255
206 227 255
206 227 255
206 227 255
206 227 255
206 227 255
206 227 255
206 227 255
206 227 255
206 227 255
206 227 255
206 227 255
206 227 255
206 227 255
207 227 255
207 227 255
207 227 255
207 227 255
207 227 255
207 227 255
207 228 255
207 228 255
207 228 255
207 228 255
207 228 255
207 228 255
207 228 255
207 228 255
207 228 255
207 228 255
207 228 255
207 228 255
207 228 255
207 228 255
207 227 255
207 227 255
207 227 255
207 227 255
206 227 255
206 227 255
206 227 255
206 227 255
206 227 255
206 227 255
206 227 255
206 227 255
206 227 255
206 227 255
206 227 255
206 227 255
206 227 255
206 227 255
206 227 255
206 227 255
206 227 255
206 227 255
205 227 255
205 227 255
205 227 255
205 227 255
205 227 255
205 227 255
205 227 255
205 227 255
205 227 255
205 227 255
205 227 255
205 226 255
205 226 255
205 226 255
205 226 255
205 226 255
205 226 255
205 226 255
204 226 255
204 226 255
204 226 255
204 226 255
204 226 255
204 226 255
204 226 255
204 226 255
204 226 255
204 226 255
204 226 255
204 226 255
204 226 255
204 226 255
204 226 255
204 226 255
203 226 255
203 226 255
203 226 255
203 226 255
203 226 255
203 226 255
203 226 255
203 225 255
203 225 255
203 225 255
203 225 255
203 225 255
203 225 255
203 225 255
203 225 255
203 225 255
202 225 255
202 225 255
202 225 255
202 225 255
202 225 255
202 225 255
202 225 255
202 225 255
202 225 255
202 225 255
202 225 255
202 225 255
202 225 255
202 225 255
201 225 255
201 225 255
201 225 255
201 225 255
201 225 255
201 224 255
201 224 255
201 224 255
201 224 255
201 224 255
201 224 255
201 224 255
201 224 255
201 224 255
201 224 255
200 224 255
200 224 255
200 224 255
200 224 255
200 224 255
200 224 255
200 224 255
200 224 255
200 224 255
200 224 255
200 224 255
200 224 255
200 224 255
200 224 255
200 224 255
199 224 255
199 224 255
199 223 255
199 223 255
199 223 255
199 223 255
199 223 255
199 223 255
199 223 255
199 223 255
199 223 255
199 223 255
199 223 255
199 223 255
199 223 255
199 223 255
198 223 255
198 223 255
198 223 255
198 223 255
198 223 255
198 223 255
198 223 255
198 223 255
198 223 255
198 223 255
198 223 255
198 223 255
198 223 255
198 223 255
198 223 255
198 223 255
198 223 255
198 223 255
198 223 255
198 223 255
197 222 255
197 222 255
197 222 255
197 222 255
197 222 255
197 222 255
197 222 255
197 222 255
197 222 255
197 222 255
197 222 255
197 222 255
197 222 255
197 222 255
197 222 255
197 222 255
197 222 255
197 222 255
197 222 255
197 222 255
197 222 255
197 222 255
197 222 255
197 222 255
197 222 255
197 222 255
197 222 255
197 222 255
197 222 255
197 222 255
197 222 255
197 222 255
197 222 255
197 222 255
197 222 255
197 222 255
197 222 255
197 222 255
197 222 255
197 222 255
197 222 255
197 222 255
197 222 255
197 222 255
197 222 255
197 222 255
197 222 255
197 222 255
197 222 255
197 222 255
197 222 255
197 222 255
197 222 255
197 222 255
197 222 255
197 222 255
197 222 255
197 222 255
197 222 255
197 222 255
197 222 255
197 222 255
197 222 255
197 222 255
197 222 255
197 222 255
197 222 255
197 222 255
197 222 255
197 222 255
197 222 255
197 222 255
197 222 255
197 222 255
197 222 255
197 222 255
197 222 255
197 223 255
198 223 255
198 223 255
198 223 255
198 223 255
198 223 255
198 223 255
198 223 255
198 223 255
198 223 255
198 223 255
198 223 255
198 223 255
198 223 255
198 223 255
198 223 255
198 223 255
198 223 255
198 223 255
198 223 255
198 223 255
199 223 255
199 223 255
199 223 255
199 223 255
199 223 255
199 223 255
199 223 255
199 223 255
199 223 255
199 223 255
199 223 255
199 223 255
199 223 255
199 224 255
199 224 255
199 224 255
200 224 255
200 224 255
200 224 255
200 224 255
200 224 255
200 224 255
200 224 255
200 224 255
200 224 255
200 224 255
200 224 255
200 224 255
200 224 255
200 224 255
200 224 255
201 224 255
201 224 255
201 224 255
201 224 255
201 224 255
201 224 255
201 224 255
201 224 255
201 224 255
201 224 255
201 225 255
201 225 255
201 225 255
201 225 255
201 225 255
202 225 255
202 225 255
202 225 255
202 225 255
202 225 255
202 225 255
202 225 255
202 225 255
202 225 255
202 225 255
202 225 255
202 225 255
202 225 255
202 225 255
202 225 255
203 225 255
203 225 255
203 225 255
203 225 255
203 225 255
203 225 255
203 225 255
203 225 255
203 226 255
203 226 255
203 226 255
203 226 255
203 226 255
203 226 255
203 226 255
204 226 255
204 226 255
204 226 255
204 226 255
204 226 255
204 226 255
204 226 255
204 226 255
204 226 255
204 226 255
204 226 255
204 226 255
204 226 255
204 226 255
204 226 255
204 226 255
205 226 255
205 226 255
205 226 255
205 226 255
205 226 255
205 226 255
205 226 255
205 227 255
205 227 255
205 227 255
205 227 255
205 227 255
205 227 255
205 227 255
205 227 255
205 227 255
205 227 255
205 227 255
206 227 255
206 227 255
206 227 255
206 227 255
206 227 255
206 227 255
206 227 255
206 227 255
206 227 255
206 227 255
206 227 255
206 227 255
206 227 255
206 227 255
206 227 255
206 227 255
206 227 255
206 227 255
207 227 255
207 227 255
207 227 255
207 227 255
207 227 255
207 228 255
207 228 255
207 228 255
207 228 255
207 228 255
207 228 255
207 228 255
207 228 255
207 228 255
207 228 255
207 228 255
207 228 255
207 228 255
207 228 255
207 228 255
207 228 255
207 228 255
207 228 255
207 228 255
207 227 255
207 227 255
207 227 255
207 227 255
207 227 255
206 227 255
206 227 255
206 227 255
206 227 255
206 227 255
206 227 255
206 227 255
206 227 255
206 227 255
206 227 255
206 227 255
206 227 255
206 227 255
206 227 255
206 227 255
206 227 255
206 227 255
206 227 255
205 227 255
205 227 255
205 227 255
205 227 255
205 227 255
205 227 255
205 227 255
205 227 255
205 227 255
205 227 255
205 227 255
205 226 255
205 226 255
205 226 255
205 226 255
205 226 255
205 226 255
205 226 255
204 226 255
204 226 255
204 226 255
204 226 255
204 226 255
204 226 255
204 226 255
204 226 255
204 226 255
204 226 255
204 226 255
204 226 255
204 226 255
204 226 255
204 226 255
203 226 255
203 226 255
203 226 255
203 226 255
203 226 255
203 226 255
203 226 255
203 225 255
203 225 255
203 225 255
203 225 255
203 225 255
203 225 255
203 225 255
203 225 255
203 225 255
202 225 255
202 225 255
202 225 255
202 225 255
202 225 255
202 225 255
202 225 255
202 225 255
202 225 255
202 225 255
202 225 255
202 225 255
202 225 255
202 225 255
201 225 255
201 225 255
201 225 255
201 225 255
201 225 255
201 224 255
201 224 255
201 224 255
201 224 255
201 224 255
201 224 255
201 224 255
201 224 255
201 224 255
201 224 255
200 224 255
200 224 255
200 224 255
200 224 255
200 224 255
200 224 255
200 224 255
200 224 255
200 224 255
200 224 255
200 224 255
200 224 255
200 224 255
200 224 255
200 224 255
200 224 255
199 224 255
199 224 255
199 224 255
199 223 255
199 223 255
199 223 255
199 223 255
199 223 255
199 223 255
199 223 255
199 223 255
199 223 255
199 223 255
199 223 255
199 223 255
199 223 255
199 223 255
198 223 255
198 223 255
198 223 255
198 223 255
198 223 255
198 223 255
198 223 255
198 223 255
198 223 255
198 223 255
198 223 255
198 223 255
198 223 255
198 223 255
198 223 255
198 223 255
198 223 255
198 223 255
198 223 255
198 223 255
197 223 255
197 223 255
197 222 255
197 222 255
197 222 255
197 222 255
197 222 255
197 222 255
197 222 255
197 222 255
197 222 255
197 222 255
197 222 255
197 222 255
197 222 255
197 222 255
197 222 255
197 222 255
197 222 255
197 222 255
197 222 255
197 222 255
197 222 255
197 222 255
197 222 255
197 222 255
197 222 255
197 222 255
197 222 255
197 222 255
197 222 255
197 222 255
197 222 255
197 222 255
197 222 255
197 222 255
197 222 255
197 222 255
197 222 255
197 222 255
197 222 255
197 222 255
197 222 255
197 222 255
197 222 255
197 222 255
197 222 255
197 222 255
197 222 255
197 222 255
197 222 255
197 222 255
197 222 255
197 222 255
197 222 255
197 222 255
197 222 255
197 222 255
197 222 255
197 222 255
197 222 255
197 222 255
197 222 255
197 222 255
197 222 255
197 222 255
197 222 255
197 222 255
197 222 255
197 223 255
198 223 255
198 223 255
198 223 255
198 223 255
198 223 255
198 223 255
198 223 255
198 223 255
198 223 255
198 223 255
198 223 255
198 223 255
198 223 255
198 223 255
198 223 255
198 223 255
198 223 255
198 223 255
198 223 255
198 223 255
199 223 255
199 223 255
199 223 255
199 223 255
199 223 255
199 223 255
199 223 255
199 223 255
199 223 255
199 223 255
199 223 255
199 223 255
199 223 255
199 223 255
199 223 255
199 224 255
199 224 255
200 224 255
200 224 255
200 224 255
200 224 255
200 224 255
200 224 255
200 224 255
200 224 255
200 224 255
200 224 255
200 224 255
200 224 255
200 224 255
200 224 255
200 224 255
201 224 255
201 224 255
201 224 255
201 224 255
201 224 255
201 224 255
201 224 255
201 224 255
201 224 255
201 224 255
201 224 255
201 225 255
201 225 255
201 225 255
201 225 255
202 225 255
202 225 255
202 225 255
202 225 255
202 225 255
202 225 255
202 225 255
202 225 255
202 225 255
202 225 255
202 225 255
202 225 255
202 225 255
202 225 255
202 225 255
203 225 255
203 225 255
203 225 255
203 225 255
203 225 255
203 225 255
203 225 255
203 225 255
203 225 255
203 226 255
203 226 255
203 226 255
203 226 255
203 226 255
203 226 255
204 226 255
204 226 255
204 226 255
204 226 255
204 226 255
204 226 255
204 226 255
204 226 255
204 226 255
204 226 255
204 226 255
204 226 255
204 226 255
204 226 255
204 226 255
204 226 255
204 226 255
205 226 255
205 226 255
205 226 255
205 226 255
205 226 255
205 226 255
205 227 255
205 227 255
205 227 255
205 227 255
205 227 255
205 227 255
205 227 255
205 227 255
205 227 255
205 227 255
205 227 255
206 227 255
206 227 255
206 227 255
206 227 255
206 227 255
206 227 255
206 227 255
206 227 255
206 227 255
206 227 255
206 227 255
206 227 255
206 227 255
206 227 255
206 227 255
206 227 255
206 227 255
206 227 255
207 227 255
207 227 255
207 227 255
207 227 255
207 227 255
207 228 255
207 228 255
207 228 255
207 228 255
207 228 255
207 228 255
207 228 255
207 228 255
207 228 255
207 228 255
207 228 255
207 228 255
207 228 255
207 228 255
207 228 255
207 228 255
207 228 255
207 228 255
207 228 255
207 228 255
207 228 255
207 228 255
207 228 255
207 228 255
207 228 255
207 227 255
207 227 255
207 227 255
207 227 255
206 227 255
206 227 255
206 227 255
206 227 255
206 227 255
206 227 255
206 227 255
206 227 255
206 227 255
206 227 255
206 227 255
206 227 255
206 227 255
206 227 255
206 227 255
206 227 255
206 227 255
206 227 255
206 227 255
205 227 255
205 227 255
205 227 255
205 227 255
205 227 255
205 227 255
205 227 255
205 227 255
205 227 255
205 227 255
205 227 255
205 226 255
205 226 255
205 226 255
205 226 255
205 226 255
205 226 255
204 226 255
204 226 255
204 226 255
204 226 255
204 226 255
204 226 255
204 226 255
204 226 255
204 226 255
204 226 255
204 226 255
204 226 255
204 226 255
204 226 255
204 226 255
204 226 255
203 226 255
203 226 255
203 226 255
203 226 255
203 226 255
203 226 255
203 226 255
203 225 255
203 225 255
203 225 255
203 225 255
203 225 255
203 225 255
203 225 255
203 225 255
203 225 255
202 225 255
202 225 255
202 225 255
202 225 255
202 225 255
202 225 255
202 225 255
202 225 255
202 225 255
202 225 255
202 225 255
202 225 255
202 225 255
202 225 255
201 225 255
201 225 255
201 225 255
201 225 255
201 225 255
201 224 255
201 224 255
201 224 255
201 224 255
201 224 255
201 224 255
201 224 255
201 224 255
201 224 255
201 224 255
201 224 255
200 224 255
200 224 255
200 224 255
200 224 255
200 224 255
200 224 255
200 224 255
200 224 255
200 224 255
200 224 255
200 224 255
200 224 255
200 224 255
200 224 255
200 224 255
199 224 255
199 224 255
199 223 255
199 223 255
199 223 255
199 223 255
199 223 255
199 223 255
199 223 255
199 223 255
199 223 255
199 223 255
199 223 255
199 223 255
199 223 255
199 223 255
199 223 255
198 223 255
198 223 255
198 223 255
198 223 255
198 223 255
198 223 255
198 223 255
198 223 255
198 223 255
198 223 255
198 223 255
198 223 255
198 223 255
198 223 255
198 223 255
198 223 255
198 223 255
198 223 255
198 223 255
198 223 255
198 223 255
197 223 255
197 222 255
197 222 255
197 222 255
197 222 255
197 222 255
197 222 255
197 222 255
197 222 255
197 222 255
197 222 255
197 222 255
197 222 255
197 222 255
197 222 255
197 222 255
197 222 255
197 222 255
197 222 255
197 222 255
197 222 255
197 222 255
197 222 255
197 222 255
197 222 255
197 222 255
197 222 255
197 222 255
197 222 255
197 222 255
197 222 255
197 222 255
197 222 255
197 222 255
197 222 255
197 222 255
197 222 255
197 222 255
197 222 255
197 222 255
197 222 255
197 222 255
197 222 255
197 222 255
197 222 255
197 222 255
197 222 255
197 222 255
197 222 255
197 222 255
197 222 255
197 222 255
197 222 255
197 222 255
197 222 255
197 222 255
197 222 255
197 222 255
197 222 255
197 222 255
197 223 255
198 223 255
198 223 255
198 223 255
198 223 255
198 223 255
198 223 255
198 223 255
198 223 255
198 223 255
198 223 255
198 223 255
198 223 255
198 223 255
198 223 255
198 223 255
198 223 255
198 223 255
198 223 255
198 223 255
198 223 255
198 223 255
198 223 255
199 223 255
199 223 255
199 223 255
199 223 255
199 223 255
199 223 255
199 223 255
199 223 255
199 223 255
199 223 255
199 223 255
199 223 255
199 223 255
199 223 255
199 223 255
199 224 255
199 224 255
200 224 255
200 224 255
200 224 255
200 224 255
200 224 255
200 224 255
200 224 255
200 224 255
200 224 255
200 224 255
200 224 255
200 224 255
200 224 255
200 224 255
200 224 255
201 224 255
201 224 255
201 224 255
201 224 255
201 224 255
201 224 255
201 224 255
201 224 255
201 224 255
201 224 255
201 224 255
201 225 255
201 225 255
201 225 255
201 225 255
201 225 255
202 225 255
202 225 255
202 225 255
202 225 255
202 225 255
202 225 255
202 225 255
202 225 255
202 225 255
202 225 255
202 225 255
202 225 255
202 225 255
202 225 255
203 225 255
203 225 255
203 225 255
203 225 255
203 225 255
203 225 255
203 225 255
203 225 255
203 225 255
203 226 255
203 226 255
203 226 255
203 226 255
203 226 255
203 226 255
203 226 255
204 226 255
204 226 255
204 226 255
204 226 255
204 226 255
204 226 255
204 226 255
204 226 255
204 226 255
204 226 255
204 226 255
204 226 255
204 226 255
204 226 255
204 226 255
204 226 255
205 226 255
205 226 255
205 226 255
205 226 255
205 226 255
205 226 255
205 227 255
205 227 255
205 227 255
205 227 255
205 227 255
205 227 255
205 227 255
205 227 255
205 227 255
205 227 255
205 227 255
206 227 255
206 227 255
206 227 255
206 227 255
206 227 255
206 227 255
206 227 255
206 227 255
206 227 255
206 227 255
206 227 255
206 227 255
206 227 255
206 227 255
206 227 255
206 227 255
206 227 255
206 227 255
206 227 255
207 227 255
207 227 255
207 227 255
207 227 255
207 227 255
207 228 255
207 228 255
207 228 255
207 228 255
207 228 255
207 228 255
207 228 255
207 228 255
207 228 255
207 228 255
207 228 255
207 228 255
207 228 255
208 228 255
207 228 255
207 228 255
207 228 255
207 228 255
207 228 255
207 228 255
207 228 255
207 228 255
207 228 255
207 228 255
207 228 255
207 228 255
207 228 255
207 228 255
207 228 255
207 228 255
207 227 255
207 227 255
207 227 255
207 227 255
207 227 255
206 227 255
206 227 255
206 227 255
206 227 255
206 227 255
206 227 255
206 227 255
206 227 255
206 227 255
206 227 255
206 227 255
206 227 255
206 227 255
206 227 255
206 227 255
206 227 255
206 227 255
205 227 255
205 227 255
205 227 255
205 227 255
205 227 255
205 227 255
205 227 255
205 227 255
205 227 255
205 227 255
205 227 255
205 227 255
205 226 255
205 226 255
205 226 255
205 226 255
205 226 255
204 226 255
204 226 255
204 226 255
204 226 255
204 226 255
204 226 255
204 226 255
204 226 255
204 226 255
204 226 255
204 226 255
204 226 255
204 226 255
204 226 255
204 226 255
204 226 255
204 226 255
203 226 255
203 226 255
203 226 255
203 226 255
203 226 255
203 226 255
203 225 255
203 225 255
203 225 255
203 225 255
203 225 255
203 225 255
203 225 255
203 225 255
203 225 255
202 225 255
202 225 255
202 225 255
202 225 255
202 225 255
202 225 255
202 225 255
202 225 255
202 225 255
202 225 255
202 225 255
202 225 255
202 225 255
202 225 255
202 225 255
201 225 255
201 225 255
201 225 255
201 225 255
201 224 255
201 224 255
201 224 255
201 224 255
201 224 255
201 224 255
201 224 255
201 224 255
201 224 255
201 224 255
201 224 255
200 224 255
200 224 255
200 224 255
200 224 255
200 224 255
200 224 255
200 224 255
200 224 255
200 224 255
200 224 255
200 224 255
200 224 255
200 224 255
200 224 255
200 224 255
200 224 255
199 224 255
199 224 255
199 223 255
199 223 255
199 223 255
199 223 255
199 223 255
199 223 255
199 223 255
199 223 255
199 223 255
199 223 255
199 223 255
199 223 255
199 223 255
199 223 255
199 223 255
198 223 255
198 223 255
198 223 255
198 223 255
198 223 255
198 223 255
198 223 255
198 223 255
198 223 255
198 223 255
198 223 255
198 223 255
198 223 255
198 223 255
198 223 255
198 223 255
198 223 255
198 223 255
198 223 255
198 223 255
198 223 255
198 223 255
198 223 255
198 223 255
198 223 255
197 223 255
197 223 255
197 222 255
197 222 255
197 222 255
197 222 255
197 222 255
197 222 255
197 222 255
197 222 255
197 222 255
197 222 255
197 222 255
197 222 255
197 222 255
197 222 255
197 222 255
197 222 255
197 222 255
197 222 255
197 222 255
197 222 255
197 222 255
197 222 255
197 222 255
197 222 255
197 222 255
197 222 255
197 222 255
197 222 255
197 222 255
197 222 255
197 222 255
197 222 255
197 222 255
197 222 255
197 222 255
197 222 255
197 222 255
197 222 255
197 222 255
197 222 255
197 222 255
197 222 255
197 222 255
197 222 255
197 222 255
197 222 255
197 223 255
198 223 255
198 223 255
198 223 255
198 223 255
198 223 255
198 223 255
198 223 255
198 223 255
198 223 255
198 223 255
198 223 255
198 223 255
198 223 255
198 223 255
198 223 255
198 223 255
198 223 255
198 223 255
198 223 255
198 223 255
198 223 255
198 223 255
198 223 255
198 223 255
199 223 255
199 223 255
199 223 255
199 223 255
199 223 255
199 223 255
199 223 255
199 223 255
199 223 255
199 223 255
199 223 255
199 223 255
199 223 255
199 223 255
199 223 255
199 224 255
199 224 255
199 224 255
200 224 255
200 224 255
200 224 255
200 224 255
200 224 255
200 224 255
200 224 255
200 224 255
200 224 255
200 224 255
200 224 255
200 224 255
200 224 255
200 224 255
200 224 255
201 224 255
201 224 255
201 224 255
201 224 255
201 224 255
201 224 255
201 224 255
201 224 255
201 224 255
201 224 255
201 224 255
201 225 255
201 225 255
201 225 255
201 225 255
202 225 255
202 225 255
202 225 255
202 225 255
202 225 255
202 225 255
202 225 255
202 225 255
202 225 255
202 225 255
202 225 255
202 225 255
202 225 255
202 225 255
202 225 255
202 225 255
203 225 255
203 225 255
203 225 255
203 225 255
203 225 255
203 225 255
203 225 255
203 226 255
203 226 255
203 226 255
203 226 255
203 226 255
203 226 255
203 226 255
204 226 255
204 226 255
204 226 255
204 226 255
204 226 255
204 226 255
204 226 255
204 226 255
204 226 255
204 226 255
204 226 255
204 226 255
204 226 255
204 226 255
204 226 255
204 226 255
204 226 255
205 226 255
205 226 255
205 226 255
205 226 255
205 226 255
205 226 255
205 227 255
205 227 255
205 227 255
205 227 255
205 227 255
205 227 255
205 227 255
205 227 255
205 227 255
205 227 255
205 227 255
206 227 255
206 227 255
206 227 255
206 227 255
206 227 255
206 227 255
206 227 255
206 227 255
206 227 255
206 227 255
206 227 255
206 227 255
206 227 255
206 227 255
206 227 255
206 227 255
206 227 255
206 227 255
207 227 255
207 227 255
207 227 255
207 227 255
207 227 255
207 228 255
207 228 255
207 228 255
207 228 255
207 228 255
207 228 255
207 228 255
207 228 255
207 228 255
207 228 255
207 228 255
207 228 255
207 228 255
207 228 255
208 228 255
208 228 255
208 228 255
208 228 255
208 228 255
208 228 255
207 228 255
207 228 255
207 228 255
207 228 255
207 228 255
207 228 255
207 228 255
207 228 255
207 228 255
207 228 255
207 228 255
207 228 255
207 228 255
207 228 255
207 228 255
207 227 255
207 227 255
207 227 255
207 227 255
207 227 255
206 227 255
206 227 255
206 227 255
206 227 255
206 227 255
206 227 255
206 227 255
206 227 255
206 227 255
206 227 255
206 227 255
206 227 255
206 227 255
206 227 255
206 227 255
206 227 255
206 227 255
206 227 255
206 227 255
205 227 255
205 227 255
205 227 255
205 227 255
205 227 255
205 227 255
205 227 255
205 227 255
205 227 255
205 227 255
205 226 255
205 226 255
205 226 255
205 226 255
205 226 255
205 226 255
205 226 255
204 226 255
204 226 255
204 226 255
204 226 255
204 226 255
204 226 255
204 226 255
204 226 255
204 226 255
204 226 255
204 226 255
204 226 255
204 226 255
204 226 255
204 226 255
203 226 255
203 226 255
203 226 255
203 226 255
203 226 255
203 226 255
203 226 255
203 225 255
203 225 255
203 225 255
203 225 255
203 225 255
203 225 255
203 225 255
203 225 255
203 225 255
202 225 255
202 225 255
202 225 255
202 225 255
202 225 255
202 225 255
202 225 255
202 225 255
202 225 255
202 225 255
202 225 255
202 225 255
202 225 255
202 225 255
202 225 255
201 225 255
201 225 255
201 225 255
201 225 255
201 224 255
201 224 255
201 224 255
201 224 255
201 224 255
201 224 255
201 224 255
201 224 255
201 224 255
201 224 255
201 224 255
200 224 255
200 224 255
200 224 255
200 224 255
200 224 255
200 224 255
200 224 255
200 224 255
200 224 255
200 224 255
200 224 255
200 224 255
200 224 255
200 224 255
200 224 255
200 224 255
199 224 255
199 224 255
199 224 255
199 223 255
199 223 255
199 223 255
199 223 255
199 223 255
199 223 255
199 223 255
199 223 255
199 223 255
199 223 255
199 223 255
199 223 255
199 223 255
199 223 255
199 223 255
198 223 255
198 223 255
198 223 255
198 223 255
198 223 255
198 223 255
198 223 255
198 223 255
198 223 255
198 223 255
198 223 255
198 223 255
198 223 255
198 223 255
198 223 255
198 223 255
198 223 255
198 223 255
198 223 255
198 223 255
198 223 255
198 223 255
198 223 255
198 223 255
198 223 255
198 223 255
198 223 255
197 223 255
197 223 255
197 222 255
197 222 255
197 222 255
197 222 255
197 222 255
197 222 255
197 222 255
197 222 255
197 222 255
197 222 255
197 222 255
197 222 255
197 222 255
197 222 255
197 222 255
197 222 255
197 222 255
197 222 255
197 222 255
197 222 255
197 222 255
197 222 255
197 222 255
197 222 255
197 222 255
197 222 255
197 222 255
197 222 255
197 222 255
197 222 255
197 222 255
197 223 255
197 223 255
197 223 255
198 223 255
198 223 255
198 223 255
198 223 255
198 223 255
198 223 255
198 223 255
198 223 255
198 223 255
198 223 255
198 223 255
198 223 255
198 223 255
198 223 255
198 223 255
198 223 255
198 223 255
198 223 255
198 223 255
198 223 255
198 223 255
198 223 255
198 223 255
198 223 255
198 223 255
198 223 255
198 223 255
198 223 255
199 223 255
199 223 255
199 223 255
199 223 255
199 223 255
199 223 255
199 223 255
199 223 255
199 223 255
199 223 255
199 223 255
199 223 255
199 223 255
199 223 255
199 223 255
199 224 255
199 224 255
199 224 255
200 224 255
200 224 255
200 224 255
200 224 255
200 224 255
200 224 255
200 224 255
200 224 255
200 224 255
200 224 255
200 224 255
200 224 255
200 224 255
200 224 255
200 224 255
201 224 255
201 224 255
201 224 255
201 224 255
201 224 255
201 224 255
201 224 255
201 224 255
201 224 255
201 224 255
201 224 255
201 225 255
201 225 255
201 225 255
201 225 255
201 225 255
202 225 255
202 225 255
202 225 255
202 225 255
202 225 255
202 225 255
202 225 255
202 225 255
202 225 255
202 225 255
202 225 255
202 225 255
202 225 255
202 225 255
202 225 255
203 225 255
203 225 255
203 225 255
203 225 255
203 225 255
203 225 255
203 225 255
203 225 255
203 226 255
203 226 255
203 226 255
203 226 255
203 226 255
203 226 255
204 226 255
204 226 255
204 226 255
204 226 255
204 226 255
204 226 255
204 226 255
204 226 255
204 226 255
204 226 255
204 226 255
204 226 255
204 226 255
204 226 255
204 226 255
204 226 255
205 226 255
205 226 255
205 226 255
205 226 255
205 226 255
205 226 255
205 226 255
205 227 255
205 227 255
205 227 255
205 227 255
205 227 255
205 227 255
205 227 255
205 227 255
205 227 255
205 227 255
206 227 255
206 227 255
206 227 255
206 227 255
206 227 255
206 227 255
206 227 255
206 227 255
206 227 255
206 227 255
206 227 255
206 227 255
206 227 255
206 227 255
206 227 255
206 227 255
206 227 255
206 227 255
206 227 255
207 227 255
207 227 255
207 227 255
207 227 255
207 228 255
207 228 255
207 228 255
207 228 255
207 228 255
207 228 255
207 228 255
207 228 255
207 228 255
207 228 255
207 228 255
207 228 255
207 228 255
207 228 255
207 228 255
207 228 255
208 228 255
208 228 255
208 228 255
208 228 255
208 228 255
208 228 255
208 228 255
208 228 255
208 228 255
208 228 255
208 228 255
207 228 255
207 228 255
207 228 255
207 228 255
207 228 255
207 228 255
207 228 255
207 228 255
207 228 255
207 228 255
207 228 255
207 228 255
207 228 255
207 228 255
207 228 255
207 228 255
207 227 255
207 227 255
207 227 255
207 227 255
206 227 255
206 227 255
206 227 255
206 227 255
206 227 255
206 227 255
206 227 255
206 227 255
206 227 255
206 227 255
206 227 255
206 227 255
206 227 255
206 227 255
206 227 255
206 227 255
206 227 255
206 227 255
205 227 255
205 227 255
205 227 255
205 227 255
205 227 255
205 227 255
205 227 255
205 227 255
205 227 255
205 227 255
205 226 255
205 226 255
205 226 255
205 226 255
205 226 255
205 226 255
205 226 255
204 226 255
204 226 255
204 226 255
204 226 255
204 226 255
204 226 255
204 226 255
204 226 255
204 226 255
204 226 255
204 226 255
204 226 255
204 226 255
204 226 255
204 226 255
204 226 255
203 226 255
203 226 255
203 226 255
203 226 255
203 226 255
203 226 255
203 225 255
203 225 255
203 225 255
203 225 255
203 225 255
203 225 255
203 225 255
203 225 255
203 225 255
202 225 255
202 225 255
202 225 255
202 225 255
202 225 255
202 225 255
202 225 255
202 225 255
202 225 255
202 225 255
202 225 255
202 225 255
202 225 255
202 225 255
202 225 255
201 225 255
201 225 255
201 225 255
201 225 255
201 225 255
201 224 255
201 224 255
201 224 255
201 224 255
201 224 255
201 224 255
201 224 255
201 224 255
201 224 255
201 224 255
201 224 255
200 224 255
200 224 255
200 224 255
200 224 255
200 224 255
200 224 255
200 224 255
200 224 255
200 224 255
200 224 255
200 224 255
200 224 255
200 224 255
200 224 255
200 224 255
200 224 255
199 224 255
199 224 255
199 223 255
199 223 255
199 223 255
199 223 255
199 223 255
199 223 255
199 223 255
199 223 255
199 223 255
199 223 255
199 223 255
199 223 255
199 223 255
199 223 255
199 223 255
199 223 255
199 223 255
198 223 255
198 223 255
198 223 255
198 223 255
198 223 255
198 223 255
198 223 255
198 223 255
198 223 255
198 223 255
198 223 255
198 223 255
198 223 255
198 223 255
198 223 255
198 223 255
198 223 255
198 223 255
198 223 255
198 223 255
198 223 255
198 223 255
198 223 255
198 223 255
198 223 255
198 223 255
198 223 255
198 223 255
198 223 255
198 223 255
198 223 255
198 223 255
198 223 255
198 223 255
198 223 255
198 223 255
198 223 255
197 223 255
197 223 255
197 223 255
197 223 255
198 223 255
198 223 255
197 223 255
197 223 255
198 223 255
198 223 255
198 223 255
198 223 255
198 223 255
198 223 255
198 223 255
198 223 255
198 223 255
198 223 255
198 223 255
198 223 255
198 223 255
198 223 255
198 223 255
198 223 255
198 223 255
198 223 255
198 223 255
198 223 255
198 223 255
198 223 255
198 223 255
198 223 255
198 223 255
198 223 255
198 223 255
198 223 255
198 223 255
198 223 255
198 223 255
198 223 255
198 223 255
198 223 255
198 223 255
198 223 255
198 223 255
199 223 255
199 223 255
199 223 255
199 223 255
199 223 255
199 223 255
199 223 255
199 223 255
199 223 255
199 223 255
199 223 255
199 223 255
199 223 255
199 223 255
199 223 255
199 223 255
199 223 255
199 224 255
199 224 255
199 224 255
200 224 255
200 224 255
200 224 255
200 224 255
200 224 255
200 224 255
200 224 255
200 224 255
200 224 255
200 224 255
200 224 255
200 224 255
200 224 255
200 224 255
200 224 255
200 224 255
201 224 255
201 224 255
201 224 255
201 224 255
201 224 255
201 224 255
201 224 255
201 224 255
201 224 255
201 224 255
201 224 255
201 225 255
201 225 255
201 225 255
201 225 255
202 225 255
202 225 255
202 225 255
202 225 255
202 225 255
202 225 255
202 225 255
202 225 255
202 225 255
202 225 255
202 225 255
202 225 255
202 225 255
202 225 255
202 225 255
203 225 255
203 225 255
203 225 255
203 225 255
203 225 255
203 225 255
203 225 255
203 225 255
203 226 255
203 226 255
203 226 255
203 226 255
203 226 255
203 226 255
203 226 255
204 226 255
204 226 255
204 226 255
204 226 255
204 226 255
204 226 255
204 226 255
204 226 255
204 226 255
204 226 255
204 226 255
204 226 255
204 226 255
204 226 255
204 226 255
204 226 255
205 226 255
205 226 255
205 226 255
205 226 255
205 226 255
205 226 255
205 226 255
205 227 255
205 227 255
205 227 255
205 227 255
205 227 255
205 227 255
205 227 255
205 227 255
205 227 255
205 227 255
206 227 255
206 227 255
206 227 255
206 227 255
206 227 255
206 227 255
206 227 255
206 227 255
206 227 255
206 227 255
206 227 255
206 227 255
206 227 255
206 227 255
206 227 255
206 227 255
206 227 255
206 227 255
207 227 255
207 227 255
207 227 255
207 227 255
207 227 255
207 228 255
207 228 255
207 228 255
207 228 255
207 228 255
207 228 255
207 228 255
207 228 255
207 228 255
207 228 255
207 228 255
207 228 255
207 228 255
207 228 255
207 228 255
208 228 255
208 228 255
208 228 255
208 228 255
208 228 255
208 228 255
208 228 255
208 228 255
208 228 255
208 228 255
208 228 255
208 228 255
208 228 255
208 228 255
208 228 255
208 228 255
208 228 255
207 228 255
207 228 255
207 228 255
207 228 255
207 228 255
207 228 255
207 228 255
207 228 255
207 228 255
207 228 255
207 228 255
207 228 255
207 228 255
207 228 255
207 228 255
207 227 255
207 227 255
207 227 255
207 227 255
207 227 255
206 227 255
206 227 255
206 227 255
206 227 255
206 227 255
206 227 255
206 227 255
206 227 255
206 227 255
206 227 255
206 227 255
206 227 255
206 227 255
206 227 255
206 227 255
206 227 255
206 227 255
206 227 255
205 227 255
205 227 255
205 227 255
205 227 255
205 227 255
205 227 255
205 227 255
205 227 255
205 227 255
205 227 255
205 226 255
205 226 255
205 226 255
205 226 255
205 226 255
205 226 255
205 226 255
204 226 255
204 226 255
204 226 255
204 226 255
204 226 255
204 226 255
204 226 255
204 226 255
204 226 255
204 226 255
204 226 255
204 226 255
204 226 255
204 226 255
204 226 255
203 226 255
203 226 255
203 226 255
203 226 255
203 226 255
203 226 255
203 226 255
203 225 255
203 225 255
203 225 255
203 225 255
203 225 255
203 225 255
203 225 255
203 225 255
203 225 255
202 225 255
202 225 255
202 225 255
202 225 255
202 225 255
202 225 255
202 225 255
202 225 255
202 225 255
202 225 255
202 225 255
202 225 255
202 225 255
202 225 255
202 225 255
201 225 255
201 225 255
201 225 255
201 225 255
201 224 255
201 224 255
201 224 255
201 224 255
201 224 255
201 224 255
201 224 255
201 224 255
201 224 255
201 224 255
201 224 255
200 224 255
200 224 255
200 224 255
200 224 255
200 224 255
200 224 255
200 224 255
200 224 255
200 224 255
200 224 255
200 224 255
200 224 255
200 224 255
200 224 255
200 224 255
200 224 255
199 224 255
199 224 255
199 224 255
199 224 255
199 223 255
199 223 255
199 223 255
199 223 255
199 223 255
199 223 255
199 223 255
199 223 255
199 223 255
199 223 255
199 223 255
199 223 255
199 223 255
199 223 255
199 223 255
199 223 255
199 223 255
198 223 255
198 223 255
198 223 255
198 223 255
198 223 255
198 223 255
198 223 255
198 223 255
198 223 255
198 223 255
198 223 255
198 223 255
198 223 255
198 223 255
198 223 255
198 223 255
198 223 255
198 223 255
198 223 255
198 223 255
198 223 255
198 223 255
198 223 255
198 223 255
198 223 255
198 223 255
198 223 255
198 223 255
198 223 255
198 223 255
198 223 255
198 223 255
198 223 255
198 223 255
198 223 255
198 223 255
198 223 255
198 223 255
198 223 255
198 223 255
198 223 255
198 223 255
198 223 255
198 223 255
198 223 255
198 223 255
198 223 255
198 223 255
198 223 255
198 223 255
198 223 255
198 223 255
198 223 255
198 223 255
198 223 255
198 223 255
198 223 255
198 223 255
198 223 255
198 223 255
198 223 255
198 223 255
198 223 255
198 223 255
198 223 255
198 223 255
198 223 255
198 223 255
198 223 255
198 223 255
198 223 255
198 223 255
198 223 255
198 223 255
199 223 255
199 223 255
199 223 255
199 223 255
199 223 255
199 223 255
199 223 255
199 223 255
199 223 255
199 223 255
199 223 255
199 223 255
199 223 255
199 223 255
199 223 255
199 223 255
199 223 255
199 223 255
199 224 255
199 224 255
200 224 255
200 224 255
200 224 255
200 224 255
200 224 255
200 224 255
200 224 255
200 224 255
200 224 255
200 224 255
200 224 255
200 224 255
200 224 255
200 224 255
200 224 255
200 224 255
200 224 255
201 224 255
201 224 255
201 224 255
201 224 255
201 224 255
201 224 255
201 224 255
201 224 255
201 224 255
201 224 255
201 225 255
201 225 255
201 225 255
201 225 255
201 225 255
202 225 255
202 225 255
202 225 255
202 225 255
202 225 255
202 225 255
202 225 255
202 225 255
202 225 255
202 225 255
202 225 255
202 225 255
202 225 255
202 225 255
202 225 255
203 225 255
203 225 255
203 225 255
203 225 255
203 225 255
203 225 255
203 225 255
203 225 255
203 225 255
203 226 255
203 226 255
203 226 255
203 226 255
203 226 255
203 226 255
204 226 255
204 226 255
204 226 255
204 226 255
204 226 255
204 226 255
204 226 255
204 226 255
204 226 255
204 226 255
204 226 255
204 226 255
204 226 255
204 226 255
204 226 255
204 226 255
205 226 255
205 226 255
205 226 255
205 226 255
205 226 255
205 226 255
205 226 255
205 227 255
205 227 255
205 227 255
205 227 255
205 227 255
205 227 255
205 227 255
205 227 255
205 227 255
205 227 255
206 227 255
206 227 255
206 227 255
206 227 255
206 227 255
206 227 255
206 227 255
206 227 255
206 227 255
206 227 255
206 227 255
206 227 255
206 227 255
206 227 255
206 227 255
206 227 255
206 227 255
206 227 255
207 227 255
207 227 255
207 227 255
207 227 255
207 227 255
207 228 255
207 228 255
207 228 255
207 228 255
207 228 255
207 228 255
207 228 255
207 228 255
207 228 255
207 228 255
207 228 255
207 228 255
207 228 255
207 228 255
207 228 255
208 228 255
208 228 255
208 228 255
208 228 255
208 228 255
208 228 255
208 228 255
208 228 255
208 228 255
208 228 255
208 228 255
208 228 255
208 228 255
208 228 255
208 228 255
208 228 255
208 228 255
208 228 255
208 228 255
208 228 255
208 228 255
208 228 255
208 228 255
207 228 255
207 228 255
207 228 255
207 228 255
207 228 255
207 228 255
207 228 255
207 228 255
207 228 255
207 228 255
207 228 255
207 228 255
207 228 255
207 228 255
207 228 255
207 228 255
207 227 255
207 227 255
207 227 255
207 227 255
206 227 255
206 227 255
206 227 255
206 227 255
206 227 255
206 227 255
206 227 255
206 227 255
206 227 255
206 227 255
206 227 255
206 227 255
206 227 255
206 227 255
206 227 255
206 227 255
206 227 255
206 227 255
205 227 255
205 227 255
205 227 255
205 227 255
205 227 255
205 227 255
205 227 255
205 227 255
205 227 255
205 227 255
205 226 255
205 226 255
205 226 255
205 226 255
205 226 255
205 226 255
204 226 255
204 226 255
204 226 255
204 226 255
204 226 255
204 226 255
204 226 255
204 226 255
204 226 255
204 226 255
204 226 255
204 226 255
204 226 255
204 226 255
204 226 255
204 226 255
203 226 255
203 226 255
203 226 255
203 226 255
203 226 255
203 226 255
203 226 255
203 225 255
203 225 255
203 225 255
203 225 255
203 225 255
203 225 255
203 225 255
203 225 255
203 225 255
202 225 255
202 225 255
202 225 255
202 225 255
202 225 255
202 225 255
202 225 255
202 225 255
202 225 255
202 225 255
202 225 255
202 225 255
202 225 255
202 225 255
202 225 255
201 225 255
201 225 255
201 225 255
201 225 255
201 224 255
201 224 255
201 224 255
201 224 255
201 224 255
201 224 255
201 224 255
201 224 255
201 224 255
201 224 255
201 224 255
200 224 255
200 224 255
200 224 255
200 224 255
200 224 255
200 224 255
200 224 255
200 224 255
200 224 255
200 224 255
200 224 255
200 224 255
200 224 255
200 224 255
200 224 255
200 224 255
200 224 255
199 224 255
199 224 255
199 224 255
199 223 255
199 223 255
199 223 255
199 223 255
199 223 255
199 223 255
199 223 255
199 223 255
199 223 255
199 223 255
199 223 255
199 223 255
199 223 255
199 223 255
199 223 255
199 223 255
199 223 255
199 223 255
199 223 255
198 223 255
198 223 255
198 223 255
198 223 255
198 223 255
198 223 255
198 223 255
198 223 255
198 223 255
198 223 255
198 223 255
198 223 255
198 223 255
198 223 255
198 223 255
198 223 255
198 223 255
198 223 255
198 223 255
198 223 255
198 223 255
198 223 255
198 223 255
198 223 255
198 223 255
198 223 255
198 223 255
198 223 255
198 223 255
198 223 255
198 223 255
198 223 255
198 223 255
198 223 255
198 223 255
198 223 255
198 223 255
198 223 255
198 223 255
198 223 255
198 223 255
198 223 255
198 223 255
198 223 255
198 223 255
198 223 255
198 223 255
198 223 255
198 223 255
198 223 255
198 223 255
198 223 255
198 223 255
198 223 255
198 223 255
198 223 255
198 223 255
198 223 255
198 223 255
198 223 255
198 223 255
198 223 255
198 223 255
198 223 255
198 223 255
199 223 255
199 223 255
199 223 255
199 223 255
199 223 255
199 223 255
199 223 255
199 223 255
199 223 255
199 223 255
199 223 255
199 223 255
199 223 255
199 223 255
199 223 255
199 223 255
199 223 255
199 223 255
199 224 255
199 224 255
200 224 255
200 224 255
200 224 255
200 224 255
200 224 255
200 224 255
200 224 255
200 224 255
200 224 255
200 224 255
200 224 255
200 224 255
200 224 255
200 224 255
200 224 255
200 224 255
200 224 255
200 224 255
201 224 255
201 224 255
201 224 255
201 224 255
201 224 255
201 224 255
201 224 255
201 224 255
201 224 255
201 224 255
201 224 255
201 225 255
201 225 255
201 225 255
201 225 255
202 225 255
202 225 255
202 225 255
202 225 255
202 225 255
202 225 255
202 225 255
202 225 255
202 225 255
202 225 255
202 225 255
202 225 255
202 225 255
202 225 255
202 225 255
202 225 255
203 225 255
203 225 255
203 225 255
203 225 255
203 225 255
203 225 255
203 225 255
203 225 255
203 226 255
203 226 255
203 226 255
203 226 255
203 226 255
203 226 255
203 226 255
204 226 255
204 226 255
204 226 255
204 226 255
204 226 255
204 226 255
204 226 255
204 226 255
204 226 255
204 226 255
204 226 255
204 226 255
204 226 255
204 226 255
204 226 255
204 226 255
205 226 255
205 226 255
205 226 255
205 226 255
205 226 255
205 226 255
205 227 255
205 227 255
205 227 255
205 227 255
205 227 255
205 227 255
205 227 255
205 227 255
205 227 255
205 227 255
206 227 255
206 227 255
206 227 255
206 227 255
206 227 255
206 227 255
206 227 255
206 227 255
206 227 255
206 227 255
206 227 255
206 227 255
206 227 255
206 227 255
206 227 255
206 227 255
206 227 255
206 227 255
207 227 255
207 227 255
207 227 255
207 227 255
207 227 255
207 228 255
207 228 255
207 228 255
207 228 255
207 228 255
207 228 255
207 228 255
207 228 255
207 228 255
207 228 255
207 228 255
207 228 255
207 228 255
207 228 255
207 228 255
208 228 255
208 228 255
208 228 255
208 228 255
208 228 255
208 228 255
208 228 255
208 228 255
208 228 255
208 228 255
208 228 255
208 228 255
208 228 255
208 228 255
208 228 255
208 228 255
208 228 255
208 228 255
208 228 255
208 228 255
208 228 255
208 228 255
208 228 255
208 228 255
208 228 255
208 228 255
208 228 255
208 228 255
208 228 255
207 228 255
207 228 255
207 228 255
207 228 255
207 228 255
207 228 255
207 228 255
207 228 255
207 228 255
207 228 255
207 228 255
207 228 255
207 228 255
207 228 255
207 228 255
207 227 255
207 227 255
207 227 255
207 227 255
207 227 255
206 227 255
206 227 255
206 227 255
206 227 255
206 227 255
206 227 255
206 227 255
206 227 255
206 227 255
206 227 255
206 227 255
206 227 255
206 227 255
206 227 255
206 227 255
206 227 255
206 227 255
206 227 255
205 227 255
205 227 255
205 227 255
205 227 255
205 227 255
205 227 255
205 227 255
205 227 255
205 227 255
205 227 255
205 226 255
205 226 255
205 226 255
205 226 255
205 226 255
205 226 255
204 226 255
204 226 255
204 226 255
204 226 255
204 226 255
204 226 255
204 226 255
204 226 255
204 226 255
204 226 255
204 226 255
204 226 255
204 226 255
204 226 255
204 226 255
204 226 255
203 226 255
203 226 255
203 226 255
203 226 255
203 226 255
203 226 255
203 226 255
203 225 255
203 225 255
203 225 255
203 225 255
203 225 255
203 225 255
203 225 255
203 225 255
202 225 255
202 225 255
202 225 255
202 225 255
202 225 255
202 225 255
202 225 255
202 225 255
202 225 255
202 225 255
202 225 255
202 225 255
202 225 255
202 225 255
202 225 255
201 225 255
201 225 255
201 225 255
201 225 255
201 225 255
201 224 255
201 224 255
201 224 255
201 224 255
201 224 255
201 224 255
201 224 255
201 224 255
201 224 255
201 224 255
201 224 255
200 224 255
200 224 255
200 224 255
200 224 255
200 224 255
200 224 255
200 224 255
200 224 255
200 224 255
200 224 255
200 224 255
200 224 255
200 224 255
200 224 255
200 224 255
200 224 255
200 224 255
200 224 255
199 224 255
199 224 255
199 224 255
199 223 255
199 223 255
199 223 255
199 223 255
199 223 255
199 223 255
199 223 255
199 223 255
199 223 255
199 223 255
199 223 255
199 223 255
199 223 255
199 223 255
199 223 255
199 223 255
199 223 255
199 223 255
199 223 255
199 223 255
198 223 255
198 223 255
198 223 255
198 223 255
198 223 255
198 223 255
198 223 255
198 223 255
198 223 255
198 223 255
198 223 255
198 223 255
198 223 255
198 223 255
198 223 255
198 223 255
198 223 255
198 223 255
198 223 255
198 223 255
198 223 255
198 223 255
198 223 255
198 223 255
198 223 255
198 223 255
198 223 255
198 223 255
198 223 255
198 223 255
198 223 255
198 223 255
198 223 255
198 223 255
198 223 255
198 223 255
198 223 255
198 223 255
198 223 255
198 223 255
198 223 255
198 223 255
198 223 255
198 223 255
198 223 255
198 223 255
198 223 255
198 223 255
198 223 255
198 223 255
198 223 255
198 223 255
198 223 255
199 223 255
199 223 255
199 223 255
199 223 255
199 223 255
199 223 255
199 223 255
199 223 255
199 223 255
199 223 255
199 223 255
199 223 255
199 223 255
199 223 255
199 223 255
199 223 255
199 223 255
199 223 255
199 223 255
199 223 255
199 223 255
199 224 255
199 224 255
199 224 255
200 224 255
200 224 255
200 224 255
200 224 255
200 224 255
200 224 255
200 224 255
200 224 255
200 224 255
200 224 255
200 224 255
200 224 255
200 224 255
200 224 255
200 224 255
200 224 255
200 224 255
200 224 255
201 224 255
201 224 255
201 224 255
201 224 255
201 224 255
201 224 255
201 224 255
201 224 255
201 224 255
201 224 255
201 224 255
201 225 255
201 225 255
201 225 255
201 225 255
201 225 255
202 225 255
202 225 255
202 225 255
202 225 255
202 225 255
202 225 255
202 225 255
202 225 255
202 225 255
202 225 255
202 225 255
202 225 255
202 225 255
202 225 255
202 225 255
203 225 255
203 225 255
203 225 255
203 225 255
203 225 255
203 225 255
203 225 255
203 225 255
203 226 255
203 226 255
203 226 255
203 226 255
203 226 255
203 226 255
203 226 255
204 226 255
204 226 255
204 226 255
204 226 255
204 226 255
204 226 255
204 226 255
204 226 255
204 226 255
204 226 255
204 226 255
204 226 255
204 226 255
204 226 255
204 226 255
204 226 255
205 226 255
205 226 255
205 226 255
205 226 255
205 226 255
205 226 255
205 227 255
205 227 255
205 227 255
205 227 255
205 227 255
205 227 255
205 227 255
205 227 255
205 227 255
205 227 255
205 227 255
206 227 255
206 227 255
206 227 255
206 227 255
206 227 255
206 227 255
206 227 255
206 227 255
206 227 255
206 227 255
206 227 255
206 227 255
206 227 255
206 227 255
206 227 255
206 227 255
207 227 255
207 227 255
207 227 255
207 227 255
207 227 255
207 227 255
207 228 255
207 228 255
207 228 255
207 228 255
207 228 255
207 228 255
207 228 255
207 228 255
207 228 255
207 228 255
207 228 255
207 228 255
207 228 255
207 228 255
207 228 255
208 228 255
208 228 255
208 228 255
208 228 255
208 228 255
208 228 255
208 228 255
208 228 255
208 228 255
208 228 255
208 228 255
208 228 255
208 228 255
208 228 255
208 228 255
208 228 255
208 228 255
208 228 255
208 228 255
208 228 255
208 228 255
208 228 255
208 228 255
208 228 255
208 228 255
208 228 255
208 228 255
208 228 255
208 228 255
208 228 255
208 228 255
208 228 255
208 228 255
208 228 255
207 228 255
207 228 255
207 228 255
207 228 255
207 228 255
207 228 255
207 228 255
207 228 255
207 228 255
207 228 255
207 228 255
207 228 255
207 228 255
207 228 255
207 228 255
207 228 255
207 227 255
207 227 255
207 227 255
207 227 255
206 227 255
206 227 255
206 227 255
206 227 255
206 227 255
206 227 255
206 227 255
206 227 255
206 227 255
206 227 255
206 227 255
206 227 255
206 227 255
206 227 255
206 227 255
206 227 255
206 227 255
206 227 255
205 227 255
205 227 255
205 227 255
205 227 255
205 227 255
205 227 255
205 227 255
205 227 255
205 227 255
205 227 255
205 226 255
205 226 255
205 226 255
205 226 255
205 226 255
205 226 255
205 226 255
204 226 255
204 226 255
204 226 255
204 226 255
204 226 255
204 226 255
204 226 255
204 226 255
204 226 255
204 226 255
204 226 255
204 226 255
204 226 255
204 226 255
204 226 255
204 226 255
203 226 255
203 226 255
203 226 255
203 226 255
203 226 255
203 226 255
203 226 255
203 225 255
203 225 255
203 225 255
203 225 255
203 225 255
203 225 255
203 225 255
202 225 255
202 225 255
202 225 255
202 225 255
202 225 255
202 225 255
202 225 255
202 225 255
202 225 255
202 225 255
202 225 255
202 225 255
202 225 255
202 225 255
202 225 255
202 225 255
201 225 255
201 225 255
201 225 255
201 225 255
201 225 255
201 224 255
201 224 255
201 224 255
201 224 255
201 224 255
201 224 255
201 224 255
201 224 255
201 224 255
201 224 255
201 224 255
201 224 255
200 224 255
200 224 255
200 224 255
200 224 255
200 224 255
200 224 255
200 224 255
200 224 255
200 224 255
200 224 255
200 224 255
200 224 255
200 224 255
200 224 255
200 224 255
200 224 255
200 224 255
199 224 255
199 224 255
199 224 255
199 224 255
199 223 255
199 223 255
199 223 255
199 223 255
199 223 255
199 223 255
199 223 255
199 223 255
199 223 255
199 223 255
199 223 255
199 223 255
199 223 255
199 223 255
199 223 255
199 223 255
199 223 255
199 223 255
199 223 255
199 223 255
199 223 255
199 223 255
199 223 255
198 223 255
198 223 255
198 223 255
198 223 255
198 223 255
198 223 255
198 223 255
198 223 255
198 223 255
198 223 255
198 223 255
198 223 255
198 223 255
198 223 255
198 223 255
198 223 255
198 223 255
198 223 255
198 223 255
198 223 255
198 223 255
198 223 255
198 223 255
198 223 255
198 223 255
198 223 255
198 223 255
198 223 255
198 223 255
198 223 255
198 223 255
198 223 255
198 223 255
198 223 255
198 223 255
198 223 255
198 223 255
198 223 255
198 223 255
198 223 255
198 223 255
199 223 255
199 223 255
199 223 255
199 223 255
199 223 255
199 223 255
199 223 255
199 223 255
199 223 255
199 223 255
199 223 255
199 223 255
199 223 255
199 223 255
199 223 255
199 223 255
199 223 255
199 223 255
199 223 255
199 223 255
199 223 255
199 223 255
199 224 255
199 224 255
199 224 255
199 224 255
200 224 255
200 224 255
200 224 255
200 224 255
200 224 255
200 224 255
200 224 255
200 224 255
200 224 255
200 224 255
200 224 255
200 224 255
200 224 255
200 224 255
200 224 255
200 224 255
200 224 255
200 224 255
201 224 255
201 224 255
201 224 255
201 224 255
201 224 255
201 224 255
201 224 255
201 224 255
201 224 255
201 224 255
201 224 255
201 225 255
201 225 255
201 225 255
201 225 255
201 225 255
202 225 255
202 225 255
202 225 255
202 225 255
202 225 255
202 225 255
202 225 255
202 225 255
202 225 255
202 225 255
202 225 255
202 225 255
202 225 255
202 225 255
202 225 255
203 225 255
203 225 255
203 225 255
203 225 255
203 225 255
203 225 255
203 225 255
203 225 255
203 226 255
203 226 255
203 226 255
203 226 255
203 226 255
203 226 255
203 226 255
204 226 255
204 226 255
204 226 255
204 226 255
204 226 255
204 226 255
204 226 255
204 226 255
204 226 255
204 226 255
204 226 255
204 226 255
204 226 255
204 226 255
204 226 255
204 226 255
205 226 255
205 226 255
205 226 255
205 226 255
205 226 255
205 226 255
205 226 255
205 227 255
205 227 255
205 227 255
205 227 255
205 227 255
205 227 255
205 227 255
205 227 255
205 227 255
205 227 255
206 227 255
206 227 255
206 227 255
206 227 255
206 227 255
206 227 255
206 227 255
206 227 255
206 227 255
206 227 255
206 227 255
206 227 255
206 227 255
206 227 255
206 227 255
206 227 255
206 227 255
206 227 255
207 227 255
207 227 255
207 227 255
207 227 255
207 228 255
207 228 255
207 228 255
207 228 255
207 228 255
207 228 255
207 228 255
207 228 255
207 228 255
207 228 255
207 228 255
207 228 255
207 228 255
207 228 255
207 228 255
208 228 255
208 228 255
208 228 255
208 228 255
208 228 255
208 228 255
208 228 255
208 228 255
208 228 255
208 228 255
208 228 255
208 228 255
208 228 255
208 228 255
208 228 255
208 228 255
208 228 255
208 228 255
208 228 255
209 228 255
208 228 255
208 228 255
208 228 255
208 228 255
208 228 255
208 228 255
208 228 255
208 228 255
208 228 255
208 228 255
208 228 255
208 228 255
208 228 255
208 228 255
208 228 255
208 228 255
208 228 255
208 228 255
208 228 255
208 228 255
208 228 255
207 228 255
207 228 255
207 228 255
207 228 255
207 228 255
207 228 255
207 228 255
207 228 255
207 228 255
207 228 255
207 228 255
207 228 255
207 228 255
207 228 255
207 228 255
207 227 255
207 227 255
207 227 255
207 227 255
206 227 255
206 227 255
206 227 255
206 227 255
206 227 255
206 227 255
206 227 255
206 227 255
206 227 255
206 227 255
206 227 255
206 227 255
206 227 255
206 227 255
206 227 255
206 227 255
206 227 255
206 227 255
205 227 255
205 227 255
205 227 255
205 227 255
205 227 255
205 227 255
205 227 255
205 227 255
205 227 255
205 227 255
205 226 255
205 226 255
205 226 255
205 226 255
205 226 255
205 226 255
205 226 255
204 226 255
204 226 255
204 226 255
204 226 255
204 226 255
204 226 255
204 226 255
204 226 255
204 226 255
204 226 255
204 226 255
204 226 255
204 226 255
204 226 255
204 226 255
204 226 255
203 226 255
203 226 255
203 226 255
203 226 255
203 226 255
203 226 255
203 225 255
203 225 255
203 225 255
203 225 255
203 225 255
203 225 255
203 225 255
203 225 255
203 225 255
202 225 255
202 225 255
202 225 255
202 225 255
202 225 255
202 225 255
202 225 255
202 225 255
202 225 255
202 225 255
202 225 255
202 225 255
202 225 255
202 225 255
202 225 255
201 225 255
201 225 255
201 225 255
201 225 255
201 225 255
201 224 255
201 224 255
201 224 255
201 224 255
201 224 255
201 224 255
201 224 255
201 224 255
201 224 255
201 224 255
201 224 255
201 224 255
200 224 255
200 224 255
200 224 255
200 224 255
200 224 255
200 224 255
200 224 255
200 224 255
200 224 255
200 224 255
200 224 255
200 224 255
200 224 255
200 224 255
200 224 255
200 224 255
200 224 255
200 224 255
199 224 255
199 224 255
199 224 255
199 224 255
199 223 255
199 223 255
199 223 255
199 223 255
199 223 255
199 223 255
199 223 255
199 223 255
199 223 255
199 223 255
199 223 255
199 223 255
199 223 255
199 223 255
199 223 255
199 223 255
199 223 255
199 223 255
199 223 255
199 223 255
199 223 255
199 223 255
199 223 255
199 223 255
199 223 255
199 223 255
199 223 255
199 223 255
199 223 255
198 223 255
198 223 255
198 223 255
198 223 255
198 223 255
198 223 255
198 223 255
198 223 255
198 223 255
198 223 255
198 223 255
198 223 255
198 223 255
198 223 255
198 223 255
198 223 255
198 223 255
198 223 255
198 223 255
199 223 255
199 223 255
199 223 255
199 223 255
199 223 255
199 223 255
199 223 255
199 223 255
199 223 255
199 223 255
199 223 255
199 223 255
199 223 255
199 223 255
199 223 255
199 223 255
199 223 255
199 223 255
199 223 255
199 223 255
199 223 255
199 223 255
199 223 255
199 223 255
199 223 255
199 223 255
199 223 255
199 223 255
199 223 255
199 223 255
199 224 255
199 224 255
199 224 255
200 224 255
200 224 255
200 224 255
200 224 255
200 224 255
200 224 255
200 224 255
200 224 255
200 224 255
200 224 255
200 224 255
200 224 255
200 224 255
200 224 255
200 224 255
200 224 255
200 224 255
200 224 255
200 224 255
201 224 255
201 224 255
201 224 255
201 224 255
201 224 255
201 224 255
201 224 255
201 224 255
201 224 255
201 224 255
201 224 255
201 224 255
201 225 255
201 225 255
201 225 255
201 225 255
201 225 255
202 225 255
202 225 255
202 225 255
202 225 255
202 225 255
202 225 255
202 225 255
202 225 255
202 225 255
202 225 255
202 225 255
202 225 255
202 225 255
202 225 255
202 225 255
203 225 255
203 225 255
203 225 255
203 225 255
203 225 255
203 225 255
203 225 255
203 225 255
203 225 255
203 226 255
203 226 255
203 226 255
203 226 255
203 226 255
203 226 255
203 226 255
204 226 255
204 226 255
204 226 255
204 226 255
204 226 255
204 226 255
204 226 255
204 226 255
204 226 255
204 226 255
204 226 255
204 226 255
204 226 255
204 226 255
204 226 255
205 226 255
205 226 255
205 226 255
205 226 255
205 226 255
205 226 255
205 226 255
205 227 255
205 227 255
205 227 255
205 227 255
205 227 255
205 227 255
205 227 255
205 227 255
205 227 255
205 227 255
206 227 255
206 227 255
206 227 255
206 227 255
206 227 255
206 227 255
206 227 255
206 227 255
206 227 255
206 227 255
206 227 255
206 227 255
206 227 255
206 227 255
206 227 255
206 227 255
206 227 255
207 227 255
207 227 255
207 227 255
207 227 255
207 227 255
207 227 255
207 228 255
207 228 255
207 228 255
207 228 255
207 228 255
207 228 255
207 228 255
207 228 255
207 228 255
207 228 255
207 228 255
207 228 255
207 228 255
207 228 255
208 228 255
208 228 255
208 228 255
208 228 255
208 228 255
208 228 255
208 228 255
208 228 255
208 228 255
208 228 255
208 228 255
208 228 255
208 228 255
208 228 255
208 228 255
208 228 255
208 228 255
208 228 255
208 228 255
208 228 255
208 228 255
209 228 255
209 229 255
209 229 255
209 229 255
209 228 255
208 228 255
208 228 255
208 228 255
208 228 255
208 228 255
208 228 255
208 228 255
208 228 255
208 228 255
208 228 255
208 228 255
208 228 255
208 228 255
208 228 255
208 228 255
208 228 255
208 228 255
208 228 255
208 228 255
208 228 255
208 228 255
207 228 255
207 228 255
207 228 255
207 228 255
207 228 255
207 228 255
207 228 255
207 228 255
207 228 255
207 228 255
207 228 255
207 228 255
207 228 255
207 228 255
207 228 255
207 227 255
207 227 255
207 227 255
207 227 255
206 227 255
206 227 255
206 227 255
206 227 255
206 227 255
206 227 255
206 227 255
206 227 255
206 227 255
206 227 255
206 227 255
206 227 255
206 227 255
206 227 255
206 227 255
206 227 255
206 227 255
205 227 255
205 227 255
205 227 255
205 227 255
205 227 255
205 227 255
205 227 255
205 227 255
205 227 255
205 227 255
205 227 255
205 226 255
205 226 255
205 226 255
205 226 255
205 226 255
205 226 255
205 226 255
204 226 255
204 226 255
204 226 255
204 226 255
204 226 255
204 226 255
204 226 255
204 226 255
204 226 255
204 226 255
204 226 255
204 226 255
204 226 255
204 226 255
204 226 255
203 226 255
203 226 255
203 226 255
203 226 255
203 226 255
203 226 255
203 226 255
203 225 255
203 225 255
203 225 255
203 225 255
203 225 255
203 225 255
203 225 255
203 225 255
202 225 255
202 225 255
202 225 255
202 225 255
202 225 255
202 225 255
202 225 255
202 225 255
202 225 255
202 225 255
202 225 255
202 225 255
202 225 255
202 225 255
202 225 255
202 225 255
201 225 255
201 225 255
201 225 255
201 225 255
201 225 255
201 224 255
201 224 255
201 224 255
201 224 255
201 224 255
201 224 255
201 224 255
201 224 255
201 224 255
201 224 255
201 224 255
201 224 255
200 224 255
200 224 255
200 224 255
200 224 255
200 224 255
200 224 255
200 224 255
200 224 255
200 224 255
200 224 255
200 224 255
200 224 255
200 224 255
200 224 255
200 224 255
200 224 255
200 224 255
200 224 255
200 224 255
200 224 255
199 224 255
199 224 255
199 224 255
199 224 255
199 223 255
199 223 255
199 223 255
199 223 255
199 223 255
199 223 255
199 223 255
199 223 255
199 223 255
199 223 255
199 223 255
199 223 255
199 223 255
199 223 255
199 223 255
199 223 255
199 223 255
199 223 255
199 223 255
199 223 255
199 223 255
199 223 255
199 223 255
199 223 255
199 223 255
199 223 255
199 223 255
199 223 255
199 223 255
199 223 255
199 223 255
199 223 255
199 223 255
199 223 255
199 223 255
199 223 255
199 223 255
199 223 255
199 223 255
199 223 255
199 223 255
199 223 255
199 223 255
199 223 255
199 223 255
199 223 255
199 223 255
199 223 255
199 223 255
199 223 255
199 223 255
199 223 255
199 223 255
199 223 255
199 223 255
199 223 255
199 223 255
199 223 255
199 223 255
199 223 255
199 223 255
199 223 255
199 223 255
199 223 255
199 223 255
199 223 255
199 223 255
199 223 255
199 223 255
199 224 255
199 224 255
199 224 255
200 224 255
200 224 255
200 224 255
200 224 255
200 224 255
200 224 255
200 224 255
200 224 255
200 224 255
200 224 255
200 224 255
200 224 255
200 224 255
200 224 255
200 224 255
200 224 255
200 224 255
200 224 255
200 224 255
200 224 255
201 224 255
201 224 255
201 224 255
201 224 255
201 224 255
201 224 255
201 224 255
201 224 255
201 224 255
201 224 255
201 224 255
201 224 255
201 225 255
201 225 255
201 225 255
201 225 255
201 225 255
202 225 255
202 225 255
202 225 255
202 225 255
202 225 255
202 225 255
202 225 255
202 225 255
202 225 255
202 225 255
202 225 255
202 225 255
202 225 255
202 225 255
202 225 255
202 225 255
203 225 255
203 225 255
203 225 255
203 225 255
203 225 255
203 225 255
203 225 255
203 225 255
203 226 255
203 226 255
203 226 255
203 226 255
203 226 255
203 226 255
203 226 255
204 226 255
204 226 255
204 226 255
204 226 255
204 226 255
204 226 255
204 226 255
204 226 255
204 226 255
204 226 255
204 226 255
204 226 255
204 226 255
204 226 255
204 226 255
204 226 255
205 226 255
205 226 255
205 226 255
205 226 255
205 226 255
205 226 255
205 227 255
205 227 255
205 227 255
205 227 255
205 227 255
205 227 255
205 227 255
205 227 255
205 227 255
205 227 255
206 227 255
206 227 255
206 227 255
206 227 255
206 227 255
206 227 255
206 227 255
206 227 255
206 227 255
206 227 255
206 227 255
206 227 255
206 227 255
206 227 255
206 227 255
206 227 255
206 227 255
207 227 255
207 227 255
207 227 255
207 227 255
207 227 255
207 228 255
207 228 255
207 228 255
207 228 255
207 228 255
207 228 255
207 228 255
207 228 255
207 228 255
207 228 255
207 228 255
207 228 255
207 228 255
207 228 255
208 228 255
208 228 255
208 228 255
208 228 255
208 228 255
208 228 255
208 228 255
208 228 255
208 228 255
208 228 255
208 228 255
208 228 255
208 228 255
208 228 255
208 228 255
208 228 255
208 228 255
208 228 255
208 228 255
208 228 255
208 228 255
208 228 255
209 228 255
209 229 255
209 229 255
209 229 255
209 229 255
209 229 255
209 229 255
209 229 255
209 229 255
209 229 255
209 228 255
209 228 255
208 228 255
208 228 255
208 228 255
208 228 255
208 228 255
208 228 255
208 228 255
208 228 255
208 228 255
208 228 255
208 228 255
208 228 255
208 228 255
208 228 255
208 228 255
208 228 255
208 228 255
208 228 255
208 228 255
208 228 255
208 228 255
207 228 255
207 228 255
207 228 255
207 228 255
207 228 255
207 228 255
207 228 255
207 228 255
207 228 255
207 228 255
207 228 255
207 228 255
207 228 255
207 228 255
207 227 255
207 227 255
207 227 255
207 227 255
206 227 255
206 227 255
206 227 255
206 227 255
206 227 255
206 227 255
206 227 255
206 227 255
206 227 255
206 227 255
206 227 255
206 227 255
206 227 255
206 227 255
206 227 255
206 227 255
206 227 255
206 227 255
205 227 255
205 227 255
205 227 255
205 227 255
205 227 255
205 227 255
205 227 255
205 227 255
205 227 255
205 227 255
205 226 255
205 226 255
205 226 255
205 226 255
205 226 255
205 226 255
205 226 255
204 226 255
204 226 255
204 226 255
204 226 255
204 226 255
204 226 255
204 226 255
204 226 255
204 226 255
204 226 255
204 226 255
204 226 255
204 226 255
204 226 255
204 226 255
203 226 255
203 226 255
203 226 255
203 226 255
203 226 255
203 226 255
203 226 255
203 225 255
203 225 255
203 225 255
203 225 255
203 225 255
203 225 255
203 225 255
203 225 255
203 225 255
202 225 255
202 225 255
202 225 255
202 225 255
202 225 255
202 225 255
202 225 255
202 225 255
202 225 255
202 225 255
202 225 255
202 225 255
202 225 255
202 225 255
202 225 255
202 225 255
201 225 255
201 225 255
201 225 255
201 225 255
201 224 255
201 224 255
201 224 255
201 224 255
201 224 255
201 224 255
201 224 255
201 224 255
201 224 255
201 224 255
201 224 255
201 224 255
201 224 255
200 224 255
200 224 255
200 224 255
200 224 255
200 224 255
200 224 255
200 224 255
200 224 255
200 224 255
200 224 255
200 224 255
200 224 255
200 224 255
200 224 255
200 224 255
200 224 255
200 224 255
200 224 255
200 224 255
200 224 255
199 224 255
199 224 255
199 224 255
199 224 255
199 224 255
199 223 255
199 223 255
199 223 255
199 223 255
199 223 255
199 223 255
199 223 255
199 223 255
199 223 255
199 223 255
199 223 255
199 223 255
199 223 255
199 223 255
199 223 255
199 223 255
199 223 255
199 223 255
199 223 255
199 223 255
199 223 255
199 223 255
199 223 255
199 223 255
199 223 255
199 223 255
199 223 255
199 223 255
199 223 255
199 223 255
199 223 255
199 223 255
199 223 255
199 223 255
199 223 255
199 223 255
199 223 255
199 223 255
199 223 255
199 223 255
199 223 255
199 223 255
199 223 255
199 223 255
199 223 255
199 223 255
199 223 255
199 223 255
199 223 255
199 223 255
199 223 255
199 223 255
199 223 255
199 223 255
199 223 255
199 223 255
199 223 255
199 223 255
199 224 255
199 224 255
199 224 255
199 224 255
200 224 255
200 224 255
200 224 255
200 224 255
200 224 255
200 224 255
200 224 255
200 224 255
200 224 255
200 224 255
200 224 255
200 224 255
200 224 255
200 224 255
200 224 255
200 224 255
200 224 255
200 224 255
200 224 255
200 224 255
200 224 255
200 224 255
201 224 255
201 224 255
201 224 255
201 224 255
201 224 255
201 224 255
201 224 255
201 224 255
201 224 255
201 224 255
201 224 255
201 224 255
201 225 255
201 225 255
201 225 255
201 225 255
202 225 255
202 225 255
202 225 255
202 225 255
202 225 255
202 225 255
202 225 255
202 225 255
202 225 255
202 225 255
202 225 255
202 225 255
202 225 255
202 225 255
202 225 255
202 225 255
203 225 255
203 225 255
203 225 255
203 225 255
203 225 255
203 225 255
203 225 255
203 225 255
203 225 255
203 226 255
203 226 255
203 226 255
203 226 255
203 226 255
203 226 255
203 226 255
204 226 255
204 226 255
204 226 255
204 226 255
204 226 255
204 226 255
204 226 255
204 226 255
204 226 255
204 226 255
204 226 255
204 226 255
204 226 255
204 226 255
204 226 255
205 226 255
205 226 255
205 226 255
205 226 255
205 226 255
205 226 255
205 226 255
205 227 255
205 227 255
205 227 255
205 227 255
205 227 255
205 227 255
205 227 255
205 227 255
205 227 255
206 227 255
206 227 255
206 227 255
206 227 255
206 227 255
206 227 255
206 227 255
206 227 255
206 227 255
206 227 255
206 227 255
206 227 255
206 227 255
206 227 255
206 227 255
206 227 255
206 227 255
206 227 255
206 227 255
207 227 255
207 227 255
207 227 255
207 227 255
207 228 255
207 228 255
207 228 255
207 228 255
207 228 255
207 228 255
207 228 255
207 228 255
207 228 255
207 228 255
207 228 255
207 228 255
207 228 255
207 228 255
208 228 255
208 228 255
208 228 255
208 228 255
208 228 255
208 228 255
208 228 255
208 228 255
208 228 255
208 228 255
208 228 255
208 228 255
208 228 255
208 228 255
208 228 255
208 228 255
208 228 255
208 228 255
208 228 255
208 228 255
208 228 255
208 228 255
209 228 255
209 229 255
209 229 255
209 229 255
209 229 255
209 229 255
209 229 255
209 229 255
209 229 255
209 229 255
209 229 255
209 229 255
209 229 255
209 229 255
209 229 255
209 229 255
209 228 255
209 228 255
208 228 255
208 228 255
208 228 255
208 228 255
208 228 255
208 228 255
208 228 255
208 228 255
208 228 255
208 228 255
208 228 255
208 228 255
208 228 255
208 228 255
208 228 255
208 228 255
208 228 255
208 228 255
208 228 255
208 228 255
207 228 255
207 228 255
207 228 255
207 228 255
207 228 255
207 228 255
207 228 255
207 228 255
207 228 255
207 228 255
207 228 255
207 228 255
207 228 255
207 228 255
207 228 255
207 227 255
207 227 255
207 227 255
207 227 255
207 227 255
206 227 255
206 227 255
206 227 255
206 227 255
206 227 255
206 227 255
206 227 255
206 227 255
206 227 255
206 227 255
206 227 255
206 227 255
206 227 255
206 227 255
206 227 255
206 227 255
206 227 255
205 227 255
205 227 255
205 227 255
205 227 255
205 227 255
205 227 255
205 227 255
205 227 255
205 227 255
205 226 255
205 226 255
205 226 255
205 226 255
205 226 255
205 226 255
205 226 255
204 226 255
204 226 255
204 226 255
204 226 255
204 226 255
204 226 255
204 226 255
204 226 255
204 226 255
204 226 255
204 226 255
204 226 255
204 226 255
204 226 255
204 226 255
204 226 255
203 226 255
203 226 255
203 226 255
203 226 255
203 226 255
203 226 255
203 226 255
203 225 255
203 225 255
203 225 255
203 225 255
203 225 255
203 225 255
203 225 255
203 225 255
202 225 255
202 225 255
202 225 255
202 225 255
202 225 255
202 225 255
202 225 255
202 225 255
202 225 255
202 225 255
202 225 255
202 225 255
202 225 255
202 225 255
202 225 255
202 225 255
202 225 255
201 225 255
201 225 255
201 225 255
201 225 255
201 225 255
201 224 255
201 224 255
201 224 255
201 224 255
201 224 255
201 224 255
201 224 255
201 224 255
201 224 255
201 224 255
201 224 255
201 224 255
200 224 255
200 224 255
200 224 255
200 224 255
200 224 255
200 224 255
200 224 255
200 224 255
200 224 255
200 224 255
200 224 255
200 224 255
200 224 255
200 224 255
200 224 255
200 224 255
200 224 255
200 224 255
200 224 255
200 224 255
200 224 255
200 224 255
200 224 255
199 224 255
199 224 255
199 224 255
199 224 255
199 224 255
199 223 255
199 223 255
199 223 255
199 223 255
199 223 255
199 223 255
199 223 255
199 223 255
199 223 255
199 223 255
199 223 255
199 223 255
199 223 255
199 223 255
199 223 255
199 223 255
199 223 255
199 223 255
199 223 255
199 223 255
199 223 255
199 223 255
199 223 255
199 223 255
199 223 255
199 223 255
199 223 255
199 223 255
199 223 255
199 223 255
199 223 255
199 223 255
199 223 255
199 223 255
199 223 255
199 223 255
199 223 255
199 223 255
199 223 255
199 223 255
199 223 255
199 223 255
199 223 255
199 223 255
199 224 255
199 224 255
199 224 255
199 224 255
199 224 255
199 224 255
200 224 255
200 224 255
200 224 255
200 224 255
200 224 255
200 224 255
200 224 255
200 224 255
200 224 255
200 224 255
200 224 255
200 224 255
200 224 255
200 224 255
200 224 255
200 224 255
200 224 255
200 224 255
200 224 255
200 224 255
200 224 255
200 224 255
200 224 255
201 224 255
201 224 255
201 224 255
201 224 255
201 224 255
201 224 255
201 224 255
201 224 255
201 224 255
201 224 255
201 224 255
201 224 255
201 224 255
201 224 255
201 225 255
201 225 255
201 225 255
201 225 255
201 225 255
202 225 255
202 225 255
202 225 255
202 225 255
202 225 255
202 225 255
202 225 255
202 225 255
202 225 255
202 225 255
202 225 255
202 225 255
202 225 255
202 225 255
202 225 255
203 225 255
203 225 255
203 225 255
203 225 255
203 225 255
203 225 255
203 225 255
203 225 255
203 225 255
203 226 255
203 226 255
203 226 255
203 226 255
203 226 255
203 226 255
203 226 255
204 226 255
204 226 255
204 226 255
204 226 255
204 226 255
204 226 255
204 226 255
204 226 255
204 226 255
204 226 255
204 226 255
204 226 255
204 226 255
204 226 255
204 226 255
204 226 255
205 226 255
205 226 255
205 226 255
205 226 255
205 226 255
205 226 255
205 226 255
205 227 255
205 227 255
205 227 255
205 227 255
205 227 255
205 227 255
205 227 255
205 227 255
205 227 255
206 227 255
206 227 255
206 227 255
206 227 255
206 227 255
206 227 255
206 227 255
206 227 255
206 227 255
206 227 255
206 227 255
206 227 255
206 227 255
206 227 255
206 227 255
206 227 255
206 227 255
206 227 255
207 227 255
207 227 255
207 227 255
207 227 255
207 228 255
207 228 255
207 228 255
207 228 255
207 228 255
207 228 255
207 228 255
207 228 255
207 228 255
207 228 255
207 228 255
207 228 255
207 228 255
207 228 255
208 228 255
208 228 255
208 228 255
208 228 255
208 228 255
208 228 255
208 228 255
208 228 255
208 228 255
208 228 255
208 228 255
208 228 255
208 228 255
208 228 255
208 228 255
208 228 255
208 228 255
208 228 255
208 228 255
208 228 255
208 228 255
209 228 255
209 228 255
209 229 255
209 229 255
209 229 255
209 229 255
209 229 255
209 229 255
209 229 255
209 229 255
209 229 255
209 229 255
209 229 255
209 229 255
209 229 255
209 229 255
209 229 255
209 229 255
209 229 255
209 229 255
209 229 255
209 229 255
209 229 255
209 228 255
209 228 255
208 228 255
208 228 255
208 228 255
208 228 255
208 228 255
208 228 255
208 228 255
208 228 255
208 228 255
208 228 255
208 228 255
208 228 255
208 228 255
208 228 255
208 228 255
208 228 255
208 228 255
208 228 255
208 228 255
208 228 255
208 228 255
207 228 255
207 228 255
207 228 255
207 228 255
207 228 255
207 228 255
207 228 255
207 228 255
207 228 255
207 228 255
207 228 255
207 228 255
207 228 255
207 228 255
207 227 255
207 227 255
207 227 255
207 227 255
207 227 255
206 227 255
206 227 255
206 227 255
206 227 255
206 227 255
206 227 255
206 227 255
206 227 255
206 227 255
206 227 255
206 227 255
206 227 255
206 227 255
206 227 255
206 227 255
206 227 255
206 227 255
205 227 255
205 227 255
205 227 255
205 227 255
205 227 255
205 227 255
205 227 255
205 227 255
205 227 255
205 227 255
205 226 255
205 226 255
205 226 255
205 226 255
205 226 255
205 226 255
204 226 255
204 226 255
204 226 255
204 226 255
204 226 255
204 226 255
204 226 255
204 226 255
204 226 255
204 226 255
204 226 255
204 226 255
204 226 255
204 226 255
204 226 255
204 226 255
203 226 255
203 226 255
203 226 255
203 226 255
203 226 255
203 226 255
203 226 255
203 225 255
203 225 255
203 225 255
203 225 255
203 225 255
203 225 255
203 225 255
203 225 255
202 225 255
202 225 255
202 225 255
202 225 255
202 225 255
202 225 255
202 225 255
202 225 255
202 225 255
202 225 255
202 225 255
202 225 255
202 225 255
202 225 255
202 225 255
202 225 255
202 225 255
201 225 255
201 225 255
201 225 255
201 225 255
201 225 255
201 224 255
201 224 255
201 224 255
201 224 255
201 224 255
201 224 255
201 224 255
201 224 255
201 224 255
201 224 255
201 224 255
201 224 255
201 224 255
200 224 255
200 224 255
200 224 255
200 224 255
200 224 255
200 224 255
200 224 255
200 224 255
200 224 255
200 224 255
200 224 255
200 224 255
200 224 255
200 224 255
200 224 255
200 224 255
200 224 255
200 224 255
200 224 255
200 224 255
200 224 255
200 224 255
200 224 255
200 224 255
200 224 255
199 224 255
199 224 255
199 224 255
199 224 255
199 224 255
199 224 255
199 224 255
199 224 255
199 224 255
199 224 255
199 224 255
199 224 255
199 223 255
199 223 255
199 223 255
199 223 255
199 223 255
199 223 255
199 223 255
199 223 255
199 223 255
199 223 255
199 223 255
199 223 255
199 223 255
199 223 255
199 223 255
199 223 255
199 223 255
199 223 255
199 223 255
199 223 255
199 223 255
199 223 255
199 223 255
199 223 255
199 224 255
199 224 255
199 224 255
199 224 255
199 224 255
199 224 255
200 224 255
200 224 255
200 224 255
200 224 255
200 224 255
200 224 255
200 224 255
200 224 255
200 224 255
200 224 255
200 224 255
200 224 255
200 224 255
200 224 255
200 224 255
200 224 255
200 224 255
200 224 255
200 224 255
200 224 255
200 224 255
200 224 255
200 224 255
200 224 255
200 224 255
200 224 255
200 224 255
201 224 255
201 224 255
201 224 255
201 224 255
201 224 255
201 224 255
201 224 255
201 224 255
201 224 255
201 224 255
201 224 255
201 224 255
201 224 255
201 225 255
201 225 255
201 225 255
201 225 255
201 225 255
202 225 255
202 225 255
202 225 255
202 225 255
202 225 255
202 225 255
202 225 255
202 225 255
202 225 255
202 225 255
202 225 255
202 225 255
202 225 255
202 225 255
202 225 255
202 225 255
203 225 255
203 225 255
203 225 255
203 225 255
203 225 255
203 225 255
203 225 255
203 225 255
203 225 255
203 225 255
203 226 255
203 226 255
203 226 255
203 226 255
203 226 255
203 226 255
203 226 255
204 226 255
204 226 255
204 226 255
204 226 255
204 226 255
204 226 255
204 226 255
204 226 255
204 226 255
204 226 255
204 226 255
204 226 255
204 226 255
204 226 255
204 226 255
205 226 255
205 226 255
205 226 255
205 226 255
205 226 255
205 226 255
205 226 255
205 227 255
205 227 255
205 227 255
205 227 255
205 227 255
205 227 255
205 227 255
205 227 255
205 227 255
206 227 255
206 227 255
206 227 255
206 227 255
206 227 255
206 227 255
206 227 255
206 227 255
206 227 255
206 227 255
206 227 255
206 227 255
206 227 255
206 227 255
206 227 255
206 227 255
206 227 255
206 227 255
207 227 255
207 227 255
207 227 255
207 227 255
207 228 255
207 228 255
207 228 255
207 228 255
207 228 255
207 228 255
207 228 255
207 228 255
207 228 255
207 228 255
207 228 255
207 228 255
207 228 255
207 228 255
207 228 255
208 228 255
208 228 255
208 228 255
208 228 255
208 228 255
208 228 255
208 228 255
208 228 255
208 228 255
208 228 255
208 228 255
208 228 255
208 228 255
208 228 255
208 228 255
208 228 255
208 228 255
208 228 255
208 228 255
208 228 255
209 228 255
209 228 255
209 229 255
209 229 255
209 229 255
209 229 255
209 229 255
209 229 255
209 229 255
209 229 255
209 229 255
209 229 255
209 229 255
209 229 255
209 229 255
209 229 255
209 229 255
209 229 255
209 229 255
209 229 255
209 229 255
209 229 255
209 229 255
209 229 255
209 229 255
209 229 255
209 229 255
209 229 255
209 229 255
209 229 255
209 228 255
208 228 255
208 228 255
208 228 255
208 228 255
208 228 255
208 228 255
208 228 255
208 228 255
208 228 255
208 228 255
208 228 255
208 228 255
208 228 255
208 228 255
208 228 255
208 228 255
208 228 255
208 228 255
208 228 255
208 228 255
208 228 255
207 228 255
207 228 255
207 228 255
207 228 255
207 228 255
207 228 255
207 228 255
207 228 255
207 228 255
207 228 255
207 228 255
207 228 255
207 228 255
207 228 255
207 227 255
207 227 255
207 227 255
207 227 255
206 227 255
206 227 255
206 227 255
206 227 255
206 227 255
206 227 255
206 227 255
206 227 255
206 227 255
206 227 255
206 227 255
206 227 255
206 227 255
206 227 255
206 227 255
206 227 255
206 227 255
206 227 255
205 227 255
205 227 255
205 227 255
205 227 255
205 227 255
205 227 255
205 227 255
205 227 255
205 227 255
205 227 255
205 226 255
205 226 255
205 226 255
205 226 255
205 226 255
204 226 255
204 226 255
204 226 255
204 226 255
204 226 255
204 226 255
204 226 255
204 226 255
204 226 255
204 226 255
204 226 255
204 226 255
204 226 255
204 226 255
204 226 255
204 226 255
204 226 255
203 226 255
203 226 255
203 226 255
203 226 255
203 226 255
203 226 255
203 226 255
203 225 255
203 225 255
203 225 255
203 225 255
203 225 255
203 225 255
203 225 255
203 225 255
203 225 255
202 225 255
202 225 255
202 225 255
202 225 255
202 225 255
202 225 255
202 225 255
202 225 255
202 225 255
202 225 255
202 225 255
202 225 255
202 225 255
202 225 255
202 225 255
202 225 255
201 225 255
201 225 255
201 225 255
201 225 255
201 225 255
201 224 255
201 224 255
201 224 255
201 224 255
201 224 255
201 224 255
201 224 255
201 224 255
201 224 255
201 224 255
201 224 255
201 224 255
201 224 255
201 224 255
201 224 255
200 224 255
200 224 255
200 224 255
200 224 255
200 224 255
200 224 255
200 224 255
200 224 255
200 224 255
200 224 255
200 224 255
200 224 255
200 224 255
200 224 255
200 224 255
200 224 255
200 224 255
200 224 255
200 224 255
200 224 255
200 224 255
200 224 255
200 224 255
200 224 255
200 224 255
200 224 255
200 224 255
200 224 255
200 224 255
200 224 255
200 224 255
200 224 255
199 224 255
200 224 255
200 224 255
199 224 255
199 224 255
199 224 255
199 224 255
199 224 255
199 224 255
199 224 255
199 224 255
199 224 255
199 224 255
199 224 255
199 224 255
199 224 255
199 224 255
200 224 255
200 224 255
199 224 255
199 224 255
200 224 255
200 224 255
200 224 255
200 224 255
200 224 255
200 224 255
200 224 255
200 224 255
200 224 255
200 224 255
200 224 255
200 224 255
200 224 255
200 224 255
200 224 255
200 224 255
200 224 255
200 224 255
200 224 255
200 224 255
200 224 255
200 224 255
200 224 255
200 224 255
200 224 255
200 224 255
200 224 255
200 224 255
200 224 255
200 224 255
200 224 255
201 224 255
201 224 255
201 224 255
201 224 255
201 224 255
201 224 255
201 224 255
201 224 255
201 224 255
201 224 255
201 224 255
201 224 255
201 224 255
201 224 255
201 224 255
201 225 255
201 225 255
201 225 255
201 225 255
202 225 255
202 225 255
202 225 255
202 225 255
202 225 255
202 225 255
202 225 255
202 225 255
202 225 255
202 225 255
202 225 255
202 225 255
202 225 255
202 225 255
202 225 255
202 225 255
202 225 255
203 225 255
203 225 255
203 225 255
203 225 255
203 225 255
203 225 255
203 225 255
203 225 255
203 225 255
203 226 255
203 226 255
203 226 255
203 226 255
203 226 255
203 226 255
203 226 255
204 226 255
204 226 255
204 226 255
204 226 255
204 226 255
204 226 255
204 226 255
204 226 255
204 226 255
204 226 255
204 226 255
204 226 255
204 226 255
204 226 255
204 226 255
205 226 255
205 226 255
205 226 255
205 226 255
205 226 255
205 226 255
205 226 255
205 227 255
205 227 255
205 227 255
205 227 255
205 227 255
205 227 255
205 227 255
205 227 255
205 227 255
205 227 255
205 227 255
206 227 255
206 227 255
206 227 255
206 227 255
206 227 255
206 227 255
206 227 255
206 227 255
206 227 255
206 227 255
206 227 255
206 227 255
206 227 255
206 227 255
206 227 255
206 227 255
207 227 255
207 227 255
207 227 255
207 227 255
207 227 255
207 228 255
207 228 255
207 228 255
207 228 255
207 228 255
207 228 255
207 228 255
207 228 255
207 228 255
207 228 255
207 228 255
207 228 255
207 228 255
207 228 255
208 228 255
208 228 255
208 228 255
208 228 255
208 228 255
208 228 255
208 228 255
208 228 255
208 228 255
208 228 255
208 228 255
208 228 255
208 228 255
208 228 255
208 228 255
208 228 255
208 228 255
208 228 255
208 228 255
208 228 255
209 228 255
209 228 255
209 228 255
209 229 255
209 229 255
209 229 255
209 229 255
209 229 255
209 229 255
209 229 255
209 229 255
209 229 255
209 229 255
209 229 255
209 229 255
209 229 255
209 229 255
209 229 255
209 229 255
209 229 255
209 229 255
209 229 255
209 229 255
209 229 255
209 229 255
209 229 255
209 229 255
209 229 255
209 229 255
209 229 255
209 229 255
209 229 255
209 229 255
209 229 255
209 229 255
209 229 255
209 229 255
209 228 255
208 228 255
208 228 255
208 228 255
208 228 255
208 228 255
208 228 255
208 228 255
208 228 255
208 228 255
208 228 255
208 228 255
208 228 255
208 228 255
208 228 255
208 228 255
208 228 255
208 228 255
208 228 255
208 228 255
208 228 255
208 228 255
207 228 255
207 228 255
207 228 255
207 228 255
207 228 255
207 228 255
207 228 255
207 228 255
207 228 255
207 228 255
207 228 255
207 228 255
207 228 255
207 228 255
207 227 255
207 227 255
207 227 255
207 227 255
206 227 255
206 227 255
206 227 255
206 227 255
206 227 255
206 227 255
206 227 255
206 227 255
206 227 255
206 227 255
206 227 255
206 227 255
206 227 255
206 227 255
206 227 255
206 227 255
206 227 255
205 227 255
205 227 255
205 227 255
205 227 255
205 227 255
205 227 255
205 227 255
205 227 255
205 227 255
205 227 255
205 226 255
205 226 255
205 226 255
205 226 255
205 226 255
205 226 255
205 226 255
204 226 255
204 226 255
204 226 255
204 226 255
204 226 255
204 226 255
204 226 255
204 226 255
204 226 255
204 226 255
204 226 255
204 226 255
204 226 255
204 226 255
204 226 255
204 226 255
203 226 255
203 226 255
203 226 255
203 226 255
203 226 255
203 226 255
203 226 255
203 225 255
203 225 255
203 225 255
203 225 255
203 225 255
203 225 255
203 225 255
203 225 255
203 225 255
202 225 255
202 225 255
202 225 255
202 225 255
202 225 255
202 225 255
202 225 255
202 225 255
202 225 255
202 225 255
202 225 255
202 225 255
202 225 255
202 225 255
202 225 255
202 225 255
202 225 255
201 225 255
201 225 255
201 225 255
201 225 255
201 225 255
201 225 255
201 224 255
201 224 255
201 224 255
201 224 255
201 224 255
201 224 255
201 224 255
201 224 255
201 224 255
201 224 255
201 224 255
201 224 255
201 224 255
201 224 255
200 224 255
200 224 255
200 224 255
200 224 255
200 224 255
200 224 255
200 224 255
200 224 255
200 224 255
200 224 255
200 224 255
200 224 255
200 224 255
200 224 255
200 224 255
200 224 255
200 224 255
200 224 255
200 224 255
200 224 255
200 224 255
200 224 255
200 224 255
200 224 255
200 224 255
200 224 255
200 224 255
200 224 255
200 224 255
200 224 255
200 224 255
200 224 255
200 224 255
200 224 255
200 224 255
200 224 255
200 224 255
200 224 255
200 224 255
200 224 255
200 224 255
200 224 255
200 224 255
200 224 255
200 224 255
200 224 255
200 224 255
200 224 255
200 224 255
200 224 255
200 224 255
200 224 255
200 224 255
200 224 255
200 224 255
200 224 255
200 224 255
200 224 255
200 224 255
200 224 255
200 224 255
200 224 255
200 224 255
200 224 255
200 224 255
200 224 255
200 224 255
200 224 255
200 224 255
200 224 255
200 224 255
200 224 255
200 224 255
200 224 255
200 224 255
200 224 255
201 224 255
201 224 255
201 224 255
201 224 255
201 224 255
201 224 255
201 224 255
201 224 255
201 224 255
201 224 255
201 224 255
201 224 255
201 224 255
201 224 255
201 224 255
201 225 255
201 225 255
201 225 255
201 225 255
201 225 255
202 225 255
202 225 255
202 225 255
202 225 255
202 225 255
202 225 255
202 225 255
202 225 255
202 225 255
202 225 255
202 225 255
202 225 255
202 225 255
202 225 255
202 225 255
202 225 255
202 225 255
203 225 255
203 225 255
203 225 255
203 225 255
203 225 255
203 225 255
203 225 255
203 225 255
203 225 255
203 226 255
203 226 255
203 226 255
203 226 255
203 226 255
203 226 255
203 226 255
204 226 255
204 226 255
204 226 255
204 226 255
204 226 255
204 226 255
204 226 255
204 226 255
204 226 255
204 226 255
204 226 255
204 226 255
204 226 255
204 226 255
204 226 255
204 226 255
205 226 255
205 226 255
205 226 255
205 226 255
205 226 255
205 226 255
205 227 255
205 227 255
205 227 255
205 227 255
205 227 255
205 227 255
205 227 255
205 227 255
205 227 255
205 227 255
205 227 255
206 227 255
206 227 255
206 227 255
206 227 255
206 227 255
206 227 255
206 227 255
206 227 255
206 227 255
206 227 255
206 227 255
206 227 255
206 227 255
206 227 255
206 227 255
206 227 255
207 227 255
207 227 255
207 227 255
207 227 255
207 227 255
207 228 255
207 228 255
207 228 255
207 228 255
207 228 255
207 228 255
207 228 255
207 228 255
207 228 255
207 228 255
207 228 255
207 228 255
207 228 255
207 228 255
208 228 255
208 228 255
208 228 255
208 228 255
208 228 255
208 228 255
208 228 255
208 228 255
208 228 255
208 228 255
208 228 255
208 228 255
208 228 255
208 228 255
208 228 255
208 228 255
208 228 255
208 228 255
208 228 255
208 228 255
209 228 255
209 228 255
209 229 255
209 229 255
209 229 255
209 229 255
209 229 255
209 229 255
209 229 255
209 229 255
209 229 255
209 229 255
209 229 255
209 229 255
209 229 255
209 229 255
209 229 255
209 229 255
209 229 255
209 229 255
209 229 255
210 229 255
210 229 255
209 229 255
209 229 255
209 229 255
209 229 255
209 229 255
209 229 255
209 229 255
209 229 255
209 229 255
209 229 255
209 229 255
209 229 255
209 229 255
209 229 255
209 229 255
209 229 255
209 229 255
209 229 255
209 229 255
209 229 255
209 229 255
209 228 255
208 228 255
208 228 255
208 228 255
208 228 255
208 228 255
208 228 255
208 228 255
208 228 255
208 228 255
208 228 255
208 228 255
208 228 255
208 228 255
208 228 255
208 228 255
208 228 255
208 228 255
208 228 255
208 228 255
208 228 255
207 228 255
207 228 255
207 228 255
207 228 255
207 228 255
207 228 255
207 228 255
207 228 255
207 228 255
207 228 255
207 228 255
207 228 255
207 228 255
207 228 255
207 227 255
207 227 255
207 227 255
207 227 255
207 227 255
206 227 255
206 227 255
206 227 255
206 227 255
206 227 255
206 227 255
206 227 255
206 227 255
206 227 255
206 227 255
206 227 255
206 227 255
206 227 255
206 227 255
206 227 255
206 227 255
206 227 255
205 227 255
205 227 255
205 227 255
205 227 255
205 227 255
205 227 255
205 227 255
205 227 255
205 227 255
205 226 255
205 226 255
205 226 255
205 226 255
205 226 255
205 226 255
205 226 255
204 226 255
204 226 255
204 226 255
204 226 255
204 226 255
204 226 255
204 226 255
204 226 255
204 226 255
204 226 255
204 226 255
204 226 255
204 226 255
204 226 255
204 226 255
204 226 255
203 226 255
203 226 255
203 226 255
203 226 255
203 226 255
203 226 255
203 226 255
203 225 255
203 225 255
203 225 255
203 225 255
203 225 255
203 225 255
203 225 255
203 225 255
203 225 255
202 225 255
202 225 255
202 225 255
202 225 255
202 225 255
202 225 255
202 225 255
202 225 255
202 225 255
202 225 255
202 225 255
202 225 255
202 225 255
202 225 255
202 225 255
202 225 255
202 225 255
202 225 255
201 225 255
201 225 255
201 225 255
201 225 255
201 225 255
201 224 255
201 224 255
201 224 255
201 224 255
201 224 255
201 224 255
201 224 255
201 224 255
201 224 255
201 224 255
201 224 255
201 224 255
201 224 255
201 224 255
201 224 255
201 224 255
201 224 255
200 224 255
200 224 255
200 224 255
200 224 255
200 224 255
200 224 255
200 224 255
200 224 255
200 224 255
200 224 255
200 224 255
200 224 255
200 224 255
200 224 255
200 224 255
200 224 255
200 224 255
200 224 255
200 224 255
200 224 255
200 224 255
200 224 255
200 224 255
200 224 255
200 224 255
200 224 255
200 224 255
200 224 255
200 224 255
200 224 255
200 224 255
200 224 255
200 224 255
200 224 255
200 224 255
200 224 255
200 224 255
200 224 255
200 224 255
200 224 255
200 224 255
200 224 255
200 224 255
200 224 255
200 224 255
200 224 255
200 224 255
200 224 255
200 224 255
200 224 255
200 224 255
200 224 255
200 224 255
200 224 255
200 224 255
200 224 255
200 224 255
200 224 255
200 224 255
200 224 255
200 224 255
200 224 255
200 224 255
200 224 255
201 224 255
201 224 255
201 224 255
201 224 255
201 224 255
201 224 255
201 224 255
201 224 255
201 224 255
201 224 255
201 224 255
201 224 255
201 224 255
201 224 255
201 224 255
201 224 255
201 225 255
201 225 255
201 225 255
201 225 255
201 225 255
201 225 255
202 225 255
202 225 255
202 225 255
202 225 255
202 225 255
202 225 255
202 225 255
202 225 255
202 225 255
202 225 255
202 225 255
202 225 255
202 225 255
202 225 255
202 225 255
202 225 255
202 225 255
202 225 255
203 225 255
203 225 255
203 225 255
203 225 255
203 225 255
203 225 255
203 225 255
203 225 255
203 225 255
203 226 255
203 226 255
203 226 255
203 226 255
203 226 255
203 226 255
203 226 255
204 226 255
204 226 255
204 226 255
204 226 255
204 226 255
204 226 255
204 226 255
204 226 255
204 226 255
204 226 255
204 226 255
204 226 255
204 226 255
204 226 255
204 226 255
204 226 255
205 226 255
205 226 255
205 226 255
205 226 255
205 226 255
205 226 255
205 226 255
205 227 255
205 227 255
205 227 255
205 227 255
205 227 255
205 227 255
205 227 255
205 227 255
205 227 255
206 227 255
206 227 255
206 227 255
206 227 255
206 227 255
206 227 255
206 227 255
206 227 255
206 227 255
206 227 255
206 227 255
206 227 255
206 227 255
206 227 255
206 227 255
206 227 255
206 227 255
207 227 255
207 227 255
207 227 255
207 227 255
207 228 255
207 228 255
207 228 255
207 228 255
207 228 255
207 228 255
207 228 255
207 228 255
207 228 255
207 228 255
207 228 255
207 228 255
207 228 255
207 228 255
207 228 255
208 228 255
208 228 255
208 228 255
208 228 255
208 228 255
208 228 255
208 228 255
208 228 255
208 228 255
208 228 255
208 228 255
208 228 255
208 228 255
208 228 255
208 228 255
208 228 255
208 228 255
208 228 255
208 228 255
208 228 255
209 228 255
209 229 255
209 229 255
209 229 255
209 229 255
209 229 255
209 229 255
209 229 255
209 229 255
209 229 255
209 229 255
209 229 255
209 229 255
209 229 255
209 229 255
209 229 255
209 229 255
209 229 255
209 229 255
209 229 255
209 229 255
209 229 255
210 229 255
210 229 255
210 229 255
210 229 255
210 229 255
210 229 255
209 229 255
209 229 255
209 229 255
209 229 255
209 229 255
209 229 255
209 229 255
209 229 255
209 229 255
209 229 255
209 229 255
209 229 255
209 229 255
209 229 255
209 229 255
209 229 255
209 229 255
209 229 255
209 229 255
209 229 255
209 229 255
209 228 255
209 228 255
209 228 255
208 228 255
208 228 255
208 228 255
208 228 255
208 228 255
208 228 255
208 228 255
208 228 255
208 228 255
208 228 255
208 228 255
208 228 255
208 228 255
208 228 255
208 228 255
208 228 255
208 228 255
208 228 255
208 228 255
207 228 255
207 228 255
207 228 255
207 228 255
207 228 255
207 228 255
207 228 255
207 228 255
207 228 255
207 228 255
207 228 255
207 228 255
207 228 255
207 228 255
207 228 255
207 227 255
207 227 255
207 227 255
207 227 255
206 227 255
206 227 255
206 227 255
206 227 255
206 227 255
206 227 255
206 227 255
206 227 255
206 227 255
206 227 255
206 227 255
206 227 255
206 227 255
206 227 255
206 227 255
206 227 255
205 227 255
205 227 255
205 227 255
205 227 255
205 227 255
205 227 255
205 227 255
205 227 255
205 227 255
205 227 255
205 227 255
205 226 255
205 226 255
205 226 255
205 226 255
205 226 255
205 226 255
204 226 255
204 226 255
204 226 255
204 226 255
204 226 255
204 226 255
204 226 255
204 226 255
204 226 255
204 226 255
204 226 255
204 226 255
204 226 255
204 226 255
204 226 255
204 226 255
203 226 255
203 226 255
203 226 255
203 226 255
203 226 255
203 226 255
203 226 255
203 226 255
203 225 255
203 225 255
203 225 255
203 225 255
203 225 255
203 225 255
203 225 255
203 225 255
203 225 255
202 225 255
202 225 255
202 225 255
202 225 255
202 225 255
202 225 255
202 225 255
202 225 255
202 225 255
202 225 255
202 225 255
202 225 255
202 225 255
202 225 255
202 225 255
202 225 255
202 225 255
202 225 255
201 225 255
201 225 255
201 225 255
201 225 255
201 225 255
201 225 255
201 224 255
201 224 255
201 224 255
201 224 255
201 224 255
201 224 255
201 224 255
201 224 255
201 224 255
201 224 255
201 224 255
201 224 255
201 224 255
201 224 255
201 224 255
201 224 255
201 224 255
201 224 255
200 224 255
200 224 255
200 224 255
200 224 255
200 224 255
200 224 255
200 224 255
200 224 255
200 224 255
200 224 255
200 224 255
200 224 255
200 224 255
200 224 255
200 224 255
200 224 255
200 224 255
200 224 255
200 224 255
200 224 255
200 224 255
200 224 255
200 224 255
200 224 255
200 224 255
200 224 255
200 224 255
200 224 255
200 224 255
200 224 255
200 224 255
200 224 255
200 224 255
200 224 255
200 224 255
200 224 255
200 224 255
200 224 255
200 224 255
200 224 255
200 224 255
200 224 255
200 224 255
200 224 255
200 224 255
200 224 255
200 224 255
200 224 255
200 224 255
200 224 255
200 224 255
200 224 255
201 224 255
201 224 255
201 224 255
201 224 255
201 224 255
201 224 255
201 224 255
201 224 255
201 224 255
201 224 255
201 224 255
201 224 255
201 224 255
201 224 255
201 224 255
201 224 255
201 224 255
201 224 255
201 225 255
201 225 255
201 225 255
201 225 255
201 225 255
201 225 255
202 225 255
202 225 255
202 225 255
202 225 255
202 225 255
202 225 255
202 225 255
202 225 255
202 225 255
202 225 255
202 225 255
202 225 255
202 225 255
202 225 255
202 225 255
202 225 255
202 225 255
202 225 255
202 225 255
203 225 255
203 225 255
203 225 255
203 225 255
203 225 255
203 225 255
203 225 255
203 225 255
203 225 255
203 226 255
203 226 255
203 226 255
203 226 255
203 226 255
203 226 255
204 226 255
204 226 255
204 226 255
204 226 255
204 226 255
204 226 255
204 226 255
204 226 255
204 226 255
204 226 255
204 226 255
204 226 255
204 226 255
204 226 255
204 226 255
204 226 255
204 226 255
205 226 255
205 226 255
205 226 255
205 226 255
205 226 255
205 226 255
205 226 255
205 227 255
205 227 255
205 227 255
205 227 255
205 227 255
205 227 255
205 227 255
205 227 255
205 227 255
205 227 255
206 227 255
206 227 255
206 227 255
206 227 255
206 227 255
206 227 255
206 227 255
206 227 255
206 227 255
206 227 255
206 227 255
206 227 255
206 227 255
206 227 255
206 227 255
206 227 255
206 227 255
207 227 255
207 227 255
207 227 255
207 227 255
207 228 255
207 228 255
207 228 255
207 228 255
207 228 255
207 228 255
207 228 255
207 228 255
207 228 255
207 228 255
207 228 255
207 228 255
207 228 255
208 228 255
208 228 255
208 228 255
208 228 255
208 228 255
208 228 255
208 228 255
208 228 255
208 228 255
208 228 255
208 228 255
208 228 255
208 228 255
208 228 255
208 228 255
208 228 255
208 228 255
208 228 255
208 228 255
208 228 255
209 228 255
209 228 255
209 229 255
209 229 255
209 229 255
209 229 255
209 229 255
209 229 255
209 229 255
209 229 255
209 229 255
209 229 255
209 229 255
209 229 255
209 229 255
209 229 255
209 229 255
209 229 255
209 229 255
209 229 255
209 229 255
209 229 255
209 229 255
210 229 255
210 229 255
210 229 255
210 229 255
210 229 255
210 229 255
210 229 255
210 229 255
210 229 255
210 229 255
210 229 255
210 229 255
210 229 255
209 229 255
209 229 255
209 229 255
209 229 255
209 229 255
209 229 255
209 229 255
209 229 255
209 229 255
209 229 255
209 229 255
209 229 255
209 229 255
209 229 255
209 229 255
209 229 255
209 229 255
209 229 255
209 229 255
209 229 255
209 229 255
209 228 255
209 228 255
208 228 255
208 228 255
208 228 255
208 228 255
208 228 255
208 228 255
208 228 255
208 228 255
208 228 255
208 228 255
208 228 255
208 228 255
208 228 255
208 228 255
208 228 255
208 228 255
208 228 255
208 228 255
208 228 255
207 228 255
207 228 255
207 228 255
207 228 255
207 228 255
207 228 255
207 228 255
207 228 255
207 228 255
207 228 255
207 228 255
207 228 255
207 228 255
207 228 255
207 227 255
207 227 255
207 227 255
207 227 255
207 227 255
206 227 255
206 227 255
206 227 255
206 227 255
206 227 255
206 227 255
206 227 255
206 227 255
206 227 255
206 227 255
206 227 255
206 227 255
206 227 255
206 227 255
206 227 255
206 227 255
206 227 255
205 227 255
205 227 255
205 227 255
205 227 255
205 227 255
205 227 255
205 227 255
205 227 255
205 227 255
205 227 255
205 226 255
205 226 255
205 226 255
205 226 255
205 226 255
205 226 255
204 226 255
204 226 255
204 226 255
204 226 255
204 226 255
204 226 255
204 226 255
204 226 255
204 226 255
204 226 255
204 226 255
204 226 255
204 226 255
204 226 255
204 226 255
204 226 255
204 226 255
203 226 255
203 226 255
203 226 255
203 226 255
203 226 255
203 226 255
203 225 255
203 225 255
203 225 255
203 225 255
203 225 255
203 225 255
203 225 255
203 225 255
203 225 255
203 225 255
202 225 255
202 225 255
202 225 255
202 225 255
202 225 255
202 225 255
202 225 255
202 225 255
202 225 255
202 225 255
202 225 255
202 225 255
202 225 255
202 225 255
202 225 255
202 225 255
202 225 255
202 225 255
202 225 255
201 225 255
201 225 255
201 225 255
201 225 255
201 225 255
201 225 255
201 225 255
201 224 255
201 224 255
201 224 255
201 224 255
201 224 255
201 224 255
201 224 255
201 224 255
201 224 255
201 224 255
201 224 255
201 224 255
201 224 255
201 224 255
201 224 255
201 224 255
201 224 255
201 224 255
201 224 255
201 224 255
200 224 255
200 224 255
200 224 255
200 224 255
200 224 255
200 224 255
200 224 255
200 224 255
200 224 255
200 224 255
200 224 255
200 224 255
200 224 255
200 224 255
200 224 255
200 224 255
200 224 255
200 224 255
200 224 255
200 224 255
200 224 255
200 224 255
200 224 255
200 224 255
200 224 255
200 224 255
200 224 255
200 224 255
200 224 255
200 224 255
200 224 255
200 224 255
200 224 255
200 224 255
200 224 255
200 224 255
200 224 255
201 224 255
200 224 255
201 224 255
201 224 255
201 224 255
201 224 255
201 224 255
201 224 255
201 224 255
201 224 255
201 224 255
201 224 255
201 224 255
201 224 255
201 224 255
201 224 255
201 224 255
201 224 255
201 224 255
201 224 255
201 224 255
201 224 255
201 225 255
201 225 255
201 225 255
201 225 255
201 225 255
201 225 255
202 225 255
202 225 255
202 225 255
202 225 255
202 225 255
202 225 255
202 225 255
202 225 255
202 225 255
202 225 255
202 225 255
202 225 255
202 225 255
202 225 255
202 225 255
202 225 255
202 225 255
202 225 255
203 225 255
203 225 255
203 225 255
203 225 255
203 225 255
203 225 255
203 225 255
203 225 255
203 225 255
203 225 255
203 226 255
203 226 255
203 226 255
203 226 255
203 226 255
203 226 255
203 226 255
203 226 255
204 226 255
204 226 255
204 226 255
204 226 255
204 226 255
204 226 255
204 226 255
204 226 255
204 226 255
204 226 255
204 226 255
204 226 255
204 226 255
204 226 255
204 226 255
205 226 255
205 226 255
205 226 255
205 226 255
205 226 255
205 226 255
205 226 255
205 227 255
205 227 255
205 227 255
205 227 255
205 227 255
205 227 255
205 227 255
205 227 255
205 227 255
205 227 255
206 227 255
206 227 255
206 227 255
206 227 255
206 227 255
206 227 255
206 227 255
206 227 255
206 227 255
206 227 255
206 227 255
206 227 255
206 227 255
206 227 255
206 227 255
206 227 255
206 227 255
207 227 255
207 227 255
207 227 255
207 227 255
207 228 255
207 228 255
207 228 255
207 228 255
207 228 255
207 228 255
207 228 255
207 228 255
207 228 255
207 228 255
207 228 255
207 228 255
207 228 255
207 228 255
208 228 255
208 228 255
208 228 255
208 228 255
208 228 255
208 228 255
208 228 255
208 228 255
208 228 255
208 228 255
208 228 255
208 228 255
208 228 255
208 228 255
208 228 255
208 228 255
208 228 255
208 228 255
208 228 255
208 228 255
209 228 255
209 228 255
209 229 255
209 229 255
209 229 255
209 229 255
209 229 255
209 229 255
209 229 255
209 229 255
209 229 255
209 229 255
209 229 255
209 229 255
209 229 255
209 229 255
209 229 255
209 229 255
209 229 255
209 229 255
209 229 255
209 229 255
210 229 255
210 229 255
210 229 255
210 229 255
210 229 255
210 229 255
210 229 255
210 229 255
210 229 255
210 229 255
210 229 255
210 229 255
210 229 255
210 229 255
210 229 255
210 229 255
210 229 255
210 229 255
210 229 255
210 229 255
210 229 255
209 229 255
209 229 255
209 229 255
209 229 255
209 229 255
209 229 255
209 229 255
209 229 255
209 229 255
209 229 255
209 229 255
209 229 255
209 229 255
209 229 255
209 229 255
209 229 255
209 229 255
209 229 255
209 229 255
209 229 255
209 229 255
209 228 255
209 228 255
208 228 255
208 228 255
208 228 255
208 228 255
208 228 255
208 228 255
208 228 255
208 228 255
208 228 255
208 228 255
208 228 255
208 228 255
208 228 255
208 228 255
208 228 255
208 228 255
208 228 255
208 228 255
208 228 255
207 228 255
207 228 255
207 228 255
207 228 255
207 228 255
207 228 255
207 228 255
207 228 255
207 228 255
207 228 255
207 228 255
207 228 255
207 228 255
207 228 255
207 227 255
207 227 255
207 227 255
207 227 255
206 227 255
206 227 255
206 227 255
206 227 255
206 227 255
206 227 255
206 227 255
206 227 255
206 227 255
206 227 255
206 227 255
206 227 255
206 227 255
206 227 255
206 227 255
206 227 255
206 227 255
205 227 255
205 227 255
205 227 255
205 227 255
205 227 255
205 227 255
205 227 255
205 227 255
205 227 255
205 227 255
205 226 255
205 226 255
205 226 255
205 226 255
205 226 255
205 226 255
205 226 255
204 226 255
204 226 255
204 226 255
204 226 255
204 226 255
204 226 255
204 226 255
204 226 255
204 226 255
204 226 255
204 226 255
204 226 255
204 226 255
204 226 255
204 226 255
204 226 255
203 226 255
203 226 255
203 226 255
203 226 255
203 226 255
203 226 255
203 226 255
203 225 255
203 225 255
203 225 255
203 225 255
203 225 255
203 225 255
203 225 255
203 225 255
203 225 255
203 225 255
202 225 255
202 225 255
202 225 255
202 225 255
202 225 255
202 225 255
202 225 255
202 225 255
202 225 255
202 225 255
202 225 255
202 225 255
202 225 255
202 225 255
202 225 255
202 225 255
202 225 255
202 225 255
202 225 255
201 225 255
201 225 255
201 225 255
201 225 255
201 225 255
201 225 255
201 225 255
201 225 255
201 224 255
201 224 255
201 224 255
201 224 255
201 224 255
201 224 255
201 224 255
201 224 255
201 224 255
201 224 255
201 224 255
201 224 255
201 224 255
201 224 255
201 224 255
201 224 255
201 224 255
201 224 255
201 224 255
201 224 255
201 224 255
201 224 255
201 224 255
201 224 255
201 224 255
201 224 255
201 224 255
201 224 255
201 224 255
201 224 255
201 224 255
201 224 255
201 224 255
201 224 255
201 224 255
201 224 255
201 224 255
201 224 255
201 224 255
201 224 255
201 224 255
201 224 255
201 224 255
201 224 255
201 224 255
201 224 255
201 224 255
201 224 255
201 224 255
201 224 255
201 224 255
201 224 255
201 224 255
201 224 255
201 224 255
201 224 255
201 224 255
201 224 255
201 224 255
201 224 255
201 224 255
201 224 255
201 224 255
201 224 255
201 224 255
201 224 255
201 224 255
201 224 255
201 224 255
201 225 255
201 225 255
201 225 255
201 225 255
201 225 255
201 225 255
202 225 255
202 225 255
202 225 255
202 225 255
202 225 255
202 225 255
202 225 255
202 225 255
202 225 255
202 225 255
202 225 255
202 225 255
202 225 255
202 225 255
202 225 255
202 225 255
202 225 255
202 225 255
202 225 255
202 225 255
202 225 255
203 225 255
203 225 255
203 225 255
203 225 255
203 225 255
203 225 255
203 225 255
203 225 255
203 226 255
203 226 255
203 226 255
203 226 255
203 226 255
203 226 255
203 226 255
203 226 255
204 226 255
204 226 255
204 226 255
204 226 255
204 226 255
204 226 255
204 226 255
204 226 255
204 226 255
204 226 255
204 226 255
204 226 255
204 226 255
204 226 255
204 226 255
204 226 255
204 226 255
205 226 255
205 226 255
205 226 255
205 226 255
205 226 255
205 226 255
205 227 255
205 227 255
205 227 255
205 227 255
205 227 255
205 227 255
205 227 255
205 227 255
205 227 255
205 227 255
206 227 255
206 227 255
206 227 255
206 227 255
206 227 255
206 227 255
206 227 255
206 227 255
206 227 255
206 227 255
206 227 255
206 227 255
206 227 255
206 227 255
206 227 255
206 227 255
206 227 255
207 227 255
207 227 255
207 227 255
207 227 255
207 227 255
207 228 255
207 228 255
207 228 255
207 228 255
207 228 255
207 228 255
207 228 255
207 228 255
207 228 255
207 228 255
207 228 255
207 228 255
207 228 255
208 228 255
208 228 255
208 228 255
208 228 255
208 228 255
208 228 255
208 228 255
208 228 255
208 228 255
208 228 255
208 228 255
208 228 255
208 228 255
208 228 255
208 228 255
208 228 255
208 228 255
208 228 255
208 228 255
209 228 255
209 228 255
209 229 255
209 229 255
209 229 255
209 229 255
209 229 255
209 229 255
209 229 255
209 229 255
209 229 255
209 229 255
209 229 255
209 229 255
209 229 255
209 229 255
209 229 255
209 229 255
209 229 255
209 229 255
209 229 255
209 229 255
210 229 255
210 229 255
210 229 255
210 229 255
210 229 255
210 229 255
210 229 255
210 229 255
210 229 255
210 229 255
210 229 255
210 229 255
210 229 255
210 229 255
210 229 255
210 229 255
210 229 255
210 229 255
210 229 255
210 229 255
210 229 255
210 229 255
210 229 255
210 229 255
210 229 255
210 229 255
210 229 255
210 229 255
210 229 255
209 229 255
209 229 255
209 229 255
209 229 255
209 229 255
209 229 255
209 229 255
209 229 255
209 229 255
209 229 255
209 229 255
209 229 255
209 229 255
209 229 255
209 229 255
209 229 255
209 229 255
209 229 255
209 229 255
209 229 255
209 228 255
209 228 255
208 228 255
208 228 255
208 228 255
208 228 255
208 228 255
208 228 255
208 228 255
208 228 255
208 228 255
208 228 255
208 228 255
208 228 255
208 228 255
208 228 255
208 228 255
208 228 255
208 228 255
208 228 255
208 228 255
207 228 255
207 228 255
207 228 255
207 228 255
207 228 255
207 228 255
207 228 255
207 228 255
207 228 255
207 228 255
207 228 255
207 228 255
207 228 255
207 228 255
207 227 255
207 227 255
207 227 255
207 227 255
207 227 255
206 227 255
206 227 255
206 227 255
206 227 255
206 227 255
206 227 255
206 227 255
206 227 255
206 227 255
206 227 255
206 227 255
206 227 255
206 227 255
206 227 255
206 227 255
206 227 255
206 227 255
205 227 255
205 227 255
205 227 255
205 227 255
205 227 255
205 227 255
205 227 255
205 227 255
205 227 255
205 226 255
205 226 255
205 226 255
205 226 255
205 226 255
205 226 255
205 226 255
204 226 255
204 226 255
204 226 255
204 226 255
204 226 255
204 226 255
204 226 255
204 226 255
204 226 255
204 226 255
204 226 255
204 226 255
204 226 255
204 226 255
204 226 255
204 226 255
203 226 255
203 226 255
203 226 255
203 226 255
203 226 255
203 226 255
203 226 255
203 225 255
203 225 255
203 225 255
203 225 255
203 225 255
203 225 255
203 225 255
203 225 255
203 225 255
203 225 255
203 225 255
202 225 255
202 225 255
202 225 255
202 225 255
202 225 255
202 225 255
202 225 255
202 225 255
202 225 255
202 225 255
202 225 255
202 225 255
202 225 255
202 225 255
202 225 255
202 225 255
202 225 255
202 225 255
202 225 255
202 225 255
201 225 255
201 225 255
201 225 255
201 225 255
201 225 255
201 225 255
201 225 255
201 225 255
201 225 255
201 224 255
201 224 255
201 224 255
201 224 255
201 224 255
201 224 255
201 224 255
201 224 255
201 224 255
201 224 255
201 224 255
201 224 255
201 224 255
201 224 255
201 224 255
201 224 255
201 224 255
201 224 255
201 224 255
201 224 255
201 224 255
201 224 255
201 224 255
201 224 255
201 224 255
201 224 255
201 224 255
201 224 255
201 224 255
201 224 255
201 224 255
201 224 255
201 224 255
201 224 255
201 224 255
201 224 255
201 224 255
201 224 255
201 224 255
201 224 255
201 224 255
201 224 255
201 224 255
201 224 255
201 224 255
201 224 255
201 224 255
201 224 255
201 224 255
201 224 255
201 224 255
201 224 255
201 224 255
201 224 255
201 224 255
201 224 255
201 225 255
201 225 255
201 225 255
201 225 255
201 225 255
201 225 255
201 225 255
202 225 255
201 225 255
202 225 255
202 225 255
202 225 255
202 225 255
202 225 255
202 225 255
202 225 255
202 225 255
202 225 255
202 225 255
202 225 255
202 225 255
202 225 255
202 225 255
202 225 255
202 225 255
202 225 255
202 225 255
202 225 255
202 225 255
203 225 255
203 225 255
203 225 255
203 225 255
203 225 255
203 225 255
203 225 255
203 225 255
203 225 255
203 225 255
203 225 255
203 226 255
203 226 255
203 226 255
203 226 255
203 226 255
203 226 255
203 226 255
204 226 255
204 226 255
204 226 255
204 226 255
204 226 255
204 226 255
204 226 255
204 226 255
204 226 255
204 226 255
204 226 255
204 226 255
204 226 255
204 226 255
204 226 255
204 226 255
205 226 255
205 226 255
205 226 255
205 226 255
205 226 255
205 226 255
205 226 255
205 227 255
205 227 255
205 227 255
205 227 255
205 227 255
205 227 255
205 227 255
205 227 255
205 227 255
205 227 255
206 227 255
206 227 255
206 227 255
206 227 255
206 227 255
206 227 255
206 227 255
206 227 255
206 227 255
206 227 255
206 227 255
206 227 255
206 227 255
206 227 255
206 227 255
206 227 255
206 227 255
207 227 255
207 227 255
207 227 255
207 227 255
207 228 255
207 228 255
207 228 255
207 228 255
207 228 255
207 228 255
207 228 255
207 228 255
207 228 255
207 228 255
207 228 255
207 228 255
207 228 255
207 228 255
208 228 255
208 228 255
208 228 255
208 228 255
208 228 255
208 228 255
208 228 255
208 228 255
208 228 255
208 228 255
208 228 255
208 228 255
208 228 255
208 228 255
208 228 255
208 228 255
208 228 255
208 228 255
208 228 255
208 228 255
209 228 255
209 229 255
209 229 255
209 229 255
209 229 255
209 229 255
209 229 255
209 229 255
209 229 255
209 229 255
209 229 255
209 229 255
209 229 255
209 229 255
209 229 255
209 229 255
209 229 255
209 229 255
209 229 255
209 229 255
209 229 255
209 229 255
210 229 255
210 229 255
210 229 255
210 229 255
210 229 255
210 229 255
210 229 255
210 229 255
210 229 255
210 229 255
210 229 255
210 229 255
210 229 255
210 229 255
210 229 255
210 229 255
210 229 255
210 229 255
210 229 255
210 229 255
210 229 255
210 229 255
210 229 255
210 229 255
210 229 255
210 229 255
210 229 255
210 229 255
210 229 255
210 229 255
210 229 255
210 229 255
210 229 255
210 229 255
210 229 255
209 229 255
209 229 255
209 229 255
209 229 255
209 229 255
209 229 255
209 229 255
209 229 255
209 229 255
209 229 255
209 229 255
209 229 255
209 229 255
209 229 255
209 229 255
209 229 255
209 229 255
209 229 255
209 229 255
209 229 255
209 228 255
208 228 255
208 228 255
208 228 255
208 228 255
208 228 255
208 228 255
208 228 255
208 228 255
208 228 255
208 228 255
208 228 255
208 228 255
208 228 255
208 228 255
208 228 255
208 228 255
208 228 255
208 228 255
208 228 255
207 228 255
207 228 255
207 228 255
207 228 255
207 228 255
207 228 255
207 228 255
207 228 255
207 228 255
207 228 255
207 228 255
207 228 255
207 228 255
207 228 255
207 228 255
207 227 255
207 227 255
207 227 255
206 227 255
206 227 255
206 227 255
206 227 255
206 227 255
206 227 255
206 227 255
206 227 255
206 227 255
206 227 255
206 227 255
206 227 255
206 227 255
206 227 255
206 227 255
206 227 255
206 227 255
206 227 255
205 227 255
205 227 255
205 227 255
205 227 255
205 227 255
205 227 255
205 227 255
205 227 255
205 227 255
205 226 255
205 226 255
205 226 255
205 226 255
205 226 255
205 226 255
205 226 255
204 226 255
204 226 255
204 226 255
204 226 255
204 226 255
204 226 255
204 226 255
204 226 255
204 226 255
204 226 255
204 226 255
204 226 255
204 226 255
204 226 255
204 226 255
204 226 255
203 226 255
203 226 255
203 226 255
203 226 255
203 226 255
203 226 255
203 226 255
203 226 255
203 226 255
203 225 255
203 225 255
203 225 255
203 225 255
203 225 255
203 225 255
203 225 255
203 225 255
203 225 255
203 225 255
202 225 255
202 225 255
202 225 255
202 225 255
202 225 255
202 225 255
202 225 255
202 225 255
202 225 255
202 225 255
202 225 255
202 225 255
202 225 255
202 225 255
202 225 255
202 225 255
202 225 255
202 225 255
202 225 255
202 225 255
202 225 255
202 225 255
201 225 255
201 225 255
201 225 255
201 225 255
201 225 255
201 225 255
201 225 255
201 225 255
201 225 255
201 225 255
201 225 255
201 224 255
201 224 255
201 224 255
201 224 255
201 224 255
201 224 255
201 224 255
201 224 255
201 224 255
201 224 255
201 224 255
201 224 255
201 224 255
201 224 255
201 224 255
201 224 255
201 224 255
201 224 255
201 224 255
201 224 255
201 224 255
201 224 255
201 224 255
201 224 255
201 224 255
201 224 255
201 224 255
201 224 255
201 224 255
201 224 255
201 224 255
201 224 255
201 224 255
201 224 255
201 224 255
201 224 255
201 224 255
201 224 255
201 224 255
201 225 255
201 225 255
201 225 255
201 225 255
201 225 255
201 225 255
201 225 255
201 225 255
201 225 255
201 225 255
202 225 255
202 225 255
202 225 255
202 225 255
202 225 255
202 225 255
202 225 255
202 225 255
202 225 255
202 225 255
202 225 255
202 225 255
202 225 255
202 225 255
202 225 255
202 225 255
202 225 255
202 225 255
202 225 255
202 225 255
202 225 255
202 225 255
202 225 255
202 225 255
203 225 255
203 225 255
203 225 255
203 225 255
203 225 255
203 225 255
203 225 255
203 225 255
203 225 255
203 225 255
203 226 255
203 226 255
203 226 255
203 226 255
203 226 255
203 226 255
203 226 255
203 226 255
204 226 255
204 226 255
204 226 255
204 226 255
204 226 255
204 226 255
204 226 255
204 226 255
204 226 255
204 226 255
204 226 255
204 226 255
204 226 255
204 226 255
204 226 255
204 226 255
204 226 255
205 226 255
205 226 255
205 226 255
205 226 255
205 226 255
205 226 255
205 226 255
205 227 255
205 227 255
205 227 255
205 227 255
205 227 255
205 227 255
205 227 255
205 227 255
205 227 255
205 227 255
206 227 255
206 227 255
206 227 255
206 227 255
206 227 255
206 227 255
206 227 255
206 227 255
206 227 255
206 227 255
206 227 255
206 227 255
206 227 255
206 227 255
206 227 255
206 227 255
207 227 255
207 227 255
207 227 255
207 227 255
207 227 255
207 228 255
207 228 255
207 228 255
207 228 255
207 228 255
207 228 255
207 228 255
207 228 255
207 228 255
207 228 255
207 228 255
207 228 255
207 228 255
207 228 255
208 228 255
208 228 255
208 228 255
208 228 255
208 228 255
208 228 255
208 228 255
208 228 255
208 228 255
208 228 255
208 228 255
208 228 255
208 228 255
208 228 255
208 228 255
208 228 255
208 228 255
208 228 255
208 228 255
209 228 255
209 229 255
209 229 255
209 229 255
209 229 255
209 229 255
209 229 255
209 229 255
209 229 255
209 229 255
209 229 255
209 229 255
209 229 255
209 229 255
209 229 255
209 229 255
209 229 255
209 229 255
209 229 255
209 229 255
209 229 255
209 229 255
210 229 255
210 229 255
210 229 255
210 229 255
210 229 255
210 229 255
210 229 255
210 229 255
210 229 255
210 229 255
210 229 255
210 229 255
210 229 255
210 229 255
210 229 255
210 229 255
210 229 255
210 229 255
210 229 255
210 230 255
210 229 255
210 229 255
210 229 255
210 229 255
210 229 255
210 229 255
210 229 255
210 229 255
210 229 255
210 229 255
210 229 255
210 229 255
210 229 255
210 229 255
210 229 255
210 229 255
210 229 255
210 229 255
210 229 255
210 229 255
210 229 255
209 229 255
209 229 255
209 229 255
209 229 255
209 229 255
209 229 255
209 229 255
209 229 255
209 229 255
209 229 255
209 229 255
209 229 255
209 229 255
209 229 255
209 229 255
209 229 255
209 229 255
209 229 255
209 229 255
209 229 255
209 229 255
209 228 255
209 228 255
208 228 255
208 228 255
208 228 255
208 228 255
208 228 255
208 228 255
208 228 255
208 228 255
208 228 255
208 228 255
208 228 255
208 228 255
208 228 255
208 228 255
208 228 255
208 228 255
208 228 255
208 228 255
208 228 255
207 228 255
207 228 255
207 228 255
207 228 255
207 228 255
207 228 255
207 228 255
207 228 255
207 228 255
207 228 255
207 228 255
207 228 255
207 228 255
207 228 255
207 227 255
207 227 255
207 227 255
207 227 255
206 227 255
206 227 255
206 227 255
206 227 255
206 227 255
206 227 255
206 227 255
206 227 255
206 227 255
206 227 255
206 227 255
206 227 255
206 227 255
206 227 255
206 227 255
206 227 255
206 227 255
205 227 255
205 227 255
205 227 255
205 227 255
205 227 255
205 227 255
205 227 255
205 227 255
205 227 255
205 227 255
205 226 255
205 226 255
205 226 255
205 226 255
205 226 255
205 226 255
204 226 255
204 226 255
204 226 255
204 226 255
204 226 255
204 226 255
204 226 255
204 226 255
204 226 255
204 226 255
204 226 255
204 226 255
204 226 255
204 226 255
204 226 255
204 226 255
204 226 255
204 226 255
203 226 255
203 226 255
203 226 255
203 226 255
203 226 255
203 226 255
203 226 255
203 225 255
203 225 255
203 225 255
203 225 255
203 225 255
203 225 255
203 225 255
203 225 255
203 225 255
203 225 255
203 225 255
202 225 255
202 225 255
202 225 255
202 225 255
202 225 255
202 225 255
202 225 255
202 225 255
202 225 255
202 225 255
202 225 255
202 225 255
202 225 255
202 225 255
202 225 255
202 225 255
202 225 255
202 225 255
202 225 255
202 225 255
202 225 255
202 225 255
202 225 255
202 225 255
202 225 255
202 225 255
201 225 255
201 225 255
201 225 255
201 225 255
201 225 255
201 225 255
201 225 255
201 225 255
201 225 255
201 225 255
201 225 255
201 225 255
201 225 255
201 225 255
201 225 255
201 224 255
201 225 255
201 225 255
201 225 255
201 224 255
201 224 255
201 224 255
201 224 255
201 224 255
201 225 255
201 225 255
201 224 255
201 225 255
201 224 255
201 225 255
201 225 255
201 225 255
201 225 255
201 225 255
201 225 255
201 225 255
201 225 255
201 225 255
201 225 255
201 225 255
201 225 255
201 225 255
201 225 255
201 225 255
201 225 255
202 225 255
202 225 255
202 225 255
202 225 255
202 225 255
202 225 255
202 225 255
202 225 255
202 225 255
202 225 255
202 225 255
202 225 255
202 225 255
202 225 255
202 225 255
202 225 255
202 225 255
202 225 255
202 225 255
202 225 255
202 225 255
202 225 255
202 225 255
202 225 255
202 225 255
202 225 255
202 225 255
203 225 255
203 225 255
203 225 255
203 225 255
203 225 255
203 225 255
203 225 255
203 225 255
203 225 255
203 225 255
203 225 255
203 226 255
203 226 255
203 226 255
203 226 255
203 226 255
203 226 255
203 226 255
204 226 255
204 226 255
204 226 255
204 226 255
204 226 255
204 226 255
204 226 255
204 226 255
204 226 255
204 226 255
204 226 255
204 226 255
204 226 255
204 226 255
204 226 255
204 226 255
204 226 255
204 226 255
205 226 255
205 226 255
205 226 255
205 226 255
205 226 255
205 226 255
205 227 255
205 227 255
205 227 255
205 227 255
205 227 255
205 227 255
205 227 255
205 227 255
205 227 255
205 227 255
206 227 255
206 227 255
206 227 255
206 227 255
206 227 255
206 227 255
206 227 255
206 227 255
206 227 255
206 227 255
206 227 255
206 227 255
206 227 255
206 227 255
206 227 255
206 227 255
206 227 255
207 227 255
207 227 255
207 227 255
207 227 255
207 228 255
207 228 255
207 228 255
207 228 255
207 228 255
207 228 255
207 228 255
207 228 255
207 228 255
207 228 255
207 228 255
207 228 255
207 228 255
207 228 255
207 228 255
208 228 255
208 228 255
208 228 255
208 228 255
208 228 255
208 228 255
208 228 255
208 228 255
208 228 255
208 228 255
208 228 255
208 228 255
208 228 255
208 228 255
208 228 255
208 228 255
208 228 255
208 228 255
209 228 255
209 228 255
209 229 255
209 229 255
209 229 255
209 229 255
209 229 255
209 229 255
209 229 255
209 229 255
209 229 255
209 229 255
209 229 255
209 229 255
209 229 255
209 229 255
209 229 255
209 229 255
209 229 255
209 229 255
209 229 255
209 229 255
210 229 255
210 229 255
210 229 255
210 229 255
210 229 255
210 229 255
210 229 255
210 229 255
210 229 255
210 229 255
210 229 255
210 229 255
210 229 255
210 229 255
210 229 255
210 229 255
210 229 255
210 229 255
210 229 255
210 229 255
210 229 255
210 229 255
210 230 255
211 230 255
211 230 255
210 230 255
210 230 255
210 230 255
210 229 255
210 229 255
210 229 255
210 229 255
210 229 255
210 229 255
210 229 255
210 229 255
210 229 255
210 229 255
210 229 255
210 229 255
210 229 255
210 229 255
210 229 255
210 229 255
210 229 255
210 229 255
210 229 255
210 229 255
210 229 255
209 229 255
209 229 255
209 229 255
209 229 255
209 229 255
209 229 255
209 229 255
209 229 255
209 229 255
209 229 255
209 229 255
209 229 255
209 229 255
209 229 255
209 229 255
209 229 255
209 229 255
209 229 255
209 229 255
209 229 255
209 229 255
209 228 255
208 228 255
208 228 255
208 228 255
208 228 255
208 228 255
208 228 255
208 228 255
208 228 255
208 228 255
208 228 255
208 228 255
208 228 255
208 228 255
208 228 255
208 228 255
208 228 255
208 228 255
208 228 255
208 228 255
207 228 255
207 228 255
207 228 255
207 228 255
207 228 255
207 228 255
207 228 255
207 228 255
207 228 255
207 228 255
207 228 255
207 228 255
207 228 255
207 228 255
207 227 255
207 227 255
207 227 255
207 227 255
206 227 255
206 227 255
206 227 255
206 227 255
206 227 255
206 227 255
206 227 255
206 227 255
206 227 255
206 227 255
206 227 255
206 227 255
206 227 255
206 227 255
206 227 255
206 227 255
206 227 255
205 227 255
205 227 255
205 227 255
205 227 255
205 227 255
205 227 255
205 227 255
205 227 255
205 227 255
205 227 255
205 226 255
205 226 255
205 226 255
205 226 255
205 226 255
205 226 255
205 226 255
204 226 255
204 226 255
204 226 255
204 226 255
204 226 255
204 226 255
204 226 255
204 226 255
204 226 255
204 226 255
204 226 255
204 226 255
204 226 255
204 226 255
204 226 255
204 226 255
204 226 255
203 226 255
203 226 255
203 226 255
203 226 255
203 226 255
203 226 255
203 226 255
203 226 255
203 225 255
203 225 255
203 225 255
203 225 255
203 225 255
203 225 255
203 225 255
203 225 255
203 225 255
203 225 255
203 225 255
203 225 255
202 225 255
202 225 255
202 225 255
202 225 255
202 225 255
202 225 255
202 225 255
202 225 255
202 225 255
202 225 255
202 225 255
202 225 255
202 225 255
202 225 255
202 225 255
202 225 255
202 225 255
202 225 255
202 225 255
202 225 255
202 225 255
202 225 255
202 225 255
202 225 255
202 225 255
202 225 255
202 225 255
202 225 255
202 225 255
202 225 255
202 225 255
202 225 255
202 225 255
201 225 255
201 225 255
201 225 255
201 225 255
201 225 255
201 225 255
201 225 255
201 225 255
201 225 255
201 225 255
201 225 255
201 225 255
201 225 255
201 225 255
201 225 255
201 225 255
201 225 255
201 225 255
201 225 255
201 225 255
201 225 255
201 225 255
201 225 255
201 225 255
202 225 255
202 225 255
202 225 255
202 225 255
202 225 255
202 225 255
202 225 255
202 225 255
202 225 255
202 225 255
202 225 255
202 225 255
202 225 255
202 225 255
202 225 255
202 225 255
202 225 255
202 225 255
202 225 255
202 225 255
202 225 255
202 225 255
202 225 255
202 225 255
202 225 255
202 225 255
202 225 255
202 225 255
202 225 255
202 225 255
202 225 255
203 225 255
203 225 255
203 225 255
203 225 255
203 225 255
203 225 255
203 225 255
203 225 255
203 225 255
203 225 255
203 225 255
203 225 255
203 226 255
203 226 255
203 226 255
203 226 255
203 226 255
203 226 255
203 226 255
203 226 255
204 226 255
204 226 255
204 226 255
204 226 255
204 226 255
204 226 255
204 226 255
204 226 255
204 226 255
204 226 255
204 226 255
204 226 255
204 226 255
204 226 255
204 226 255
204 226 255
204 226 255
205 226 255
205 226 255
205 226 255
205 226 255
205 226 255
205 226 255
205 226 255
205 227 255
205 227 255
205 227 255
205 227 255
205 227 255
205 227 255
205 227 255
205 227 255
205 227 255
205 227 255
206 227 255
206 227 255
206 227 255
206 227 255
206 227 255
206 227 255
206 227 255
206 227 255
206 227 255
206 227 255
206 227 255
206 227 255
206 227 255
206 227 255
206 227 255
206 227 255
206 227 255
207 227 255
207 227 255
207 227 255
207 227 255
207 227 255
207 228 255
207 228 255
207 228 255
207 228 255
207 228 255
207 228 255
207 228 255
207 228 255
207 228 255
207 228 255
207 228 255
207 228 255
208 228 255
208 228 255
208 228 255
208 228 255
208 228 255
208 228 255
208 228 255
208 228 255
208 228 255
208 228 255
208 228 255
208 228 255
208 228 255
208 228 255
208 228 255
208 228 255
208 228 255
208 228 255
208 228 255
208 228 255
209 228 255
209 228 255
209 229 255
209 229 255
209 229 255
209 229 255
209 229 255
209 229 255
209 229 255
209 229 255
209 229 255
209 229 255
209 229 255
209 229 255
209 229 255
209 229 255
209 229 255
209 229 255
209 229 255
209 229 255
209 229 255
209 229 255
210 229 255
210 229 255
210 229 255
210 229 255
210 229 255
210 229 255
210 229 255
210 229 255
210 229 255
210 229 255
210 229 255
210 229 255
210 229 255
210 229 255
210 229 255
210 229 255
210 229 255
210 229 255
210 229 255
210 229 255
210 230 255
210 230 255
210 230 255
211 230 255
211 230 255
211 230 255
211 230 255
211 230 255
211 230 255
211 230 255
211 230 255
211 230 255
210 230 255
210 230 255
210 230 255
210 229 255
210 229 255
210 229 255
210 229 255
210 229 255
210 229 255
210 229 255
210 229 255
210 229 255
210 229 255
210 229 255
210 229 255
210 229 255
210 229 255
210 229 255
210 229 255
210 229 255
210 229 255
210 229 255
210 229 255
210 229 255
209 229 255
209 229 255
209 229 255
209 229 255
209 229 255
209 229 255
209 229 255
209 229 255
209 229 255
209 229 255
209 229 255
209 229 255
209 229 255
209 229 255
209 229 255
209 229 255
209 229 255
209 229 255
209 229 255
209 229 255
209 228 255
208 228 255
208 228 255
208 228 255
208 228 255
208 228 255
208 228 255
208 228 255
208 228 255
208 228 255
208 228 255
208 228 255
208 228 255
208 228 255
208 228 255
208 228 255
208 228 255
208 228 255
208 228 255
208 228 255
208 228 255
207 228 255
207 228 255
207 228 255
207 228 255
207 228 255
207 228 255
207 228 255
207 228 255
207 228 255
207 228 255
207 228 255
207 228 255
207 228 255
207 227 255
207 227 255
207 227 255
207 227 255
206 227 255
206 227 255
206 227 255
206 227 255
206 227 255
206 227 255
206 227 255
206 227 255
206 227 255
206 227 255
206 227 255
206 227 255
206 227 255
206 227 255
206 227 255
206 227 255
206 227 255
205 227 255
205 227 255
205 227 255
205 227 255
205 227 255
205 227 255
205 227 255
205 227 255
205 227 255
205 227 255
205 226 255
205 226 255
205 226 255
205 226 255
205 226 255
205 226 255
205 226 255
205 226 255
204 226 255
204 226 255
204 226 255
204 226 255
204 226 255
204 226 255
204 226 255
204 226 255
204 226 255
204 226 255
204 226 255
204 226 255
204 226 255
204 226 255
204 226 255
204 226 255
204 226 255
203 226 255
203 226 255
203 226 255
203 226 255
203 226 255
203 226 255
203 226 255
203 226 255
203 226 255
203 225 255
203 225 255
203 225 255
203 225 255
203 225 255
203 225 255
203 225 255
203 225 255
203 225 255
203 225 255
203 225 255
202 225 255
202 225 255
202 225 255
202 225 255
202 225 255
202 225 255
202 225 255
202 225 255
202 225 255
202 225 255
202 225 255
202 225 255
202 225 255
202 225 255
202 225 255
202 225 255
202 225 255
202 225 255
202 225 255
202 225 255
202 225 255
202 225 255
202 225 255
202 225 255
202 225 255
202 225 255
202 225 255
202 225 255
202 225 255
202 225 255
202 225 255
202 225 255
202 225 255
202 225 255
202 225 255
202 225 255
202 225 255
202 225 255
202 225 255
202 225 255
202 225 255
202 225 255
202 225 255
202 225 255
202 225 255
202 225 255
202 225 255
202 225 255
202 225 255
202 225 255
202 225 255
202 225 255
202 225 255
202 225 255
202 225 255
202 225 255
202 225 255
202 225 255
202 225 255
202 225 255
202 225 255
202 225 255
202 225 255
202 225 255
202 225 255
202 225 255
202 225 255
202 225 255
202 225 255
202 225 255
202 225 255
202 225 255
202 225 255
202 225 255
202 225 255
202 225 255
202 225 255
202 225 255
202 225 255
203 225 255
203 225 255
203 225 255
203 225 255
203 225 255
203 225 255
203 225 255
203 225 255
203 225 255
203 225 255
203 225 255
203 225 255
203 225 255
203 226 255
203 226 255
203 226 255
203 226 255
203 226 255
203 226 255
203 226 255
203 226 255
204 226 255
204 226 255
204 226 255
204 226 255
204 226 255
204 226 255
204 226 255
204 226 255
204 226 255
204 226 255
204 226 255
204 226 255
204 226 255
204 226 255
204 226 255
204 226 255
204 226 255
204 226 255
205 226 255
205 226 255
205 226 255
205 226 255
205 226 255
205 226 255
205 227 255
205 227 255
205 227 255
205 227 255
205 227 255
205 227 255
205 227 255
205 227 255
205 227 255
205 227 255
206 227 255
206 227 255
206 227 255
206 227 255
206 227 255
206 227 255
206 227 255
206 227 255
206 227 255
206 227 255
206 227 255
206 227 255
206 227 255
206 227 255
206 227 255
206 227 255
206 227 255
207 227 255
207 227 255
207 227 255
207 227 255
207 227 255
207 228 255
207 228 255
207 228 255
207 228 255
207 228 255
207 228 255
207 228 255
207 228 255
207 228 255
207 228 255
207 228 255
207 228 255
207 228 255
208 228 255
208 228 255
208 228 255
208 228 255
208 228 255
208 228 255
208 228 255
208 228 255
208 228 255
208 228 255
208 228 255
208 228 255
208 228 255
208 228 255
208 228 255
208 228 255
208 228 255
208 228 255
208 228 255
209 228 255
209 228 255
209 229 255
209 229 255
209 229 255
209 229 255
209 229 255
209 229 255
209 229 255
209 229 255
209 229 255
209 229 255
209 229 255
209 229 255
209 229 255
209 229 255
209 229 255
209 229 255
209 229 255
209 229 255
209 229 255
209 229 255
210 229 255
210 229 255
210 229 255
210 229 255
210 229 255
210 229 255
210 229 255
210 229 255
210 229 255
210 229 255
210 229 255
210 229 255
210 229 255
210 229 255
210 229 255
210 229 255
210 229 255
210 229 255
210 229 255
210 229 255
210 230 255
210 230 255
210 230 255
210 230 255
211 230 255
211 230 255
211 230 255
211 230 255
211 230 255
211 230 255
211 230 255
211 230 255
211 230 255
211 230 255
211 230 255
211 230 255
211 230 255
211 230 255
211 230 255
211 230 255
210 230 255
210 230 255
210 229 255
210 229 255
210 229 255
210 229 255
210 229 255
210 229 255
210 229 255
210 229 255
210 229 255
210 229 255
210 229 255
210 229 255
210 229 255
210 229 255
210 229 255
210 229 255
210 229 255
210 229 255
210 229 255
210 229 255
210 229 255
210 229 255
209 229 255
209 229 255
209 229 255
209 229 255
209 229 255
201 221 248
200 220 248
206 225 250
196 216 234
196 216 242
196 217 245
207 226 253
193 213 240
196 217 245
193 214 242
185 207 237
192 214 242
191 213 242
197 218 245
192 213 242
191 212 240
196 217 245
201 222 250
207 226 253
208 228 255
208 228 255
200 220 240
208 228 255
208 228 255
208 228 255
208 228 255
208 228 255
208 228 255
208 228 255
208 228 255
208 228 255
208 228 255
208 228 255
208 228 255
208 228 255
207 228 255
207 228 255
207 228 255
207 228 255
207 228 255
207 228 255
207 228 255
207 228 255
207 228 255
207 228 255
207 228 255
207 228 255
207 228 255
207 228 255
207 227 255
207 227 255
207 227 255
207 227 255
206 227 255
206 227 255
206 227 255
206 227 255
206 227 255
206 227 255
206 227 255
206 227 255
206 227 255
206 227 255
206 227 255
206 227 255
206 227 255
206 227 255
206 227 255
206 227 255
206 227 255
205 227 255
205 227 255
205 227 255
205 227 255
205 227 255
205 227 255
205 227 255
205 227 255
205 227 255
205 227 255
205 226 255
205 226 255
205 226 255
205 226 255
205 226 255
205 226 255
205 226 255
205 226 255
204 226 255
204 226 255
204 226 255
204 226 255
204 226 255
204 226 255
204 226 255
204 226 255
204 226 255
204 226 255
204 226 255
204 226 255
204 226 255
204 226 255
204 226 255
204 226 255
204 226 255
204 226 255
203 226 255
203 226 255
203 226 255
203 226 255
203 226 255
203 226 255
203 226 255
203 226 255
203 225 255
203 225 255
203 225 255
203 225 255
203 225 255
203 225 255
203 225 255
203 225 255
203 225 255
203 225 255
203 225 255
203 225 255
203 225 255
203 225 255
202 225 255
202 225 255
202 225 255
202 225 255
202 225 255
202 225 255
202 225 255
202 225 255
202 225 255
202 225 255
202 225 255
202 225 255
202 225 255
202 225 255
202 225 255
202 225 255
202 225 255
202 225 255
202 225 255
202 225 255
202 225 255
202 225 255
202 225 255
202 225 255
202 225 255
202 225 255
202 225 255
202 225 255
202 225 255
202 225 255
202 225 255
202 225 255
202 225 255
202 225 255
202 225 255
202 225 255
202 225 255
202 225 255
202 225 255
202 225 255
202 225 255
202 225 255
202 225 255
202 225 255
202 225 255
202 225 255
202 225 255
202 225 255
202 225 255
202 225 255
202 225 255
202 225 255
202 225 255
202 225 255
202 225 255
202 225 255
202 225 255
202 225 255
202 225 255
202 225 255
202 225 255
202 225 255
202 225 255
202 225 255
202 225 255
202 225 255
203 225 255
203 225 255
203 225 255
203 225 255
203 225 255
203 225 255
203 225 255
203 225 255
203 225 255
203 225 255
203 225 255
203 225 255
203 225 255
203 226 255
203 226 255
203 226 255
203 226 255
203 226 255
203 226 255
203 226 255
203 226 255
203 226 255
204 226 255
204 226 255
204 226 255
204 226 255
204 226 255
204 226 255
204 226 255
204 226 255
204 226 255
204 226 255
204 226 255
204 226 255
204 226 255
204 226 255
204 226 255
204 226 255
204 226 255
204 226 255
204 226 255
205 226 255
205 226 255
205 226 255
205 226 255
205 226 255
205 226 255
205 226 255
205 227 255
205 227 255
205 227 255
205 227 255
205 227 255
205 227 255
205 227 255
205 227 255
205 227 255
206 227 255
206 227 255
206 227 255
206 227 255
206 227 255
206 227 255
206 227 255
206 227 255
206 227 255
206 227 255
206 227 255
206 227 255
206 227 255
206 227 255
206 227 255
206 227 255
206 227 255
206 227 255
207 227 255
207 227 255
207 227 255
207 227 255
207 228 255
207 228 255
207 228 255
207 228 255
207 228 255
207 228 255
207 228 255
207 228 255
207 228 255
207 228 255
207 228 255
207 228 255
207 228 255
207 228 255
208 228 255
208 228 255
208 228 255
208 228 255
208 228 255
208 228 255
208 228 255
208 228 255
208 228 255
208 228 255
208 228 255
208 228 255
208 228 255
208 228 255
201 214 223
203 219 234
195 207 211
193 206 211
206 224 245
199 213 223
187 191 169
190 200 194
203 215 223
187 186 153
196 208 211
188 196 184
200 209 211
193 202 198
198 209 211
197 208 211
199 213 223
200 213 223
200 214 223
205 222 242
209 229 255
209 229 255
209 229 255
209 229 255
209 229 255
209 229 255
210 229 255
210 229 255
210 229 255
210 229 255
210 229 255
210 229 255
210 229 255
210 229 255
210 229 255
210 229 255
210 229 255
210 229 255
210 229 255
210 229 255
210 229 255
210 229 255
210 229 255
210 229 255
210 229 255
210 229 255
210 229 255
210 230 255
210 230 255
211 230 255
211 230 255
211 230 255
211 230 255
211 230 255
211 230 255
211 230 255
211 230 255
211 230 255
211 230 255
211 230 255
211 230 255
211 230 255
211 230 255
211 230 255
211 230 255
211 230 255
211 230 255
211 230 255
211 230 255
211 230 255
211 230 255
211 230 255
211 230 255
211 230 255
210 230 255
210 230 255
210 230 255
210 229 255
210 229 255
210 229 255
210 229 255
210 229 255
210 229 255
210 229 255
210 229 255
210 229 255
210 229 255
210 229 255
210 229 255
210 229 255
206 225 242
197 218 245
195 214 240
180 200 207
178 199 198
183 206 237
177 199 228
182 203 231
177 199 228
172 197 228
178 200 228
174 197 217
178 198 217
169 194 217
171 193 191
172 196 217
182 201 217
169 194 217
177 199 228
181 200 217
183 202 217
178 198 204
176 198 217
171 196 228
170 194 217
172 196 228
183 201 217
173 197 228
171 196 228
174 197 217
179 200 228
184 204 231
182 202 228
190 211 240
179 200 228
188 210 240
194 215 242
197 218 248
199 220 248
204 224 250
208 228 255
208 228 255
208 228 255
208 228 255
208 228 255
208 228 255
208 228 255
208 228 255
207 228 255
207 228 255
207 228 255
207 228 255
207 228 255
207 228 255
207 228 255
207 228 255
207 228 255
207 228 255
207 228 255
207 228 255
207 228 255
207 227 255
207 227 255
207 227 255
207 227 255
207 227 255
206 227 255
206 227 255
206 227 255
206 227 255
206 227 255
206 227 255
206 227 255
206 227 255
206 227 255
206 227 255
206 227 255
206 227 255
206 227 255
206 227 255
206 227 255
206 227 255
206 227 255
205 227 255
205 227 255
205 227 255
205 227 255
205 227 255
205 227 255
205 227 255
205 227 255
205 227 255
205 227 255
205 226 255
205 226 255
205 226 255
205 226 255
205 226 255
205 226 255
205 226 255
205 226 255
204 226 255
204 226 255
204 226 255
204 226 255
204 226 255
204 226 255
204 226 255
204 226 255
204 226 255
204 226 255
204 226 255
204 226 255
204 226 255
204 226 255
204 226 255
204 226 255
204 226 255
204 226 255
203 226 255
203 226 255
203 226 255
203 226 255
203 226 255
203 226 255
203 226 255
203 226 255
203 226 255
203 226 255
203 225 255
203 225 255
203 225 255
203 225 255
203 225 255
203 225 255
203 225 255
203 225 255
203 225 255
203 225 255
203 225 255
203 225 255
203 225 255
203 225 255
202 225 255
202 225 255
202 225 255
202 225 255
202 225 255
202 225 255
202 225 255
202 225 255
202 225 255
202 225 255
202 225 255
202 225 255
202 225 255
202 225 255
202 225 255
202 225 255
202 225 255
202 225 255
202 225 255
202 225 255
202 225 255
202 225 255
202 225 255
202 225 255
202 225 255
202 225 255
202 225 255
202 225 255
202 225 255
202 225 255
202 225 255
202 225 255
202 225 255
202 225 255
202 225 255
202 225 255
202 225 255
202 225 255
202 225 255
202 225 255
202 225 255
202 225 255
202 225 255
202 225 255
202 225 255
202 225 255
202 225 255
202 225 255
202 225 255
202 225 255
202 225 255
202 225 255
202 225 255
203 225 255
203 225 255
203 225 255
203 225 255
203 225 255
203 225 255
203 225 255
203 225 255
203 225 255
203 225 255
203 225 255
203 225 255
203 225 255
203 225 255
203 225 255
203 226 255
203 226 255
203 226 255
203 226 255
203 226 255
203 226 255
203 226 255
203 226 255
203 226 255
203 226 255
204 226 255
204 226 255
204 226 255
204 226 255
204 226 255
204 226 255
204 226 255
204 226 255
204 226 255
204 226 255
204 226 255
204 226 255
204 226 255
204 226 255
204 226 255
204 226 255
204 226 255
204 226 255
204 226 255
205 226 255
205 226 255
205 226 255
205 226 255
205 226 255
205 226 255
205 226 255
205 226 255
205 227 255
205 227 255
205 227 255
205 227 255
205 227 255
205 227 255
205 227 255
205 227 255
205 227 255
206 227 255
206 227 255
206 227 255
206 227 255
206 227 255
206 227 255
206 227 255
206 227 255
206 227 255
206 227 255
206 227 255
206 227 255
206 227 255
206 227 255
206 227 255
206 227 255
206 227 255
207 227 255
207 227 255
207 227 255
207 227 255
207 227 255
207 228 255
207 228 255
207 228 255
207 228 255
207 228 255
207 228 255
207 228 255
207 228 255
207 228 255
207 228 255
207 228 255
207 228 255
207 228 255
208 228 255
208 228 255
208 228 255
208 228 255
208 228 255
208 228 255
208 228 255
208 228 255
200 213 223
202 218 234
194 203 198
197 212 223
198 208 211
185 185 149
179 182 152
181 184 153
180 174 114
176 172 114
167 168 114
173 171 114
173 170 114
176 172 114
178 173 114
177 172 114
179 173 114
177 172 108
176 171 108
182 175 114
178 172 108
181 174 114
177 172 114
183 175 114
171 168 102
178 173 114
178 173 114
173 171 114
171 170 114
179 174 114
172 170 114
175 171 114
175 170 108
174 170 108
191 193 169
189 187 153
191 193 169
190 200 194
194 203 198
202 215 223
210 229 255
210 229 255
210 229 255
210 229 255
210 229 255
210 229 255
210 229 255
210 229 255
210 229 255
210 229 255
210 229 255
210 229 255
210 229 255
210 230 255
210 230 255
211 230 255
211 230 255
211 230 255
211 230 255
211 230 255
211 230 255
211 230 255
211 230 255
211 230 255
211 230 255
211 230 255
211 230 255
211 230 255
211 230 255
211 230 255
211 230 255
211 230 255
211 230 255
211 230 255
211 230 255
211 230 255
211 230 255
211 230 255
211 230 255
211 230 255
211 230 255
211 230 255
211 230 255
211 230 255
211 230 255
211 230 255
211 230 255
211 230 255
210 230 255
210 230 255
210 230 255
210 229 255
210 229 255
210 229 255
203 223 250
200 220 248
183 205 226
184 206 234
182 201 207
172 196 217
178 200 228
171 194 204
177 199 228
177 198 217
180 201 228
176 197 204
173 194 191
176 199 228
173 197 228
179 199 217
170 195 228
171 195 217
173 197 228
176 197 217
179 199 217
175 197 217
175 197 217
180 201 228
170 193 204
176 197 217
175 197 217
177 199 228
172 195 217
177 199 228
177 199 228
182 202 228
171 194 204
179 199 217
166 193 217
174 196 204
178 200 228
172 194 204
176 198 217
183 202 228
187 205 228
176 198 228
174 197 228
182 202 228
172 193 219
175 197 217
177 199 228
180 202 231
199 218 245
192 215 245
187 207 234
192 212 240
204 225 253
208 228 255
208 228 255
208 228 255
208 228 255
207 228 255
207 228 255
207 228 255
207 228 255
207 228 255
207 228 255
207 228 255
207 228 255
207 228 255
207 228 255
207 228 255
207 228 255
207 228 255
207 228 255
207 227 255
207 227 255
207 227 255
207 227 255
206 227 255
206 227 255
206 227 255
206 227 255
206 227 255
206 227 255
206 227 255
206 227 255
206 227 255
206 227 255
206 227 255
206 227 255
206 227 255
206 227 255
206 227 255
206 227 255
206 227 255
205 227 255
205 227 255
205 227 255
205 227 255
205 227 255
205 227 255
205 227 255
205 227 255
205 227 255
205 227 255
205 226 255
205 226 255
205 226 255
205 226 255
205 226 255
205 226 255
205 226 255
205 226 255
204 226 255
204 226 255
204 226 255
204 226 255
204 226 255
204 226 255
204 226 255
204 226 255
204 226 255
204 226 255
204 226 255
204 226 255
204 226 255
204 226 255
204 226 255
204 226 255
204 226 255
204 226 255
204 226 255
204 226 255
203 226 255
203 226 255
203 226 255
203 226 255
203 226 255
203 226 255
203 226 255
203 226 255
203 226 255
203 226 255
203 225 255
203 225 255
203 225 255
203 225 255
203 225 255
203 225 255
203 225 255
203 225 255
203 225 255
203 225 255
203 225 255
203 225 255
203 225 255
203 225 255
203 225 255
203 225 255
203 225 255
203 225 255
203 225 255
202 225 255
203 225 255
202 225 255
202 225 255
202 225 255
202 225 255
202 225 255
202 225 255
202 225 255
202 225 255
202 225 255
202 225 255
202 225 255
202 225 255
202 225 255
202 225 255
202 225 255
202 225 255
202 225 255
202 225 255
202 225 255
202 225 255
202 225 255
202 225 255
202 225 255
202 225 255
202 225 255
202 225 255
202 225 255
202 225 255
202 225 255
202 225 255
202 225 255
202 225 255
203 225 255
203 225 255
203 225 255
203 225 255
203 225 255
203 225 255
203 225 255
203 225 255
203 225 255
203 225 255
203 225 255
203 225 255
203 225 255
203 225 255
203 225 255
203 225 255
203 225 255
203 225 255
203 225 255
203 226 255
203 226 255
203 226 255
203 226 255
203 226 255
203 226 255
203 226 255
203 226 255
203 226 255
203 226 255
204 226 255
204 226 255
204 226 255
204 226 255
204 226 255
204 226 255
204 226 255
204 226 255
204 226 255
204 226 255
204 226 255
204 226 255
204 226 255
204 226 255
204 226 255
204 226 255
204 226 255
204 226 255
204 226 255
205 226 255
205 226 255
205 226 255
205 226 255
205 226 255
205 226 255
205 226 255
205 226 255
205 226 255
205 227 255
205 227 255
205 227 255
205 227 255
205 227 255
205 227 255
205 227 255
205 227 255
205 227 255
205 227 255
206 227 255
206 227 255
206 227 255
206 227 255
206 227 255
206 227 255
206 227 255
206 227 255
206 227 255
206 227 255
206 227 255
206 227 255
206 227 255
206 227 255
206 227 255
206 227 255
206 227 255
207 227 255
207 227 255
207 227 255
207 227 255
207 228 255
207 228 255
207 228 255
207 228 255
207 228 255
207 228 255
207 228 255
207 228 255
207 228 255
207 228 255
207 228 255
207 228 255
207 228 255
207 228 255
208 228 255
208 228 255
208 228 255
208 228 255
202 218 234
204 223 245
196 208 211
189 192 169
193 198 184
185 190 169
174 171 114
176 172 114
175 171 114
173 171 114
175 170 108
176 172 114
176 171 108
169 168 113
175 171 108
171 169 108
170 169 108
172 170 114
176 170 102
174 171 114
176 171 108
179 173 114
179 173 114
171 170 114
180 173 108
182 175 114
174 171 114
176 170 102
184 175 108
168 168 114
173 169 102
179 173 114
177 172 114
174 170 108
180 173 108
177 171 108
174 167 108
179 173 114
181 174 114
175 172 114
173 171 114
182 175 114
180 174 114
184 176 114
175 171 108
177 173 114
175 171 108
178 173 114
174 169 102
185 186 153
185 192 173
197 207 207
202 218 231
210 229 255
210 229 255
210 229 255
210 230 255
210 230 255
210 230 255
211 230 255
211 230 255
211 230 255
211 230 255
211 230 255
211 230 255
211 230 255
211 230 255
211 230 255
211 230 255
211 230 255
211 230 255
211 230 255
211 230 255
211 230 255
211 230 255
211 230 255
211 230 255
211 230 255
211 230 255
211 230 255
211 230 255
211 230 255
211 230 255
211 230 255
211 230 255
211 230 255
211 230 255
211 230 255
211 230 255
211 230 255
211 230 255
211 230 255
211 230 255
211 230 255
211 230 255
197 218 245
193 214 234
185 206 234
183 201 207
180 201 220
178 199 217
178 200 228
179 199 217
184 203 228
176 197 204
183 201 217
181 202 228
182 202 228
181 201 228
174 195 204
169 193 204
182 202 228
175 197 217
183 200 204
178 199 217
170 193 204
184 203 228
173 197 228
176 197 217
177 199 228
180 201 228
179 200 228
180 199 217
171 196 228
186 203 217
180 201 228
173 196 217
170 192 217
172 195 217
179 201 228
171 195 217
171 195 217
177 199 228
179 199 217
184 203 228
171 195 217
171 195 217
177 199 228
178 200 228
178 200 228
178 200 228
179 200 228
172 196 217
174 197 217
182 202 228
174 197 217
180 201 228
175 198 228
176 199 228
177 199 228
176 198 217
176 199 228
178 200 228
174 198 228
185 205 231
183 205 234
202 222 250
204 225 253
208 228 255
208 228 255
208 228 255
208 228 255
207 228 255
207 228 255
207 228 255
207 228 255
207 228 255
207 228 255
207 228 255
207 228 255
207 228 255
207 228 255
207 228 255
207 228 255
207 228 255
207 228 255
207 227 255
207 227 255
207 227 255
207 227 255
206 227 255
206 227 255
206 227 255
206 227 255
206 227 255
206 227 255
206 227 255
206 227 255
206 227 255
206 227 255
206 227 255
206 227 255
206 227 255
206 227 255
206 227 255
206 227 255
206 227 255
205 227 255
205 227 255
205 227 255
205 227 255
205 227 255
205 227 255
205 227 255
205 227 255
205 227 255
205 227 255
205 227 255
205 226 255
205 226 255
205 226 255
205 226 255
205 226 255
205 226 255
205 226 255
204 226 255
204 226 255
204 226 255
204 226 255
204 226 255
204 226 255
204 226 255
204 226 255
204 226 255
204 226 255
204 226 255
204 226 255
204 226 255
204 226 255
204 226 255
204 226 255
204 226 255
204 226 255
204 226 255
204 226 255
204 226 255
204 226 255
203 226 255
203 226 255
203 226 255
203 226 255
203 226 255
203 226 255
203 226 255
203 226 255
203 226 255
203 226 255
203 226 255
203 226 255
203 225 255
203 225 255
203 225 255
203 225 255
203 225 255
203 225 255
203 225 255
203 225 255
203 225 255
203 225 255
203 225 255
203 225 255
203 225 255
203 225 255
203 225 255
203 225 255
203 225 255
203 225 255
203 225 255
203 225 255
203 225 255
203 225 255
203 225 255
203 225 255
203 225 255
203 225 255
203 225 255
203 225 255
203 225 255
203 225 255
203 225 255
203 225 255
203 225 255
203 225 255
203 225 255
203 225 255
203 225 255
203 225 255
203 225 255
203 225 255
203 225 255
203 225 255
203 225 255
203 225 255
203 225 255
203 225 255
203 225 255
203 225 255
203 225 255
203 225 255
203 225 255
203 225 255
203 225 255
203 225 255
203 225 255
203 225 255
203 225 255
203 226 255
203 226 255
203 226 255
203 226 255
203 226 255
203 226 255
203 226 255
203 226 255
203 226 255
203 226 255
203 226 255
204 226 255
204 226 255
204 226 255
204 226 255
204 226 255
204 226 255
204 226 255
204 226 255
204 226 255
204 226 255
204 226 255
204 226 255
204 226 255
204 226 255
204 226 255
204 226 255
204 226 255
204 226 255
204 226 255
204 226 255
204 226 255
204 226 255
205 226 255
205 226 255
205 226 255
205 226 255
205 226 255
205 226 255
205 226 255
205 227 255
205 227 255
205 227 255
205 227 255
205 227 255
205 227 255
205 227 255
205 227 255
205 227 255
205 227 255
206 227 255
206 227 255
206 227 255
206 227 255
206 227 255
206 227 255
206 227 255
206 227 255
206 227 255
206 227 255
206 227 255
206 227 255
206 227 255
206 227 255
206 227 255
206 227 255
206 227 255
206 227 255
206 227 255
207 227 255
207 227 255
207 227 255
207 227 255
207 228 255
207 228 255
207 228 255
207 228 255
207 228 255
207 228 255
207 228 255
207 228 255
207 228 255
207 228 255
207 228 255
207 228 255
207 228 255
208 228 255
208 228 255
208 228 255
204 223 245
201 218 234
198 213 223
182 184 149
175 170 108
177 172 108
180 173 108
170 167 102
182 175 114
178 173 114
178 173 114
175 171 114
175 171 108
180 174 114
177 172 114
181 175 114
177 172 108
169 168 108
175 171 108
179 172 102
173 171 114
174 170 108
176 172 114
172 169 108
175 172 114
178 173 114
173 170 108
183 175 114
172 169 108
178 173 114
178 172 108
173 170 108
175 171 114
174 171 114
183 175 114
177 173 114
181 173 108
177 172 108
178 172 108
169 164 102
179 173 114
168 166 102
184 176 114
170 167 95
167 167 108
175 170 102
179 172 108
177 172 108
177 172 114
178 172 108
177 172 108
180 173 108
177 173 114
173 169 102
177 172 114
177 171 108
179 173 108
176 172 114
183 175 114
179 178 135
187 191 169
196 204 198
199 209 211
211 230 255
211 230 255
211 230 255
211 230 255
211 230 255
211 230 255
211 230 255
211 230 255
211 230 255
211 230 255
211 230 255
211 230 255
211 230 255
211 230 255
211 230 255
211 230 255
211 230 255
211 230 255
211 230 255
211 230 255
211 230 255
211 230 255
211 230 255
211 230 255
211 230 255
211 230 255
211 230 255
211 230 255
211 230 255
211 230 255
211 230 255
211 230 255
211 230 255
209 227 253
203 223 250
189 210 237
185 204 220
175 196 204
182 202 228
183 202 228
186 203 217
175 197 217
176 197 217
174 198 228
179 199 217
178 199 217
177 198 217
181 201 228
185 204 228
175 196 204
181 200 217
179 200 228
179 200 228
174 198 228
176 195 191
185 203 228
180 201 228
182 202 228
176 197 204
181 200 217
169 194 217
182 201 217
171 194 204
172 195 217
176 198 217
182 202 228
176 197 217
177 197 204
177 199 228
174 196 204
178 198 204
176 197 217
178 197 204
172 196 217
184 202 217
179 200 228
167 190 177
169 193 204
176 199 228
183 202 228
173 197 228
173 197 228
175 196 204
175 198 228
176 199 228
177 199 228
177 198 217
181 202 228
177 198 217
177 199 228
179 200 228
171 195 217
177 198 217
180 201 228
179 200 228
184 203 228
178 200 228
175 198 228
179 200 228
178 200 228
171 196 228
178 199 228
186 209 240
200 222 250
208 228 255
208 228 255
208 228 255
207 228 255
207 228 255
207 228 255
207 228 255
207 228 255
207 228 255
207 228 255
207 228 255
207 228 255
207 228 255
207 228 255
207 228 255
207 228 255
207 228 255
207 227 255
207 227 255
207 227 255
207 227 255
207 227 255
206 227 255
206 227 255
206 227 255
206 227 255
206 227 255
206 227 255
206 227 255
206 227 255
206 227 255
206 227 255
206 227 255
206 227 255
206 227 255
206 227 255
206 227 255
206 227 255
206 227 255
205 227 255
205 227 255
205 227 255
205 227 255
205 227 255
205 227 255
205 227 255
205 227 255
205 227 255
205 227 255
205 227 255
205 226 255
205 226 255
205 226 255
205 226 255
205 226 255
205 226 255
205 226 255
205 226 255
204 226 255
204 226 255
204 226 255
204 226 255
204 226 255
204 226 255
204 226 255
204 226 255
204 226 255
204 226 255
204 226 255
204 226 255
204 226 255
204 226 255
204 226 255
204 226 255
204 226 255
204 226 255
204 226 255
204 226 255
204 226 255
203 226 255
203 226 255
203 226 255
203 226 255
203 226 255
203 226 255
203 226 255
203 226 255
203 226 255
203 226 255
203 226 255
203 226 255
203 226 255
203 226 255
203 226 255
203 225 255
203 226 255
203 225 255
203 225 255
203 225 255
203 225 255
203 225 255
203 225 255
203 225 255
203 225 255
203 225 255
203 225 255
203 225 255
203 225 255
203 225 255
203 225 255
203 225 255
203 225 255
203 225 255
203 225 255
203 225 255
203 225 255
203 225 255
203 225 255
203 225 255
203 225 255
203 225 255
203 225 255
203 225 255
203 225 255
203 225 255
203 225 255
203 225 255
203 225 255
203 225 255
203 225 255
203 225 255
203 225 255
203 225 255
203 225 255
203 225 255
203 225 255
203 226 255
203 226 255
203 226 255
203 226 255
203 226 255
203 226 255
203 226 255
203 226 255
203 226 255
203 226 255
203 226 255
203 226 255
203 226 255
203 226 255
204 226 255
204 226 255
204 226 255
204 226 255
204 226 255
204 226 255
204 226 255
204 226 255
204 226 255
204 226 255
204 226 255
204 226 255
204 226 255
204 226 255
204 226 255
204 226 255
204 226 255
204 226 255
204 226 255
204 226 255
204 226 255
204 226 255
204 226 255
205 226 255
205 226 255
205 226 255
205 226 255
205 226 255
205 226 255
205 226 255
205 227 255
205 227 255
205 227 255
205 227 255
205 227 255
205 227 255
205 227 255
205 227 255
205 227 255
205 227 255
205 227 255
206 227 255
206 227 255
206 227 255
206 227 255
206 227 255
206 227 255
206 227 255
206 227 255
206 227 255
206 227 255
206 227 255
206 227 255
206 227 255
206 227 255
206 227 255
206 227 255
206 227 255
206 227 255
207 227 255
207 227 255
207 227 255
207 227 255
207 228 255
207 228 255
207 228 255
207 228 255
207 228 255
207 228 255
207 228 255
207 228 255
207 228 255
207 228 255
207 228 255
207 228 255
207 228 255
207 228 255
208 228 255
208 228 255
208 228 255
198 208 211
189 196 184
176 172 114
179 173 114
177 173 114
173 171 114
173 170 108
176 172 114
174 171 114
175 172 114
179 172 108
178 172 108
176 172 114
172 170 114
176 171 108
174 171 114
178 172 108
173 169 102
174 169 102
172 168 102
177 171 108
176 170 102
179 172 108
175 171 108
178 172 108
178 172 113
173 171 114
177 173 114
179 173 108
179 172 108
177 173 114
169 168 108
180 174 114
171 168 102
176 172 114
173 169 108
174 169 102
172 169 108
175 170 102
177 171 108
175 170 102
175 171 108
184 176 114
176 171 108
177 172 114
180 174 114
178 173 114
178 172 108
170 167 102
174 170 108
170 168 108
172 169 108
183 175 114
176 171 108
176 172 114
178 173 114
181 172 102
172 169 108
182 174 108
174 169 102
175 171 108
174 170 108
169 167 102
171 168 102
181 174 114
178 173 114
181 174 114
185 176 114
174 174 125
202 210 211
209 225 245
211 230 255
211 230 255
211 230 255
211 230 255
211 230 255
211 230 255
211 230 255
211 230 255
211 230 255
211 230 255
211 230 255
211 230 255
211 230 255
211 230 255
212 230 255
212 230 255
212 230 255
212 230 255
211 230 255
211 230 255
211 230 255
211 230 255
211 230 255
211 230 255
208 227 253
203 222 248
204 222 248
181 202 231
174 196 217
176 198 217
180 200 217
175 196 204
176 198 217
175 197 217
178 197 204
175 198 228
180 199 217
175 196 204
176 198 217
178 198 204
180 199 204
182 201 217
176 199 228
173 196 217
180 200 217
171 196 228
182 202 228
176 198 217
175 196 204
177 198 217
172 194 191
179 199 217
174 198 228
180 200 217
174 196 217
175 197 217
173 195 204
166 191 204
179 199 217
174 195 204
177 198 217
180 200 217
185 203 228
176 196 204
175 197 217
173 194 191
171 195 217
180 199 204
182 202 228
175 197 217
172 197 228
180 199 217
172 194 204
177 198 217
179 199 217
181 200 217
180 201 228
177 199 228
173 195 204
180 201 228
175 198 228
178 199 217
176 199 228
185 203 228
177 197 204
174 198 228
171 196 228
169 195 228
177 199 228
175 193 204
173 193 223
179 200 228
178 200 228
177 196 219
174 197 217
171 195 217
173 196 217
174 196 217
170 195 217
169 194 217
184 204 231
183 206 237
195 216 245
208 228 255
208 228 255
208 228 255
208 228 255
207 228 255
207 228 255
207 228 255
207 228 255
207 228 255
207 228 255
207 228 255
207 228 255
207 228 255
207 228 255
207 228 255
207 228 255
207 228 255
207 227 255
207 227 255
207 227 255
207 227 255
206 227 255
206 227 255
206 227 255
206 227 255
206 227 255
206 227 255
206 227 255
206 227 255
206 227 255
206 227 255
206 227 255
206 227 255
206 227 255
206 227 255
206 227 255
206 227 255
206 227 255
206 227 255
205 227 255
205 227 255
205 227 255
205 227 255
205 227 255
205 227 255
205 227 255
205 227 255
205 227 255
205 227 255
205 227 255
205 226 255
205 226 255
205 226 255
205 226 255
205 226 255
205 226 255
205 226 255
205 226 255
205 226 255
204 226 255
204 226 255
204 226 255
204 226 255
204 226 255
204 226 255
204 226 255
204 226 255
204 226 255
204 226 255
204 226 255
204 226 255
204 226 255
204 226 255
204 226 255
204 226 255
204 226 255
204 226 255
204 226 255
204 226 255
204 226 255
204 226 255
204 226 255
204 226 255
204 226 255
203 226 255
203 226 255
203 226 255
203 226 255
203 226 255
203 226 255
203 226 255
203 226 255
203 226 255
203 226 255
203 226 255
203 226 255
203 226 255
203 226 255
203 226 255
203 226 255
203 226 255
203 226 255
203 226 255
203 226 255
203 226 255
203 226 255
203 226 255
203 225 255
203 225 255
203 226 255
203 226 255
203 226 255
203 226 255
203 225 255
203 226 255
203 226 255
203 226 255
203 226 255
203 226 255
203 226 255
203 225 255
203 226 255
203 226 255
203 226 255
203 226 255
203 226 255
203 226 255
203 226 255
203 226 255
203 226 255
203 226 255
203 226 255
203 226 255
203 226 255
203 226 255
203 226 255
203 226 255
203 226 255
204 226 255
204 226 255
204 226 255
204 226 255
204 226 255
204 226 255
204 226 255
204 226 255
204 226 255
204 226 255
204 226 255
204 226 255
204 226 255
204 226 255
204 226 255
204 226 255
204 226 255
204 226 255
204 226 255
204 226 255
204 226 255
204 226 255
204 226 255
204 226 255
204 226 255
205 226 255
205 226 255
205 226 255
205 226 255
205 226 255
205 226 255
205 226 255
205 226 255
205 226 255
205 227 255
205 227 255
205 227 255
205 227 255
205 227 255
205 227 255
205 227 255
205 227 255
205 227 255
205 227 255
205 227 255
206 227 255
206 227 255
206 227 255
206 227 255
206 227 255
206 227 255
206 227 255
206 227 255
206 227 255
206 227 255
206 227 255
206 227 255
206 227 255
206 227 255
206 227 255
206 227 255
206 227 255
206 227 255
207 227 255
207 227 255
207 227 255
207 227 255
207 228 255
207 228 255
207 228 255
207 228 255
207 228 255
207 228 255
207 228 255
207 228 255
207 228 255
207 228 255
207 228 255
207 228 255
207 228 255
207 228 255
208 228 255
208 228 255
206 223 245
194 207 211
190 192 169
179 183 153
176 172 114
175 171 108
174 169 102
170 164 103
183 175 114
176 172 114
179 173 114
176 172 114
167 167 108
171 170 114
171 169 108
173 171 114
181 174 114
178 173 114
175 170 102
177 172 113
174 170 108
180 174 114
175 172 114
167 167 108
178 173 114
176 171 108
166 163 104
183 175 114
178 171 102
180 173 108
184 176 114
175 172 114
180 173 108
177 171 102
179 171 102
175 170 108
175 171 114
176 170 102
174 170 108
178 172 108
172 168 102
179 173 114
182 174 108
177 171 108
176 172 114
175 171 108
175 170 102
173 170 108
172 170 114
179 173 108
174 170 108
173 170 108
173 170 108
166 165 102
174 170 108
175 172 114
176 170 102
171 168 102
170 167 102
174 170 108
178 173 114
171 167 95
182 175 114
172 166 88
175 171 108
182 174 108
178 171 102
180 174 114
172 168 102
180 173 108
176 172 114
175 168 88
172 168 102
179 173 108
178 173 114
169 167 102
180 174 114
185 185 149
202 215 223
211 230 255
211 230 255
211 230 255
211 230 255
211 230 255
211 230 255
211 230 255
212 230 255
212 230 255
212 230 255
212 230 255
212 230 255
212 230 255
212 230 255
212 230 255
212 230 255
212 230 255
212 230 255
202 221 248
181 201 220
181 201 220
179 199 217
176 198 217
177 199 228
175 196 204
176 197 204
176 199 228
181 200 217
181 201 228
181 201 228
180 199 204
178 197 191
179 198 204
177 197 204
177 198 217
177 199 228
176 196 204
177 197 204
173 196 217
176 196 204
174 196 204
175 198 228
181 201 228
172 194 204
174 195 204
174 194 191
179 200 228
175 196 204
177 198 217
182 202 228
179 200 228
179 200 228
170 192 217
178 199 217
172 195 204
170 191 204
176 197 204
182 202 228
173 193 217
176 196 204
172 195 217
175 197 217
175 196 204
179 200 228
172 192 207
178 200 228
175 198 228
173 195 204
177 199 228
182 202 228
179 200 228
177 199 228
171 195 217
178 199 228
169 193 204
174 197 228
174 196 217
171 192 207
172 196 228
175 198 228
184 202 217
173 197 228
177 199 228
169 191 223
178 199 217
183 203 228
177 198 217
177 198 217
173 193 207
174 197 228
180 201 228
173 197 228
180 201 228
180 200 217
177 198 217
180 201 228
173 196 217
173 197 228
184 203 228
179 200 228
177 197 204
178 200 228
182 204 234
203 223 250
208 228 255
208 228 255
208 228 255
207 228 255
207 228 255
207 228 255
207 228 255
207 228 255
207 228 255
207 228 255
207 228 255
207 228 255
207 228 255
207 228 255
207 228 255
207 228 255
207 228 255
207 227 255
207 227 255
207 227 255
207 227 255
206 227 255
206 227 255
206 227 255
206 227 255
206 227 255
206 227 255
206 227 255
206 227 255
206 227 255
206 227 255
206 227 255
206 227 255
206 227 255
206 227 255
206 227 255
206 227 255
206 227 255
206 227 255
205 227 255
205 227 255
205 227 255
205 227 255
205 227 255
205 227 255
205 227 255
205 227 255
205 227 255
205 227 255
205 227 255
205 227 255
205 226 255
205 226 255
205 226 255
205 226 255
205 226 255
205 226 255
205 226 255
205 226 255
205 226 255
204 226 255
204 226 255
204 226 255
204 226 255
204 226 255
204 226 255
204 226 255
204 226 255
204 226 255
204 226 255
204 226 255
204 226 255
204 226 255
204 226 255
204 226 255
204 226 255
204 226 255
204 226 255
204 226 255
204 226 255
204 226 255
204 226 255
204 226 255
204 226 255
204 226 255
204 226 255
204 226 255
204 226 255
204 226 255
204 226 255
203 226 255
203 226 255
203 226 255
203 226 255
203 226 255
203 226 255
203 226 255
203 226 255
203 226 255
203 226 255
203 226 255
203 226 255
203 226 255
203 226 255
203 226 255
203 226 255
203 226 255
203 226 255
203 226 255
203 226 255
203 226 255
203 226 255
203 226 255
203 226 255
203 226 255
203 226 255
203 226 255
203 226 255
203 226 255
203 226 255
203 226 255
203 226 255
203 226 255
203 226 255
203 226 255
204 226 255
204 226 255
204 226 255
204 226 255
204 226 255
204 226 255
204 226 255
204 226 255
204 226 255
204 226 255
204 226 255
204 226 255
204 226 255
204 226 255
204 226 255
204 226 255
204 226 255
204 226 255
204 226 255
204 226 255
204 226 255
204 226 255
204 226 255
204 226 255
204 226 255
204 226 255
204 226 255
204 226 255
204 226 255
204 226 255
205 226 255
205 226 255
205 226 255
205 226 255
205 226 255
205 226 255
205 226 255
205 226 255
205 227 255
205 227 255
205 227 255
205 227 255
205 227 255
205 227 255
205 227 255
205 227 255
205 227 255
205 227 255
205 227 255
205 227 255
206 227 255
206 227 255
206 227 255
206 227 255
206 227 255
206 227 255
206 227 255
206 227 255
206 227 255
206 227 255
206 227 255
206 227 255
206 227 255
206 227 255
206 227 255
206 227 255
206 227 255
207 227 255
207 227 255
207 227 255
207 227 255
207 227 255
207 228 255
207 228 255
207 228 255
207 228 255
207 228 255
207 228 255
207 228 255
207 228 255
207 228 255
207 228 255
207 228 255
207 228 255
207 228 255
207 228 255
208 228 255
208 228 255
208 228 255
196 212 223
188 196 184
179 173 114
175 171 108
176 172 114
180 174 114
182 175 114
179 173 114
171 170 114
169 168 108
177 172 114
171 169 108
181 174 114
173 170 108
174 168 111
174 170 108
173 169 108
169 166 95
179 173 108
175 170 102
178 172 108
178 171 102
177 172 114
182 175 114
177 172 114
174 168 95
176 170 108
178 172 108
173 169 102
173 169 102
179 173 114
180 173 108
176 172 114
182 175 114
178 172 108
178 170 108
180 174 114
177 172 114
168 165 111
181 173 108
177 172 108
176 172 114
178 172 108
176 171 108
173 170 108
179 172 108
171 168 102
176 172 114
179 173 108
173 169 102
182 174 108
177 171 108
174 170 108
177 172 108
182 175 114
178 173 114
173 169 102
180 173 108
175 171 108
184 176 114
167 166 102
181 174 114
177 173 114
183 174 102
173 170 108
173 169 102
185 175 108
178 170 95
176 171 108
171 169 108
170 169 114
181 173 108
173 171 114
175 171 108
174 170 108
168 166 102
180 171 95
177 172 108
177 172 108
172 167 95
178 172 108
178 172 108
184 176 114
185 186 153
192 197 181
202 214 223
212 230 255
212 230 255
212 230 255
212 230 255
212 230 255
212 230 255
212 230 255
212 230 255
212 230 255
212 230 255
212 230 255
200 218 234
192 211 237
178 198 217
169 194 217
181 202 228
177 198 217
181 200 217
171 195 217
179 199 217
173 195 204
182 201 217
172 193 191
176 197 204
174 198 228
180 199 204
182 201 217
177 198 217
176 197 204
177 198 217
168 191 191
172 193 191
173 194 191
169 194 217
173 196 217
172 193 191
184 203 228
179 200 228
181 201 228
177 198 217
175 196 204
174 196 217
177 198 217
171 195 217
176 199 228
182 202 228
177 198 217
178 200 228
177 198 217
172 195 217
178 198 204
179 200 228
171 196 228
177 199 228
171 194 204
171 193 191
177 198 217
165 188 177
177 198 217
176 196 217
186 204 228
174 195 204
175 198 228
176 197 204
179 200 228
173 197 228
177 199 228
175 196 204
177 199 228
183 202 228
181 201 228
176 198 217
178 200 228
174 196 217
179 200 228
179 199 217
177 198 217
168 190 211
172 196 228
177 199 228
168 190 223
180 200 217
175 197 217
182 202 228
180 201 228
179 200 228
172 196 217
174 197 217
177 199 228
181 201 228
181 202 228
180 197 207
173 197 228
175 195 191
172 194 219
165 188 211
170 192 223
173 197 228
176 198 217
181 202 228
183 206 237
189 211 240
202 222 250
208 228 255
208 228 255
208 228 255
208 228 255
207 228 255
207 228 255
207 228 255
207 228 255
207 228 255
207 228 255
207 228 255
207 228 255
207 228 255
207 228 255
207 228 255
207 228 255
207 228 255
207 228 255
207 227 255
207 227 255
207 227 255
207 227 255
206 227 255
206 227 255
206 227 255
206 227 255
206 227 255
206 227 255
206 227 255
206 227 255
206 227 255
206 227 255
206 227 255
206 227 255
206 227 255
206 227 255
206 227 255
206 227 255
206 227 255
206 227 255
206 227 255
205 227 255
205 227 255
205 227 255
205 227 255
205 227 255
205 227 255
205 227 255
205 227 255
205 227 255
205 227 255
205 227 255
205 226 255
205 226 255
205 226 255
205 226 255
205 226 255
205 226 255
205 226 255
205 226 255
205 226 255
205 226 255
205 226 255
204 226 255
204 226 255
204 226 255
204 226 255
204 226 255
204 226 255
204 226 255
204 226 255
204 226 255
204 226 255
204 226 255
204 226 255
204 226 255
204 226 255
204 226 255
204 226 255
204 226 255
204 226 255
204 226 255
204 226 255
204 226 255
204 226 255
204 226 255
204 226 255
204 226 255
204 226 255
204 226 255
204 226 255
204 226 255
204 226 255
204 226 255
204 226 255
204 226 255
204 226 255
204 226 255
204 226 255
204 226 255
204 226 255
204 226 255
204 226 255
204 226 255
204 226 255
204 226 255
204 226 255
204 226 255
204 226 255
204 226 255
204 226 255
204 226 255
204 226 255
204 226 255
204 226 255
204 226 255
204 226 255
204 226 255
204 226 255
204 226 255
204 226 255
204 226 255
204 226 255
204 226 255
204 226 255
204 226 255
204 226 255
204 226 255
204 226 255
204 226 255
204 226 255
204 226 255
204 226 255
204 226 255
204 226 255
204 226 255
204 226 255
204 226 255
204 226 255
204 226 255
204 226 255
204 226 255
204 226 255
204 226 255
204 226 255
204 226 255
205 226 255
205 226 255
205 226 255
205 226 255
205 226 255
205 226 255
205 226 255
205 226 255
205 226 255
205 227 255
205 227 255
205 227 255
205 227 255
205 227 255
205 227 255
205 227 255
205 227 255
205 227 255
205 227 255
205 227 255
205 227 255
206 227 255
206 227 255
206 227 255
206 227 255
206 227 255
206 227 255
206 227 255
206 227 255
206 227 255
206 227 255
206 227 255
206 227 255
206 227 255
206 227 255
206 227 255
206 227 255
206 227 255
206 227 255
206 227 255
207 227 255
207 227 255
207 227 255
207 227 255
207 228 255
207 228 255
207 228 255
207 228 255
207 228 255
207 228 255
207 228 255
207 228 255
207 228 255
207 228 255
207 228 255
207 228 255
207 228 255
207 228 255
207 228 255
208 228 255
208 228 255
208 228 255
205 223 245
195 207 211
182 184 153
173 171 114
180 174 114
173 170 108
175 172 114
178 173 114
175 171 114
176 171 108
171 166 111
177 170 108
175 171 114
173 171 114
170 166 111
173 171 114
169 165 105
174 170 108
175 170 102
178 172 108
179 173 114
179 174 114
178 173 114
173 169 102
172 168 102
180 174 114
173 170 108
174 169 102
178 173 114
179 172 108
182 174 108
167 166 102
171 168 102
180 174 114
174 171 114
175 169 102
170 168 102
177 173 114
177 171 102
179 173 108
183 175 114
173 169 107
169 167 102
180 172 102
173 169 108
172 169 108
177 172 114
177 172 114
170 168 102
175 171 108
179 173 114
180 173 108
168 165 95
180 174 114
172 169 102
172 168 102
176 170 102
176 170 102
182 174 108
180 173 108
172 168 102
180 174 114
177 173 114
182 175 114
176 171 108
179 171 102
178 173 114
171 169 108
178 172 108
172 169 108
182 174 108
175 170 108
175 172 114
174 170 108
178 173 114
177 172 114
180 173 108
179 173 114
181 173 108
174 168 95
176 169 95
180 173 108
175 168 108
178 172 108
178 173 114
179 174 114
175 170 102
185 176 114
170 168 102
188 182 135
200 210 211
206 220 234
212 230 255
212 230 255
212 230 255
212 230 255
212 230 255
201 220 237
197 217 234
181 201 228
179 198 204
175 197 217
174 197 217
179 198 204
176 197 217
169 192 191
167 190 191
182 202 228
177 199 228
183 202 217
181 201 228
180 200 217
175 198 228
172 192 177
182 200 204
181 202 228
173 195 204
178 200 228
175 195 191
173 195 204
176 198 217
171 191 204
182 201 217
172 195 217
177 198 217
181 201 228
177 199 228
181 201 217
177 197 204
174 195 204
178 199 217
179 199 217
188 204 217
173 195 204
177 197 204
179 198 204
180 200 217
173 194 191
174 197 228
177 198 217
175 197 217
172 193 217
179 199 217
177 197 204
174 196 204
177 198 217
169 193 204
174 196 217
165 189 221
177 199 228
175 196 204
179 198 204
178 199 217
180 200 217
179 200 228
179 200 228
175 197 217
181 201 217
172 192 207
169 191 204
170 193 204
174 192 204
177 198 217
177 199 228
172 196 217
184 203 228
177 198 217
170 194 217
175 197 217
178 198 217
177 197 204
181 202 228
170 194 217
178 198 204
177 199 228
173 196 217
178 200 228
179 200 228
177 199 228
177 199 228
170 195 228
166 189 223
178 200 228
170 194 217
176 197 217
171 191 207
176 198 228
183 202 228
176 199 228
165 188 211
177 199 228
157 180 204
177 199 228
188 210 240
206 226 253
208 228 255
208 228 255
208 228 255
208 228 255
208 228 255
207 228 255
207 228 255
207 228 255
207 228 255
207 228 255
207 228 255
207 228 255
207 228 255
207 228 255
207 228 255
207 228 255
207 228 255
207 228 255
207 227 255
207 227 255
207 227 255
207 227 255
207 227 255
207 227 255
206 227 255
206 227 255
206 227 255
206 227 255
206 227 255
206 227 255
206 227 255
206 227 255
206 227 255
206 227 255
206 227 255
206 227 255
206 227 255
206 227 255
206 227 255
206 227 255
206 227 255
206 227 255
205 227 255
205 227 255
205 227 255
205 227 255
205 227 255
205 227 255
205 227 255
205 227 255
205 227 255
205 227 255
205 227 255
205 227 255
205 227 255
205 226 255
205 226 255
205 226 255
205 226 255
205 226 255
205 226 255
205 226 255
205 226 255
205 226 255
205 226 255
205 226 255
204 226 255
204 226 255
204 226 255
204 226 255
204 226 255
204 226 255
204 226 255
204 226 255
204 226 255
204 226 255
204 226 255
204 226 255
204 226 255
204 226 255
204 226 255
204 226 255
204 226 255
204 226 255
204 226 255
204 226 255
204 226 255
204 226 255
204 226 255
204 226 255
204 226 255
204 226 255
204 226 255
204 226 255
204 226 255
204 226 255
204 226 255
204 226 255
204 226 255
204 226 255
204 226 255
204 226 255
204 226 255
204 226 255
204 226 255
204 226 255
204 226 255
204 226 255
204 226 255
204 226 255
204 226 255
204 226 255
204 226 255
204 226 255
204 226 255
204 226 255
204 226 255
204 226 255
204 226 255
204 226 255
204 226 255
204 226 255
204 226 255
204 226 255
204 226 255
204 226 255
204 226 255
204 226 255
204 226 255
204 226 255
204 226 255
204 226 255
204 226 255
204 226 255
204 226 255
204 226 255
204 226 255
205 226 255
205 226 255
205 226 255
205 226 255
205 226 255
205 226 255
205 226 255
205 226 255
205 226 255
205 227 255
205 226 255
205 227 255
205 227 255
205 227 255
205 227 255
205 227 255
205 227 255
205 227 255
205 227 255
205 227 255
205 227 255
205 227 255
206 227 255
206 227 255
206 227 255
206 227 255
206 227 255
206 227 255
206 227 255
206 227 255
206 227 255
206 227 255
206 227 255
206 227 255
206 227 255
206 227 255
206 227 255
206 227 255
206 227 255
206 227 255
206 227 255
206 227 255
207 227 255
207 227 255
207 227 255
207 228 255
207 228 255
207 228 255
207 228 255
207 228 255
207 228 255
207 228 255
207 228 255
207 228 255
207 228 255
207 228 255
207 228 255
207 228 255
207 228 255
207 228 255
208 228 255
208 228 255
208 228 255
208 228 255
208 228 255
201 218 234
180 185 167
185 190 169
173 170 114
170 169 114
172 170 114
173 170 114
175 171 108
179 172 108
174 170 108
176 172 114
178 173 114
170 166 111
180 174 114
173 171 114
177 172 108
157 156 106
174 171 114
174 171 114
177 171 113
178 173 114
169 167 102
169 166 111
180 174 114
185 176 114
184 176 114
153 151 104
178 173 114
177 171 108
175 171 114
174 170 108
172 168 101
176 169 95
176 171 108
178 171 102
177 172 114
181 174 114
169 166 95
178 172 108
172 168 102
172 169 108
169 167 102
174 169 102
164 164 95
165 162 103
182 174 108
184 175 114
172 169 108
173 170 108
182 175 114
173 169 102
174 171 114
176 172 114
179 171 102
173 169 102
187 176 108
174 169 102
183 175 114
176 171 108
168 166 102
177 173 114
172 169 108
183 174 108
178 172 108
178 171 102
182 175 114
180 173 108
178 171 102
176 171 108
175 172 114
187 177 114
179 173 114
173 168 95
173 170 108
177 172 108
175 169 95
181 172 102
180 174 114
180 173 108
170 167 95
181 175 114
179 172 108
170 166 95
169 166 95
173 170 108
174 166 95
172 169 108
180 173 108
169 166 95
185 176 114
175 171 108
177 171 102
178 172 108
180 173 108
178 173 114
183 189 165
188 195 181
208 224 242
212 230 255
175 196 204
180 201 228
176 195 191
182 201 217
182 201 217
178 198 204
169 192 191
179 200 228
177 197 204
171 194 204
177 198 217
179 198 204
175 196 204
176 195 191
179 198 204
182 202 228
177 198 217
180 201 228
180 201 228
166 191 204
179 197 191
178 198 204
181 202 228
180 198 204
178 197 191
177 198 217
174 197 217
180 201 228
182 202 228
171 194 204
179 198 204
179 198 204
174 196 217
175 195 191
178 200 228
182 201 217
174 195 204
181 201 228
180 199 217
180 198 204
174 197 217
176 197 204
183 201 217
177 197 204
177 197 204
182 201 217
175 196 204
184 203 228
169 193 204
169 192 191
182 202 228
176 194 204
181 200 217
177 199 228
178 199 217
179 199 217
180 201 228
177 198 217
179 199 217
180 200 217
188 204 217
175 195 191
164 188 177
175 196 204
176 197 217
175 195 191
180 200 217
175 197 217
184 203 228
179 201 228
173 196 217
182 202 228
179 200 228
173 195 204
181 201 228
180 197 191
177 199 228
178 200 228
181 200 217
175 198 228
176 198 217
167 190 217
176 199 228
182 202 228
175 197 217
175 198 228
180 201 228
176 199 228
174 197 228
180 201 228
182 201 217
176 199 228
178 198 217
170 196 228
177 199 228
181 199 204
177 199 228
172 195 217
175 198 228
188 208 231
195 217 245
208 228 255
208 228 255
208 228 255
208 228 255
208 228 255
208 228 255
208 228 255
207 228 255
207 228 255
207 228 255
207 228 255
207 228 255
207 228 255
207 228 255
207 228 255
207 228 255
207 228 255
207 228 255
207 228 255
207 228 255
207 228 255
207 227 255
207 227 255
207 227 255
207 227 255
206 227 255
206 227 255
206 227 255
206 227 255
206 227 255
206 227 255
206 227 255
206 227 255
206 227 255
206 227 255
206 227 255
206 227 255
206 227 255
206 227 255
206 227 255
206 227 255
206 227 255
206 227 255
206 227 255
206 227 255
206 227 255
205 227 255
205 227 255
205 227 255
205 227 255
205 227 255
205 227 255
205 227 255
205 227 255
205 227 255
205 227 255
205 227 255
205 227 255
205 227 255
205 227 255
205 226 255
205 226 255
205 226 255
205 226 255
205 226 255
205 226 255
205 226 255
205 226 255
205 226 255
205 226 255
205 226 255
204 226 255
204 226 255
204 226 255
204 226 255
204 226 255
204 226 255
204 226 255
204 226 255
204 226 255
204 226 255
204 226 255
204 226 255
204 226 255
204 226 255
204 226 255
204 226 255
204 226 255
204 226 255
204 226 255
204 226 255
204 226 255
204 226 255
204 226 255
204 226 255
204 226 255
204 226 255
204 226 255
204 226 255
204 226 255
204 226 255
204 226 255
204 226 255
204 226 255
204 226 255
204 226 255
204 226 255
204 226 255
204 226 255
204 226 255
204 226 255
204 226 255
204 226 255
204 226 255
204 226 255
204 226 255
204 226 255
204 226 255
204 226 255
204 226 255
204 226 255
204 226 255
204 226 255
204 226 255
204 226 255
204 226 255
204 226 255
205 226 255
205 226 255
205 226 255
205 226 255
205 226 255
205 226 255
205 226 255
205 226 255
205 226 255
205 226 255
205 226 255
205 226 255
205 227 255
205 227 255
205 227 255
205 227 255
205 227 255
205 227 255
205 227 255
205 227 255
205 227 255
205 227 255
205 227 255
205 227 255
205 227 255
206 227 255
206 227 255
206 227 255
206 227 255
206 227 255
206 227 255
206 227 255
206 227 255
206 227 255
206 227 255
206 227 255
206 227 255
206 227 255
206 227 255
206 227 255
206 227 255
206 227 255
206 227 255
206 227 255
206 227 255
206 227 255
207 227 255
207 227 255
207 227 255
207 228 255
207 228 255
207 228 255
207 228 255
207 228 255
207 228 255
207 228 255
207 228 255
207 228 255
207 228 255
207 228 255
207 228 255
207 228 255
207 228 255
207 228 255
208 228 255
208 228 255
208 228 255
208 228 255
208 228 255
208 228 255
204 223 245
197 208 211
187 195 181
176 171 108
175 171 114
173 170 108
176 172 114
177 172 114
178 171 102
176 172 114
180 174 114
168 166 107
177 171 102
178 173 114
176 172 114
181 174 114
171 166 108
176 172 114
177 172 114
175 171 108
179 173 108
183 175 114
181 173 108
174 170 108
166 163 105
175 171 114
175 171 114
180 172 102
175 172 114
175 171 108
179 172 108
174 170 108
180 173 108
175 170 102
175 172 114
176 169 95
185 175 108
182 174 108
165 164 111
178 171 102
167 165 102
179 172 108
174 170 108
184 175 108
175 170 102
179 172 108
173 168 95
177 171 102
177 171 102
167 166 102
174 169 102
176 169 102
178 173 114
168 165 111
173 169 102
177 171 102
180 173 108
168 166 95
177 172 114
177 171 108
187 176 108
184 175 108
183 174 108
173 171 114
171 167 95
177 171 102
178 172 108
177 172 114
174 170 108
184 176 114
176 169 102
170 168 108
168 165 95
174 170 108
174 169 102
183 174 108
172 168 102
178 173 114
180 172 102
174 170 108
177 172 108
177 170 102
180 172 102
173 169 102
177 170 95
175 171 108
182 174 108
175 170 102
174 169 102
184 175 108
179 174 114
178 172 108
174 169 102
172 169 108
178 173 114
181 174 114
178 171 102
179 172 108
174 170 108
180 173 108
179 172 108
183 184 149
175 197 217
182 200 204
180 199 204
170 193 204
182 201 217
176 197 204
175 197 217
171 194 204
187 205 228
180 201 228
184 203 228
181 199 204
180 201 228
179 198 204
167 190 177
172 194 204
171 193 191
185 203 228
180 200 217
185 203 228
176 197 217
181 201 228
172 194 204
173 195 204
179 196 204
178 198 204
174 194 191
174 197 217
169 193 204
178 198 204
179 199 217
176 198 217
179 199 217
178 198 204
178 198 204
180 200 217
177 198 217
183 202 228
177 198 217
168 189 206
174 196 217
164 184 177
175 197 217
163 186 204
177 198 217
177 198 217
181 199 204
173 193 223
161 186 211
180 200 217
172 192 204
175 197 217
178 199 217
177 198 217
182 200 204
176 198 217
176 199 228
171 192 177
174 196 217
172 197 228
176 197 204
179 199 217
172 196 217
175 197 217
176 199 228
178 199 217
165 189 191
180 201 228
183 201 217
171 196 228
176 199 228
177 198 217
176 196 204
179 199 217
163 186 198
180 200 217
170 193 204
177 198 217
175 196 204
169 194 217
180 200 217
170 191 211
167 190 223
183 202 228
169 190 209
174 194 191
178 199 217
179 199 217
171 192 217
179 200 228
182 202 228
175 198 228
168 189 217
180 200 217
179 200 228
183 202 228
174 198 228
174 197 217
179 200 228
179 199 217
172 196 217
175 198 228
177 196 220
202 221 248
208 228 255
208 228 255
208 228 255
208 228 255
208 228 255
208 228 255
208 228 255
207 228 255
207 228 255
207 228 255
207 228 255
207 228 255
207 228 255
207 228 255
207 228 255
207 228 255
207 228 255
207 228 255
207 228 255
207 228 255
207 228 255
207 228 255
207 227 255
207 227 255
207 227 255
207 227 255
207 227 255
206 227 255
206 227 255
206 227 255
206 227 255
206 227 255
206 227 255
206 227 255
206 227 255
206 227 255
206 227 255
206 227 255
206 227 255
206 227 255
206 227 255
206 227 255
206 227 255
206 227 255
206 227 255
206 227 255
206 227 255
206 227 255
205 227 255
205 227 255
205 227 255
205 227 255
205 227 255
205 227 255
205 227 255
205 227 255
205 227 255
205 227 255
205 227 255
205 227 255
205 227 255
205 227 255
205 227 255
205 227 255
205 226 255
205 226 255
205 226 255
205 226 255
205 226 255
205 226 255
205 226 255
205 226 255
205 226 255
205 226 255
205 226 255
205 226 255
205 226 255
205 226 255
204 226 255
204 226 255
205 226 255
204 226 255
204 226 255
204 226 255
204 226 255
204 226 255
204 226 255
204 226 255
204 226 255
204 226 255
204 226 255
204 226 255
204 226 255
204 226 255
204 226 255
204 226 255
204 226 255
204 226 255
204 226 255
204 226 255
204 226 255
204 226 255
204 226 255
204 226 255
204 226 255
204 226 255
204 226 255
204 226 255
204 226 255
204 226 255
204 226 255
204 226 255
205 226 255
205 226 255
204 226 255
205 226 255
205 226 255
205 226 255
205 226 255
205 226 255
205 226 255
205 226 255
205 226 255
205 226 255
205 226 255
205 226 255
205 226 255
205 226 255
205 226 255
205 226 255
205 227 255
205 227 255
205 227 255
205 227 255
205 227 255
205 227 255
205 227 255
205 227 255
205 227 255
205 227 255
205 227 255
205 227 255
205 227 255
206 227 255
206 227 255
206 227 255
206 227 255
206 227 255
206 227 255
206 227 255
206 227 255
206 227 255
206 227 255
206 227 255
206 227 255
206 227 255
206 227 255
206 227 255
206 227 255
206 227 255
206 227 255
206 227 255
206 227 255
206 227 255
206 227 255
207 227 255
207 227 255
207 227 255
207 227 255
207 228 255
207 228 255
207 228 255
207 228 255
207 228 255
207 228 255
207 228 255
207 228 255
207 228 255
207 228 255
207 228 255
207 228 255
207 228 255
207 228 255
207 228 255
208 228 255
208 228 255
208 228 255
208 228 255
208 228 255
208 228 255
208 228 255
208 228 255
192 207 221
188 192 169
181 174 114
153 153 105
172 170 114
158 157 96
171 166 111
171 166 111
166 167 108
175 171 114
174 171 114
174 171 114
171 170 114
179 173 114
172 169 108
178 172 108
175 172 114
172 170 114
181 174 108
184 175 114
176 169 101
182 174 108
174 171 114
158 159 104
175 171 108
178 172 108
176 172 114
178 173 114
174 171 114
176 172 114
182 175 114
171 169 108
172 169 108
182 175 114
173 170 108
179 174 114
177 170 95
171 166 111
170 165 88
172 170 114
168 166 95
175 171 114
176 172 114
173 167 95
176 170 102
175 170 102
176 170 102
169 165 108
184 175 108
171 167 95
179 172 102
176 171 108
180 174 114
181 174 108
172 167 111
176 172 114
171 165 102
170 164 95
166 163 105
168 166 102
172 170 114
177 170 102
182 174 108
177 170 95
174 170 108
176 172 114
163 162 88
176 171 108
170 165 88
172 168 102
170 167 102
176 170 102
168 166 95
172 169 108
183 174 102
181 172 102
175 171 108
176 171 108
173 167 88
171 168 102
176 171 108
174 168 95
177 169 95
181 174 114
182 175 114
174 169 102
171 168 102
174 168 95
168 166 102
178 172 108
180 172 102
174 168 95
180 171 95
183 174 108
179 173 114
182 174 108
179 173 114
179 173 114
178 172 108
179 174 114
180 173 108
185 176 114
181 174 114
183 174 108
170 192 191
173 195 204
177 197 204
174 195 204
181 199 204
174 194 191
179 199 217
177 198 217
176 196 204
181 202 228
180 201 228
177 199 228
182 202 228
171 193 191
181 200 217
176 198 217
175 197 217
172 196 217
177 197 204
179 199 217
176 198 217
176 197 204
177 196 191
175 197 217
166 189 177
175 196 204
180 200 217
174 198 228
175 196 204
176 199 228
182 202 228
176 196 191
175 197 217
175 197 217
179 198 204
181 200 217
178 199 217
181 201 228
179 199 217
177 199 228
185 203 228
186 203 217
182 202 228
174 194 191
170 192 191
175 196 204
183 201 217
185 204 228
183 201 217
175 196 204
180 200 217
173 195 204
177 198 217
173 196 217
176 197 217
177 198 217
176 198 217
173 193 177
184 203 228
172 195 204
166 190 223
176 198 217
177 197 204
160 182 161
181 200 217
173 195 204
180 198 219
178 198 217
175 198 228
165 189 217
166 190 191
175 194 217
180 199 204
179 199 217
177 196 217
177 197 204
177 197 204
156 178 191
176 197 217
167 192 204
182 201 217
176 199 228
170 194 217
174 196 217
180 199 204
171 194 204
174 197 217
174 194 223
185 202 217
176 199 228
173 195 204
171 195 217
180 201 228
176 198 217
172 197 228
177 199 228
175 198 228
178 200 228
169 195 228
182 202 228
169 191 223
178 200 228
175 197 217
165 189 223
181 201 228
199 220 248
208 228 255
208 228 255
208 228 255
208 228 255
208 228 255
208 228 255
208 228 255
208 228 255
208 228 255
208 228 255
208 228 255
207 228 255
207 228 255
207 228 255
207 228 255
207 228 255
207 228 255
207 228 255
207 228 255
207 228 255
207 228 255
207 228 255
207 228 255
207 228 255
207 227 255
207 227 255
207 227 255
207 227 255
207 227 255
207 227 255
206 227 255
206 227 255
206 227 255
206 227 255
206 227 255
206 227 255
206 227 255
206 227 255
206 227 255
206 227 255
206 227 255
206 227 255
206 227 255
206 227 255
206 227 255
206 227 255
206 227 255
206 227 255
206 227 255
206 227 255
206 227 255
206 227 255
205 227 255
205 227 255
205 227 255
205 227 255
205 227 255
205 227 255
205 227 255
205 227 255
205 227 255
205 227 255
205 227 255
205 227 255
205 227 255
205 227 255
205 227 255
205 227 255
205 227 255
205 227 255
205 227 255
205 226 255
205 226 255
205 226 255
205 226 255
205 226 255
205 226 255
205 226 255
205 226 255
205 226 255
205 226 255
205 226 255
205 226 255
205 226 255
205 226 255
205 226 255
205 226 255
205 226 255
205 226 255
205 226 255
205 226 255
205 226 255
205 226 255
205 226 255
205 226 255
205 226 255
205 226 255
205 226 255
205 226 255
205 226 255
205 226 255
205 226 255
205 226 255
205 226 255
205 226 255
205 226 255
205 226 255
205 226 255
205 226 255
205 226 255
205 226 255
205 226 255
205 226 255
205 226 255
205 226 255
205 226 255
205 226 255
205 226 255
205 227 255
205 227 255
205 227 255
205 227 255
205 227 255
205 227 255
205 227 255
205 227 255
205 227 255
205 227 255
205 227 255
205 227 255
205 227 255
205 227 255
205 227 255
205 227 255
205 227 255
205 227 255
206 227 255
206 227 255
206 227 255
206 227 255
206 227 255
206 227 255
206 227 255
206 227 255
206 227 255
206 227 255
206 227 255
206 227 255
206 227 255
206 227 255
206 227 255
206 227 255
206 227 255
206 227 255
206 227 255
206 227 255
206 227 255
206 227 255
207 227 255
207 227 255
207 227 255
207 227 255
207 227 255
207 227 255
207 228 255
207 228 255
207 228 255
207 228 255
207 228 255
207 228 255
207 228 255
207 228 255
207 228 255
207 228 255
207 228 255
207 228 255
207 228 255
208 228 255
208 228 255
208 228 255
208 228 255
208 228 255
208 228 255
208 228 255
208 228 255
208 228 255
208 228 255
205 223 245
205 223 245
179 181 144
175 172 114
168 164 105
176 172 114
171 170 114
174 171 114
180 173 108
180 173 108
176 172 114
181 174 114
166 163 105
178 173 114
172 168 102
167 164 111
180 173 108
152 151 105
182 174 108
176 171 108
180 173 108
183 175 114
180 173 108
179 171 102
177 173 114
175 169 102
176 170 102
174 167 110
184 176 114
173 166 110
170 166 111
185 176 114
177 172 108
180 173 108
176 172 114
180 174 114
180 174 114
181 174 114
183 173 102
184 176 114
177 171 108
180 172 102
176 170 102
169 164 102
174 169 102
175 171 108
175 169 95
181 174 114
166 165 102
169 167 102
170 165 105
173 170 108
174 169 102
175 170 102
180 174 114
172 168 102
175 167 102
175 169 102
174 169 102
176 169 95
172 168 102
176 171 108
182 173 107
173 170 108
175 169 95
174 169 102
174 170 108
181 174 114
174 170 108
178 171 102
171 168 102
176 172 114
168 167 108
174 169 102
173 169 102
180 172 102
169 167 102
176 170 102
183 175 114
177 172 108
177 170 95
177 172 108
176 170 102
167 163 80
176 171 108
172 168 102
184 176 114
179 172 108
177 171 108
182 175 114
177 171 108
178 170 95
175 171 108
176 171 108
187 176 108
177 173 114
173 168 95
171 170 114
177 173 114
173 169 102
184 175 108
172 168 95
176 171 108
172 169 108
177 172 108
175 170 108
187 176 108
175 197 217
182 201 217
180 199 204
177 197 204
170 191 177
177 198 217
178 197 191
177 198 217
183 203 228
175 197 217
183 200 204
168 187 177
180 201 228
172 194 204
171 193 191
184 201 204
182 201 217
174 195 191
181 199 204
170 192 191
166 185 161
171 192 207
182 201 217
178 199 217
175 196 204
177 197 204
180 200 217
173 195 204
174 194 191
176 196 204
178 199 217
179 199 217
180 200 217
175 197 217
175 197 217
185 203 217
173 195 204
180 200 217
171 193 191
185 203 228
178 198 204
174 195 204
169 192 191
176 198 217
171 194 204
185 202 217
174 195 204
172 194 204
179 199 217
178 199 228
168 188 177
183 200 204
182 201 217
175 196 204
183 203 228
169 191 177
175 196 204
177 197 204
176 198 217
175 197 217
179 197 191
177 198 217
170 195 228
156 179 198
165 188 211
176 199 228
179 199 217
174 194 191
163 185 184
175 197 217
184 203 228
176 199 228
178 198 217
171 190 204
166 190 223
173 195 204
181 198 219
172 194 204
179 200 228
172 197 228
181 200 217
177 199 228
170 196 228
176 197 204
178 199 217
181 201 228
169 194 217
175 197 217
158 182 184
176 198 217
166 184 198
169 190 211
179 199 217
174 197 228
167 190 223
171 192 223
175 198 228
166 190 223
182 202 228
177 199 228
178 198 217
171 196 228
169 189 198
175 197 217
172 197 228
175 198 228
180 201 220
186 209 240
208 228 255
208 228 255
208 228 255
208 228 255
208 228 255
208 228 255
208 228 255
208 228 255
208 228 255
208 228 255
208 228 255
208 228 255
208 228 255
207 228 255
207 228 255
207 228 255
207 228 255
207 228 255
207 228 255
207 228 255
207 228 255
207 228 255
207 228 255
207 228 255
207 228 255
207 228 255
207 228 255
207 228 255
207 227 255
207 227 255
207 227 255
207 227 255
207 227 255
206 227 255
206 227 255
206 227 255
206 227 255
206 227 255
206 227 255
206 227 255
206 227 255
206 227 255
206 227 255
206 227 255
206 227 255
206 227 255
206 227 255
206 227 255
206 227 255
206 227 255
206 227 255
206 227 255
206 227 255
206 227 255
206 227 255
206 227 255
205 227 255
205 227 255
205 227 255
205 227 255
205 227 255
205 227 255
205 227 255
205 227 255
205 227 255
205 227 255
205 227 255
205 227 255
205 227 255
205 227 255
205 227 255
205 227 255
205 227 255
205 227 255
205 227 255
205 227 255
205 227 255
205 227 255
205 227 255
205 227 255
205 227 255
205 226 255
205 227 255
205 226 255
205 226 255
205 226 255
205 226 255
205 226 255
205 226 255
205 226 255
205 226 255
205 226 255
205 226 255
205 226 255
205 226 255
205 226 255
205 226 255
205 226 255
205 226 255
205 226 255
205 227 255
205 226 255
205 227 255
205 227 255
205 227 255
205 227 255
205 227 255
205 227 255
205 227 255
205 227 255
205 227 255
205 227 255
205 227 255
205 227 255
205 227 255
205 227 255
205 227 255
205 227 255
205 227 255
205 227 255
205 227 255
205 227 255
205 227 255
205 227 255
205 227 255
205 227 255
205 227 255
206 227 255
206 227 255
206 227 255
206 227 255
206 227 255
206 227 255
206 227 255
206 227 255
206 227 255
206 227 255
206 227 255
206 227 255
206 227 255
206 227 255
206 227 255
206 227 255
206 227 255
206 227 255
206 227 255
206 227 255
206 227 255
206 227 255
206 227 255
206 227 255
207 227 255
207 227 255
207 227 255
207 227 255
207 227 255
207 227 255
207 228 255
207 228 255
207 228 255
207 228 255
207 228 255
207 228 255
207 228 255
207 228 255
207 228 255
207 228 255
207 228 255
207 228 255
207 228 255
207 228 255
208 228 255
208 228 255
208 228 255
208 228 255
208 228 255
208 228 255
208 228 255
208 228 255
208 228 255
208 228 255
208 228 255
208 228 255
208 228 255
201 218 234
180 179 135
173 171 114
180 174 114
174 170 113
176 171 108
171 166 109
173 171 114
186 177 114
162 159 108
167 161 108
179 173 114
169 168 108
176 171 108
179 172 108
173 168 95
173 170 114
174 170 108
176 172 114
168 165 111
184 175 114
173 168 95
163 163 111
176 170 102
177 172 114
169 166 101
179 173 114
173 170 108
174 170 108
174 170 108
173 168 95
176 171 108
176 171 113
174 170 108
172 168 102
177 171 108
174 170 108
178 172 108
184 174 102
190 179 114
176 171 108
172 166 88
177 171 102
170 167 107
172 169 108
175 170 102
178 173 114
178 171 102
183 175 114
173 169 102
182 175 114
171 168 102
182 175 114
174 168 102
186 177 114
176 170 102
175 171 108
183 174 108
174 170 108
177 172 114
179 173 114
175 168 88
172 168 102
178 171 102
185 176 114
177 170 102
176 169 95
176 172 114
182 175 114
169 166 95
183 173 102
174 166 95
172 167 95
177 172 114
174 167 88
180 173 108
178 171 102
186 177 114
167 165 95
174 168 95
180 173 108
176 169 95
176 170 102
176 171 108
169 166 95
176 170 102
169 166 95
179 173 108
177 170 102
175 171 108
181 173 107
176 170 102
184 176 114
170 168 108
177 172 108
179 173 114
164 165 102
178 172 108
184 176 114
172 170 114
180 174 114
177 171 108
181 173 102
179 171 102
173 168 95
180 172 102
174 167 102
169 165 88
180 200 217
169 192 191
175 196 204
173 195 204
176 196 204
177 199 228
173 195 204
172 192 177
183 202 217
172 195 204
177 197 204
176 199 228
179 200 228
174 196 217
178 198 204
178 199 217
170 191 177
172 195 204
176 196 191
175 197 217
177 198 217
168 191 191
160 182 161
172 191 161
183 201 217
171 192 177
172 196 217
173 194 191
176 197 204
175 198 228
173 196 217
182 202 228
179 199 217
173 193 177
175 196 204
175 197 217
179 199 217
173 196 217
174 194 191
185 204 228
172 193 191
176 199 228
179 200 228
176 198 217
177 197 204
174 195 217
166 191 204
178 199 217
176 199 228
172 193 191
177 198 217
179 200 228
181 199 204
177 198 217
165 187 198
176 195 191
183 203 228
167 187 144
182 202 228
178 199 217
177 196 191
166 190 191
179 197 219
177 199 228
171 192 217
172 194 204
179 200 228
170 193 204
180 199 217
175 193 194
178 195 207
175 195 191
183 202 228
170 189 191
178 198 217
171 194 204
172 192 177
170 194 204
171 195 217
178 200 228
171 194 204
176 198 217
176 199 228
161 184 196
168 191 223
170 189 198
169 191 217
160 181 186
164 183 211
182 197 207
174 198 228
168 190 221
174 197 228
172 194 204
180 201 228
172 193 223
175 196 204
177 198 217
181 201 228
172 195 217
178 200 228
178 199 217
178 199 217
175 197 217
182 202 228
174 198 228
173 197 228
169 191 223
181 203 231
197 218 248
204 225 253
208 228 255
208 228 255
208 228 255
208 228 255
208 228 255
208 228 255
208 228 255
208 228 255
208 228 255
208 228 255
208 228 255
208 228 255
208 228 255
208 228 255
207 228 255
207 228 255
207 228 255
207 228 255
207 228 255
207 228 255
207 228 255
207 228 255
207 228 255
207 228 255
207 228 255
207 228 255
207 228 255
207 228 255
207 228 255
207 228 255
207 227 255
207 227 255
207 227 255
207 227 255
207 227 255
206 227 255
206 227 255
206 227 255
206 227 255
206 227 255
206 227 255
206 227 255
206 227 255
206 227 255
206 227 255
206 227 255
206 227 255
206 227 255
206 227 255
206 227 255
206 227 255
206 227 255
206 227 255
206 227 255
206 227 255
206 227 255
206 227 255
206 227 255
206 227 255
206 227 255
206 227 255
206 227 255
205 227 255
205 227 255
205 227 255
205 227 255
205 227 255
205 227 255
205 227 255
205 227 255
205 227 255
205 227 255
205 227 255
205 227 255
205 227 255
205 227 255
205 227 255
205 227 255
205 227 255
205 227 255
205 227 255
205 227 255
205 227 255
205 227 255
205 227 255
205 227 255
205 227 255
205 227 255
205 227 255
195 217 249
205 227 255
205 227 255
205 227 255
205 227 255
205 227 255
205 227 255
205 227 255
205 227 255
205 227 255
205 227 255
205 227 255
205 227 255
205 227 255
205 227 255
205 227 255
205 227 255
205 227 255
205 227 255
205 227 255
205 227 255
205 227 255
205 227 255
205 227 255
205 227 255
205 227 255
205 227 255
206 227 255
206 227 255
206 227 255
206 227 255
206 227 255
206 227 255
206 227 255
206 227 255
206 227 255
206 227 255
206 227 255
206 227 255
206 227 255
206 227 255
206 227 255
206 227 255
206 227 255
206 227 255
206 227 255
206 227 255
206 227 255
206 227 255
206 227 255
206 227 255
206 227 255
206 227 255
206 227 255
206 227 255
207 227 255
207 227 255
207 227 255
207 227 255
207 227 255
207 228 255
207 228 255
207 228 255
207 228 255
207 228 255
207 228 255
207 228 255
207 228 255
207 228 255
207 228 255
207 228 255
207 228 255
207 228 255
207 228 255
207 228 255
208 228 255
208 228 255
208 228 255
208 228 255
208 228 255
208 228 255
208 228 255
208 228 255
208 228 255
208 228 255
208 228 255
208 228 255
208 228 255
208 228 255
208 228 255
190 197 184
172 169 113
172 169 108
182 175 114
174 169 102
171 166 111
189 178 114
172 167 111
177 172 114
181 174 114
172 167 111
171 166 111
170 166 111
175 172 114
180 174 114
178 172 108
166 163 107
172 167 108
166 162 99
174 169 107
178 172 108
180 173 108
179 172 108
174 168 95
175 170 102
170 165 105
177 172 114
173 167 111
172 169 108
182 175 114
158 156 99
175 171 108
184 175 108
174 169 102
178 172 108
177 172 108
181 174 114
179 171 102
165 163 88
172 168 102
178 172 108
176 170 102
178 173 114
179 174 114
162 158 84
175 169 95
179 173 108
184 176 114
168 165 95
173 169 102
178 171 102
178 171 102
174 170 108
180 174 114
178 173 114
174 169 102
171 168 102
176 171 108
182 175 114
170 168 108
175 171 108
178 170 95
178 173 114
174 169 102
176 171 108
179 173 108
179 172 102
174 169 102
175 167 102
180 174 114
178 172 108
180 173 108
178 172 108
181 172 102
184 176 114
176 171 108
174 168 95
182 175 114
178 172 108
173 169 102
174 170 108
179 169 108
178 172 108
177 171 108
180 173 108
177 171 102
179 172 108
174 167 102
179 172 108
172 169 108
172 168 102
172 166 88
181 173 108
176 172 114
175 171 108
175 170 102
170 166 95
169 165 88
173 168 95
175 171 108
182 174 108
178 171 102
178 172 108
170 166 95
175 171 108
175 170 108
178 172 108
176 170 102
168 164 80
181 174 108
176 195 191
176 198 217
172 193 191
178 199 217
180 199 204
184 203 228
155 177 177
180 198 191
178 199 217
170 191 177
182 201 217
165 189 177
183 202 228
181 200 217
174 193 177
173 196 217
180 199 204
177 198 217
182 201 217
174 194 191
174 196 204
176 195 204
177 198 217
178 198 204
180 201 228
178 198 204
171 193 191
176 198 217
174 195 204
179 199 217
171 192 177
175 196 204
177 196 191
172 195 217
166 189 177
182 201 217
175 194 177
174 193 177
173 194 191
172 196 217
168 192 204
168 191 191
188 202 219
175 197 217
170 192 191
174 195 204
182 202 228
165 189 191
181 200 217
179 199 217
176 197 217
176 199 228
182 201 217
169 191 177
176 196 204
177 198 217
177 197 204
181 200 217
180 198 191
182 202 228
176 196 204
175 197 217
176 194 204
177 199 228
175 197 217
176 196 204
168 190 177
177 196 191
177 198 217
180 201 228
183 202 228
175 196 204
188 205 228
173 196 217
173 192 194
180 200 217
179 199 217
179 200 228
179 200 228
175 196 204
177 198 217
172 192 223
177 198 217
175 197 217
175 197 217
182 201 217
178 200 228
166 187 204
172 193 223
163 187 204
181 201 228
177 197 204
182 202 228
158 179 198
176 195 219
165 185 217
175 197 217
176 198 217
159 182 217
175 197 217
171 192 223
170 195 217
163 187 211
180 200 217
169 191 217
169 191 223
172 193 223
166 188 211
177 199 228
179 199 217
184 206 234
183 205 234
208 228 255
208 228 255
208 228 255
208 228 255
208 228 255
208 228 255
208 228 255
208 228 255
208 228 255
208 228 255
208 228 255
208 228 255
208 228 255
208 228 255
208 228 255
208 228 255
208 228 255
208 228 255
207 228 255
207 228 255
207 228 255
207 228 255
207 228 255
207 228 255
207 228 255
207 228 255
207 228 255
207 228 255
207 228 255
207 228 255
207 228 255
207 228 255
207 228 255
207 228 255
207 228 255
207 227 255
207 227 255
207 227 255
207 227 255
207 227 255
206 227 255
206 227 255
206 227 255
206 227 255
206 227 255
206 227 255
206 227 255
206 227 255
206 227 255
206 227 255
206 227 255
206 227 255
206 227 255
206 227 255
206 227 255
206 227 255
206 227 255
206 227 255
206 227 255
206 227 255
206 227 255
206 227 255
206 227 255
206 227 255
206 227 255
206 227 255
206 227 255
206 227 255
206 227 255
206 227 255
206 227 255
206 227 255
206 227 255
206 227 255
206 227 255
205 227 255
205 227 255
205 227 255
196 217 249
186 208 242
152 175 221
123 149 206
123 149 206
107 135 198
63 100 181
64 100 181
64 101 181
62 99 181
61 98 181
61 98 171
63 100 181
87 117 189
107 134 189
87 118 189
107 134 189
107 135 198
139 163 214
175 197 236
205 227 255
205 227 255
205 227 255
205 227 255
206 227 255
206 227 255
206 227 255
206 227 255
206 227 255
206 227 255
206 227 255
206 227 255
206 227 255
206 227 255
206 227 255
206 227 255
206 227 255
206 227 255
206 227 255
206 227 255
206 227 255
206 227 255
206 227 255
206 227 255
206 227 255
206 227 255
206 227 255
206 227 255
206 227 255
206 227 255
206 227 255
206 227 255
206 227 255
206 227 255
206 227 255
206 227 255
206 227 255
206 227 255
207 227 255
207 227 255
207 227 255
207 227 255
207 227 255
207 227 255
207 228 255
207 228 255
207 228 255
207 228 255
207 228 255
207 228 255
207 228 255
207 228 255
207 228 255
207 228 255
207 228 255
207 228 255
207 228 255
207 228 255
207 228 255
207 228 255
208 228 255
208 228 255
208 228 255
208 228 255
208 228 255
208 228 255
208 228 255
208 228 255
208 228 255
208 228 255
208 228 255
208 228 255
208 228 255
208 228 255
208 228 255
208 228 255
208 228 255
208 228 255
199 209 211
178 178 135
162 162 109
170 169 114
174 170 108
163 163 111
152 151 88
171 168 107
178 172 108
175 171 108
173 170 114
176 171 108
170 165 110
175 171 108
171 166 111
168 165 111
178 173 114
170 166 111
159 157 105
170 167 102
174 168 95
168 163 99
177 170 102
175 171 113
173 167 109
175 170 108
162 160 99
173 170 108
175 171 108
177 171 102
171 166 111
165 164 111
178 173 114
174 170 108
174 170 108
180 172 102
170 165 105
175 170 102
173 169 102
174 168 111
173 169 102
186 177 114
174 169 102
175 170 102
174 168 101
179 173 108
178 172 108
182 174 113
175 171 114
175 170 108
180 172 102
167 162 104
176 171 108
181 174 114
178 172 108
163 161 104
173 168 95
171 165 87
178 171 102
175 169 102
178 172 108
185 176 114
178 172 108
177 170 102
177 170 107
174 169 102
174 168 88
175 171 108
180 173 108
172 169 108
175 170 102
170 167 102
173 166 102
177 172 114
178 173 114
171 168 102
182 174 108
165 163 88
175 169 95
174 168 95
180 173 108
178 172 108
175 169 95
179 172 102
179 172 108
174 168 95
174 168 95
176 171 108
182 174 108
159 157 80
176 171 108
180 173 108
180 173 113
178 172 108
174 169 102
177 172 114
171 166 102
176 168 102
177 171 108
178 172 108
176 170 102
180 172 102
185 176 114
175 169 102
179 173 114
179 173 114
170 168 108
179 171 102
181 172 102
168 163 95
173 164 88
178 171 102
175 197 217
177 197 204
179 200 228
176 197 204
169 193 204
183 199 191
177 198 217
178 200 228
172 192 177
178 199 217
175 196 204
173 197 228
172 195 204
179 199 217
178 199 217
173 195 204
184 202 217
164 191 217
182 201 217
177 197 204
180 199 204
179 198 204
175 196 204
177 198 217
174 196 217
180 200 217
180 200 217
176 198 217
179 197 191
177 198 217
155 180 177
175 195 191
174 197 217
178 199 217
184 202 217
172 193 191
179 197 191
173 194 191
169 190 177
177 194 194
179 199 217
180 200 217
179 198 204
172 189 207
181 201 228
172 190 198
177 197 204
176 198 217
175 196 204
174 196 204
179 199 217
180 201 228
183 202 228
170 193 204
182 201 217
179 198 204
177 199 228
184 201 204
174 197 228
177 195 204
176 198 217
170 195 217
173 196 217
177 196 191
176 197 204
171 194 204
179 200 228
176 195 217
175 197 217
174 197 228
181 200 217
174 196 204
173 196 217
177 198 217
175 192 191
175 196 204
178 199 217
168 189 204
178 199 217
164 186 198
176 197 217
186 204 228
176 198 217
172 193 223
176 198 217
168 191 223
178 200 228
167 190 221
178 200 228
156 179 204
184 202 217
176 199 228
175 195 191
180 200 217
165 189 217
186 204 228
161 182 187
173 193 223
175 198 228
174 197 217
171 196 228
176 199 228
171 195 217
170 194 217
178 200 228
166 186 213
178 200 228
179 200 228
176 195 223
166 188 211
175 197 217
172 193 223
174 194 223
200 220 248
209 228 255
208 228 255
208 228 255
208 228 255
208 228 255
208 228 255
208 228 255
208 228 255
208 228 255
208 228 255
208 228 255
208 228 255
208 228 255
208 228 255
208 228 255
208 228 255
208 228 255
208 228 255
208 228 255
208 228 255
208 228 255
208 228 255
207 228 255
207 228 255
207 228 255
207 228 255
207 228 255
207 228 255
207 228 255
207 228 255
207 228 255
207 228 255
207 228 255
207 228 255
207 228 255
207 228 255
207 228 255
207 228 255
207 227 255
207 227 255
207 227 255
207 227 255
207 227 255
207 227 255
206 227 255
206 227 255
206 227 255
206 227 255
206 227 255
206 227 255
206 227 255
206 227 255
206 227 255
206 227 255
206 227 255
206 227 255
206 227 255
206 227 255
206 227 255
206 227 255
206 227 255
206 227 255
206 227 255
206 227 255
206 227 255
206 227 255
206 227 255
206 227 255
206 227 255
206 227 255
206 227 255
206 227 255
186 207 236
124 149 206
107 135 198
62 99 181
63 100 181
63 99 161
61 98 171
64 100 181
61 98 181
62 99 181
62 99 181
64 100 181
62 99 181
63 99 171
61 98 171
62 99 181
62 97 173
60 98 181
62 99 181
62 98 151
63 100 181
62 99 181
62 99 181
61 98 171
60 97 171
124 149 198
164 187 228
206 227 255
196 218 249
206 227 255
206 227 255
206 227 255
206 227 255
206 227 255
206 227 255
206 227 255
206 227 255
206 227 255
206 227 255
206 227 255
206 227 255
206 227 255
206 227 255
206 227 255
206 227 255
206 227 255
206 227 255
206 227 255
206 227 255
206 227 255
206 227 255
206 227 255
206 227 255
206 227 255
206 227 255
206 227 255
207 227 255
207 227 255
207 227 255
207 227 255
207 227 255
207 227 255
207 228 255
207 228 255
207 228 255
207 228 255
207 228 255
207 228 255
207 228 255
207 228 255
207 228 255
207 228 255
207 228 255
207 228 255
207 228 255
207 228 255
207 228 255
207 228 255
207 228 255
208 228 255
208 228 255
208 228 255
208 228 255
208 228 255
208 228 255
208 228 255
208 228 255
208 228 255
208 228 255
208 228 255
208 228 255
208 228 255
208 228 255
208 228 255
208 228 255
208 228 255
208 228 255
208 228 255
208 228 255
208 224 245
192 197 184
182 179 135
163 163 111
158 156 102
162 157 105
175 171 108
175 171 114
175 170 107
179 174 114
170 166 111
167 165 108
169 165 108
173 171 114
173 170 108
177 173 114
179 172 108
172 169 108
175 171 108
170 167 95
179 174 114
179 172 108
172 169 108
164 162 105
176 169 95
171 169 108
172 169 108
176 170 108
174 170 108
174 170 108
177 171 108
179 174 114
175 171 108
174 168 95
179 172 108
158 156 106
179 173 108
164 160 92
161 161 87
178 172 108
172 169 108
170 164 99
172 168 102
179 172 108
168 163 99
177 171 108
172 169 108
177 173 114
180 174 114
170 164 99
182 175 114
181 174 114
177 172 108
184 176 114
174 169 102
170 167 102
175 172 114
175 168 102
176 169 101
173 169 102
161 158 90
184 175 108
173 170 108
177 171 108
180 172 102
174 168 102
174 170 108
178 173 114
184 176 114
179 173 108
175 170 102
178 171 102
170 164 87
183 174 108
173 168 95
181 174 114
179 174 114
175 169 95
172 167 95
176 170 102
177 171 102
175 166 101
170 165 88
181 174 114
176 170 102
173 168 95
176 170 102
171 167 95
174 169 102
168 165 88
177 171 102
176 167 95
180 173 108
178 173 114
175 172 114
180 174 114
172 167 95
172 169 108
171 168 102
179 171 102
172 167 95
176 171 108
165 162 80
177 170 95
176 170 102
177 169 108
179 172 108
188 178 114
175 168 88
175 170 102
184 176 114
177 171 108
178 172 108
178 172 108
179 173 108
184 202 217
171 192 177
179 200 228
171 193 191
178 198 204
189 206 228
176 198 217
182 201 217
168 189 161
167 188 161
183 201 217
169 192 191
181 201 217
174 198 228
167 191 191
169 193 204
185 203 217
179 199 217
177 197 204
177 198 217
172 194 204
169 190 161
175 198 228
167 185 194
176 197 204
173 196 217
180 200 217
182 200 204
175 196 204
180 197 217
172 196 217
167 193 217
183 202 228
174 197 217
166 189 177
173 195 204
178 196 191
183 201 217
165 184 148
171 195 217
183 202 228
179 199 217
176 195 177
179 200 228
175 197 217
175 195 191
178 199 217
177 198 217
179 200 228
170 191 177
178 197 191
174 195 204
166 187 144
180 201 228
168 190 177
179 198 204
174 194 191
175 197 217
174 194 191
172 191 177
178 200 228
178 196 207
174 195 204
169 192 191
169 193 204
179 200 228
168 192 204
183 202 228
178 195 207
173 197 228
180 200 217
178 198 217
180 201 228
166 186 194
185 202 217
173 196 217
155 178 203
174 190 177
176 199 228
168 187 194
172 191 191
174 198 228
172 194 204
164 183 204
162 184 184
165 182 178
174 193 211
172 194 204
178 199 217
167 186 211
172 194 204
176 198 228
173 192 194
171 196 228
177 199 228
174 194 191
176 198 217
168 191 223
174 196 217
180 201 228
175 197 217
168 192 204
178 200 228
171 194 204
159 184 196
180 201 228
164 189 223
170 191 221
173 197 228
170 194 204
173 193 223
159 182 217
174 197 217
173 194 219
172 193 223
201 222 250
209 229 255
209 228 255
209 228 255
208 228 255
208 228 255
208 228 255
208 228 255
208 228 255
208 228 255
208 228 255
208 228 255
208 228 255
208 228 255
208 228 255
208 228 255
208 228 255
208 228 255
208 228 255
208 228 255
208 228 255
208 228 255
208 228 255
208 228 255
208 228 255
207 228 255
207 228 255
207 228 255
207 228 255
207 228 255
207 228 255
207 228 255
207 228 255
207 228 255
207 228 255
207 228 255
207 228 255
207 228 255
207 228 255
207 228 255
207 228 255
207 228 255
207 228 255
207 228 255
207 228 255
207 227 255
207 227 255
207 227 255
207 227 255
207 227 255
206 227 255
206 227 255
206 227 255
206 227 255
206 227 255
206 227 255
206 227 255
206 227 255
206 227 255
206 227 255
206 227 255
206 227 255
206 227 255
206 227 255
206 227 255
206 227 255
206 227 255
197 218 249
165 187 228
152 175 221
65 101 181
66 101 171
61 98 171
61 98 171
61 99 181
61 98 181
60 97 171
63 100 181
62 99 181
62 99 181
63 100 181
61 99 181
60 97 171
61 97 161
64 101 181
62 99 171
62 98 171
63 99 171
63 100 181
63 100 181
62 99 181
61 98 171
61 98 171
63 100 181
63 100 181
64 101 181
64 100 181
60 95 163
61 98 181
62 99 181
107 134 189
176 198 236
206 227 255
206 227 255
206 227 255
206 227 255
206 227 255
206 227 255
206 227 255
206 227 255
206 227 255
206 227 255
206 227 255
206 227 255
206 227 255
206 227 255
206 227 255
206 227 255
206 227 255
206 227 255
207 227 255
207 227 255
207 227 255
207 227 255
207 227 255
207 228 255
207 228 255
207 228 255
207 228 255
207 228 255
207 228 255
207 228 255
207 228 255
207 228 255
207 228 255
207 228 255
207 228 255
207 228 255
207 228 255
207 228 255
207 228 255
207 228 255
207 228 255
207 228 255
207 228 255
208 228 255
208 228 255
208 228 255
208 228 255
208 228 255
208 228 255
208 228 255
208 228 255
208 228 255
208 228 255
208 228 255
208 228 255
208 228 255
208 228 255
208 228 255
208 228 255
208 228 255
208 228 255
208 228 255
208 228 255
209 228 255
209 228 255
209 229 255
209 229 255
193 202 198
171 170 114
172 167 111
161 160 104
175 172 114
165 163 105
168 165 111
174 168 111
161 160 104
172 168 107
165 162 99
169 165 105
165 164 111
162 161 102
172 167 95
177 172 108
167 165 102
178 173 114
160 158 108
179 173 108
179 173 114
176 170 107
155 152 105
172 168 102
170 165 94
174 170 108
177 171 108
178 173 114
162 160 99
170 168 108
170 167 102
161 155 84
173 166 102
171 167 95
180 172 102
181 174 108
174 170 108
174 169 102
182 173 102
179 172 102
180 172 102
165 162 94
174 171 114
163 162 105
186 175 102
181 173 108
168 165 88
166 162 72
175 168 88
176 171 108
172 167 95
172 167 95
179 172 108
178 173 114
175 170 102
174 170 108
172 169 108
166 163 87
173 169 102
182 174 108
179 173 114
173 170 108
159 156 83
178 171 102
183 175 114
178 173 114
173 168 95
169 167 102
167 163 80
177 170 102
179 174 114
182 174 108
179 172 108
173 167 88
170 164 95
178 171 107
181 174 114
177 171 102
173 169 102
169 164 87
174 168 95
178 170 95
178 172 108
170 166 94
184 176 114
172 167 95
175 170 102
176 171 108
173 168 95
175 169 95
180 172 102
181 172 102
180 173 108
180 173 108
178 172 108
175 168 108
175 172 114
180 172 102
166 160 88
177 171 102
168 163 95
186 176 108
171 166 88
176 170 102
169 166 95
178 172 108
172 168 95
169 163 102
172 167 95
175 170 102
176 170 102
173 168 102
185 174 102
175 170 102
174 169 102
178 172 108
183 201 217
174 195 204
175 195 191
181 200 217
176 199 228
181 201 228
172 194 204
177 198 217
181 200 217
171 193 191
177 197 204
179 198 204
183 201 217
185 201 204
173 195 204
183 202 217
178 199 217
180 200 217
177 196 191
173 194 191
182 202 228
172 194 204
174 191 191
171 193 191
180 199 204
176 197 204
185 204 228
177 197 204
174 193 177
173 192 211
178 199 217
176 199 228
170 191 177
168 192 204
175 196 204
176 199 228
179 198 204
174 196 204
178 199 217
176 199 228
179 199 217
179 199 217
180 201 228
180 199 204
171 193 191
179 199 217
178 200 228
176 198 217
173 195 204
184 203 228
190 206 228
167 192 204
182 202 228
171 193 191
164 183 204
182 200 204
173 195 204
176 198 217
173 193 217
166 185 161
175 193 217
184 203 228
176 191 165
165 184 177
174 191 184
171 191 211
169 193 204
180 200 217
169 190 217
182 202 228
174 196 204
173 193 204
173 194 191
176 197 217
168 191 191
172 196 217
177 198 217
179 199 217
178 197 219
180 200 217
164 183 204
169 188 177
181 200 217
171 190 180
176 195 223
175 196 204
171 195 217
178 192 207
179 200 228
164 185 184
181 201 228
157 179 191
168 190 217
174 196 217
175 195 191
180 198 219
164 186 198
174 195 204
176 199 228
168 191 191
172 195 217
175 190 194
162 181 196
163 183 187
174 193 207
179 200 228
177 198 217
179 200 228
178 199 217
174 196 217
163 184 217
174 194 223
174 198 228
168 189 211
159 181 211
168 191 223
184 206 234
191 212 242
209 229 255
209 229 255
209 229 255
209 229 255
209 229 255
209 228 255
208 228 255
208 228 255
208 228 255
208 228 255
208 228 255
208 228 255
208 228 255
208 228 255
208 228 255
208 228 255
208 228 255
208 228 255
208 228 255
208 228 255
208 228 255
208 228 255
208 228 255
208 228 255
208 228 255
208 228 255
208 228 255
208 228 255
207 228 255
207 228 255
207 228 255
207 228 255
207 228 255
207 228 255
207 228 255
207 228 255
207 228 255
207 228 255
207 228 255
207 228 255
207 228 255
207 228 255
207 228 255
207 228 255
207 228 255
207 228 255
207 228 255
207 228 255
207 228 255
207 227 255
207 227 255
207 227 255
207 227 255
207 227 255
207 227 255
207 227 255
206 227 255
206 227 255
206 227 255
206 227 255
206 227 255
206 227 255
176 198 236
108 135 198
88 119 189
62 99 181
63 100 181
63 99 171
63 99 169
63 100 171
64 100 171
63 99 171
63 99 171
61 99 181
61 97 161
61 98 181
63 100 181
62 99 181
65 101 181
60 97 171
63 100 171
62 99 181
61 98 171
61 97 161
61 98 171
64 100 171
63 100 181
63 99 171
60 96 161
62 99 181
62 98 161
64 100 181
63 100 181
61 98 171
62 99 171
63 99 171
64 101 181
61 98 181
64 99 173
60 97 171
124 148 191
197 218 249
206 227 255
206 227 255
206 227 255
207 227 255
206 227 255
207 227 255
207 227 255
207 227 255
207 227 255
207 227 255
207 227 255
207 227 255
207 227 255
207 227 255
207 228 255
207 228 255
207 228 255
207 228 255
207 228 255
207 228 255
207 228 255
207 228 255
207 228 255
207 228 255
207 228 255
207 228 255
207 228 255
207 228 255
207 228 255
207 228 255
207 228 255
207 228 255
207 228 255
207 228 255
208 228 255
208 228 255
208 228 255
208 228 255
208 228 255
208 228 255
208 228 255
208 228 255
208 228 255
208 228 255
208 228 255
208 228 255
208 228 255
208 228 255
208 228 255
208 228 255
208 228 255
208 228 255
208 228 255
208 228 255
208 228 255
208 228 255
209 228 255
209 229 255
209 229 255
209 229 255
209 229 255
209 229 255
198 213 223
192 198 184
154 154 102
174 171 114
148 148 99
162 161 108
179 173 114
162 162 111
167 165 111
173 170 108
168 166 102
173 170 108
176 171 108
182 174 108
171 165 102
177 173 114
174 169 102
177 172 114
169 167 102
179 172 108
171 165 105
167 163 102
176 171 108
172 168 102
176 171 108
185 176 114
180 173 108
177 172 108
177 170 102
170 165 108
172 169 108
173 171 114
175 170 102
175 171 108
172 167 111
164 162 105
172 169 108
179 173 114
166 161 95
173 171 114
179 172 102
171 167 111
177 171 102
180 174 114
180 173 108
174 169 102
164 161 80
168 165 95
170 168 108
181 174 114
179 172 108
172 167 111
186 177 114
172 168 102
170 167 95
181 174 114
176 171 108
169 166 95
163 160 97
169 166 95
173 169 102
179 173 108
181 173 108
180 173 108
177 171 102
177 172 108
177 172 108
169 164 105
172 168 102
177 170 101
169 164 105
181 174 114
176 169 102
178 172 108
171 167 102
174 167 102
178 172 108
178 172 108
175 169 95
174 170 108
178 171 102
175 169 95
180 173 108
179 173 108
180 174 114
175 169 102
180 172 102
173 170 108
175 170 108
176 170 102
179 172 108
162 161 102
176 171 108
169 165 88
176 169 95
175 170 102
175 167 102
177 172 114
178 170 95
172 168 102
183 174 108
176 169 95
180 173 108
175 171 108
177 172 114
174 168 95
185 175 102
173 171 114
181 172 102
184 173 95
180 169 108
173 168 95
170 168 108
173 166 102
178 173 114
173 168 95
179 172 102
182 174 108
176 195 191
179 199 217
177 197 204
172 193 191
180 198 204
183 201 217
187 204 228
177 197 204
177 197 204
174 196 204
168 191 191
174 196 217
175 195 191
182 201 217
171 194 204
181 200 217
175 194 177
176 197 217
170 191 177
172 193 191
180 200 217
168 189 204
183 203 228
174 194 191
172 197 228
181 202 228
176 195 191
182 200 204
166 185 161
169 191 177
169 189 204
172 194 204
180 200 217
170 191 177
172 194 191
173 195 204
190 206 228
165 191 204
175 197 217
170 193 191
183 200 204
178 197 204
179 200 228
175 197 217
180 199 204
187 205 228
175 197 217
178 198 204
175 197 217
188 205 228
176 194 177
174 198 228
175 196 204
176 193 191
178 199 217
179 199 217
169 192 191
157 178 177
176 199 228
174 194 191
171 191 204
175 197 217
183 201 217
167 189 194
175 191 194
173 196 217
166 189 211
166 186 191
179 199 217
166 188 217
169 192 191
166 188 204
180 200 217
185 202 217
166 188 217
179 196 207
180 201 228
167 188 198
174 195 204
175 196 204
177 195 207
172 195 204
177 198 217
177 195 223
178 199 228
175 196 204
173 192 211
169 190 194
176 198 217
161 180 198
160 179 200
167 186 200
161 181 198
179 201 228
162 184 177
168 190 211
168 191 223
162 183 204
177 198 217
175 198 228
159 181 211
175 194 217
179 199 217
164 184 216
177 195 217
176 198 217
178 197 204
161 182 211
163 183 204
179 200 228
163 182 211
178 198 217
156 179 204
177 199 228
179 200 228
181 200 217
177 199 228
169 191 223
195 215 242
209 229 255
209 229 255
209 229 255
209 229 255
209 229 255
209 229 255
209 229 255
209 229 255
209 229 255
209 228 255
209 228 255
208 228 255
208 228 255
208 228 255
208 228 255
208 228 255
208 228 255
208 228 255
208 228 255
208 228 255
208 228 255
208 228 255
208 228 255
208 228 255
208 228 255
208 228 255
208 228 255
208 228 255
208 228 255
208 228 255
208 228 255
208 228 255
208 228 255
207 228 255
207 228 255
207 228 255
207 228 255
207 228 255
207 228 255
207 228 255
207 228 255
207 228 255
207 228 255
207 228 255
207 228 255
207 228 255
207 228 255
207 228 255
207 228 255
207 228 255
207 228 255
207 228 255
207 228 255
207 228 255
207 228 255
207 228 255
207 228 255
207 228 255
197 218 249
139 163 214
107 133 189
64 100 171
61 97 171
62 99 179
64 101 181
64 101 181
60 97 169
63 99 171
63 100 181
62 99 181
63 99 161
63 99 171
62 99 171
59 96 161
61 97 151
64 100 171
63 99 171
60 97 181
62 98 169
64 100 171
63 100 181
63 99 161
62 97 171
61 97 151
60 97 161
61 97 161
61 98 171
62 98 161
61 98 171
61 98 181
64 100 171
60 95 162
61 97 161
62 99 181
62 99 171
62 98 171
61 99 181
62 99 181
63 100 181
62 99 181
63 99 171
90 120 189
152 175 214
207 228 255
207 227 255
207 228 255
207 228 255
207 228 255
207 228 255
207 228 255
207 228 255
207 228 255
207 228 255
207 228 255
207 228 255
207 228 255
207 228 255
207 228 255
207 228 255
207 228 255
207 228 255
207 228 255
207 228 255
207 228 255
207 228 255
207 228 255
207 228 255
207 228 255
208 228 255
208 228 255
208 228 255
208 228 255
208 228 255
208 228 255
208 228 255
208 228 255
208 228 255
208 228 255
208 228 255
208 228 255
208 228 255
208 228 255
208 228 255
208 228 255
208 228 255
208 228 255
208 228 255
208 228 255
208 228 255
208 228 255
208 228 255
208 228 255
209 229 255
209 229 255
209 229 255
209 229 255
209 229 255
209 229 255
209 229 255
209 229 255
209 229 255
209 229 255
194 208 221
171 170 125
172 170 114
165 164 111
162 162 111
174 167 95
159 157 108
179 173 114
174 170 108
183 175 114
172 169 108
168 164 110
168 162 88
179 172 102
182 175 114
185 175 108
179 172 108
172 167 111
172 166 109
175 172 114
168 164 105
173 167 111
175 170 102
176 171 108
173 170 108
175 171 108
171 165 105
186 177 114
170 169 108
167 165 111
172 168 102
161 161 105
180 173 108
176 169 111
184 176 114
180 172 102
172 166 108
171 165 105
167 162 92
176 172 114
164 162 105
180 173 108
166 164 111
170 165 105
168 165 95
176 169 95
174 166 108
167 163 99
173 169 102
177 172 108
178 172 108
175 170 108
184 175 108
177 172 114
179 172 108
185 174 102
174 169 95
178 172 108
174 167 108
159 159 104
183 175 114
176 169 95
173 167 95
178 171 107
175 170 102
175 171 108
164 160 102
166 165 95
175 168 111
182 175 114
170 168 102
176 171 108
179 173 108
174 169 102
176 169 95
178 171 102
177 170 95
178 172 108
162 161 80
182 174 108
184 175 108
179 172 108
180 173 108
181 173 102
185 174 102
170 164 95
182 173 102
185 173 95
177 170 102
178 171 102
177 172 108
177 171 102
176 170 102
175 170 102
175 170 102
186 176 108
170 162 88
178 172 108
179 170 95
175 170 102
169 164 102
169 165 88
174 168 95
174 170 108
172 168 102
170 166 95
184 175 114
174 171 114
183 173 102
180 173 108
169 163 80
173 168 95
173 168 95
168 165 95
180 172 102
173 167 88
166 164 88
175 171 108
171 166 88
178 199 228
170 193 204
170 193 217
173 195 204
173 195 204
176 198 217
180 201 228
171 192 177
178 196 177
180 201 228
180 197 217
172 190 191
174 195 204
184 202 217
176 196 191
176 198 217
175 197 217
170 192 191
180 199 204
180 201 228
181 201 228
184 202 217
177 198 217
174 196 204
172 195 204
177 196 191
179 198 204
180 199 204
174 195 204
167 189 177
177 196 191
184 202 217
175 196 204
160 185 211
173 194 191
172 190 204
172 195 204
175 197 217
167 192 217
172 191 204
168 188 191
180 200 217
164 186 204
176 196 204
178 196 191
172 192 177
180 200 217
174 193 177
181 199 204
180 201 228
168 191 223
168 189 161
175 197 217
180 200 217
171 190 180
181 199 204
177 197 204
173 193 217
179 199 217
176 196 204
171 193 191
169 192 191
167 188 191
175 196 204
180 201 228
174 194 177
180 199 217
180 200 217
169 192 217
175 194 177
170 188 191
177 197 204
172 194 204
174 195 204
170 191 211
180 201 228
178 198 204
180 200 217
169 190 204
163 184 184
173 195 204
175 198 228
171 192 217
177 198 217
173 196 217
176 195 191
165 188 211
182 201 217
176 199 228
164 185 184
175 195 191
171 191 211
178 199 217
159 178 207
175 197 217
175 196 204
167 190 217
167 189 211
165 189 217
172 193 221
168 189 211
164 188 223
173 196 217
172 193 221
175 198 228
176 199 228
182 202 228
166 186 213
175 195 191
161 186 211
160 183 217
164 185 217
166 189 223
175 196 204
168 189 211
165 189 223
177 199 228
166 186 213
160 180 212
185 207 237
202 222 248
209 229 255
209 229 255
209 229 255
209 229 255
209 229 255
209 229 255
209 229 255
209 229 255
209 229 255
209 229 255
209 229 255
209 229 255
209 229 255
209 228 255
208 228 255
208 228 255
208 228 255
208 228 255
208 228 255
208 228 255
208 228 255
208 228 255
208 228 255
208 228 255
208 228 255
208 228 255
208 228 255
208 228 255
208 228 255
208 228 255
208 228 255
208 228 255
208 228 255
208 228 255
208 228 255
208 228 255
208 228 255
208 228 255
207 228 255
207 228 255
207 228 255
207 228 255
207 228 255
207 228 255
207 228 255
207 228 255
207 228 255
207 228 255
207 228 255
207 228 255
207 228 255
207 228 255
207 228 255
207 228 255
207 228 255
152 175 220
89 119 181
60 96 151
62 99 171
60 97 161
62 99 171
62 99 171
62 99 171
62 99 171
61 97 159
62 98 161
62 98 171
61 97 161
61 98 171
61 98 161
60 96 151
61 98 171
64 101 181
62 98 179
62 98 161
63 100 181
60 97 171
63 100 181
62 99 181
60 96 161
62 99 181
61 98 161
61 97 161
63 100 181
63 99 161
63 99 171
61 97 161
62 99 171
63 98 173
63 100 181
63 99 171
64 101 181
63 100 181
63 100 181
60 94 130
60 97 171
62 98 171
60 96 151
58 94 161
63 98 173
61 99 181
107 134 189
176 197 228
207 228 255
207 228 255
207 228 255
207 228 255
207 228 255
207 228 255
207 228 255
207 228 255
207 228 255
207 228 255
207 228 255
207 228 255
207 228 255
207 228 255
207 228 255
207 228 255
208 228 255
208 228 255
208 228 255
208 228 255
208 228 255
208 228 255
208 228 255
208 228 255
208 228 255
208 228 255
208 228 255
208 228 255
208 228 255
208 228 255
208 228 255
208 228 255
208 228 255
208 228 255
208 228 255
208 228 255
208 228 255
208 228 255
208 228 255
208 228 255
209 228 255
209 228 255
209 229 255
209 229 255
209 229 255
209 229 255
209 229 255
209 229 255
209 229 255
209 229 255
209 229 255
209 229 255
209 229 255
209 229 255
209 229 255
209 229 255
184 185 153
160 158 108
167 164 111
183 175 114
169 165 111
173 170 108
164 162 102
146 145 89
159 157 108
171 169 108
166 161 92
151 150 105
174 171 114
168 165 95
163 163 111
177 172 108
170 168 108
171 169 108
163 161 104
180 174 114
174 168 95
162 161 105
175 170 102
169 164 102
175 171 108
171 168 102
170 168 102
174 169 102
183 174 108
169 166 95
179 173 114
178 171 102
183 175 114
178 172 108
183 173 102
171 168 102
167 164 111
181 174 108
170 164 102
186 177 114
176 171 108
174 169 107
175 167 102
174 169 102
176 172 114
172 167 94
179 171 102
178 171 108
175 169 95
179 171 102
167 165 95
170 165 105
180 172 102
169 164 102
179 172 108
178 171 102
178 169 95
173 171 114
178 172 108
179 172 108
173 166 102
174 169 102
177 171 108
182 174 108
177 172 108
173 168 101
175 170 102
177 170 95
176 170 102
177 171 108
172 168 102
174 168 95
171 164 95
175 169 95
172 166 101
178 171 102
170 166 95
177 171 102
174 168 95
173 169 102
172 168 102
179 172 102
174 169 102
168 164 95
178 171 102
174 170 108
177 172 114
182 174 108
181 173 108
176 168 102
180 171 95
163 160 72
172 167 88
180 173 108
180 174 114
181 172 102
175 170 102
171 166 88
175 170 102
180 174 114
178 171 102
181 172 102
174 168 95
174 168 95
184 175 108
165 162 80
182 175 114
174 169 102
182 174 113
174 170 108
176 170 102
170 166 95
180 172 102
180 171 95
170 167 95
172 168 102
177 170 95
176 172 114
177 170 95
173 169 102
176 195 191
168 191 191
191 207 228
165 189 177
179 198 204
167 190 177
176 198 217
178 198 204
183 203 228
169 192 191
176 196 204
175 196 204
172 192 177
181 201 228
176 197 204
177 197 204
179 198 204
176 196 191
173 194 191
173 193 177
166 189 177
182 201 217
183 200 217
175 197 217
173 195 204
177 197 204
175 195 191
173 194 191
171 194 204
183 201 217
182 201 217
180 201 228
176 195 191
180 200 217
180 198 191
179 200 228
175 195 191
169 191 191
177 198 217
170 191 191
176 193 191
168 190 177
168 190 217
177 197 204
178 198 204
171 193 191
175 195 191
177 197 204
172 195 204
178 198 204
177 195 207
176 196 204
173 194 191
178 199 217
179 197 191
188 205 228
180 199 204
176 199 228
171 192 217
162 186 161
168 191 223
165 186 184
182 201 217
179 198 204
167 191 191
175 197 217
170 193 204
173 197 228
173 193 177
185 202 217
168 189 198
178 197 219
174 196 204
175 196 204
174 195 191
180 199 204
165 186 184
174 197 217
163 183 177
167 189 211
179 200 228
178 198 217
181 200 217
173 192 211
175 197 217
179 199 217
179 199 217
177 198 217
166 190 223
172 194 204
179 198 204
165 184 187
172 196 228
165 187 198
169 191 223
174 197 217
165 184 198
174 194 191
174 192 219
170 191 207
179 199 217
181 201 228
154 174 204
171 191 209
172 193 191
152 170 163
159 182 216
182 202 228
171 193 191
166 187 198
170 192 223
181 201 228
174 198 228
173 197 228
169 191 223
159 182 217
167 190 223
165 188 211
166 189 223
171 194 204
181 203 231
182 204 234
209 229 255
209 229 255
209 229 255
209 229 255
209 229 255
209 229 255
209 229 255
209 229 255
209 229 255
209 229 255
209 229 255
209 229 255
209 229 255
209 229 255
209 229 255
209 229 255
209 229 255
209 229 255
208 228 255
208 228 255
208 228 255
208 228 255
208 228 255
208 228 255
208 228 255
208 228 255
208 228 255
208 228 255
208 228 255
208 228 255
208 228 255
208 228 255
208 228 255
208 228 255
208 228 255
208 228 255
208 228 255
208 228 255
208 228 255
208 228 255
208 228 255
208 228 255
208 228 255
208 228 255
208 228 255
207 228 255
208 228 255
207 228 255
207 228 255
207 228 255
207 228 255
207 228 255
140 163 214
107 132 169
64 101 181
62 99 181
62 99 179
61 98 171
65 101 171
64 101 181
56 91 155
59 96 171
62 98 161
61 96 151
62 98 151
60 96 151
61 97 159
60 97 161
62 98 161
63 99 171
62 98 161
62 99 181
64 100 181
62 98 161
61 97 151
62 99 171
64 100 171
61 98 161
65 102 181
63 99 171
63 100 181
63 100 171
64 101 181
60 97 171
63 100 171
61 97 173
64 100 171
62 100 181
61 98 181
60 97 161
57 92 161
63 100 181
62 99 181
63 100 181
58 92 128
61 98 171
61 98 171
63 100 181
60 96 151
59 94 153
62 99 171
62 99 181
109 136 198
187 209 242
207 228 255
207 228 255
207 228 255
207 228 255
207 228 255
208 228 255
208 228 255
208 228 255
208 228 255
208 228 255
208 228 255
208 228 255
208 228 255
208 228 255
208 228 255
208 228 255
208 228 255
208 228 255
208 228 255
208 228 255
208 228 255
208 228 255
208 228 255
208 228 255
208 228 255
208 228 255
208 228 255
208 228 255
208 228 255
208 228 255
208 228 255
208 228 255
208 228 255
208 228 255
209 228 255
209 229 255
209 229 255
209 229 255
209 229 255
209 229 255
209 229 255
209 229 255
209 229 255
209 229 255
209 229 255
209 229 255
209 229 255
209 229 255
209 229 255
209 229 255
209 229 255
209 229 255
188 196 184
173 168 108
162 158 106
174 171 114
180 174 114
180 172 102
174 168 95
168 164 105
171 165 105
172 166 109
156 155 104
170 166 95
157 156 108
175 172 114
155 154 99
177 171 108
159 154 81
168 165 111
169 165 111
178 172 108
173 167 111
164 160 96
175 167 102
169 166 102
168 165 95
174 170 108
172 167 95
173 170 113
174 170 108
168 163 99
173 170 108
176 171 108
167 159 99
164 160 101
179 171 102
181 175 114
168 166 95
174 169 102
178 173 114
157 154 99
174 167 88
186 176 108
169 164 99
176 171 108
180 172 102
181 173 102
179 171 102
176 170 102
160 157 88
179 172 108
178 172 108
173 166 102
179 173 114
179 171 102
175 168 94
182 175 114
183 175 114
169 163 95
172 168 102
176 171 108
180 173 108
169 167 102
172 168 102
168 166 95
178 172 108
172 167 95
185 175 108
173 166 95
174 169 102
175 170 108
173 168 95
175 169 95
166 165 95
180 172 102
177 172 108
180 173 108
174 170 108
181 172 107
174 167 95
178 172 108
170 166 88
168 165 88
167 164 105
179 172 108
177 171 102
185 175 108
178 172 108
174 169 102
177 171 102
176 169 95
175 170 102
173 168 95
180 173 108
181 173 108
177 172 108
177 172 108
177 170 95
169 164 95
175 169 102
174 168 95
177 171 102
175 170 102
167 165 95
177 170 95
183 174 108
184 176 114
174 169 102
168 165 88
165 161 88
178 171 102
179 172 102
183 175 108
181 174 108
170 167 102
176 168 88
177 170 95
171 166 88
175 169 102
173 168 95
169 167 102
174 168 95
174 169 102
169 193 204
173 195 204
181 200 217
172 192 177
177 197 204
179 199 217
169 190 191
180 200 217
184 201 204
173 195 204
170 192 191
177 198 217
175 197 217
180 200 217
172 192 177
167 188 191
180 195 194
174 194 191
174 197 217
179 198 204
182 200 204
175 195 191
174 195 204
171 194 204
177 197 204
168 191 191
182 200 204
168 191 191
177 198 217
184 202 217
179 197 191
173 194 191
183 201 204
166 189 177
177 198 217
179 197 191
176 197 204
173 195 204
173 193 207
173 194 191
173 195 204
182 201 217
176 197 204
180 199 204
172 193 191
176 198 217
165 180 129
182 202 228
183 201 217
172 191 191
165 186 191
174 195 191
178 197 204
177 199 228
172 195 217
171 191 177
170 189 180
163 184 177
177 198 217
182 201 217
178 199 217
179 197 219
179 199 217
177 199 228
181 200 217
174 194 191
180 200 217
171 192 177
172 192 207
176 197 204
168 192 204
172 193 191
177 199 228
170 195 228
182 200 204
173 192 204
172 192 177
174 193 204
178 198 204
164 188 217
178 198 204
172 194 204
184 201 204
172 194 204
179 198 219
172 196 217
180 198 219
172 196 217
178 199 217
176 198 217
182 201 217
173 197 228
172 193 204
164 184 204
166 188 211
165 185 211
169 192 191
172 192 211
175 195 219
172 191 191
175 195 191
173 193 223
179 199 217
173 196 217
171 190 207
157 181 217
175 195 223
168 191 191
173 193 223
175 197 217
145 168 184
170 193 204
166 185 216
175 196 204
176 197 217
157 179 212
163 187 211
162 183 217
175 198 228
159 177 194
180 201 228
181 201 228
180 202 231
208 227 253
209 229 255
209 229 255
209 229 255
209 229 255
209 229 255
209 229 255
209 229 255
209 229 255
209 229 255
209 229 255
209 229 255
209 229 255
209 229 255
209 229 255
209 229 255
209 229 255
209 229 255
209 229 255
209 229 255
209 229 255
209 229 255
209 229 255
209 228 255
209 228 255
208 228 255
208 228 255
208 228 255
208 228 255
208 228 255
208 228 255
208 228 255
208 228 255
208 228 255
208 228 255
208 228 255
208 228 255
208 228 255
208 228 255
208 228 255
208 228 255
208 228 255
208 228 255
208 228 255
208 228 255
208 228 255
208 228 255
208 228 255
208 228 255
166 187 221
88 118 181
59 96 161
62 99 179
66 102 181
61 98 179
64 101 181
62 98 171
62 99 181
62 98 169
60 96 151
58 94 171
61 99 181
60 95 140
57 93 165
63 100 181
61 96 161
64 100 161
59 97 171
64 100 171
61 97 151
63 99 171
63 100 181
60 97 169
63 100 171
62 97 151
63 99 171
64 100 181
63 99 171
62 98 161
65 101 171
62 99 171
58 93 151
63 99 161
63 99 171
63 99 171
61 98 171
62 98 171
60 97 161
59 93 151
57 94 151
62 99 171
64 100 171
62 98 161
61 96 163
62 98 161
62 98 173
63 99 171
61 98 171
63 100 181
63 100 181
63 100 181
62 98 161
63 99 171
125 150 206
187 208 242
208 228 255
208 228 255
208 228 255
208 228 255
208 228 255
208 228 255
208 228 255
208 228 255
208 228 255
208 228 255
208 228 255
208 228 255
208 228 255
208 228 255
208 228 255
208 228 255
208 228 255
208 228 255
208 228 255
208 228 255
208 228 255
208 228 255
208 228 255
208 228 255
208 228 255
209 228 255
209 229 255
209 228 255
209 229 255
209 229 255
209 229 255
209 229 255
209 229 255
209 229 255
209 229 255
209 229 255
209 229 255
209 229 255
209 229 255
209 229 255
209 229 255
209 229 255
209 229 255
209 229 255
209 229 255
209 229 255
209 229 255
209 229 255
202 214 223
177 177 135
146 147 99
176 172 114
172 167 111
182 175 114
176 171 108
169 165 111
170 169 114
169 166 111
169 165 108
164 162 108
168 164 105
166 162 107
175 171 108
163 162 105
154 155 105
165 164 111
166 163 105
160 157 105
176 170 102
165 163 105
164 160 97
156 156 105
181 173 108
170 166 95
155 155 105
163 161 99
170 165 105
165 161 102
179 172 113
169 165 110
159 155 88
172 165 105
172 168 95
170 165 105
176 171 108
175 168 111
181 173 113
170 166 108
168 164 105
176 170 102
167 163 108
173 168 101
169 164 102
178 172 108
180 173 108
180 174 114
175 171 114
178 173 114
171 167 111
183 173 107
173 169 102
173 168 101
166 162 96
167 164 105
188 177 114
173 167 95
182 175 114
186 176 108
176 170 102
177 172 114
164 162 102
171 166 95
179 172 108
182 172 95
172 168 95
175 170 102
177 172 108
177 169 95
172 167 95
168 165 108
179 171 102
168 163 88
176 171 108
174 169 102
185 175 108
178 172 108
174 167 102
172 167 95
179 173 114
174 166 95
179 173 114
177 173 114
181 173 108
164 162 80
177 170 95
178 172 108
171 168 102
180 173 108
184 175 108
186 174 102
174 168 95
178 170 95
181 174 108
179 171 95
167 166 102
178 171 108
175 170 102
179 172 108
175 171 108
167 164 88
164 157 88
180 173 108
183 175 114
175 170 102
176 170 102
162 163 95
171 166 88
171 167 95
172 167 95
178 170 95
167 163 80
171 167 95
174 167 88
176 168 88
171 167 95
178 171 102
179 172 102
182 174 108
175 170 102
166 164 88
177 170 102
176 169 95
176 197 204
166 189 177
172 194 204
178 199 217
183 202 228
171 195 217
174 193 177
175 196 204
182 202 228
179 198 204
176 198 217
173 195 204
176 199 228
176 197 204
170 192 191
184 202 217
184 203 228
172 192 177
178 196 191
174 195 191
178 198 204
175 196 204
179 197 191
170 191 177
175 196 204
172 192 177
176 196 204
178 200 228
182 199 191
174 195 191
165 189 177
184 203 228
179 200 228
170 192 191
181 200 217
176 199 228
178 200 228
174 195 204
171 189 177
175 195 191
175 194 177
173 195 204
175 196 204
175 195 191
180 198 191
176 198 217
177 198 217
177 197 204
178 198 204
171 193 191
178 198 204
182 201 217
163 184 177
180 201 228
178 198 204
170 190 211
166 188 211
185 200 219
172 195 204
168 190 177
168 191 191
176 196 204
182 200 204
162 185 191
173 195 204
177 197 204
172 192 177
179 199 217
172 190 204
169 189 198
175 195 191
165 187 180
177 197 204
162 184 184
161 184 184
171 194 204
177 198 217
171 192 177
165 187 198
164 184 211
184 201 204
178 200 228
171 191 204
177 197 204
174 196 204
182 202 228
177 196 191
180 199 204
175 195 191
176 195 191
171 190 204
162 182 184
177 196 191
170 190 198
179 199 217
171 192 223
170 190 211
175 196 204
147 168 169
171 190 198
177 193 198
182 202 228
160 181 198
163 182 191
178 200 228
168 191 191
171 192 223
175 194 223
171 194 204
175 197 217
174 196 217
145 171 211
167 185 187
171 192 221
172 195 217
170 192 223
172 191 211
175 198 228
169 190 211
154 174 184
160 182 211
173 196 217
167 189 211
158 180 204
196 216 242
210 229 255
210 229 255
210 229 255
210 229 255
209 229 255
209 229 255
209 229 255
209 229 255
209 229 255
209 229 255
209 229 255
209 229 255
209 229 255
209 229 255
209 229 255
209 229 255
209 229 255
209 229 255
209 229 255
209 229 255
209 229 255
209 229 255
209 229 255
209 229 255
209 229 255
209 229 255
209 229 255
209 228 255
209 228 255
208 228 255
208 228 255
208 228 255
208 228 255
208 228 255
208 228 255
208 228 255
208 228 255
208 228 255
208 228 255
208 228 255
208 228 255
208 228 255
208 228 255
208 228 255
208 228 255
198 219 249
166 188 228
61 99 181
61 98 171
61 98 171
64 100 171
62 99 171
60 95 171
62 99 181
63 100 181
62 98 171
61 97 161
65 101 171
60 95 161
59 95 151
62 99 171
62 98 161
62 98 179
64 101 181
63 99 171
61 97 161
60 96 161
62 99 171
65 102 181
62 99 171
61 97 161
63 100 181
59 95 151
63 100 171
60 96 151
64 101 181
60 97 161
63 99 161
62 99 171
62 99 181
61 97 151
61 97 151
65 101 181
65 101 181
62 97 151
61 98 171
64 101 181
62 99 181
61 97 151
61 96 161
61 97 171
63 99 171
63 99 171
60 96 140
63 99 171
64 100 171
62 99 181
61 97 173
59 92 147
64 100 171
60 95 162
60 94 162
59 92 151
124 146 186
208 228 255
208 228 255
208 228 255
208 228 255
208 228 255
208 228 255
208 228 255
208 228 255
208 228 255
208 228 255
208 228 255
208 228 255
208 228 255
208 228 255
208 228 255
208 228 255
209 228 255
209 228 255
209 228 255
209 229 255
209 229 255
209 229 255
209 229 255
209 229 255
209 229 255
209 229 255
209 229 255
209 229 255
209 229 255
209 229 255
209 229 255
209 229 255
209 229 255
209 229 255
209 229 255
209 229 255
209 229 255
209 229 255
209 229 255
209 229 255
209 229 255
209 229 255
210 229 255
210 229 255
210 229 255
210 229 255
195 203 198
158 157 108
174 168 111
160 158 108
148 147 93
170 166 111
162 161 105
163 161 99
161 157 102
148 149 105
175 170 107
176 171 108
158 156 102
179 174 114
177 171 108
165 162 105
154 150 102
175 171 108
168 162 94
153 150 95
173 169 107
168 166 101
176 171 108
176 172 114
179 173 114
178 172 108
174 168 111
177 173 114
162 159 108
163 161 80
174 170 108
144 142 92
171 167 95
178 171 102
179 172 102
147 145 88
169 166 95
184 175 108
173 166 105
177 170 107
160 158 92
175 170 102
178 173 114
184 176 114
175 169 95
170 165 88
167 162 80
174 171 114
172 167 95
167 163 88
178 171 102
176 171 108
180 173 108
163 161 95
172 168 102
176 168 88
178 172 108
172 168 102
164 160 88
177 171 108
167 163 95
181 172 95
174 167 107
172 169 113
170 166 94
182 175 114
162 159 62
173 169 102
181 173 108
181 174 108
176 169 95
174 170 108
176 170 102
183 174 108
174 169 102
161 160 99
162 160 92
174 168 95
179 171 95
173 167 94
168 163 98
173 168 95
177 172 114
182 175 114
171 164 94
179 173 114
175 167 88
174 168 95
173 168 95
184 176 114
173 167 88
180 174 114
171 167 95
174 169 102
160 158 88
175 171 108
183 173 102
182 174 108
178 171 102
174 169 102
175 169 95
177 172 108
181 174 114
173 167 94
182 173 102
174 169 102
181 174 114
168 165 88
177 171 102
183 175 114
166 164 88
169 164 80
166 161 88
186 176 108
171 167 95
168 166 95
182 174 108
176 166 88
169 166 95
179 171 95
174 169 102
176 170 102
164 159 80
187 176 108
169 165 88
177 196 191
181 199 204
174 194 204
180 200 217
173 195 204
172 192 177
172 196 217
171 192 177
175 197 217
176 197 204
180 198 191
181 200 217
173 196 217
172 194 204
178 197 204
176 196 204
179 199 217
175 198 228
178 197 191
183 201 217
176 197 217
179 198 204
181 200 217
174 193 177
175 197 217
172 195 204
174 195 204
182 201 217
172 194 191
168 189 161
172 194 204
171 193 191
175 196 204
179 198 204
168 189 204
173 193 177
170 192 191
169 186 148
177 195 177
174 194 191
164 182 177
178 196 207
181 199 204
175 196 204
175 195 191
177 196 191
169 188 180
167 190 191
174 196 204
179 199 217
180 201 228
174 192 194
171 192 177
173 195 204
182 201 217
181 199 204
171 193 191
179 198 204
168 192 204
174 194 191
172 190 198
171 194 204
176 197 217
176 197 217
178 199 217
181 202 228
178 198 204
178 199 217
182 202 228
177 199 228
173 194 191
181 201 217
164 181 169
178 194 191
178 196 191
159 182 183
175 195 191
175 196 204
154 174 151
183 203 228
175 193 211
174 196 217
160 183 184
175 195 191
172 192 207
186 203 217
176 195 217
183 201 217
179 199 217
172 192 207
170 193 204
168 191 223
156 178 191
172 191 191
180 200 217
180 195 194
168 189 204
173 192 211
167 188 198
176 194 204
183 202 217
164 184 216
179 198 204
177 199 228
160 180 191
173 193 207
167 188 198
168 190 211
174 191 213
158 180 184
148 167 184
168 188 191
155 176 211
169 191 223
167 189 211
160 180 198
167 190 223
163 185 204
180 200 217
168 190 221
160 182 217
166 188 211
170 189 198
179 199 217
171 192 223
182 201 226
210 229 255
210 229 255
210 229 255
210 229 255
210 229 255
210 229 255
210 229 255
210 229 255
210 229 255
209 229 255
209 229 255
209 229 255
209 229 255
209 229 255
209 229 255
209 229 255
209 229 255
209 229 255
209 229 255
209 229 255
209 229 255
209 229 255
209 229 255
209 229 255
209 229 255
209 229 255
209 229 255
209 229 255
209 229 255
209 229 255
209 229 255
209 229 255
209 229 255
209 229 255
209 228 255
209 228 255
209 228 255
208 228 255
208 228 255
208 228 255
208 228 255
208 228 255
208 228 255
199 219 249
108 134 196
65 101 181
63 99 171
64 101 181
62 98 179
59 94 140
61 98 171
64 100 171
63 100 181
61 97 159
63 99 171
64 100 171
62 99 181
61 97 151
62 98 169
63 99 171
64 100 171
60 96 151
61 97 161
65 101 181
63 99 171
61 98 169
61 98 171
62 99 171
62 98 161
62 99 171
62 98 161
63 99 161
64 100 171
60 95 153
63 100 181
61 97 161
64 100 171
64 100 171
64 101 171
60 96 163
64 100 171
62 98 171
60 97 161
61 98 171
63 99 161
60 95 163
63 99 171
60 95 153
64 100 161
61 98 161
62 98 161
63 99 171
64 100 181
60 96 140
61 96 163
60 93 142
60 96 151
63 98 173
61 97 161
62 97 173
60 97 171
58 93 162
62 99 181
108 135 198
188 209 236
208 228 255
208 228 255
208 228 255
208 228 255
208 228 255
208 228 255
208 228 255
208 228 255
209 228 255
209 229 255
209 229 255
209 229 255
209 229 255
209 229 255
209 229 255
209 229 255
209 229 255
209 229 255
209 229 255
209 229 255
209 229 255
209 229 255
209 229 255
209 229 255
209 229 255
209 229 255
209 229 255
209 229 255
209 229 255
209 229 255
209 229 255
209 229 255
209 229 255
210 229 255
210 229 255
210 229 255
210 229 255
210 229 255
210 229 255
210 229 255
210 229 255
210 229 255
210 229 255
182 187 181
164 163 109
171 167 111
166 164 111
167 164 105
151 150 105
176 171 113
171 165 108
160 157 102
166 162 99
177 172 108
170 166 111
169 163 95
162 159 96
163 161 99
166 160 89
166 163 108
177 171 108
163 162 105
163 159 89
180 172 107
163 160 101
172 166 105
156 152 105
172 168 102
169 163 96
180 173 108
172 164 95
170 166 111
179 171 95
172 166 110
176 170 102
169 166 102
177 172 114
158 157 88
173 170 108
164 161 99
164 161 96
169 165 108
180 173 108
174 166 99
164 161 101
159 155 92
171 162 80
160 158 84
172 169 102
178 171 102
177 173 114
168 163 95
169 165 88
176 170 102
177 171 102
177 167 102
160 158 62
177 169 88
181 173 108
178 172 108
151 150 80
162 158 80
177 171 108
176 171 108
170 163 88
173 166 102
171 166 95
184 176 114
179 170 101
174 168 95
167 165 111
182 174 108
171 166 88
176 170 102
178 172 108
172 167 102
183 174 108
174 167 95
182 174 108
182 175 114
178 172 108
170 167 95
174 169 107
174 168 95
183 174 102
178 171 102
174 168 95
176 170 102
170 168 102
178 173 114
181 173 108
171 167 95
176 169 95
167 163 80
177 170 101
172 168 95
179 172 102
170 166 88
162 161 80
171 166 88
175 170 102
181 172 102
177 170 95
179 172 108
175 170 102
180 169 80
179 171 102
171 167 95
181 174 108
175 171 108
178 172 108
189 176 102
166 161 95
174 168 95
170 164 80
168 163 80
182 173 108
184 175 108
182 174 108
166 165 95
177 171 102
169 164 95
174 170 108
173 170 108
170 166 88
173 168 95
175 171 108
170 166 95
171 166 88
175 195 191
183 201 217
183 202 228
178 198 204
172 192 177
155 175 102
183 203 228
167 187 191
165 189 177
180 199 204
167 190 177
175 195 191
178 200 228
181 200 217
171 194 204
177 196 191
186 203 217
174 191 177
186 204 228
180 200 217
169 190 177
173 196 217
175 197 217
169 190 161
173 194 191
170 192 191
173 195 204
171 193 191
186 204 228
177 198 217
185 201 204
178 198 204
169 190 194
176 197 204
174 195 204
175 196 204
173 195 204
180 199 204
180 197 204
168 188 180
169 190 204
172 195 204
172 195 217
176 197 204
178 200 228
179 198 204
171 189 184
179 199 217
172 193 191
167 189 204
185 203 228
172 194 204
172 195 204
181 200 217
180 200 217
177 199 228
178 197 191
180 200 217
177 199 228
173 195 204
166 187 180
177 199 228
180 200 217
184 201 204
178 198 217
175 196 204
166 188 211
174 196 217
184 203 228
163 186 198
179 195 194
180 198 204
176 198 217
169 190 211
177 198 217
171 191 211
166 188 204
174 197 217
179 199 217
167 191 191
178 200 228
175 194 223
178 197 204
176 194 177
183 201 217
177 197 204
178 195 194
177 198 217
181 199 204
172 191 194
174 196 204
179 199 217
172 193 191
168 189 191
172 192 211
177 197 204
171 190 191
172 194 204
170 191 204
182 202 228
165 184 194
164 187 209
184 203 228
177 198 217
168 187 184
171 191 211
183 202 228
179 200 228
180 196 177
171 193 191
176 197 217
181 198 219
183 201 217
176 199 228
143 165 204
173 197 228
170 192 223
153 174 211
158 181 211
165 188 211
161 183 211
166 188 204
168 190 211
162 183 217
151 174 211
164 187 209
174 197 217
210 229 255
210 229 255
210 229 255
210 229 255
210 229 255
210 229 255
210 229 255
210 229 255
210 229 255
210 229 255
210 229 255
210 229 255
210 229 255
210 229 255
210 229 255
209 229 255
209 229 255
209 229 255
209 229 255
209 229 255
209 229 255
209 229 255
209 229 255
209 229 255
209 229 255
209 229 255
209 229 255
209 229 255
209 229 255
209 229 255
209 229 255
209 229 255
209 229 255
209 229 255
209 229 255
209 229 255
209 229 255
209 229 255
209 229 255
209 229 255
209 229 255
188 209 242
62 100 181
62 99 181
60 97 171
60 96 151
63 100 181
59 97 171
59 96 171
59 93 161
64 100 179
64 101 181
61 98 179
62 98 161
63 99 161
61 96 159
61 98 161
59 96 151
60 96 151
61 97 151
62 98 161
64 101 181
62 99 181
61 97 151
63 99 171
63 98 171
63 99 171
63 99 171
62 98 161
62 98 171
62 98 161
63 100 171
58 94 140
59 95 151
62 99 171
60 97 161
63 99 161
61 98 171
60 96 161
61 96 161
59 95 161
66 102 171
61 96 151
63 97 163
64 100 171
61 97 161
64 100 171
60 97 171
63 100 181
64 99 161
62 98 173
62 99 181
60 96 140
67 103 181
62 98 173
64 101 181
61 98 171
61 98 171
63 100 171
60 94 164
61 97 173
63 100 171
60 94 142
106 130 174
199 219 249
209 229 255
209 229 255
209 229 255
209 229 255
209 229 255
209 229 255
209 229 255
209 229 255
209 229 255
209 229 255
209 229 255
209 229 255
209 229 255
209 229 255
209 229 255
209 229 255
209 229 255
209 229 255
209 229 255
209 229 255
209 229 255
209 229 255
209 229 255
209 229 255
209 229 255
210 229 255
210 229 255
210 229 255
210 229 255
210 229 255
210 229 255
210 229 255
210 229 255
210 229 255
210 229 255
210 229 255
210 229 255
210 229 255
210 229 255
210 229 255
206 224 245
190 183 135
161 158 108
178 173 114
169 165 109
174 168 111
179 173 114
168 165 111
172 168 102
123 129 95
138 139 89
170 168 102
166 159 102
155 152 102
164 159 105
142 142 102
167 165 111
157 154 95
151 151 88
158 156 103
174 168 111
174 169 101
159 157 105
167 165 111
168 162 95
174 169 102
172 165 99
180 174 114
174 168 108
175 171 114
177 170 101
170 167 95
181 170 102
172 169 108
175 171 108
173 165 99
185 176 114
169 164 101
176 171 108
175 167 88
173 170 108
175 170 108
179 171 102
168 165 111
160 156 99
178 172 108
181 174 114
170 165 80
164 161 99
170 165 102
172 165 102
165 162 105
178 171 107
178 172 108
179 172 108
164 162 80
158 158 92
164 160 99
172 167 95
166 164 88
180 172 102
173 168 95
180 171 95
178 171 112
173 169 102
172 166 88
176 169 95
175 170 102
180 172 102
180 172 107
179 172 108
178 170 95
178 171 108
171 165 102
172 167 95
179 171 102
178 170 95
172 168 102
174 168 95
170 166 95
179 172 102
173 165 72
176 169 95
170 166 88
174 170 108
171 166 108
175 169 95
176 169 95
174 169 102
177 173 114
168 162 88
178 171 102
170 166 95
168 165 88
173 167 102
190 178 114
182 174 108
179 171 102
170 165 88
174 170 108
180 174 114
174 170 108
177 170 95
184 175 108
169 164 80
160 156 80
174 170 108
168 166 95
179 171 95
170 167 102
172 166 88
165 163 88
173 169 102
181 172 95
171 168 102
184 175 108
182 174 108
174 169 102
182 174 108
182 175 114
173 167 88
179 171 102
166 162 72
173 169 102
179 172 108
172 167 95
180 173 108
188 177 108
176 198 217
179 200 228
179 198 204
174 193 177
179 199 217
183 200 204
178 199 217
170 192 217
173 190 177
175 195 191
168 187 177
163 186 161
182 200 204
183 201 204
182 201 217
177 197 204
167 190 177
180 200 217
181 199 204
180 198 191
177 197 204
174 195 204
169 191 177
178 199 217
172 190 161
176 197 204
173 192 194
178 198 204
172 191 217
180 198 204
175 193 194
183 201 204
161 185 198
179 199 217
178 199 217
172 190 191
168 188 191
167 190 204
180 200 217
180 200 217
168 185 191
179 199 217
178 196 191
171 194 204
170 192 191
177 197 204
175 197 217
177 197 204
172 193 191
175 195 191
172 193 191
167 190 177
179 198 204
180 200 217
174 197 217
165 188 204
178 196 191
178 198 217
172 191 204
171 192 177
174 196 217
175 198 228
178 198 217
175 197 217
178 199 217
163 185 198
161 185 198
171 194 204
180 201 228
169 192 191
170 194 204
178 196 177
174 192 161
167 189 204
171 194 204
175 191 180
176 198 217
173 193 223
176 197 217
177 194 194
177 197 204
155 178 151
176 198 217
175 196 204
171 191 211
158 180 204
174 197 228
180 200 217
170 191 191
179 200 228
177 197 204
169 189 204
159 181 211
175 193 209
182 202 228
177 197 204
175 197 217
173 194 191
179 198 204
173 193 177
183 201 217
166 187 191
175 191 213
175 193 194
171 194 204
172 194 204
177 198 217
173 193 223
161 181 191
165 188 204
156 178 191
169 191 223
175 194 223
177 199 228
171 191 211
175 196 204
161 182 204
174 197 228
163 184 211
171 195 217
163 184 217
156 180 216
158 180 198
168 191 223
169 191 223
172 196 217
168 191 223
172 194 226
206 226 253
210 229 255
210 229 255
210 229 255
210 229 255
210 229 255
210 229 255
210 229 255
210 229 255
210 229 255
210 229 255
210 229 255
210 229 255
210 229 255
210 229 255
210 229 255
210 229 255
210 229 255
210 229 255
210 229 255
210 229 255
210 229 255
209 229 255
209 229 255
209 229 255
209 229 255
209 229 255
209 229 255
209 229 255
209 229 255
209 229 255
209 229 255
209 229 255
209 229 255
209 229 255
209 229 255
209 229 255
209 229 255
209 229 255
154 176 220
63 99 171
64 100 181
60 96 161
60 96 167
58 94 157
63 100 179
62 98 179
60 95 151
62 98 169
63 99 169
63 99 161
64 101 181
60 97 171
61 96 171
59 94 165
62 98 171
62 98 171
61 98 171
62 97 151
64 101 181
61 97 161
63 99 171
61 97 151
63 98 151
61 99 181
63 100 181
63 99 171
61 97 161
61 95 151
59 96 161
63 99 171
64 99 161
61 97 151
63 99 171
61 97 151
63 100 171
61 98 181
60 96 151
60 95 140
60 96 151
61 96 163
64 98 163
59 94 161
65 101 171
60 96 151
63 100 171
64 100 181
55 89 129
63 98 163
61 97 151
61 97 161
57 90 151
63 99 171
59 96 171
64 100 171
62 98 161
59 95 140
62 99 181
57 89 143
64 101 181
62 97 173
63 99 171
62 98 173
62 99 181
154 176 221
209 229 255
209 229 255
209 229 255
209 229 255
209 229 255
209 229 255
209 229 255
209 229 255
209 229 255
209 229 255
209 229 255
209 229 255
209 229 255
209 229 255
209 229 255
209 229 255
209 229 255
209 229 255
210 229 255
210 229 255
210 229 255
210 229 255
210 229 255
210 229 255
210 229 255
210 229 255
210 229 255
210 229 255
210 229 255
210 229 255
210 229 255
210 229 255
210 229 255
210 229 255
210 229 255
210 229 255
210 229 255
210 229 255
208 225 245
184 180 135
151 150 105
152 153 102
150 149 103
172 169 108
171 168 108
176 172 114
171 166 109
169 166 111
166 163 105
164 159 102
171 169 113
179 173 114
159 156 105
169 165 111
153 152 99
174 169 102
164 158 92
171 167 108
179 173 114
166 163 102
164 159 102
167 164 105
165 162 103
172 166 110
170 166 101
173 170 108
175 168 111
168 163 105
175 168 111
171 165 102
173 168 95
163 158 101
166 161 92
169 167 102
167 162 99
178 172 108
178 172 108
164 159 105
170 166 95
170 167 102
175 170 102
182 174 108
178 172 108
170 167 107
178 170 95
169 162 88
161 158 80
169 162 87
174 168 108
173 169 102
188 178 114
175 171 108
162 159 92
161 157 95
172 169 108
170 168 108
175 169 95
174 170 108
182 173 102
174 169 107
166 162 95
170 167 95
172 167 95
164 159 97
170 166 95
185 176 114
176 170 102
178 172 108
172 166 107
183 175 114
165 163 88
180 172 102
176 169 95
182 174 108
176 169 95
173 170 108
154 153 80
181 173 108
178 171 102
177 168 80
172 167 95
175 170 102
176 169 101
162 161 80
173 164 95
179 171 102
181 173 113
181 172 102
170 165 80
174 169 102
180 172 102
179 172 102
176 170 102
174 168 95
176 169 95
181 174 114
180 173 108
177 172 108
182 173 102
173 169 102
170 166 95
175 169 95
176 169 95
164 160 88
170 167 102
174 169 102
179 172 102
166 162 87
180 173 108
174 166 80
180 173 108
179 171 102
165 160 88
180 172 102
172 166 88
178 170 95
180 174 114
166 165 95
164 161 72
175 170 102
167 165 95
167 163 80
180 171 95
178 171 102
172 167 95
168 166 95
179 172 102
173 193 177
171 194 204
172 193 191
175 195 191
181 196 191
178 199 217
172 194 204
174 194 191
174 193 177
172 192 177
167 190 177
181 200 217
177 197 204
179 198 204
179 198 204
178 197 204
177 197 204
182 202 228
162 186 204
172 191 161
174 195 191
168 190 177
166 187 161
176 197 204
181 198 191
169 192 191
175 192 209
173 194 191
178 196 207
171 193 191
179 198 204
183 200 204
175 194 177
174 192 194
175 196 204
172 194 191
169 188 180
175 196 204
179 198 204
179 194 193
173 195 204
179 199 217
174 195 204
175 196 204
174 196 204
168 186 177
167 188 204
180 199 204
176 195 191
180 196 194
177 196 191
181 201 228
177 197 204
172 193 191
175 197 217
176 199 228
181 199 204
167 191 191
180 201 228
183 201 217
177 197 204
174 195 191
165 186 191
176 194 194
177 197 204
169 188 191
176 195 177
168 191 191
165 186 191
174 194 217
171 190 198
159 183 184
174 195 204
174 192 194
171 191 204
174 193 204
170 188 196
175 195 191
183 203 228
159 180 199
170 191 211
167 190 223
173 195 204
184 199 204
154 177 198
175 194 204
173 195 204
170 192 191
175 196 204
163 187 204
158 178 184
169 189 191
172 193 223
158 178 187
177 198 217
174 188 180
173 192 211
176 198 217
169 190 209
167 189 211
168 190 217
169 189 198
174 197 217
170 191 217
177 197 204
171 191 211
175 194 217
164 184 211
154 178 204
160 181 204
169 193 204
188 204 217
170 191 211
168 190 211
168 189 211
157 181 217
162 183 211
177 198 217
162 182 204
152 173 198
157 178 198
162 181 200
148 172 211
162 183 217
171 192 223
164 184 217
181 201 228
145 166 203
149 173 211
197 217 245
210 230 255
210 230 255
210 230 255
210 229 255
210 229 255
210 229 255
210 229 255
210 229 255
210 229 255
210 229 255
210 229 255
210 229 255
210 229 255
210 229 255
210 229 255
210 229 255
210 229 255
210 229 255
210 229 255
210 229 255
210 229 255
210 229 255
210 229 255
210 229 255
210 229 255
210 229 255
210 229 255
209 229 255
209 229 255
209 229 255
209 229 255
209 229 255
209 229 255
209 229 255
209 229 255
209 229 255
140 163 212
62 99 179
61 98 171
56 89 149
57 92 163
61 98 179
61 97 161
59 95 159
58 95 161
63 98 169
63 99 161
61 97 169
61 98 171
59 96 161
60 97 161
63 100 181
63 100 181
62 98 161
62 98 167
63 99 151
59 95 151
61 97 169
60 95 140
59 94 128
63 99 171
60 96 140
62 98 151
62 98 161
64 101 181
63 100 181
62 97 151
63 99 161
63 100 171
64 101 181
62 98 161
60 97 161
61 97 151
61 98 171
60 96 151
60 96 151
63 99 161
61 98 161
62 99 171
61 96 161
60 96 151
63 99 171
59 95 171
64 100 171
59 94 128
62 99 181
60 95 172
62 96 153
63 99 161
60 96 163
63 100 181
62 99 171
63 100 181
59 92 140
61 97 151
61 97 161
60 95 162
60 96 171
61 96 171
61 97 161
61 97 151
59 95 173
62 96 165
108 132 184
209 229 255
209 229 255
209 229 255
209 229 255
209 229 255
209 229 255
209 229 255
209 229 255
209 229 255
209 229 255
210 229 255
210 229 255
210 229 255
210 229 255
210 229 255
210 229 255
210 229 255
210 229 255
210 229 255
210 229 255
210 229 255
210 229 255
210 229 255
210 229 255
210 229 255
210 229 255
210 229 255
210 229 255
210 229 255
210 229 255
210 229 255
210 229 255
210 229 255
210 230 255
210 230 255
210 230 255
189 196 184
166 159 105
174 171 114
170 165 105
177 172 114
174 170 108
169 166 111
149 148 99
139 139 92
173 166 105
167 165 111
160 158 108
180 172 102
162 159 92
175 171 108
154 153 102
178 173 114
170 168 108
157 155 99
157 155 95
174 169 102
167 164 105
168 163 99
160 155 95
168 161 95
175 170 102
175 168 108
161 160 98
183 175 114
164 162 105
178 170 95
172 168 102
169 166 111
162 158 83
171 166 111
172 168 102
162 158 102
179 173 108
167 164 105
169 165 95
177 172 108
172 169 108
178 171 107
171 165 102
177 169 95
181 173 108
181 172 102
174 168 95
182 175 114
177 172 108
180 172 102
170 166 95
164 160 92
169 164 102
173 166 108
176 171 113
168 161 88
177 171 102
178 170 111
174 169 102
177 171 102
180 173 108
166 162 99
167 162 88
177 171 102
181 170 94
170 168 108
183 175 114
188 176 108
175 171 108
173 169 102
180 170 94
153 151 84
173 167 88
176 171 108
165 164 95
169 166 102
177 170 95
159 155 80
170 167 102
170 164 102
166 161 84
180 173 108
175 170 102
181 174 108
174 169 102
178 170 108
177 170 102
180 171 95
185 175 108
177 171 108
178 170 95
185 174 102
180 170 88
173 168 95
175 171 108
183 175 114
182 175 114
186 177 114
178 171 102
177 171 108
170 165 88
179 172 108
176 170 102
178 171 102
178 171 102
171 166 88
171 166 88
173 168 95
179 171 95
166 164 88
188 177 108
181 174 108
179 171 102
173 168 95
185 176 114
173 168 95
174 169 102
174 168 95
182 174 108
172 167 95
169 164 80
178 171 102
166 164 88
175 169 95
180 172 102
175 169 95
175 168 88
187 176 108
170 165 80
177 197 204
178 199 228
177 196 191
176 197 204
175 197 217
179 197 191
169 187 161
169 192 191
181 199 204
184 202 217
174 194 191
174 197 217
167 188 161
174 192 204
184 201 217
170 190 204
169 189 161
180 197 191
169 192 191
175 195 191
176 193 161
166 187 191
161 183 177
181 200 217
181 201 228
168 187 161
177 197 204
172 192 177
171 192 177
162 186 161
173 194 191
171 190 161
174 194 191
176 196 191
176 195 191
178 198 204
178 197 191
170 192 191
173 195 204
178 198 204
182 202 228
174 196 204
185 204 228
168 190 177
177 197 204
186 204 228
170 188 165
180 200 217
179 197 191
187 203 217
162 183 169
175 196 204
184 203 228
177 194 217
157 180 169
170 191 177
171 187 177
178 198 204
169 191 177
175 196 204
181 200 217
175 197 217
161 185 198
179 199 217
166 186 184
169 187 177
178 199 217
179 199 217
181 201 217
171 188 165
178 199 217
177 194 161
170 188 191
171 193 191
184 202 217
181 199 204
187 204 217
166 186 177
175 193 191
183 199 217
174 196 204
155 177 184
164 185 184
176 196 191
170 190 194
167 187 191
168 188 198
168 189 161
176 198 217
179 197 223
178 199 217
162 184 183
175 196 204
179 199 217
173 196 217
172 191 194
179 198 204
165 186 184
170 191 211
173 194 191
168 190 211
171 190 191
167 190 223
162 183 216
155 175 191
163 187 204
165 186 184
174 193 217
168 191 223
172 197 228
164 182 198
159 179 184
173 195 204
160 184 204
175 194 223
178 199 217
156 179 203
164 183 203
152 173 198
172 193 223
178 199 228
156 180 217
159 182 211
177 198 217
170 196 228
149 170 183
164 187 209
165 184 211
180 201 228
153 179 217
181 201 230
211 230 255
211 230 255
211 230 255
211 230 255
211 230 255
210 230 255
211 230 255
210 229 255
210 229 255
210 229 255
210 229 255
210 229 255
210 229 255
210 229 255
210 229 255
210 229 255
210 229 255
210 229 255
210 229 255
210 229 255
210 229 255
210 229 255
210 229 255
210 229 255
210 229 255
210 229 255
210 229 255
210 229 255
210 229 255
210 229 255
210 229 255
210 229 255
210 229 255
210 229 255
87 117 188
60 95 165
55 90 163
59 96 167
63 98 151
61 97 169
59 95 159
61 98 169
61 97 161
60 96 169
63 100 171
60 97 169
60 96 151
65 101 181
60 97 171
60 97 179
62 99 171
62 98 161
62 99 171
65 101 171
64 101 181
63 99 161
63 98 151
64 100 171
61 97 161
61 98 161
60 95 161
60 96 151
60 97 161
60 96 151
62 98 161
59 93 151
61 97 161
62 98 161
63 99 161
64 101 181
58 94 140
65 100 161
63 100 171
62 98 161
62 98 161
63 99 161
62 98 161
63 100 171
63 99 161
66 102 181
59 96 151
62 99 181
61 98 181
62 98 161
60 96 140
59 95 161
64 100 171
60 96 151
63 97 153
61 97 151
59 95 140
59 93 153
61 98 171
59 97 171
62 99 181
61 97 161
61 96 153
59 96 151
60 97 181
59 92 142
61 94 155
63 98 173
63 97 153
108 134 191
210 229 255
210 229 255
210 229 255
210 229 255
210 229 255
210 229 255
210 229 255
210 229 255
210 229 255
210 229 255
210 229 255
210 229 255
210 229 255
210 229 255
210 229 255
210 229 255
210 229 255
210 229 255
210 229 255
210 229 255
210 229 255
210 229 255
210 229 255
210 229 255
210 229 255
210 229 255
210 230 255
210 230 255
211 230 255
211 230 255
211 230 255
211 230 255
211 230 255
211 230 255
177 190 194
154 152 105
168 164 105
169 165 111
166 159 105
168 160 105
162 158 106
158 157 108
161 158 108
139 141 99
161 158 108
165 160 108
167 164 105
136 135 91
172 165 99
173 168 95
164 162 105
171 166 111
161 160 95
176 169 111
148 146 91
177 170 102
173 166 105
172 166 88
180 172 102
141 140 96
176 172 114
178 170 111
167 163 103
174 168 95
165 161 92
167 165 95
180 173 108
163 159 102
172 168 102
174 170 108
172 167 111
180 174 114
176 171 108
170 164 104
166 163 105
176 170 102
173 169 102
166 163 105
162 157 92
166 164 88
174 169 102
174 166 95
163 161 95
174 169 102
167 162 95
170 166 88
147 146 67
172 167 88
169 164 104
174 168 95
175 169 95
162 160 92
178 170 108
178 171 102
175 168 88
166 161 95
170 166 88
175 170 102
172 167 95
172 166 102
186 176 114
169 163 95
166 164 88
144 140 88
163 158 81
180 172 102
190 178 114
171 165 105
183 173 102
184 175 108
173 169 102
170 165 102
175 171 108
169 163 98
178 172 108
170 162 88
172 167 95
179 173 108
170 164 95
177 171 108
171 168 102
167 165 102
178 170 95
172 167 95
170 165 88
173 169 102
182 174 108
171 166 88
173 166 88
179 171 95
179 171 95
175 168 88
169 165 88
174 168 95
164 161 95
179 172 108
173 165 102
179 172 108
182 174 108
174 169 102
172 165 95
173 170 108
183 173 102
178 170 95
172 166 88
176 170 102
170 165 88
170 165 88
178 171 102
172 165 80
172 166 88
177 172 114
173 167 88
187 177 114
180 173 108
171 165 88
174 168 95
184 174 102
174 168 95
167 163 88
183 173 102
181 173 102
176 169 95
177 170 102
177 170 95
165 185 177
169 190 161
173 194 191
174 194 191
176 197 204
185 204 228
181 198 191
186 203 217
168 186 191
181 199 217
176 197 204
163 185 144
171 189 177
173 194 191
179 198 204
172 192 177
175 196 204
181 199 204
166 186 144
174 192 161
183 202 228
173 193 191
187 202 204
172 193 177
185 201 204
163 183 177
174 195 191
176 196 204
171 192 177
175 196 204
170 192 191
178 194 194
186 204 228
170 190 177
181 199 204
177 198 217
180 199 204
176 194 177
179 199 217
171 191 217
182 201 217
173 195 204
172 194 204
173 191 191
172 193 191
176 195 177
176 197 204
172 192 211
185 203 228
176 196 204
172 190 204
183 201 217
182 201 217
175 197 217
168 188 198
171 190 204
176 192 180
170 190 198
175 195 191
168 187 191
160 180 198
182 202 228
171 191 194
162 182 161
167 183 148
172 189 194
181 202 228
173 194 191
164 183 204
179 200 228
173 195 204
171 190 204
162 184 177
182 201 217
173 195 204
174 191 204
179 198 204
154 171 153
177 197 204
169 187 216
179 198 204
161 181 191
166 184 211
171 194 204
170 190 198
181 199 204
173 194 191
173 196 217
182 201 217
160 181 153
176 196 191
174 195 204
178 199 217
167 189 204
162 185 198
184 203 228
182 200 204
170 190 217
170 191 211
145 165 169
158 179 191
166 184 204
174 197 217
168 187 194
161 181 198
165 186 191
152 173 204
152 172 198
168 185 203
170 191 177
166 188 211
177 195 217
181 200 217
174 197 217
181 198 217
160 179 177
185 204 228
173 192 211
175 196 204
172 195 204
156 177 188
167 189 219
149 172 209
175 197 217
162 187 211
161 183 217
163 184 217
154 179 217
153 174 203
158 178 209
177 198 217
197 217 245
211 230 255
211 230 255
211 230 255
211 230 255
211 230 255
211 230 255
211 230 255
211 230 255
211 230 255
211 230 255
211 230 255
211 230 255
210 230 255
210 230 255
210 230 255
210 229 255
210 229 255
210 229 255
210 229 255
210 229 255
210 229 255
210 229 255
210 229 255
210 229 255
210 229 255
210 229 255
210 229 255
210 229 255
210 229 255
210 229 255
210 229 255
190 210 242
108 133 175
63 99 171
58 92 153
59 96 167
61 97 169
63 99 169
62 97 151
62 98 169
62 99 181
62 98 171
65 102 181
61 95 161
62 98 169
60 96 161
64 100 171
62 98 161
64 100 171
63 98 151
61 98 161
63 99 169
60 97 161
63 99 161
62 98 171
65 100 161
64 101 181
63 100 181
63 99 161
63 100 171
60 96 151
61 96 140
58 94 140
63 99 161
60 96 161
61 98 171
61 98 161
60 97 161
62 98 171
63 100 181
62 97 151
64 99 161
61 96 140
61 98 171
64 100 161
63 100 171
59 94 128
62 98 171
62 99 181
62 97 163
62 99 171
63 99 161
64 101 181
63 99 161
61 98 161
64 99 161
62 97 163
63 98 173
62 97 163
63 98 173
63 100 171
62 98 161
64 101 181
63 99 161
64 100 181
62 95 155
60 94 130
64 101 181
60 96 151
60 94 142
60 96 173
62 97 173
62 96 163
61 99 181
200 220 249
210 229 255
210 229 255
210 229 255
210 229 255
210 229 255
210 229 255
210 229 255
210 229 255
210 229 255
210 229 255
210 229 255
210 229 255
210 229 255
210 229 255
210 229 255
210 230 255
210 230 255
210 230 255
210 230 255
211 230 255
211 230 255
211 230 255
211 230 255
211 230 255
211 230 255
211 230 255
211 230 255
211 230 255
211 230 255
211 230 255
211 230 255
189 196 181
176 172 114
158 157 105
180 174 114
170 166 111
161 159 108
123 126 82
166 163 105
146 148 105
162 159 108
143 143 102
172 168 102
166 164 108
172 166 88
167 162 96
167 163 105
171 165 105
161 158 105
176 172 114
167 165 111
158 153 92
168 164 105
182 174 108
166 162 96
152 149 95
175 169 101
175 166 95
171 165 102
167 163 108
146 146 93
148 147 95
166 162 104
158 158 97
172 167 111
175 171 108
169 162 106
169 165 105
168 165 88
183 173 102
173 169 102
177 171 107
167 161 84
181 174 108
173 167 108
182 173 102
175 168 95
174 170 108
160 159 99
185 176 114
170 166 88
176 171 108
174 168 102
173 167 88
174 169 102
173 166 95
176 168 105
179 172 108
179 172 108
177 171 102
173 167 88
173 167 107
176 171 108
180 172 102
180 172 102
166 162 87
167 165 95
178 171 102
174 167 88
177 170 95
170 165 105
171 166 88
171 163 95
163 160 92
185 175 108
185 176 114
172 165 99
185 176 108
169 165 88
175 170 108
171 166 105
184 176 114
165 162 80
186 176 108
177 169 88
179 172 102
168 165 88
176 170 102
179 172 102
179 171 102
181 171 95
175 167 102
174 170 108
173 168 95
175 170 102
162 155 88
177 171 102
185 175 108
185 176 114
176 169 95
166 161 92
171 168 102
175 170 108
177 171 108
179 171 95
175 167 94
170 166 95
175 169 95
174 165 79
177 169 88
179 172 102
174 168 88
177 170 102
167 165 95
170 165 88
174 169 102
168 163 80
185 175 108
178 173 114
161 159 80
169 159 80
174 169 102
171 168 102
161 157 80
171 166 88
163 157 72
179 172 108
171 166 88
174 168 95
165 159 62
175 170 102
183 173 102
186 177 114
176 194 204
174 195 204
166 186 177
176 193 177
176 194 191
178 199 217
178 196 217
180 200 217
176 196 204
169 189 204
174 191 177
178 199 217
167 190 177
178 198 204
178 197 191
177 198 217
170 192 191
178 198 204
179 199 217
168 190 177
177 196 191
175 196 204
177 197 204
160 182 177
175 195 191
178 198 204
166 189 177
178 197 204
169 191 177
168 187 191
185 202 217
179 199 217
177 198 217
181 199 204
169 189 161
179 199 217
179 198 204
176 197 204
172 194 204
173 194 191
185 202 217
179 198 204
177 195 191
174 196 204
178 197 204
177 196 191
174 194 191
174 197 217
170 191 177
181 198 191
180 200 217
167 187 144
181 198 191
171 190 198
187 204 217
180 200 217
180 197 207
179 199 217
173 191 191
175 196 204
173 191 180
172 196 217
172 194 204
180 200 217
174 194 191
174 193 217
173 195 204
171 189 177
178 198 204
162 185 191
176 191 165
169 189 198
168 186 200
180 197 223
176 196 204
161 183 177
174 196 204
177 198 217
164 184 161
182 201 217
162 185 191
164 186 180
180 201 228
171 192 177
178 197 204
166 186 184
150 168 144
179 199 217
178 195 219
163 184 184
165 187 191
175 196 204
179 199 217
178 198 204
163 186 198
170 189 191
163 186 198
176 198 217
170 190 211
162 184 191
165 188 211
169 190 211
169 191 223
142 163 184
176 197 217
176 195 191
169 187 209
160 182 217
159 182 217
162 186 211
161 183 211
170 190 194
173 192 211
159 178 186
156 180 217
171 190 198
152 172 196
170 190 209
170 192 223
163 186 206
156 179 203
176 199 228
156 179 204
148 166 184
144 163 188
158 180 204
174 197 228
154 178 204
155 180 217
159 181 211
173 197 228
158 180 198
183 203 233
211 230 255
211 230 255
211 230 255
211 230 255
211 230 255
211 230 255
211 230 255
211 230 255
211 230 255
211 230 255
211 230 255
211 230 255
211 230 255
211 230 255
211 230 255
211 230 255
211 230 255
211 230 255
210 230 255
210 230 255
210 230 255
210 230 255
210 229 255
210 229 255
210 229 255
210 229 255
210 229 255
210 229 255
210 229 255
190 210 242
87 118 189
56 91 149
58 93 155
58 94 157
60 96 159
64 101 181
58 93 154
59 95 159
61 97 151
61 97 159
61 97 169
64 100 161
65 101 181
60 97 161
61 96 140
61 97 151
62 98 161
62 98 151
62 98 161
61 98 161
64 100 171
62 99 181
61 98 171
60 96 151
64 100 171
62 99 171
64 100 171
59 96 161
64 100 179
63 99 169
58 95 151
60 95 161
62 98 161
63 100 181
59 94 128
61 97 161
60 97 161
63 100 181
62 99 171
61 98 171
62 98 161
60 96 151
62 98 161
60 96 151
64 100 161
64 100 171
66 102 181
58 93 142
60 93 140
61 95 142
63 99 161
62 98 161
61 96 140
62 99 171
62 98 173
59 95 140
63 99 171
63 100 171
61 96 153
61 98 181
60 96 151
61 96 140
62 96 163
60 96 173
65 101 181
60 96 151
60 90 137
61 99 181
61 93 130
60 95 161
64 100 171
64 99 173
58 93 155
125 147 182
210 229 255
210 229 255
210 229 255
210 229 255
210 229 255
210 229 255
210 229 255
210 230 255
210 230 255
210 230 255
210 230 255
211 230 255
211 230 255
211 230 255
211 230 255
211 230 255
211 230 255
211 230 255
211 230 255
211 230 255
211 230 255
211 230 255
211 230 255
211 230 255
211 230 255
211 230 255
211 230 255
211 230 255
211 230 255
211 230 255
183 186 167
172 167 111
170 166 111
145 143 99
152 153 99
169 164 105
160 158 105
152 148 95
125 128 86
153 152 93
175 171 114
172 165 102
162 158 106
168 162 95
180 174 114
162 157 99
165 164 111
159 154 97
167 164 105
169 164 99
171 166 88
147 147 99
163 158 102
172 169 108
169 162 80
162 156 88
172 164 95
160 160 99
176 171 108
156 154 92
156 155 102
165 163 102
140 141 99
180 172 102
177 172 108
177 170 108
178 171 102
176 169 101
158 157 90
180 173 108
164 164 95
170 163 95
157 153 95
166 163 105
165 163 95
179 171 102
166 161 105
181 173 108
175 170 108
171 165 95
175 170 102
161 158 84
176 171 108
176 169 111
181 173 102
174 168 95
178 170 102
171 163 89
169 163 96
181 174 114
177 171 102
178 172 108
165 161 88
176 168 102
178 172 108
185 175 108
170 167 95
168 165 95
167 160 80
181 173 108
162 160 99
161 161 88
170 165 94
176 170 102
173 165 105
174 168 94
169 164 99
178 170 95
177 171 102
175 169 101
170 167 95
174 168 95
175 168 94
181 172 102
168 162 88
186 176 108
169 166 95
173 166 80
179 171 95
179 171 102
172 168 102
181 173 102
175 169 95
158 154 62
180 172 107
167 162 88
170 167 95
164 162 80
178 172 108
176 170 102
170 165 95
180 172 102
170 167 95
171 166 88
183 174 108
184 176 114
178 173 114
163 157 87
177 168 102
176 170 102
174 167 88
179 171 102
165 163 88
178 171 102
182 174 108
175 168 88
172 167 88
167 158 72
175 170 102
181 174 108
171 166 88
177 170 95
175 169 95
162 160 95
169 165 88
176 168 108
175 170 102
173 170 108
178 172 108
179 171 102
178 170 95
177 170 102
172 167 95
163 186 161
179 198 204
180 200 217
180 199 204
184 202 217
174 192 161
164 184 191
170 190 204
180 200 217
170 192 191
167 188 161
169 188 191
176 197 204
173 196 217
170 192 191
170 191 177
174 194 191
173 193 177
176 196 204
172 192 177
174 194 177
169 190 177
176 196 204
185 203 217
170 191 177
175 197 217
182 199 219
179 198 204
175 197 217
183 200 204
161 182 169
176 196 204
174 194 191
177 196 191
174 195 191
171 192 177
177 196 191
169 193 204
168 188 144
174 196 204
162 181 161
169 192 191
176 197 204
175 195 191
182 202 228
178 198 204
177 197 204
175 196 204
180 200 217
181 201 228
176 198 217
182 201 217
184 203 228
186 203 217
164 185 184
182 200 204
179 200 228
174 193 177
179 199 217
163 185 191
173 194 191
164 188 177
172 192 177
167 185 191
176 196 191
172 192 177
158 180 153
174 197 217
176 196 191
171 190 191
171 191 161
171 191 211
168 184 198
175 196 204
177 196 191
188 205 228
183 201 217
167 188 204
168 187 184
178 198 204
161 180 198
168 190 207
173 191 204
171 192 177
175 194 177
174 192 191
158 181 169
157 177 169
174 190 191
169 185 194
173 192 211
178 196 207
176 196 204
166 184 187
155 176 198
165 187 191
161 186 211
168 190 217
159 177 161
179 198 204
178 199 217
167 189 211
157 178 200
171 191 204
173 196 217
170 189 191
168 188 204
174 194 223
154 176 177
151 172 191
170 192 223
158 178 190
179 200 228
160 182 198
170 192 223
169 189 198
157 181 217
153 174 204
158 181 217
163 186 191
153 176 190
159 181 203
161 182 214
170 192 223
168 190 211
173 189 211
169 191 223
129 151 177
163 187 211
150 172 204
150 173 184
180 201 228
162 182 206
174 192 223
211 230 255
211 230 255
211 230 255
211 230 255
211 230 255
211 230 255
211 230 255
211 230 255
211 230 255
211 230 255
211 230 255
211 230 255
211 230 255
211 230 255
211 230 255
211 230 255
211 230 255
211 230 255
211 230 255
211 230 255
211 230 255
211 230 255
211 230 255
211 230 255
211 230 255
211 230 255
210 230 255
201 220 249
64 100 179
62 99 179
58 93 172
60 96 151
56 90 144
61 97 161
61 99 181
64 101 181
62 99 179
59 96 169
61 96 140
57 90 133
65 101 171
63 100 171
61 98 161
61 98 171
60 96 149
60 96 151
63 100 181
64 100 171
64 100 171
62 98 161
60 95 140
63 100 181
61 97 161
63 99 161
60 96 151
62 98 159
63 99 171
62 98 151
62 99 171
64 101 181
60 96 161
63 98 161
61 96 140
65 101 171
65 101 181
63 100 181
62 98 151
64 100 171
63 98 151
62 99 171
59 94 140
64 100 161
61 96 153
63 99 171
63 99 171
63 100 181
64 100 171
63 99 161
64 101 181
63 99 171
62 98 171
62 98 151
61 99 181
60 97 171
58 94 128
63 99 171
64 98 171
63 99 171
60 97 161
63 100 171
59 94 153
61 97 151
60 95 151
63 99 173
59 94 153
55 88 141
62 97 163
62 99 171
62 99 171
63 100 181
64 100 171
59 90 133
56 88 143
87 114 165
201 220 249
211 230 255
211 230 255
211 230 255
211 230 255
211 230 255
211 230 255
211 230 255
211 230 255
211 230 255
211 230 255
211 230 255
211 230 255
211 230 255
211 230 255
211 230 255
211 230 255
211 230 255
211 230 255
211 230 255
211 230 255
211 230 255
211 230 255
211 230 255
211 230 255
211 230 255
211 230 255
211 230 255
185 191 181
168 165 111
168 164 105
166 160 96
172 167 111
170 165 105
160 158 108
146 145 93
156 155 105
164 160 105
174 169 102
167 164 111
165 163 111
134 135 85
167 164 105
161 159 92
141 140 93
175 171 108
162 158 99
152 150 103
141 141 99
166 163 108
160 156 99
170 165 105
156 151 99
173 167 108
169 162 94
165 160 95
167 161 99
170 164 102
179 174 114
166 162 99
164 161 99
187 177 114
166 162 99
173 165 99
166 161 95
168 163 99
173 169 102
173 169 102
175 170 102
151 150 76
162 159 92
171 167 95
171 165 99
175 170 108
178 173 114
171 168 102
176 171 108
176 168 95
176 170 102
161 160 104
171 165 87
166 163 94
178 171 102
161 159 72
177 169 111
170 168 113
176 171 108
167 162 102
178 172 108
160 157 72
181 173 108
170 163 88
169 166 95
172 166 94
176 171 108
184 175 108
176 170 102
175 170 102
179 173 108
172 163 88
172 167 95
176 169 111
168 165 95
185 175 108
179 174 114
181 172 95
178 171 102
173 169 102
162 158 84
174 168 88
177 171 102
179 173 108
179 172 108
179 172 108
184 175 108
177 169 88
174 170 108
183 175 114
169 164 80
178 171 102
177 169 88
165 160 88
176 170 102
177 170 95
178 171 102
171 168 102
163 160 72
175 169 102
170 165 80
175 170 102
175 170 102
172 167 95
172 167 88
178 172 108
174 168 95
181 173 108
173 168 95
174 167 88
174 169 102
164 162 102
174 167 88
168 163 72
172 169 108
177 173 114
184 175 108
179 171 102
172 167 88
176 168 88
172 167 88
173 167 88
173 169 102
169 163 72
173 169 102
173 168 95
187 176 108
174 168 95
178 171 102
180 172 108
173 166 102
175 169 95
174 170 108
166 161 95
174 193 177
171 193 191
178 200 228
160 179 144
168 189 161
167 189 177
185 203 228
184 203 228
182 201 217
169 189 161
170 189 144
177 195 177
177 197 204
174 195 191
167 188 161
182 201 217
177 195 177
176 195 177
179 200 228
183 200 204
165 186 191
159 181 177
177 194 204
178 197 191
176 196 204
180 200 217
163 185 192
179 199 217
178 196 191
175 194 177
176 197 204
172 192 191
179 198 204
173 190 177
173 191 161
172 194 191
176 194 177
176 197 204
171 192 177
178 197 204
175 194 177
178 197 191
177 197 204
177 199 228
176 193 191
160 180 125
184 202 217
177 197 204
177 198 217
176 194 177
173 192 211
174 194 191
169 191 191
160 178 156
178 196 217
171 193 191
175 195 191
177 197 204
169 189 180
167 188 144
172 192 177
171 191 161
171 192 177
167 190 191
166 188 211
167 188 198
160 183 177
181 197 207
169 191 177
158 177 169
179 195 194
171 192 177
176 198 217
167 184 168
165 184 198
181 200 217
162 183 161
179 199 217
161 183 177
175 197 217
178 198 204
168 189 161
161 180 169
177 194 204
161 183 184
167 185 200
167 189 204
170 190 211
170 188 184
160 183 184
178 198 204
168 186 169
164 183 191
160 183 184
156 176 177
170 186 191
164 184 169
176 197 204
174 197 217
155 176 204
157 180 204
174 195 191
162 181 184
181 200 217
175 196 204
172 192 204
169 191 223
181 197 223
162 183 217
151 173 161
165 187 198
161 182 198
154 177 184
157 176 169
148 171 198
157 176 194
162 181 191
161 184 196
165 184 216
178 200 228
171 192 223
163 184 216
159 179 191
175 196 204
161 182 204
156 179 204
124 147 178
174 194 223
158 182 217
145 169 196
169 190 211
146 171 209
156 180 209
173 197 228
159 181 216
212 230 255
212 230 255
212 230 255
212 230 255
211 230 255
211 230 255
211 230 255
211 230 255
211 230 255
211 230 255
211 230 255
211 230 255
211 230 255
211 230 255
211 230 255
211 230 255
211 230 255
211 230 255
211 230 255
211 230 255
211 230 255
211 230 255
211 230 255
211 230 255
211 230 255
211 230 255
108 133 188
59 95 140
61 97 169
64 100 179
59 94 137
62 98 169
63 99 161
61 97 169
61 96 140
57 91 151
60 97 161
63 99 171
62 99 181
62 96 171
62 98 171
64 100 171
61 98 171
63 98 151
64 100 171
61 98 171
63 99 171
62 98 161
60 95 149
64 100 171
61 96 151
59 95 140
63 99 161
60 96 151
64 100 171
62 98 151
61 97 161
61 98 171
61 98 171
62 98 171
60 95 140
63 99 171
61 96 151
63 100 171
63 99 171
61 97 161
63 98 151
64 100 171
62 98 161
60 95 140
61 97 151
62 99 171
62 98 173
63 98 163
62 98 161
61 97 161
61 97 161
62 98 161
57 92 161
62 98 161
61 96 151
62 98 161
61 97 151
63 100 181
62 98 171
64 101 181
60 94 155
62 96 151
61 96 163
60 95 140
60 96 140
61 95 155
60 96 163
60 97 171
61 97 161
61 96 140
62 98 161
61 96 163
53 82 132
58 92 154
64 99 173
60 96 161
63 96 163
107 131 171
211 230 255
211 230 255
211 230 255
211 230 255
211 230 255
211 230 255
211 230 255
211 230 255
211 230 255
211 230 255
211 230 255
211 230 255
211 230 255
211 230 255
211 230 255
211 230 255
211 230 255
211 230 255
211 230 255
211 230 255
211 230 255
212 230 255
212 230 255
212 230 255
212 230 255
212 230 255
166 177 177
157 157 108
143 141 93
152 151 105
140 141 99
152 149 96
155 154 95
166 164 111
123 127 93
152 150 103
157 154 99
147 147 99
153 154 102
150 147 88
150 152 102
157 155 95
173 167 111
163 158 105
168 163 102
181 173 108
170 164 108
167 163 88
173 167 111
176 170 102
168 163 99
142 141 95
153 152 92
161 157 102
173 169 102
149 148 95
175 170 102
154 147 93
173 166 105
169 162 88
173 164 102
160 157 105
182 174 108
155 152 92
180 173 108
159 160 105
169 164 80
181 173 108
178 171 107
174 170 108
179 174 114
178 173 114
173 165 95
156 153 92
176 171 108
167 160 88
172 167 95
181 174 108
168 165 88
169 167 102
162 158 88
184 175 108
174 167 102
178 170 102
171 165 108
174 168 95
177 170 95
172 168 102
161 156 75
171 166 88
173 169 102
171 165 102
170 167 95
179 172 108
170 167 95
180 172 108
171 165 108
174 169 102
172 167 95
174 168 95
175 169 95
178 172 108
176 171 108
180 171 95
172 166 95
178 171 102
175 167 105
174 170 108
177 170 102
184 175 108
172 166 80
169 164 88
182 173 102
177 170 95
179 172 102
171 164 95
169 163 80
174 170 108
174 169 102
182 174 108
167 162 80
166 162 72
170 165 88
179 174 114
175 168 88
179 173 108
171 164 95
178 171 102
177 170 95
174 167 88
183 175 114
185 175 108
180 173 108
180 173 108
177 172 114
177 169 95
166 162 72
175 169 95
174 168 95
169 165 88
177 172 108
165 163 88
171 168 102
180 172 102
177 170 102
170 165 80
177 171 102
180 174 114
169 164 80
179 172 102
180 172 102
171 167 95
170 165 88
174 168 95
182 170 102
170 166 88
176 170 102
182 173 102
165 160 88
172 167 95
174 167 88
174 197 217
175 195 191
180 200 217
168 191 191
160 180 144
171 188 161
176 198 217
177 197 204
176 198 217
172 193 191
180 199 204
184 202 217
179 199 217
179 197 191
179 198 204
178 198 217
181 200 217
179 196 217
173 193 177
180 199 204
165 185 178
178 196 191
184 202 217
181 200 217
169 192 191
179 198 204
176 197 217
177 196 191
184 203 228
175 195 191
178 197 191
167 187 144
191 207 228
180 198 191
171 192 177
180 198 191
174 196 204
174 194 191
165 186 144
172 193 191
173 194 191
180 200 217
181 196 194
167 183 161
169 189 191
175 196 204
180 200 217
168 190 177
169 192 191
162 185 144
169 187 177
176 194 177
181 197 177
178 198 204
174 193 177
167 190 223
175 197 217
179 199 217
175 195 191
178 198 204
176 196 204
168 188 180
174 196 204
180 200 217
179 199 217
178 197 191
171 192 177
178 200 228
170 190 161
176 197 217
170 188 191
181 201 228
171 190 191
171 187 180
176 198 217
172 192 177
172 192 211
168 189 161
182 200 204
175 195 191
180 199 204
154 173 184
181 199 204
162 183 177
166 187 191
173 193 217
182 201 217
164 186 191
163 183 161
175 197 217
175 197 217
170 190 198
170 192 191
169 192 191
168 189 211
167 186 183
181 200 217
178 196 223
169 187 194
182 201 217
175 196 204
159 183 191
166 185 169
169 192 191
148 170 196
168 190 223
136 159 186
158 177 211
163 180 156
170 194 204
168 189 198
159 184 198
158 179 153
175 197 217
174 193 211
167 189 211
169 190 217
178 200 228
163 187 211
147 167 198
177 198 217
146 168 191
169 190 217
159 182 217
153 177 204
179 200 228
153 173 206
138 159 181
153 174 208
147 169 193
132 154 195
135 158 186
146 169 204
148 171 198
172 192 211
200 218 245
212 230 255
212 230 255
212 230 255
212 230 255
212 230 255
212 230 255
212 230 255
212 230 255
212 230 255
212 230 255
212 230 255
211 230 255
212 230 255
211 230 255
211 230 255
211 230 255
211 230 255
211 230 255
211 230 255
211 230 255
211 230 255
211 230 255
211 230 255
211 230 255
107 131 177
60 95 165
57 92 159
61 97 159
61 97 169
61 95 151
60 95 140
59 94 155
62 99 171
60 94 151
64 99 161
63 100 179
58 92 151
64 100 171
61 98 171
59 94 128
63 99 171
61 97 151
59 95 159
61 98 161
63 98 159
63 98 171
64 100 171
60 97 171
61 98 171
62 99 171
61 97 151
61 97 161
62 99 181
63 99 161
63 100 181
59 94 151
63 99 179
60 95 137
65 100 161
59 96 161
58 92 114
60 96 140
58 93 128
60 96 151
61 97 151
61 96 140
62 98 161
65 101 171
59 94 140
59 96 161
62 97 151
64 101 181
61 96 151
66 103 181
61 98 161
62 97 161
64 100 171
57 92 151
57 92 141
62 98 161
62 99 171
61 97 161
59 95 140
63 98 163
59 95 151
62 98 161
64 100 161
63 100 181
59 92 142
60 95 140
61 98 171
62 96 151
58 90 156
63 99 171
62 99 181
64 100 171
60 97 161
64 99 151
63 99 173
64 100 171
65 101 181
61 97 173
58 93 162
126 150 198
211 230 255
211 230 255
211 230 255
211 230 255
211 230 255
211 230 255
211 230 255
211 230 255
211 230 255
211 230 255
211 230 255
211 230 255
212 230 255
212 230 255
212 230 255
212 230 255
212 230 255
212 230 255
212 230 255
212 230 255
212 230 255
212 230 255
212 230 255
212 230 255
185 192 182
149 148 99
166 164 111
131 133 96
145 142 95
141 140 95
165 160 108
176 172 114
134 135 96
173 168 111
185 176 114
138 139 92
147 144 92
161 156 99
169 164 105
181 173 108
156 151 104
179 173 108
173 169 102
162 159 92
179 173 114
154 153 92
160 155 99
178 171 102
149 146 89
163 156 93
182 173 102
168 163 95
177 172 108
146 145 92
181 174 114
151 148 99
173 169 102
157 154 90
172 165 102
172 168 102
151 150 99
172 168 102
163 161 99
169 164 104
177 170 95
180 172 107
170 164 104
168 165 108
174 171 114
167 162 95
177 172 108
176 170 102
179 172 108
173 167 95
174 168 95
176 171 108
177 171 108
176 170 102
179 172 102
180 174 114
176 169 95
166 160 92
168 164 105
176 170 102
175 167 108
169 161 84
179 174 114
180 172 102
157 154 88
169 163 95
172 165 99
181 173 102
172 166 105
164 162 87
175 169 95
170 165 88
172 166 94
172 168 102
174 169 102
172 168 102
174 169 107
169 164 102
170 166 95
164 163 88
178 172 108
165 161 95
170 166 94
173 170 108
173 168 95
179 171 102
176 166 95
172 167 99
175 168 88
166 161 88
164 161 79
171 165 102
173 167 88
176 170 102
167 161 62
172 166 102
174 169 102
174 170 108
179 171 95
169 165 88
176 171 108
168 164 80
176 168 94
175 170 102
177 170 101
182 173 102
181 173 102
168 166 102
165 161 72
172 164 88
174 167 88
178 172 108
174 167 88
181 173 102
160 158 88
170 166 88
172 167 88
181 173 102
173 168 95
174 168 95
173 167 88
176 170 102
171 164 72
171 166 88
178 170 95
170 166 88
173 167 88
169 165 88
169 162 88
165 163 88
172 166 88
176 170 102
184 175 108
178 172 108
172 167 95
172 168 102
167 188 161
172 190 191
176 196 191
174 194 191
177 197 204
181 199 204
178 197 191
167 186 177
171 193 191
183 200 204
173 195 204
160 183 177
164 187 191
164 187 161
179 198 204
175 195 204
181 200 217
172 192 177
174 194 191
175 197 217
180 200 217
170 189 191
180 200 217
172 190 161
180 199 204
174 194 177
171 193 191
173 193 218
175 196 204
179 200 228
170 195 217
178 197 191
167 187 144
179 197 204
175 198 228
176 196 204
171 190 161
174 195 204
172 194 204
167 188 144
179 199 217
185 202 217
171 188 165
181 198 191
179 194 180
169 191 177
177 197 204
178 199 217
168 190 177
178 199 217
180 196 204
173 192 217
179 195 194
172 186 177
168 187 177
180 199 204
183 198 207
167 189 211
170 190 198
176 196 204
175 193 191
170 187 161
174 195 191
176 196 191
174 194 223
175 195 191
180 198 217
181 200 217
176 196 204
172 192 177
184 202 217
164 187 204
160 180 193
169 191 177
177 195 204
172 193 191
183 199 204
165 183 177
169 190 161
183 199 217
171 195 217
176 195 207
159 177 161
161 182 169
174 193 177
177 196 191
170 189 177
168 186 161
175 193 204
169 186 177
186 204 228
157 177 169
175 198 228
174 192 217
151 170 135
179 197 191
156 175 139
184 203 228
162 186 211
179 197 191
166 186 184
136 154 161
169 190 217
146 163 153
170 187 200
165 187 209
167 191 191
167 189 204
157 178 188
153 173 169
165 187 198
139 160 177
162 182 187
164 186 191
156 176 204
169 192 191
147 169 184
165 188 211
158 181 217
165 183 206
164 186 198
157 179 211
172 193 223
163 184 217
163 182 191
159 181 204
148 172 211
172 192 217
171 191 211
148 171 198
136 156 196
148 167 198
139 161 197
146 168 181
149 171 198
148 168 204
200 221 248
212 230 255
212 230 255
212 230 255
212 230 255
212 230 255
212 230 255
212 230 255
212 230 255
212 230 255
212 230 255
212 230 255
212 230 255
212 230 255
212 230 255
212 230 255
212 230 255
212 230 255
212 230 255
212 230 255
212 230 255
211 230 255
211 230 255
180 200 234
60 95 173
64 100 181
59 95 159
59 93 161
59 96 169
65 101 171
62 96 157
61 97 159
61 98 179
61 97 169
63 99 161
63 99 161
63 99 179
61 96 147
61 97 161
59 95 140
57 92 151
62 96 151
60 97 161
61 97 151
61 97 161
64 99 161
61 97 151
63 99 179
62 98 161
59 94 140
62 96 140
61 96 140
64 100 161
59 95 151
61 98 161
61 96 140
61 96 140
60 95 151
61 97 151
61 97 151
58 93 151
60 96 149
62 99 171
58 92 114
63 99 161
61 97 151
58 93 161
63 99 171
64 100 161
65 101 181
62 99 181
63 99 161
63 98 163
61 97 151
61 96 140
61 98 171
63 100 171
56 91 151
58 94 140
60 96 151
60 96 163
64 99 151
62 97 153
62 98 161
55 87 114
59 93 142
63 98 151
62 98 161
61 98 171
62 98 161
63 98 163
63 100 171
56 89 140
60 96 171
57 91 140
63 100 171
58 91 152
60 94 155
59 94 161
61 96 153
59 94 161
60 94 153
61 96 153
58 94 161
139 158 193
211 230 255
211 230 255
212 230 255
212 230 255
212 230 255
212 230 255
212 230 255
212 230 255
212 230 255
212 230 255
212 230 255
212 230 255
212 230 255
212 230 255
212 230 255
212 230 255
212 230 255
212 230 255
212 230 255
212 230 255
212 230 255
212 230 255
182 191 182
151 148 100
147 147 99
152 152 95
147 146 93
160 157 105
143 142 95
165 162 103
149 149 105
153 149 96
134 134 92
148 149 105
150 149 95
170 165 108
170 166 108
154 155 106
171 164 96
173 167 108
157 155 89
176 170 102
157 155 102
180 173 108
161 156 88
180 170 108
155 154 96
159 155 88
174 168 95
176 170 102
171 165 102
170 166 111
161 158 102
166 163 109
165 161 95
170 163 89
165 163 105
165 160 90
173 167 94
172 166 88
170 165 105
168 163 99
163 161 99
168 166 95
170 165 105
163 160 95
167 162 95
176 170 102
171 165 99
161 157 87
168 164 102
176 169 95
163 162 105
173 165 95
180 173 108
175 168 88
174 168 108
177 170 102
166 164 88
170 167 95
178 171 102
174 169 102
177 170 95
176 170 102
176 171 108
177 169 102
179 172 102
173 170 108
180 174 114
157 153 94
174 167 95
153 154 80
163 159 84
174 168 95
172 167 95
160 157 95
170 165 88
172 167 88
178 168 95
179 172 102
173 166 88
173 166 80
174 166 87
169 163 95
174 167 95
183 174 108
180 169 95
180 173 108
178 171 102
188 178 114
167 160 84
166 158 91
174 167 88
170 162 88
176 171 113
174 171 114
172 165 102
180 173 108
170 163 88
173 166 102
178 171 102
178 172 108
175 168 94
183 174 102
178 172 108
170 165 88
180 171 95
178 171 102
180 173 108
176 170 102
182 173 102
165 161 72
177 170 95
172 166 88
173 169 102
182 173 102
162 157 76
173 169 102
176 169 95
169 163 72
171 166 88
179 172 102
174 168 95
172 167 95
158 157 88
180 173 108
177 169 88
176 169 95
183 174 108
176 169 95
167 164 88
177 167 95
177 172 108
179 171 95
181 174 108
168 163 95
184 176 114
180 173 108
175 170 102
183 201 204
179 198 204
167 188 161
170 193 191
175 196 204
175 195 191
181 200 217
180 201 228
182 201 217
180 198 204
175 195 191
170 190 161
170 190 161
181 199 204
190 206 228
179 194 180
173 193 177
176 195 191
169 191 177
181 202 228
171 194 204
182 200 204
169 188 177
173 196 217
171 194 204
170 191 177
176 192 191
170 191 177
162 181 177
174 194 177
176 196 191
171 193 191
173 193 177
176 197 204
173 191 161
175 196 204
184 202 217
172 194 204
161 181 144
175 197 217
167 186 161
173 193 177
174 194 191
183 200 204
172 193 191
164 184 169
171 190 180
175 195 191
180 200 217
178 198 204
171 189 177
175 196 204
173 195 204
157 179 153
154 174 184
173 192 217
172 193 191
173 194 191
161 179 169
172 193 191
159 182 177
170 191 177
176 196 191
169 191 191
185 203 228
167 184 184
161 184 191
184 201 204
178 193 180
172 194 204
163 181 165
172 193 191
169 188 144
169 193 204
164 186 144
164 184 207
179 197 191
171 193 191
167 187 191
162 179 200
167 186 183
182 202 228
183 202 228
167 185 177
167 188 204
161 179 165
156 175 169
176 196 204
159 179 191
174 194 191
175 195 191
175 195 219
174 193 204
168 187 184
167 185 198
154 174 198
168 190 217
177 196 191
166 186 177
180 201 228
168 188 204
167 186 191
164 186 198
172 191 191
167 188 198
163 181 198
177 198 217
161 179 204
167 185 204
148 171 191
170 190 204
168 192 204
150 172 198
181 200 217
158 180 204
173 194 191
159 179 184
158 179 191
166 187 198
163 187 211
144 167 190
161 182 203
138 161 191
156 178 191
148 171 198
164 184 196
157 175 203
150 174 177
152 174 209
167 187 184
169 191 223
149 172 203
128 150 183
138 162 204
147 165 200
137 158 184
132 153 194
200 221 248
212 231 255
212 231 255
212 231 255
212 231 255
212 230 255
212 230 255
212 230 255
212 230 255
212 230 255
212 230 255
212 230 255
212 230 255
212 230 255
212 230 255
212 230 255
212 230 255
212 230 255
212 230 255
212 230 255
212 230 255
202 220 248
89 118 179
60 96 167
60 96 167
62 98 167
64 100 179
57 92 144
62 98 169
58 95 159
61 95 169
63 99 177
59 93 151
60 95 157
62 98 169
62 97 149
60 97 169
62 98 169
63 100 171
60 97 161
61 96 149
63 99 161
60 96 159
60 96 161
62 98 171
62 97 140
62 98 169
61 97 151
62 99 171
57 91 140
63 99 171
61 97 159
62 97 151
63 99 161
59 93 144
58 92 140
62 97 151
63 99 171
60 94 151
60 96 151
59 95 151
59 94 128
62 99 171
58 94 128
62 98 151
60 96 161
58 94 140
60 96 151
58 89 117
59 94 128
63 99 161
64 100 161
63 98 163
61 98 161
60 96 140
59 96 161
64 100 171
60 95 161
60 96 161
61 97 140
61 97 163
62 98 151
58 94 128
63 99 171
61 96 163
59 91 135
61 97 173
62 97 151
58 93 151
59 96 151
60 95 153
63 99 171
59 95 140
63 100 171
64 100 181
58 93 140
59 91 140
60 93 151
61 95 142
57 92 152
58 93 161
61 97 173
53 84 117
110 135 182
202 221 249
212 230 255
212 230 255
212 230 255
212 230 255
212 230 255
212 230 255
212 230 255
212 230 255
212 230 255
212 230 255
212 230 255
212 230 255
212 230 255
212 230 255
212 230 255
212 231 255
212 231 255
212 231 255
212 231 255
212 231 255
212 231 255
160 161 126
167 164 111
171 166 111
134 132 90
132 129 80
124 126 92
135 137 93
155 154 102
165 162 103
136 137 96
176 171 108
161 159 102
162 160 95
161 160 102
171 165 105
170 165 105
172 166 105
157 155 102
148 144 99
136 138 92
152 151 105
158 155 99
144 145 97
131 132 88
147 142 90
160 157 84
167 159 99
159 156 99
158 158 99
171 167 95
163 157 95
168 162 95
177 171 102
181 172 102
169 160 102
156 154 95
164 162 102
171 165 107
166 161 95
180 173 108
166 161 101
161 157 99
164 160 92
162 159 92
177 171 102
144 141 84
176 170 108
173 166 102
159 154 105
150 151 95
171 166 88
176 170 102
173 167 95
155 152 80
165 162 88
155 152 88
178 173 114
169 166 95
188 177 114
160 155 88
177 171 108
163 161 99
167 163 99
173 167 88
171 165 88
171 167 95
176 170 102
174 167 88
168 165 88
163 157 83
175 170 102
175 169 95
179 171 95
176 171 108
165 158 95
172 166 88
179 173 114
169 165 95
175 170 107
178 172 108
163 159 88
172 166 88
183 175 114
167 162 72
177 171 102
180 172 102
172 166 88
174 169 102
176 170 102
172 166 88
159 154 92
167 164 95
170 165 80
182 173 102
169 164 80
177 169 88
175 171 108
172 168 95
178 169 88
164 158 80
177 171 102
178 171 102
171 167 95
158 154 88
174 170 108
180 172 102
183 174 108
177 170 95
169 165 88
156 155 80
179 169 102
163 160 72
177 169 88
171 163 88
185 175 108
174 167 88
181 173 108
175 169 95
173 169 102
166 160 88
181 173 108
178 171 102
173 168 95
163 160 95
174 168 95
176 170 102
179 171 102
181 174 108
178 171 102
170 166 95
175 166 95
170 165 80
177 171 102
175 169 95
173 164 88
169 164 80
184 175 108
178 197 191
176 193 204
167 190 177
178 197 191
184 202 217
175 195 191
168 190 177
172 192 177
175 196 204
177 197 204
174 191 191
178 195 177
175 196 204
173 193 177
177 196 191
184 202 217
182 201 217
175 195 191
175 195 191
170 191 177
177 198 217
177 195 207
168 193 204
178 199 217
171 191 177
181 199 204
179 198 204
170 189 144
170 191 177
177 196 191
179 199 217
174 194 191
181 199 204
176 195 191
173 194 191
170 189 177
168 189 161
173 192 194
182 201 217
169 186 177
179 198 204
172 192 177
165 185 165
176 194 211
175 195 191
174 194 177
176 196 191
166 184 184
175 196 204
165 187 191
167 191 191
174 192 191
168 189 161
171 189 177
171 194 204
178 198 204
177 197 204
177 197 204
172 192 177
171 192 177
162 184 177
179 199 217
174 193 194
174 196 204
174 194 191
174 196 204
188 205 228
159 182 177
181 201 228
175 196 204
177 197 204
168 186 177
182 201 217
165 186 144
162 183 169
163 184 169
180 200 217
162 181 161
164 185 184
170 190 204
155 174 153
167 182 177
183 202 217
172 193 191
171 192 217
178 197 204
172 190 191
172 192 177
157 177 156
180 194 180
174 194 191
168 185 191
165 187 191
149 170 191
179 199 217
175 194 177
171 191 204
161 183 183
166 185 148
178 197 204
148 169 183
158 179 161
154 175 204
179 199 217
171 190 198
172 194 204
169 190 211
160 183 184
176 196 191
163 181 190
164 183 198
159 181 168
175 196 204
163 182 191
168 190 211
166 184 204
175 196 204
170 190 217
139 159 172
159 181 209
158 178 177
174 195 204
164 186 191
169 191 221
164 187 217
166 187 198
131 154 191
148 170 191
165 181 204
150 172 198
146 169 198
173 193 223
154 175 161
166 185 216
163 183 198
157 176 209
146 169 205
120 141 174
209 228 253
213 231 255
213 231 255
213 231 255
212 231 255
212 231 255
212 231 255
212 231 255
212 231 255
212 231 255
212 231 255
212 231 255
212 231 255
212 231 255
212 230 255
212 230 255
212 230 255
212 230 255
212 230 255
212 230 255
88 116 182
60 95 161
63 99 179
62 97 157
60 97 161
59 94 137
64 99 161
62 98 171
60 96 167
64 99 169
61 96 140
56 91 140
61 96 157
61 96 159
61 96 140
60 95 159
61 97 161
62 97 149
58 92 149
62 97 161
59 95 161
61 96 151
60 95 151
60 96 151
62 99 171
63 98 161
66 102 171
60 95 128
62 98 161
62 98 161
61 97 161
63 99 171
63 98 161
65 100 171
60 96 151
62 99 181
63 98 151
60 95 128
59 95 140
65 101 171
59 93 151
61 96 140
62 98 161
58 93 128
61 97 161
62 98 151
62 97 151
63 100 181
56 89 99
63 99 171
54 87 99
63 99 171
61 97 151
64 101 181
58 94 161
63 100 181
60 96 163
63 98 151
62 96 153
64 100 171
60 96 151
61 96 163
63 99 171
63 97 142
63 99 171
60 94 140
60 95 153
61 96 171
63 99 171
63 99 161
64 100 181
60 93 155
62 97 161
61 95 140
62 96 161
62 98 161
60 93 144
59 92 133
56 90 162
61 97 173
55 87 134
61 93 147
55 86 133
107 131 173
212 230 255
212 230 255
212 230 255
212 230 255
212 231 255
212 231 255
212 231 255
212 231 255
212 231 255
212 231 255
212 231 255
212 231 255
212 231 255
212 231 255
212 231 255
213 231 255
212 231 255
213 231 255
213 231 255
208 225 245
181 181 151
151 150 102
126 129 93
170 166 111
140 141 102
153 150 103
130 133 99
154 151 103
159 159 95
142 143 88
125 129 88
170 165 102
165 159 105
149 148 96
130 130 82
158 154 99
149 147 92
163 157 92
141 141 92
152 151 88
174 169 102
182 174 108
163 157 103
156 152 80
137 135 93
153 150 99
179 171 102
158 155 102
167 162 99
165 160 102
146 143 99
153 148 88
161 158 108
158 155 95
181 174 108
133 135 80
164 159 88
159 155 96
157 154 88
152 151 84
160 158 90
170 164 99
170 165 102
173 167 94
167 160 99
158 156 80
158 155 80
176 172 114
161 157 95
176 171 108
173 167 88
170 163 88
164 157 72
169 164 102
174 168 101
175 169 102
175 169 102
163 158 80
155 151 102
171 166 88
175 171 108
174 168 95
175 165 88
173 165 102
174 169 101
172 167 95
173 167 88
185 175 108
175 169 95
182 174 108
176 171 108
179 172 108
177 171 102
152 150 90
173 166 102
166 164 88
166 163 80
176 169 95
175 170 102
166 162 99
178 170 95
168 164 102
168 164 102
176 168 88
166 162 88
172 166 88
176 168 88
178 171 102
177 172 108
162 161 80
167 163 101
175 170 102
175 168 88
182 174 108
177 170 95
173 169 102
174 167 88
166 162 72
178 171 102
177 170 95
180 173 108
174 168 95
174 168 95
170 163 80
180 173 108
173 167 88
174 169 102
184 176 114
176 169 95
183 175 108
167 163 88
172 168 102
169 163 102
176 168 88
173 165 95
182 175 114
182 172 95
176 169 95
177 171 102
181 171 108
171 167 95
166 165 95
175 170 102
179 173 108
174 168 88
180 173 108
169 163 72
180 172 102
181 174 108
165 161 95
172 167 88
167 163 80
181 172 102
170 166 88
187 176 108
180 173 108
175 169 95
176 169 95
174 196 204
177 197 204
183 200 204
167 189 161
177 198 217
186 204 228
175 196 204
174 193 191
162 186 161
173 194 191
175 192 191
159 180 125
173 194 191
185 203 228
168 188 161
160 184 144
168 190 177
171 192 177
178 198 204
165 184 148
177 198 217
166 188 204
177 197 204
174 195 204
170 188 177
171 191 177
169 190 177
174 195 191
178 197 191
172 192 177
177 194 204
177 196 191
181 202 228
168 188 144
174 196 204
179 199 217
167 186 191
172 194 204
171 192 177
181 199 204
177 197 204
168 188 144
167 187 192
183 198 177
180 196 211
184 201 204
177 196 191
169 191 177
181 199 204
176 194 161
176 195 191
168 188 144
185 201 204
167 190 177
161 180 177
171 190 191
174 192 198
180 199 204
175 195 191
181 198 219
174 195 191
178 199 217
188 205 228
185 203 228
148 163 141
171 191 161
171 194 204
172 194 204
180 200 217
183 201 217
166 186 177
170 188 161
158 175 165
180 199 204
163 181 198
170 190 161
166 188 161
162 185 198
153 175 177
174 194 191
177 195 204
169 190 211
167 187 184
176 194 177
163 186 198
156 178 198
153 172 161
177 194 211
174 194 191
172 191 198
175 194 177
168 190 211
178 199 217
181 199 204
174 190 177
165 182 171
172 197 228
170 190 198
155 176 184
166 188 204
172 191 191
183 200 204
150 169 172
185 202 217
158 180 153
174 191 213
168 189 211
177 197 204
167 188 191
140 159 169
174 190 191
141 161 175
167 188 196
153 176 190
143 166 183
144 162 184
180 199 204
151 173 198
169 189 198
155 174 204
152 174 209
165 185 211
166 185 216
161 183 217
164 185 184
149 171 196
148 167 196
162 182 198
168 190 211
163 185 204
165 187 209
174 198 228
161 184 205
168 191 223
130 152 194
125 151 196
105 128 151
154 176 199
175 193 219
213 231 255
213 231 255
213 231 255
213 231 255
213 231 255
213 231 255
213 231 255
213 231 255
213 231 255
213 231 255
213 231 255
213 231 255
213 231 255
213 231 255
212 231 255
212 231 255
212 231 255
212 231 255
127 150 196
57 92 161
61 96 151
63 98 159
62 98 171
60 96 171
61 96 151
63 99 171
60 95 149
60 97 169
62 98 161
60 95 147
63 99 179
64 99 161
60 97 161
62 97 157
59 95 149
62 97 149
59 96 151
63 99 171
65 101 171
57 91 128
64 101 181
62 98 151
61 98 161
61 97 151
57 91 137
60 95 149
64 101 181
62 98 151
63 100 171
60 96 140
59 95 140
61 97 169
62 98 161
59 94 151
64 100 171
60 95 140
62 99 171
64 100 171
62 98 151
61 97 159
65 99 171
59 92 128
62 98 151
64 100 181
61 95 140
60 97 171
55 89 114
61 97 161
61 97 161
63 99 161
65 101 171
62 97 140
61 98 161
61 94 153
62 97 151
64 100 171
62 97 173
62 98 161
63 99 171
61 96 140
60 96 140
63 100 171
62 97 171
56 91 117
64 100 161
63 99 171
60 94 140
65 101 171
63 98 173
62 98 161
59 93 153
61 95 161
63 98 173
62 98 173
60 94 155
60 97 171
57 85 124
62 98 161
61 94 163
58 92 142
58 92 151
59 90 135
55 87 143
168 187 217
212 231 255
212 231 255
212 231 255
212 231 255
212 231 255
213 231 255
212 231 255
213 231 255
213 231 255
213 231 255
213 231 255
213 231 255
213 231 255
213 231 255
213 231 255
213 231 255
213 231 255
213 231 255
163 171 162
168 165 111
131 132 95
152 150 99
152 151 95
142 141 97
140 138 90
160 156 102
158 152 81
132 132 93
176 171 108
139 138 89
149 148 99
160 152 96
155 150 95
156 154 99
164 159 102
162 159 88
159 155 93
165 162 99
171 165 105
164 158 96
159 155 72
161 159 92
168 164 105
157 153 88
170 162 106
171 167 111
145 143 84
126 126 72
178 171 102
169 167 102
153 154 99
173 168 95
169 160 99
171 166 88
153 151 89
166 161 97
153 151 105
169 163 99
168 164 102
184 176 114
177 169 95
150 146 88
172 166 105
159 156 101
178 171 107
179 171 102
167 162 88
173 167 95
176 169 95
164 159 102
179 171 102
154 150 80
157 155 76
171 164 99
177 169 95
168 164 110
159 154 85
179 171 102
172 168 102
186 176 108
177 171 102
151 147 84
171 165 80
173 166 95
180 173 108
172 165 95
175 170 102
154 152 84
161 155 88
164 161 99
166 162 95
168 163 99
175 170 102
173 167 94
174 167 88
169 164 88
162 159 79
168 163 95
184 175 113
167 166 102
180 173 108
173 168 95
181 173 108
164 159 80
162 159 88
165 159 95
175 169 102
169 166 101
175 169 102
167 164 88
179 170 88
176 169 95
172 166 88
171 166 88
171 167 95
181 172 102
175 169 95
181 173 108
181 172 95
164 161 72
176 170 102
172 167 95
178 172 108
175 168 88
176 168 80
172 166 88
169 166 95
174 167 88
177 171 102
173 168 102
169 164 80
175 169 95
175 168 88
177 171 102
181 172 102
176 169 95
171 165 102
176 170 102
172 168 102
181 172 102
184 174 102
178 169 94
164 162 80
171 162 88
168 162 88
176 169 95
178 172 108
173 169 102
173 168 95
183 175 114
175 168 88
172 166 88
178 170 101
174 168 95
172 166 80
169 167 102
179 171 95
166 187 161
182 199 217
163 182 161
172 191 161
168 186 177
168 188 144
187 204 228
174 197 217
172 195 204
170 193 191
176 193 161
180 198 191
174 196 204
177 197 204
172 192 177
167 188 161
178 198 204
163 185 177
169 191 177
179 199 217
180 200 217
181 199 204
171 186 178
178 197 191
177 196 191
176 195 191
169 190 161
172 192 177
176 197 204
160 179 125
178 197 204
183 202 217
174 194 177
172 190 191
174 191 177
178 197 191
168 190 177
170 192 191
180 199 204
169 189 161
168 188 198
181 199 204
177 196 191
176 194 204
177 196 191
170 191 177
176 189 180
175 196 204
183 201 217
167 190 177
177 196 191
166 182 180
180 200 217
179 198 204
173 192 161
181 201 228
186 204 228
179 199 217
171 192 177
177 197 204
167 185 177
180 200 217
174 193 194
174 195 204
170 189 191
177 198 217
173 192 204
162 178 165
173 192 177
171 189 192
181 199 204
168 185 209
169 187 165
170 191 177
169 187 177
166 186 183
171 191 211
177 198 217
179 198 204
167 189 177
176 195 217
169 189 144
173 193 177
183 202 217
166 186 184
182 201 217
176 193 204
177 197 204
170 192 219
174 194 191
173 194 191
176 196 191
184 202 217
176 195 217
157 179 191
172 187 196
169 189 198
173 193 221
158 178 177
164 184 204
148 168 187
171 190 198
154 172 153
140 159 169
179 198 204
175 193 211
173 193 217
177 198 217
167 185 204
166 186 184
167 186 191
172 192 177
160 181 211
168 187 184
121 140 150
129 151 177
151 171 183
181 200 217
151 173 198
182 202 228
161 183 211
150 171 190
185 204 228
173 193 221
149 171 191
154 176 184
143 166 183
152 176 200
171 191 209
159 180 198
142 165 176
145 169 206
118 140 169
173 193 223
166 187 198
141 163 196
149 172 204
166 188 211
146 171 209
183 203 223
213 231 255
213 231 255
213 231 255
213 231 255
213 231 255
213 231 255
213 231 255
213 231 255
213 231 255
213 231 255
213 231 255
213 231 255
213 231 255
213 231 255
213 231 255
213 231 255
142 164 198
59 95 175
61 97 167
59 93 155
61 97 159
61 98 169
64 99 169
61 96 159
57 91 133
61 97 161
62 98 171
63 99 169
61 98 171
61 98 161
63 98 169
59 95 157
59 94 137
62 98 171
66 101 171
61 97 151
63 98 169
62 98 151
64 100 171
61 97 151
61 97 171
63 97 161
62 98 161
60 95 128
58 94 161
60 96 159
64 101 171
60 95 128
65 101 171
60 95 140
62 98 161
63 99 161
63 98 151
61 95 128
62 97 151
59 95 140
62 98 169
61 97 151
64 99 161
62 97 171
62 97 151
65 100 161
62 98 161
60 96 151
61 98 161
61 95 140
62 98 161
60 95 128
61 97 161
62 98 161
64 101 181
56 89 114
60 95 153
61 96 161
60 95 161
62 98 161
62 97 140
63 99 161
62 99 171
61 96 140
64 101 181
61 96 140
58 92 141
60 93 142
60 94 162
62 97 171
63 100 171
63 100 171
64 101 181
63 98 163
60 95 153
58 89 154
60 94 151
62 95 142
58 93 162
57 90 117
63 98 163
63 97 161
62 98 173
59 90 128
60 93 144
60 92 144
89 118 181
169 188 215
213 231 255
213 231 255
213 231 255
213 231 255
213 231 255
213 231 255
213 231 255
213 231 255
213 231 255
213 231 255
213 231 255
213 231 255
213 231 255
213 231 255
213 231 255
213 231 255
163 170 160
160 157 105
156 156 108
152 149 100
165 164 111
157 155 99
127 129 93
132 132 93
146 147 99
153 152 88
159 155 102
144 143 80
170 166 111
146 145 96
175 167 108
141 139 93
141 140 97
140 139 93
164 161 99
154 150 95
175 169 95
162 159 92
176 167 95
162 159 108
171 165 95
175 171 114
152 150 102
172 164 92
178 171 102
162 159 92
171 166 111
170 164 80
163 159 99
170 164 99
168 164 105
166 161 95
174 170 108
180 173 108
168 165 95
181 172 95
162 159 89
172 165 104
163 160 92
164 159 87
154 151 95
181 174 114
165 162 99
170 164 99
164 159 88
175 169 102
175 169 95
170 165 80
149 147 60
167 162 95
176 171 108
178 171 102
162 158 81
158 156 80
164 162 105
157 155 72
177 171 102
177 170 95
174 168 95
181 173 108
179 171 102
166 162 80
163 158 102
181 172 102
172 166 102
177 169 111
164 160 101
172 166 102
162 160 95
174 168 95
159 157 92
173 163 81
174 168 95
173 167 88
177 170 102
176 170 102
177 167 95
185 176 114
170 165 80
175 167 80
187 177 114
173 168 95
170 166 88
173 167 94
164 160 88
180 172 108
165 161 88
172 167 95
175 165 87
182 174 108
178 169 102
186 176 114
174 168 95
180 171 102
173 169 102
176 169 95
168 163 80
174 167 88
176 169 95
158 157 92
169 163 72
175 171 108
175 168 88
181 174 108
175 169 95
171 166 88
172 167 95
175 169 95
167 163 80
181 172 102
168 166 101
180 172 102
182 173 102
175 168 88
171 164 72
182 175 114
173 168 95
175 169 95
165 160 95
174 168 95
178 170 95
174 168 95
171 165 80
171 166 88
157 153 72
176 170 102
175 169 95
169 165 88
169 165 88
174 170 108
172 166 88
180 173 108
178 169 88
169 164 80
170 165 88
180 172 102
179 197 191
177 195 177
177 198 217
182 202 228
169 190 177
184 202 217
170 191 177
174 193 177
175 197 217
173 195 204
164 187 161
171 192 177
167 189 177
165 185 144
178 198 217
172 191 161
176 193 161
171 191 161
177 196 191
181 199 204
173 194 191
158 179 177
174 196 204
176 195 191
178 197 191
173 190 191
176 195 191
169 186 177
176 195 191
172 194 204
177 196 191
177 194 204
178 197 191
160 179 191
179 198 204
180 199 204
170 187 148
171 194 204
176 197 204
170 191 177
165 181 161
173 190 177
159 177 144
173 191 161
168 189 161
174 196 204
180 199 204
182 201 217
170 191 177
166 186 191
173 195 204
172 190 180
178 195 177
173 194 204
181 199 204
172 193 191
170 189 191
174 195 191
168 191 191
171 192 177
174 193 177
162 181 198
181 197 177
174 194 177
181 199 204
160 179 177
176 196 191
177 196 191
176 197 204
174 194 191
176 192 161
155 177 144
166 189 177
179 196 207
164 187 198
168 188 204
180 195 194
167 187 191
177 193 198
172 193 191
176 196 191
159 178 183
173 192 161
176 193 194
169 191 177
173 194 191
159 177 161
188 205 228
168 188 198
167 191 191
164 187 161
174 195 204
181 200 217
134 157 175
170 191 217
165 185 216
176 196 191
162 180 204
161 181 198
172 193 191
176 195 223
163 184 169
163 182 184
172 190 177
154 174 191
158 183 198
157 172 161
166 185 169
171 192 223
173 194 191
160 180 169
180 200 217
151 172 177
140 158 160
162 180 183
163 184 177
143 168 196
155 175 169
158 176 203
162 183 217
155 176 177
150 170 183
166 189 217
166 185 198
169 191 223
162 185 198
162 182 204
170 191 211
154 173 203
148 171 203
148 167 191
139 157 190
152 170 178
145 168 184
100 123 163
134 155 191
140 164 204
154 175 209
129 150 189
147 170 207
198 216 241
213 231 255
213 231 255
213 231 255
213 231 255
213 231 255
213 231 255
213 231 255
213 231 255
213 231 255
213 231 255
213 231 255
213 231 255
213 231 255
213 231 255
213 231 255
86 114 155
59 93 171
56 91 137
61 98 169
58 93 137
60 95 173
58 92 144
60 95 155
60 96 151
60 95 167
60 96 151
62 98 171
59 95 149
60 97 161
62 97 140
55 90 140
60 97 161
62 98 169
60 94 140
59 93 137
62 98 151
61 97 159
62 98 171
59 95 159
62 97 151
57 92 151
60 97 161
64 100 171
62 97 161
60 95 128
61 97 151
61 96 171
64 100 171
61 97 151
61 97 151
63 100 171
65 101 181
59 94 161
64 99 151
59 95 140
59 95 140
60 96 175
62 98 151
63 100 181
61 97 161
64 100 171
61 98 171
60 96 151
66 101 171
62 98 161
62 98 161
60 95 140
64 101 181
62 98 161
65 101 171
61 98 161
61 97 161
60 95 140
61 97 161
61 97 151
56 88 129
62 98 161
60 97 161
61 95 151
62 98 151
60 96 140
59 94 128
61 96 140
58 92 114
59 93 140
60 94 130
63 99 171
61 97 151
58 91 130
63 97 153
61 97 161
61 96 163
56 91 141
60 94 140
61 96 161
61 94 144
60 94 142
62 97 172
57 90 117
62 94 157
60 92 133
56 86 139
127 148 184
192 211 237
213 231 255
213 231 255
213 231 255
213 231 255
213 231 255
213 231 255
213 231 255
213 231 255
213 231 255
213 231 255
213 231 255
213 231 255
213 231 255
213 231 255
176 190 203
165 162 103
154 154 103
134 136 88
163 159 108
141 142 102
147 147 103
110 117 76
137 137 92
142 142 99
130 131 89
172 166 109
171 165 99
155 153 93
142 140 86
163 157 92
152 152 92
168 165 111
167 161 105
146 143 76
148 146 96
162 158 88
151 149 99
174 168 111
158 152 92
151 150 103
157 155 99
186 176 108
171 168 102
186 177 114
163 158 102
160 156 99
157 153 84
169 165 95
155 153 95
174 168 95
180 173 108
169 163 105
166 164 88
175 170 102
175 169 95
170 165 105
174 168 95
173 168 102
165 158 88
162 159 92
157 152 95
175 169 95
178 172 113
168 165 88
163 157 80
160 157 102
169 166 95
172 168 102
176 170 102
182 174 108
187 176 108
171 166 88
172 165 95
177 170 102
171 163 101
178 171 102
153 149 72
182 174 108
172 165 102
162 157 96
173 165 95
175 169 95
160 155 75
163 160 95
167 162 92
176 168 94
170 164 80
164 159 88
152 150 88
164 161 95
180 173 108
173 169 102
167 162 96
163 154 79
167 164 88
160 155 92
154 151 84
177 169 95
188 177 108
178 171 102
170 165 88
174 167 88
175 170 102
171 167 95
174 166 88
180 173 108
181 172 102
173 169 102
180 172 102
173 168 102
172 166 95
182 173 102
154 152 56
180 172 102
166 163 95
183 173 102
164 156 80
173 164 88
177 169 94
174 168 95
174 169 102
185 175 108
178 172 108
183 174 108
174 168 95
173 167 88
176 170 102
175 168 88
183 173 102
173 167 88
179 171 95
176 170 102
176 168 102
165 162 80
175 167 102
176 169 95
170 167 95
177 169 95
169 165 88
171 166 94
174 167 108
160 156 80
173 167 88
168 166 95
166 163 80
175 168 88
176 169 95
154 152 72
167 164 88
181 174 108
169 165 88
178 169 88
174 167 88
175 169 95
186 175 108
172 190 177
176 196 204
165 185 177
173 193 191
172 192 177
187 205 228
173 193 177
179 198 204
177 196 191
170 191 177
177 196 191
170 191 177
169 191 177
178 198 204
174 194 177
181 199 204
168 191 191
173 195 204
181 197 207
176 194 177
173 193 177
173 189 161
176 190 161
180 199 204
177 196 191
178 195 177
173 194 191
164 185 191
172 191 177
170 192 191
173 191 191
174 193 194
164 186 144
180 198 217
165 186 144
178 194 204
180 200 217
171 193 191
179 198 204
180 201 228
170 190 161
173 193 177
171 190 144
156 176 102
174 192 161
180 200 217
176 196 204
183 201 217
171 193 191
174 189 177
177 197 204
171 190 198
170 189 204
175 194 191
174 192 194
178 196 207
184 199 207
168 186 161
164 183 177
180 200 217
173 194 191
166 186 191
175 196 204
181 200 217
170 189 177
174 193 177
183 201 217
177 194 191
182 201 217
175 195 191
173 194 191
161 180 107
179 198 204
178 195 211
173 188 177
178 195 204
157 175 177
173 194 191
155 177 183
163 183 169
179 196 207
173 191 198
153 172 177
180 197 191
157 178 184
166 182 184
182 202 228
164 188 177
172 191 204
169 189 198
177 197 204
183 201 217
156 176 161
167 187 144
176 198 217
182 198 207
156 180 169
165 186 184
166 187 198
161 181 144
185 203 228
168 185 180
155 176 174
168 187 184
169 190 211
156 178 184
171 193 191
162 178 125
176 194 211
144 165 171
155 176 169
162 185 198
170 190 204
151 174 177
133 151 163
151 174 186
129 149 161
168 187 217
143 163 198
166 181 194
172 192 211
122 144 145
138 159 169
165 185 217
159 180 161
152 173 165
172 193 223
161 180 177
158 183 198
152 172 191
172 193 221
153 175 194
92 119 175
127 149 186
139 162 160
165 189 223
143 166 192
143 163 200
136 159 188
165 185 216
170 190 221
214 231 255
214 231 255
214 231 255
214 231 255
214 231 255
214 231 255
214 231 255
213 231 255
213 231 255
213 231 255
213 231 255
213 231 255
213 231 255
213 231 255
169 188 226
56 91 159
60 95 172
62 98 171
57 93 155
58 93 137
58 92 149
59 94 155
64 99 151
59 93 128
56 90 137
63 99 161
63 98 149
62 98 161
65 100 159
64 100 171
61 97 169
63 99 169
61 98 171
60 94 114
63 100 181
63 100 171
66 102 181
60 96 140
59 95 149
61 98 161
64 100 161
58 91 125
56 90 128
61 97 161
62 97 151
60 95 161
63 99 171
60 96 151
63 98 151
62 98 151
62 98 151
59 93 128
62 98 161
59 93 114
62 98 161
65 101 171
60 95 171
62 98 161
59 95 140
63 100 181
61 97 140
64 99 151
59 93 117
64 100 161
59 93 140
62 98 171
60 96 161
63 99 171
62 98 171
61 96 153
59 93 153
61 97 151
60 96 151
63 99 161
61 97 151
60 95 140
64 101 171
61 97 151
59 93 130
62 98 161
60 96 151
60 95 140
61 97 151
61 95 163
60 92 142
64 99 173
61 96 171
62 98 151
63 98 161
65 102 181
63 99 161
63 99 161
62 96 161
63 97 151
61 98 161
55 87 115
61 93 153
59 92 133
61 96 161
60 93 153
55 88 151
58 89 147
59 91 147
155 172 199
213 231 255
213 231 255
213 231 255
213 231 255
213 231 255
213 231 255
213 231 255
213 231 255
214 231 255
214 231 255
214 231 255
214 231 255
214 231 255
214 231 255
164 167 147
151 149 102
132 132 93
124 129 93
136 138 99
136 135 92
119 122 89
118 119 86
153 151 105
146 141 89
155 151 102
140 140 96
117 121 89
176 172 114
160 156 99
146 146 92
153 152 93
140 140 76
157 152 100
148 144 88
138 139 95
159 155 95
150 146 85
150 149 76
158 158 92
164 159 90
150 149 99
138 136 77
169 165 105
164 162 105
165 162 99
172 166 88
169 163 99
142 140 85
149 148 81
154 151 84
150 147 90
160 155 88
150 147 88
161 156 92
158 155 79
158 156 84
158 156 95
165 161 95
171 166 109
165 160 105
166 162 95
178 171 107
171 166 111
153 152 92
172 168 107
161 158 84
159 156 92
171 168 102
179 172 108
172 167 111
170 166 88
179 172 108
171 166 88
168 162 88
169 165 95
171 164 95
183 175 114
162 157 92
178 172 108
178 170 95
176 169 95
174 167 88
170 165 88
170 164 102
166 161 96
186 176 108
165 161 95
157 155 92
171 165 80
173 169 102
177 172 108
185 174 102
176 169 95
161 155 62
178 171 102
171 167 95
169 162 92
176 169 95
165 161 95
176 166 88
171 163 94
169 165 88
168 165 88
180 172 102
176 170 102
179 171 95
163 159 84
176 169 95
177 170 102
182 173 102
154 154 72
179 172 108
184 175 108
179 171 102
184 175 114
164 161 95
180 173 108
182 173 102
181 171 95
178 169 88
178 171 102
166 163 80
172 166 102
174 167 94
175 168 88
173 166 88
186 175 102
176 169 95
176 168 95
180 173 108
168 162 88
177 170 95
165 160 80
178 171 102
178 172 108
172 167 95
165 159 72
170 166 88
172 166 88
166 164 88
164 158 80
184 175 108
178 169 88
186 176 108
163 157 62
179 172 108
167 163 80
178 172 108
173 167 88
178 171 108
174 167 88
178 171 102
178 171 102
177 170 95
175 169 95
169 191 177
183 200 204
175 196 204
183 202 228
180 200 217
166 187 191
180 200 217
175 194 177
178 198 204
165 186 144
177 195 177
181 199 204
168 190 177
177 197 204
168 189 161
169 190 177
185 202 217
163 184 177
160 180 144
174 195 191
183 202 217
171 193 191
176 195 191
167 187 144
175 195 191
170 191 177
171 189 144
179 196 177
166 188 161
182 200 204
180 201 228
177 196 191
165 186 144
166 187 198
180 199 217
187 203 217
179 197 191
178 198 204
157 179 191
160 179 144
166 185 161
171 190 161
173 192 204
172 193 191
172 191 204
178 199 217
174 194 191
170 192 191
175 195 191
179 196 204
174 195 191
169 187 161
178 198 204
176 197 217
171 190 204
170 192 204
170 193 204
179 198 204
164 183 144
171 192 177
168 189 161
179 195 217
161 182 169
172 192 177
171 194 204
176 194 211
178 196 191
170 189 191
179 198 204
169 193 204
172 193 191
162 180 165
169 191 177
177 197 204
171 190 198
159 177 169
173 192 194
171 193 191
155 172 169
174 193 177
172 188 206
173 194 191
175 194 177
170 189 191
155 177 165
171 193 191
164 184 169
161 181 198
179 198 204
164 183 196
166 185 198
175 194 177
148 172 161
154 172 169
177 197 204
143 163 153
173 193 217
160 179 191
180 200 217
144 166 161
170 189 204
155 176 161
165 183 186
159 178 199
129 149 128
180 197 223
162 182 204
142 161 160
176 193 198
164 186 191
162 183 211
147 169 177
154 178 203
154 176 169
177 197 204
155 178 191
124 143 160
167 189 204
175 198 228
158 177 211
141 162 183
157 180 169
173 193 223
160 180 184
141 164 178
150 174 177
163 184 217
167 190 223
153 173 171
103 124 141
147 168 192
151 172 196
156 178 191
142 161 190
108 129 175
138 160 175
127 149 188
143 166 187
137 160 200
124 146 174
127 149 178
184 203 232
214 231 255
214 231 255
214 231 255
214 231 255
214 231 255
214 231 255
214 231 255
214 231 255
214 231 255
214 231 255
214 231 255
214 231 255
203 221 242
62 97 149
61 97 151
61 95 163
61 97 159
57 91 142
62 97 157
59 93 153
60 96 151
63 97 149
59 93 125
63 98 151
61 95 140
59 94 149
63 99 171
63 99 169
63 99 171
57 90 132
60 96 151
62 98 151
63 98 161
63 98 159
59 95 140
62 98 161
61 98 171
60 96 149
64 100 161
65 101 181
60 96 159
60 94 151
60 96 151
62 98 161
63 100 171
59 94 128
62 97 151
62 97 140
59 95 159
64 100 161
63 100 181
63 99 171
62 98 161
61 95 140
63 98 163
61 98 161
61 97 161
58 95 151
64 100 171
60 96 140
58 94 128
61 97 161
63 98 151
63 98 151
60 95 128
65 101 171
61 97 151
61 97 140
60 97 161
60 95 128
60 93 153
63 98 151
60 96 151
61 95 140
65 101 171
62 98 161
58 92 128
61 97 151
64 100 171
60 95 152
61 97 151
59 94 161
60 96 151
63 99 171
56 91 151
59 93 163
54 86 133
63 100 171
55 85 119
62 99 171
62 97 163
60 96 151
61 97 151
60 94 142
60 95 128
60 96 140
57 88 131
57 91 151
56 87 118
59 93 163
55 85 121
61 95 155
61 94 155
193 211 236
214 231 255
214 231 255
214 231 255
214 231 255
214 231 255
214 231 255
214 231 255
214 231 255
214 231 255
214 231 255
214 231 255
214 231 255
191 202 207
142 145 95
143 142 96
137 139 99
159 156 103
128 133 89
131 132 93
149 147 96
127 129 93
162 158 106
136 136 84
113 115 74
139 139 89
154 154 102
137 137 84
163 159 106
162 161 105
171 163 105
139 137 89
158 154 90
156 152 103
166 160 80
151 150 80
154 149 99
160 157 99
157 154 99
173 165 99
159 155 95
161 155 88
153 151 92
171 166 111
167 158 88
172 165 102
181 174 114
171 164 102
171 165 99
182 171 111
163 157 95
158 159 99
164 161 99
150 145 62
177 173 114
156 153 88
171 166 88
160 156 105
156 152 90
164 161 92
155 154 72
167 162 99
172 167 111
160 155 97
172 165 87
163 156 92
181 172 107
169 163 99
180 174 114
168 162 88
166 163 105
181 173 108
166 162 95
170 167 95
172 164 88
165 164 95
157 155 75
184 175 114
155 151 72
165 161 72
176 170 102
167 160 79
176 170 102
175 169 95
181 172 102
181 174 114
154 148 72
165 161 94
175 170 102
171 166 88
173 168 95
172 168 102
173 168 95
182 172 101
161 158 92
177 168 108
173 166 80
171 166 88
178 169 88
170 163 88
167 163 80
172 167 95
175 169 95
164 160 62
163 159 88
185 175 108
179 172 108
169 164 80
175 170 102
175 171 108
171 163 88
174 169 102
167 162 95
177 170 102
175 169 95
171 167 95
165 160 88
183 175 114
173 168 95
159 157 88
172 167 95
176 169 95
174 169 102
171 167 101
172 166 88
177 170 95
172 166 88
169 164 80
175 170 102
162 161 80
170 163 88
173 167 88
182 173 102
170 165 88
180 171 95
174 167 88
172 166 88
177 172 108
178 172 108
177 170 95
182 174 108
171 168 102
182 174 108
169 163 88
170 162 88
168 162 88
173 166 102
172 166 88
179 171 102
166 163 80
178 170 95
178 169 88
179 172 108
169 164 95
177 169 95
163 184 177
179 197 191
169 190 161
174 196 204
170 188 191
179 199 217
156 178 161
180 200 217
173 194 191
178 197 204
174 195 191
182 201 217
177 196 191
168 187 177
176 195 217
181 199 204
176 196 204
172 190 204
179 196 204
180 197 191
176 197 217
171 189 177
176 194 177
174 194 177
181 199 204
166 184 177
173 188 165
171 190 161
175 194 177
165 182 161
178 198 204
166 185 161
178 197 191
175 193 191
174 193 177
154 174 144
172 193 191
167 189 161
166 185 198
175 195 191
171 193 191
175 195 191
176 198 217
176 198 217
185 203 217
173 192 161
161 183 177
183 203 228
178 198 204
166 189 177
188 205 228
177 195 207
173 193 177
167 188 198
165 187 161
176 192 180
173 193 177
176 198 217
178 198 217
177 198 217
172 193 191
179 200 228
176 196 191
166 185 169
176 193 194
153 174 161
165 187 161
179 198 204
170 189 191
162 181 191
178 198 204
170 191 177
172 193 191
176 196 191
184 203 228
135 158 114
161 180 184
171 193 191
175 194 217
178 198 204
168 190 177
168 188 180
178 198 217
171 193 191
171 192 177
164 185 177
158 181 168
175 195 191
160 181 161
169 189 198
154 177 191
160 181 198
163 182 172
165 186 191
152 172 142
184 203 228
165 184 177
173 192 191
164 184 184
176 193 191
163 182 198
175 193 191
149 169 177
159 179 184
167 187 191
170 186 183
153 176 191
173 194 191
173 192 209
177 198 217
155 174 191
164 184 168
163 183 204
149 170 177
155 176 198
141 161 187
176 195 191
119 139 137
150 172 198
167 188 191
148 168 180
160 182 204
161 180 177
164 184 191
142 162 187
174 197 217
135 158 184
134 156 175
158 179 191
152 171 185
165 185 211
163 187 211
126 148 171
144 160 188
130 153 190
136 161 198
143 164 196
135 156 190
153 176 191
128 148 185
150 172 209
130 152 183
214 232 255
214 232 255
214 232 255
214 232 255
214 232 255
214 232 255
214 232 255
214 232 255
214 232 255
214 231 255
214 231 255
214 231 255
156 175 214
56 91 165
53 86 143
59 93 162
57 90 137
55 88 153
55 89 128
58 92 140
59 95 171
60 95 137
53 85 125
63 99 171
61 97 159
57 91 140
62 97 151
62 97 151
63 100 181
62 96 161
61 98 161
63 99 161
63 99 161
61 97 151
62 97 151
62 97 161
61 97 161
61 96 151
61 97 151
64 100 171
58 94 151
61 96 137
59 95 140
61 95 159
60 96 140
60 95 140
58 94 137
63 99 171
60 95 171
63 100 181
62 97 151
60 94 140
59 94 151
56 89 114
63 100 171
55 87 128
61 97 161
62 99 171
61 94 130
60 96 151
62 98 161
63 100 171
61 97 161
57 92 140
59 96 161
61 97 140
62 97 151
63 98 151
65 100 161
62 97 153
63 100 181
60 96 140
61 95 128
58 94 128
62 98 171
61 96 151
59 95 151
58 93 114
59 93 140
59 93 129
65 101 171
55 90 140
60 94 114
63 99 171
57 91 128
60 95 151
60 93 130
62 97 153
57 87 130
63 99 171
61 96 140
58 91 140
57 91 128
61 95 155
62 98 161
64 100 171
65 99 165
56 90 162
59 92 156
56 89 151
58 91 162
55 86 141
56 90 140
157 175 203
214 231 255
214 231 255
214 231 255
214 231 255
214 231 255
214 232 255
214 232 255
214 232 255
214 232 255
214 232 255
214 232 255
207 221 234
146 146 99
128 129 90
131 129 89
112 116 81
118 121 78
157 155 99
141 139 96
142 140 93
151 148 76
152 150 102
176 167 103
169 167 102
117 119 83
153 150 102
125 127 81
151 148 92
145 142 93
168 164 105
164 161 95
179 172 108
165 158 95
167 164 105
173 166 105
150 147 92
167 161 105
153 149 93
170 161 105
164 159 88
164 161 95
158 154 92
162 159 95
138 138 80
150 150 80
173 165 95
169 165 95
172 168 95
179 170 108
148 144 99
148 144 89
146 146 88
158 152 84
178 171 102
166 161 95
162 158 80
163 160 92
153 149 95
140 137 76
149 149 80
169 164 102
160 155 88
158 152 92
163 160 95
166 163 102
179 170 88
172 167 95
167 162 92
180 171 95
161 155 95
154 150 72
175 170 102
173 166 103
169 162 89
167 159 92
167 164 105
171 165 95
165 160 72
178 171 102
164 160 88
182 175 114
170 164 94
162 159 105
172 168 102
174 168 88
178 169 107
166 162 99
178 171 102
175 170 102
173 168 101
162 157 95
176 167 102
158 152 80
180 172 102
170 162 88
180 172 102
171 166 88
174 163 88
176 168 88
176 170 102
174 167 88
170 165 105
174 168 95
156 155 76
164 163 88
178 170 95
163 159 88
174 169 102
173 166 102
181 173 108
165 162 80
150 148 83
167 164 88
162 159 88
171 164 72
172 167 95
163 158 95
163 158 72
177 171 102
171 165 80
178 169 88
173 167 88
174 167 80
165 161 80
178 170 95
173 168 95
177 170 95
163 159 87
171 167 95
162 157 80
179 171 102
175 168 88
177 171 102
167 163 80
164 159 80
181 173 102
179 171 95
172 166 80
178 171 102
160 155 95
183 174 108
177 170 95
176 169 95
176 170 102
183 174 108
178 170 95
179 171 102
174 166 95
177 170 95
178 173 114
175 167 80
184 176 114
169 165 88
179 171 95
153 175 144
171 187 177
177 197 204
165 188 161
174 194 177
181 199 204
186 203 217
168 188 144
179 198 204
178 198 204
172 194 204
174 193 177
170 192 191
174 192 177
173 195 204
176 197 204
172 191 204
170 188 191
171 193 191
174 197 217
176 197 204
180 199 204
179 198 204
178 198 217
187 205 228
181 198 191
179 193 196
179 198 204
165 188 161
169 187 191
176 195 191
171 193 191
170 189 191
173 195 204
167 186 177
167 185 148
162 182 102
174 196 204
171 191 191
179 197 191
160 180 177
168 187 177
175 195 191
173 193 177
171 193 191
166 185 169
172 191 191
176 196 191
179 198 204
164 185 177
179 198 204
175 194 177
168 188 191
170 191 177
178 198 204
176 196 191
164 183 161
168 186 161
174 193 177
170 187 161
164 185 191
175 190 165
175 195 191
169 189 161
171 189 191
164 186 191
169 189 191
170 188 165
158 172 153
175 195 191
166 185 169
166 183 172
166 183 165
179 199 217
173 193 177
175 196 204
172 192 217
183 202 228
185 204 228
170 186 153
157 177 169
159 182 169
184 201 204
173 187 191
148 165 137
160 181 161
152 171 161
179 196 191
173 194 191
172 191 161
146 163 139
172 188 169
169 188 177
169 188 177
149 170 169
160 181 202
173 192 191
166 187 198
168 186 198
153 173 196
172 190 191
162 175 187
164 186 191
150 168 144
161 183 183
158 177 177
152 167 161
160 179 183
156 178 191
179 198 204
153 177 198
154 174 196
175 197 217
150 174 177
151 173 153
163 180 207
156 178 191
175 196 204
171 191 204
155 174 198
172 191 198
160 178 168
141 159 186
150 172 203
149 170 184
144 165 144
155 174 198
131 151 183
112 131 175
156 178 203
157 177 186
123 143 187
149 170 199
128 152 196
147 167 196
153 171 199
143 164 165
170 190 219
144 165 196
150 169 191
132 156 184
170 192 221
142 165 204
214 232 255
214 232 255
214 232 255
214 232 255
214 232 255
214 232 255
214 232 255
214 232 255
214 232 255
214 232 255
214 232 255
53 83 139
54 87 161
55 86 142
57 91 142
63 99 169
60 93 151
62 99 171
55 89 137
61 96 149
63 98 159
59 94 151
59 91 153
60 95 161
58 91 125
63 99 169
65 100 169
62 96 169
63 100 171
62 97 140
59 95 140
60 94 140
60 96 151
59 94 137
60 94 140
60 96 140
59 95 140
62 99 171
63 98 151
63 99 161
62 98 161
64 99 151
63 99 151
62 98 151
61 97 161
63 99 161
64 100 171
59 93 128
64 99 161
59 94 140
63 99 151
62 98 151
64 100 171
61 96 140
62 98 161
64 101 181
62 97 161
62 98 161
62 97 151
64 99 161
65 101 171
59 95 128
62 98 161
60 94 140
64 100 161
63 99 171
63 100 181
61 95 142
61 97 151
61 96 140
59 94 151
62 98 161
61 96 153
59 94 114
63 99 171
59 94 128
62 98 161
63 99 171
61 95 151
63 99 171
61 98 161
60 94 130
60 95 140
61 96 140
58 93 142
61 96 161
62 98 161
63 99 171
61 96 163
62 97 161
63 99 171
59 96 151
64 99 161
62 95 142
63 98 173
61 98 171
58 91 153
57 86 120
62 96 153
60 93 153
55 87 134
59 90 137
58 90 144
193 211 236
214 232 255
214 232 255
214 232 255
214 232 255
214 232 255
214 232 255
214 232 255
214 232 255
215 232 255
215 232 255
169 178 177
155 152 105
140 139 96
136 136 93
103 109 85
148 145 92
153 149 92
132 135 89
126 128 90
99 106 79
144 143 102
159 157 102
141 140 76
161 157 95
142 142 99
150 147 95
157 155 95
145 143 95
165 159 103
135 135 82
142 140 92
153 150 99
168 164 105
138 140 99
152 151 80
132 134 81
139 138 87
162 158 106
152 147 85
172 167 95
156 155 102
172 167 101
181 173 108
179 173 108
165 163 105
166 163 105
162 157 99
169 163 88
178 171 102
172 167 95
175 170 102
159 157 88
159 155 88
174 168 95
171 165 88
176 169 95
142 140 76
163 158 95
165 160 92
176 170 102
151 147 84
168 162 88
166 160 88
185 174 102
178 172 108
181 173 102
174 167 105
175 168 108
175 169 95
175 168 88
172 166 88
165 159 79
178 172 108
164 158 84
156 153 85
179 171 102
150 148 95
173 166 87
174 168 95
170 163 95
163 157 99
172 166 94
174 166 95
176 172 114
173 165 88
180 172 102
176 169 95
171 166 88
181 171 102
177 171 107
169 166 95
167 163 88
161 156 79
178 172 108
181 173 102
174 164 88
172 166 88
170 163 94
169 163 80
173 167 88
176 168 88
165 158 88
173 168 95
164 159 51
179 172 108
176 166 88
171 165 99
169 163 95
176 169 95
176 170 102
180 171 95
178 170 95
180 172 102
182 172 95
172 166 80
172 166 88
173 168 95
179 169 102
168 162 102
172 168 102
184 175 108
164 160 88
177 170 102
151 148 72
181 172 95
175 170 102
178 172 108
168 165 102
189 177 108
165 158 88
173 168 102
179 171 95
172 167 95
176 168 102
170 166 95
170 164 95
175 169 95
187 177 114
170 164 80
166 161 88
175 168 88
173 169 102
175 168 88
179 171 102
176 166 95
182 173 102
169 164 80
174 168 95
172 168 95
178 170 95
172 166 80
171 167 95
173 166 102
181 200 217
178 198 204
167 187 144
171 191 161
185 202 217
174 192 161
181 200 217
172 190 161
173 193 177
177 195 177
162 181 161
174 194 191
173 193 177
175 194 177
183 201 204
178 198 217
173 191 177
169 189 161
176 193 177
176 196 217
180 194 177
183 202 228
176 197 204
175 191 177
169 190 177
180 198 204
172 191 161
175 195 191
168 187 161
161 179 148
180 198 191
180 201 228
165 187 191
179 199 217
173 194 191
176 195 191
171 192 177
158 181 161
182 200 204
173 194 191
179 198 204
177 196 191
181 201 228
167 187 184
172 192 177
177 197 204
163 183 161
164 185 144
170 189 144
172 194 204
169 188 177
173 194 191
162 184 177
173 193 177
177 195 177
176 196 191
161 183 161
176 195 191
181 198 191
182 201 217
169 192 191
172 190 204
177 197 204
170 188 161
174 192 177
172 192 177
179 198 204
178 193 177
180 199 204
166 184 199
176 196 204
174 191 196
177 196 191
163 184 184
174 191 207
169 187 161
173 193 191
171 190 198
175 195 191
164 184 169
177 197 204
163 182 191
159 180 190
155 178 191
140 160 169
165 181 193
165 188 194
165 185 165
134 152 135
174 195 191
172 191 177
159 175 169
148 168 169
169 187 169
163 185 184
168 188 198
161 182 204
157 175 129
180 200 217
161 182 169
143 163 177
161 178 161
163 181 196
172 192 177
168 188 198
168 186 161
176 194 204
142 163 184
170 191 177
133 152 153
171 190 198
132 155 161
169 189 198
151 171 183
158 177 180
166 185 198
174 193 204
157 180 198
156 176 179
157 178 177
125 144 151
168 188 184
155 176 187
171 191 211
166 187 198
147 168 169
128 151 177
149 166 182
118 140 178
135 157 168
155 179 216
145 164 192
130 152 187
140 160 194
119 138 154
148 167 202
142 164 187
144 165 202
141 160 194
130 152 194
135 161 203
141 162 200
126 147 182
210 228 253
215 232 255
215 232 255
215 232 255
215 232 255
215 232 255
215 232 255
215 232 255
215 232 255
215 232 255
141 160 191
58 91 163
49 81 142
58 92 153
61 97 167
55 89 159
56 89 133
54 87 140
63 100 181
60 97 161
60 95 159
55 88 120
61 97 159
55 87 133
62 97 128
59 93 149
61 98 161
59 95 140
57 93 140
55 89 99
58 94 140
64 99 151
56 91 151
61 97 151
59 93 144
60 96 151
62 97 140
65 101 171
62 98 171
60 95 140
61 96 140
63 99 171
64 98 151
61 96 140
63 98 151
62 99 171
62 98 151
62 98 161
61 96 171
62 98 151
60 95 137
62 96 140
64 100 171
61 98 161
62 98 151
62 99 171
62 98 151
63 99 161
63 99 171
65 101 181
61 96 151
63 100 171
59 93 128
61 97 151
56 90 130
59 92 142
59 95 151
59 93 128
63 99 171
59 96 151
59 93 128
63 99 161
63 99 171
62 97 140
59 93 140
61 94 161
61 95 142
62 97 153
61 95 140
56 89 128
63 99 171
63 98 163
62 97 151
58 94 140
57 89 143
60 94 130
61 96 128
61 96 153
58 91 163
63 96 155
61 97 161
56 88 140
59 96 151
61 96 151
62 98 161
60 95 171
56 89 142
64 99 173
58 91 143
55 86 124
58 88 111
54 87 141
53 81 102
112 137 189
215 232 255
215 232 255
215 232 255
215 232 255
215 232 255
215 232 255
215 232 255
215 232 255
215 232 255
187 198 206
141 140 96
130 129 90
115 116 74
121 123 89
130 129 83
138 138 89
96 101 63
116 121 85
116 119 86
145 143 95
115 120 81
132 134 81
144 142 92
140 139 95
164 159 99
147 146 93
144 141 93
170 166 111
163 158 102
139 136 93
162 159 96
150 147 89
154 149 88
151 149 95
168 163 99
171 165 102
177 170 95
152 149 96
153 151 88
165 158 97
148 148 80
165 159 102
170 164 102
175 168 111
158 153 97
169 163 88
170 164 95
161 155 88
168 163 99
153 149 72
161 156 89
183 174 102
158 153 84
132 133 44
177 170 95
161 159 95
180 173 113
178 171 102
176 170 107
160 156 99
174 167 94
173 166 108
170 165 80
166 159 95
174 169 102
146 143 72
175 168 105
171 167 102
174 169 102
181 172 102
168 161 84
170 165 105
168 164 105
165 161 95
176 168 88
173 166 94
157 154 88
179 172 102
162 160 92
171 165 80
179 172 108
173 167 88
178 171 102
174 165 99
173 169 102
166 161 88
167 164 88
160 155 84
166 157 95
182 173 108
174 169 102
170 164 80
180 172 102
169 164 88
172 166 88
176 169 95
188 177 108
176 170 102
165 161 72
178 172 108
178 171 102
180 173 108
173 168 95
177 170 95
167 163 80
175 167 102
174 168 94
184 176 114
170 165 102
170 163 88
175 169 95
173 168 95
169 164 80
164 159 83
176 169 95
162 158 88
177 170 95
172 166 88
174 168 95
169 161 80
168 163 72
190 179 114
173 169 102
178 169 88
170 165 88
179 171 102
173 168 95
163 160 72
173 168 95
174 168 95
162 159 88
176 169 88
180 173 108
163 162 88
176 168 88
178 169 88
183 173 95
172 168 95
175 168 88
179 172 102
177 170 102
173 167 88
177 171 102
178 171 102
178 169 88
173 167 88
174 168 88
183 173 102
184 175 108
179 171 102
181 172 102
176 170 102
174 167 88
168 187 177
172 190 161
174 192 161
168 189 177
182 201 217
174 194 191
182 201 217
169 190 161
163 185 191
186 202 204
180 199 204
174 192 161
179 198 204
176 194 177
187 204 217
180 197 191
171 188 161
175 192 177
174 191 161
181 199 204
184 202 217
171 189 191
166 186 191
183 201 217
169 190 177
180 198 191
172 189 161
172 193 191
171 191 161
164 186 204
166 190 191
178 198 204
171 192 177
156 176 102
185 202 217
169 188 177
167 189 161
177 196 191
174 192 161
164 182 125
161 183 177
165 183 144
169 186 148
171 191 161
176 196 191
154 175 153
176 194 177
171 186 194
158 178 125
172 192 177
169 188 204
168 188 177
155 172 169
174 194 191
167 187 177
168 190 177
148 170 144
180 200 217
164 187 161
160 181 161
165 186 191
176 197 204
161 181 161
181 200 217
176 197 204
177 195 177
172 191 161
165 187 161
172 191 204
175 195 191
174 190 165
184 200 217
174 196 204
180 199 204
174 194 191
178 196 223
171 193 191
175 192 180
151 167 169
180 200 217
174 193 177
167 188 196
170 191 177
152 176 144
156 177 177
171 191 177
180 199 204
163 185 184
166 185 161
150 166 156
174 194 191
172 189 165
186 203 217
170 185 203
167 186 125
171 190 191
158 176 169
164 186 144
160 180 144
149 171 135
156 177 165
153 172 191
153 175 177
165 186 184
167 189 211
157 180 161
169 190 204
152 176 184
131 155 177
177 196 191
165 187 198
179 198 204
165 186 184
165 183 198
163 184 217
179 198 204
152 170 184
166 185 211
164 182 184
156 175 169
172 191 211
144 165 188
140 162 191
163 183 198
167 188 198
173 192 211
176 197 204
139 158 168
140 159 166
112 131 154
149 170 177
130 149 165
159 180 198
130 153 198
142 166 191
111 134 170
142 162 191
123 146 181
130 152 144
143 166 181
123 146 169
153 173 202
115 135 165
167 190 223
215 232 255
215 232 255
215 232 255
215 232 255
215 232 255
215 232 255
215 232 255
215 232 255
204 220 245
58 93 157
53 86 144
51 84 161
49 81 157
58 92 161
53 86 151
62 99 179
61 95 155
59 94 137
56 90 151
56 90 125
60 96 157
64 99 159
60 96 149
62 98 171
62 99 179
64 101 181
61 96 140
61 94 137
62 97 151
62 98 151
61 97 151
62 98 151
62 97 151
54 87 114
60 95 155
62 98 151
62 96 137
56 92 128
62 98 161
61 97 151
61 97 177
65 101 181
64 100 171
63 99 161
61 97 151
61 95 128
59 95 140
63 99 161
60 96 151
62 98 161
62 98 161
61 97 151
61 97 161
58 93 125
61 96 140
63 100 171
62 98 161
61 97 151
60 95 149
62 98 151
63 99 161
62 97 151
60 96 151
60 95 161
61 97 151
59 94 151
65 101 171
62 98 151
61 97 161
59 93 151
62 96 142
63 99 161
63 99 161
64 99 151
63 98 171
62 96 153
67 103 181
59 93 161
62 96 151
56 87 99
61 96 151
60 96 151
59 94 161
62 95 140
60 94 130
63 100 181
62 96 142
61 97 163
59 93 130
59 94 128
64 101 181
62 97 161
61 94 153
52 80 102
58 92 153
56 87 121
56 88 129
58 92 142
60 92 135
61 90 122
54 81 122
51 80 121
56 88 154
215 232 255
215 232 255
215 232 255
215 232 255
215 232 255
215 232 255
215 232 255
215 232 255
211 227 245
118 121 90
124 125 77
151 149 103
118 121 88
136 136 93
131 130 89
127 127 83
137 137 89
133 133 95
140 139 96
105 107 78
149 144 99
155 155 102
150 148 102
170 166 111
157 152 99
161 160 99
162 158 102
151 148 92
146 144 80
151 148 99
130 131 92
167 162 99
153 151 105
119 122 68
149 145 89
180 174 114
175 169 102
156 150 95
147 144 88
178 170 95
173 164 105
165 162 105
149 147 75
140 138 63
167 163 99
166 161 95
172 167 95
167 162 95
166 162 105
165 160 92
171 167 95
157 155 76
167 163 102
160 158 105
170 164 99
165 161 97
175 166 102
172 168 102
154 152 88
156 155 80
161 160 72
176 169 101
179 171 102
175 170 102
162 157 72
162 158 102
159 153 80
178 171 102
176 169 95
173 168 95
169 163 92
174 166 95
166 160 62
171 164 104
168 163 95
175 169 95
182 172 95
170 166 88
172 167 95
172 162 88
166 162 95
153 148 84
182 173 102
160 154 89
172 167 95
180 173 108
171 165 108
175 170 102
162 158 92
174 169 102
173 166 102
181 172 102
188 178 114
173 167 88
179 172 108
163 160 72
169 164 80
171 165 88
170 163 80
171 164 88
174 168 95
172 167 95
166 161 92
170 167 102
174 166 99
173 166 95
174 167 88
175 169 95
180 172 102
162 157 95
168 161 80
170 166 88
179 170 101
170 166 88
178 171 102
168 161 80
170 165 80
165 161 72
167 160 80
167 162 72
172 163 80
177 171 102
179 172 102
175 169 95
170 165 88
175 170 102
179 171 95
168 164 80
173 164 88
183 173 102
175 167 80
179 171 102
177 169 95
174 168 95
176 169 95
177 168 95
177 170 95
172 165 80
176 170 102
164 159 88
179 169 102
167 162 95
166 164 88
178 170 102
175 168 88
183 174 108
186 176 114
171 165 80
180 171 95
170 164 80
172 167 95
172 167 88
180 171 95
176 196 191
163 185 144
163 183 161
179 198 204
174 193 177
182 201 217
176 195 177
177 195 177
175 196 204
174 191 177
171 192 177
172 195 204
177 198 217
181 199 204
179 200 228
172 191 161
170 190 161
169 191 177
174 193 194
169 188 191
167 188 161
166 187 144
179 198 204
174 195 204
175 196 204
176 194 177
164 186 191
171 193 191
179 196 223
173 194 191
156 177 125
175 194 191
163 184 177
167 188 144
171 192 177
166 189 177
172 193 191
177 197 204
177 195 177
181 201 217
184 201 204
180 197 191
175 198 228
169 190 161
169 189 161
180 197 217
168 188 191
167 186 177
165 184 161
182 200 204
171 190 161
172 194 204
163 184 169
170 188 177
159 179 144
168 189 161
178 195 191
172 191 161
154 173 144
175 195 191
178 198 204
166 182 169
163 183 184
171 191 217
177 197 204
170 189 144
180 199 204
173 190 177
175 196 204
159 178 161
160 180 161
163 177 177
164 187 161
173 194 191
167 189 204
168 187 177
167 188 204
180 196 204
157 177 161
180 198 191
167 188 198
166 188 204
168 188 144
172 192 177
179 198 204
169 189 198
172 190 204
162 183 169
181 200 217
161 179 156
175 194 177
159 180 161
172 190 204
171 193 191
162 184 184
177 196 191
179 197 191
169 190 194
159 175 164
159 178 177
140 163 151
159 179 184
181 197 207
150 165 165
177 196 191
155 176 177
162 181 169
179 197 191
165 187 191
152 173 153
183 201 217
152 175 184
158 179 177
142 163 190
158 178 177
154 175 184
158 181 169
154 174 196
162 183 161
149 170 144
146 168 190
168 189 211
137 155 153
121 137 133
141 164 204
121 142 161
159 179 191
151 174 177
130 151 187
154 175 183
147 170 207
139 162 195
150 171 200
152 174 185
140 162 199
115 136 166
145 167 190
139 158 174
147 167 175
119 140 171
101 125 168
114 136 178
105 126 171
180 200 217
177 197 228
215 232 255
215 232 255
215 232 255
215 232 255
215 232 255
215 232 255
215 232 255
158 177 217
61 96 140
55 88 155
58 92 157
60 96 159
56 91 125
61 95 159
59 94 159
61 97 167
59 94 144
61 96 155
63 99 169
58 93 151
60 94 140
58 92 155
62 98 171
61 97 151
61 96 140
62 99 171
63 99 161
65 100 161
59 94 128
59 95 151
61 97 161
58 92 128
64 99 151
58 92 114
58 94 140
59 93 114
61 96 140
60 96 151
64 100 171
63 98 151
61 95 128
63 99 161
59 93 133
62 97 140
61 96 149
61 97 161
64 100 171
59 95 140
61 96 151
62 97 140
62 97 140
60 95 137
61 96 140
62 96 140
60 95 140
63 99 161
63 99 161
62 98 151
62 97 161
64 100 171
64 100 171
62 97 140
59 94 140
63 99 161
60 96 140
58 93 114
65 100 151
61 96 140
62 99 171
60 96 140
61 96 140
62 97 151
63 98 151
61 97 151
63 100 171
59 94 161
58 92 128
56 89 130
63 98 161
55 87 117
64 99 171
61 95 142
61 98 161
63 99 161
58 92 151
59 92 142
63 97 161
63 97 163
60 92 151
58 90 140
65 100 161
57 91 162
59 91 142
60 96 140
61 96 153
62 98 161
63 97 165
56 85 137
60 93 144
53 79 113
58 89 142
57 86 125
142 160 182
215 232 255
215 232 255
215 232 255
215 232 255
215 232 255
215 232 255
215 232 255
179 190 191
125 128 92
111 115 82
138 140 99
169 165 111
138 134 93
131 130 90
121 119 82
124 124 85
135 134 81
118 121 80
131 132 96
154 150 102
88 95 69
122 124 70
146 146 92
135 134 77
164 160 92
158 153 95
122 124 68
151 152 92
152 150 105
138 136 77
159 154 84
160 156 95
154 152 105
139 138 88
140 138 72
146 144 76
139 137 73
156 152 102
168 164 102
179 172 108
180 172 102
151 146 77
167 163 99
150 146 80
167 161 88
175 169 95
166 160 84
163 158 95
151 152 80
181 172 107
175 169 95
165 161 92
168 161 95
159 157 84
173 168 95
151 150 105
160 154 88
156 150 84
160 154 85
171 165 87
167 161 88
160 156 87
169 165 102
182 173 108
176 170 102
164 159 80
164 155 88
161 158 80
169 162 88
164 158 84
160 158 95
173 168 95
173 170 108
173 166 99
165 159 99
164 159 104
172 167 95
182 175 114
172 164 95
169 166 95
167 163 99
170 164 80
178 170 95
162 160 72
177 171 102
188 177 108
166 161 88
176 168 88
184 174 102
165 159 95
167 159 99
167 162 95
185 175 108
184 176 114
183 172 95
165 161 72
173 167 108
163 159 88
180 171 95
182 172 101
179 171 102
166 162 72
181 173 102
160 157 51
170 163 80
167 162 95
170 165 88
167 163 88
179 172 102
183 172 95
165 160 80
174 167 88
172 167 95
168 164 80
166 164 88
180 172 108
170 165 80
165 159 88
183 173 95
173 167 88
179 172 108
168 165 88
160 158 95
177 170 95
177 170 102
179 172 102
181 173 102
184 174 102
182 174 108
165 162 80
179 171 102
163 156 72
165 159 80
185 175 108
177 171 102
172 167 88
177 171 102
170 163 95
177 169 88
178 170 95
169 163 95
161 159 62
170 166 88
176 169 95
173 167 95
177 165 95
174 168 95
171 162 88
163 159 80
179 172 102
185 175 108
164 159 51
174 194 177
182 199 191
179 198 204
180 200 217
174 195 191
175 193 161
173 194 191
165 185 161
170 185 129
176 193 161
171 193 191
182 200 204
165 185 177
176 195 191
176 196 191
183 200 191
175 193 204
175 196 204
184 200 191
166 190 191
159 182 177
170 191 177
171 192 177
178 196 191
173 193 177
184 201 204
178 197 191
182 201 217
171 192 204
173 194 191
180 199 217
176 195 191
168 190 177
170 192 191
175 194 177
177 195 177
167 189 177
176 195 177
163 182 144
174 196 204
177 196 191
175 195 191
168 189 161
159 181 161
172 192 177
166 188 161
175 196 204
175 194 177
179 198 204
169 190 161
182 201 217
169 189 161
171 191 177
177 197 204
185 202 204
172 193 191
171 187 180
167 188 198
160 181 161
170 189 144
173 192 161
166 186 198
173 192 161
168 187 177
174 193 204
169 189 161
148 169 144
166 186 144
169 189 198
162 184 125
163 181 107
164 184 168
164 186 144
168 190 177
178 197 191
152 174 169
164 185 184
156 178 184
171 192 191
164 183 161
174 193 177
175 197 217
164 186 198
165 183 161
153 174 102
175 193 194
162 184 177
160 177 184
167 185 204
153 173 161
176 195 191
163 186 196
170 190 161
165 184 161
153 174 177
151 174 151
167 187 184
173 192 204
166 186 183
161 179 161
160 181 203
174 194 191
161 182 161
124 146 144
158 178 177
159 180 144
168 186 184
175 195 191
158 179 190
151 173 198
160 180 184
151 172 198
154 175 169
160 178 191
159 180 198
171 192 177
164 180 156
161 180 192
169 191 204
158 178 177
155 178 198
160 183 183
145 162 181
131 154 153
160 182 211
124 144 155
145 170 169
177 197 217
168 187 216
152 172 205
147 169 194
132 153 183
121 142 168
133 153 157
126 148 181
148 163 177
116 138 170
133 151 169
115 135 158
104 126 167
136 155 160
115 137 169
112 135 171
135 159 200
165 184 215
216 232 255
216 232 255
216 232 255
216 232 255
216 232 255
216 232 255
215 232 255
57 92 161
55 88 149
61 96 165
57 91 152
59 94 140
55 88 125
59 93 125
58 91 142
60 95 173
58 92 151
62 98 175
63 99 169
63 99 169
61 95 128
58 92 99
60 97 161
61 95 140
62 97 151
60 96 151
61 98 161
65 101 171
60 95 147
54 86 128
62 96 151
58 93 140
63 99 171
63 99 169
55 87 95
61 97 169
62 96 161
62 97 161
64 100 181
61 98 161
58 95 151
60 96 151
63 99 161
60 94 140
62 98 151
60 95 140
57 92 99
61 95 159
63 99 161
64 98 140
58 91 140
60 96 151
61 97 151
60 96 151
61 97 151
61 97 151
58 92 128
62 97 140
61 97 151
60 94 151
64 100 171
61 97 151
64 100 161
58 92 128
61 97 140
61 95 142
59 94 128
54 85 99
62 95 153
63 99 161
63 97 153
59 91 151
56 88 102
63 96 144
61 96 153
61 96 140
62 95 140
60 95 140
60 96 140
61 96 140
62 96 161
57 89 114
61 96 140
62 96 142
59 95 140
64 98 153
62 96 142
53 82 84
61 95 161
62 96 155
56 88 114
63 98 151
56 90 128
63 97 153
59 93 114
58 91 130
61 96 161
61 95 153
55 82 123
58 91 142
53 81 124
59 94 162
83 105 144
215 232 255
216 232 255
216 232 255
216 232 255
216 232 255
216 232 255
216 232 255
130 138 132
87 94 71
72 84 68
92 98 76
114 114 78
130 129 81
104 108 78
147 144 89
146 146 96
150 146 93
140 141 81
137 136 84
99 106 78
115 116 70
132 133 96
135 136 89
139 134 89
131 131 92
154 152 84
156 152 85
147 145 92
150 146 84
143 141 93
177 170 95
170 164 99
153 146 88
155 150 92
164 160 88
169 163 99
148 148 80
142 140 89
177 172 108
157 151 98
136 134 63
178 172 108
167 162 95
170 164 95
134 135 76
149 147 88
159 154 92
159 155 92
153 148 88
171 165 102
165 160 95
171 164 88
152 150 92
175 168 88
174 168 111
158 156 99
152 148 92
160 156 95
176 170 102
170 167 95
156 153 88
139 138 67
160 157 80
175 168 95
176 169 95
165 161 95
164 159 99
150 150 92
174 166 102
166 160 94
177 170 102
173 167 88
167 163 99
165 160 84
168 160 99
171 167 95
182 173 102
166 161 88
173 166 80
173 166 80
173 167 88
175 168 88
180 172 102
176 168 88
173 168 95
167 161 80
175 168 95
162 157 92
183 171 102
163 156 72
174 168 95
173 165 95
177 168 102
188 177 108
171 168 102
179 171 95
170 164 102
170 165 88
171 167 95
182 173 102
180 172 102
177 167 80
167 161 62
167 163 88
177 169 88
167 163 80
170 164 95
170 162 80
177 171 102
163 156 87
174 167 88
174 167 88
174 167 88
171 166 88
167 162 95
175 169 95
166 159 72
179 171 95
170 166 95
175 170 102
169 164 80
173 166 80
176 169 95
167 160 80
178 171 102
170 165 80
166 161 62
167 163 80
161 155 79
164 163 88
181 173 108
176 171 108
170 166 88
173 164 95
178 170 95
181 173 102
165 160 80
171 164 80
168 162 88
164 158 72
177 169 88
179 168 95
175 167 80
170 166 95
160 157 80
169 166 95
176 170 102
179 171 95
165 161 72
179 170 95
184 175 108
174 169 102
172 192 177
157 181 177
175 193 161
187 205 228
181 200 217
162 182 177
177 196 191
168 191 191
182 200 204
174 196 204
180 198 204
180 199 204
174 193 177
161 180 144
177 195 191
167 189 161
180 196 204
173 194 191
155 173 161
180 198 191
181 199 204
174 193 177
175 195 191
170 191 177
173 191 144
175 194 177
173 194 191
166 185 177
171 192 177
178 198 204
182 201 217
170 188 165
179 199 217
169 190 161
169 187 177
170 192 217
173 192 211
168 188 144
178 197 191
173 189 165
158 179 144
166 187 180
166 189 177
173 192 161
172 189 184
171 192 177
163 181 180
159 176 180
173 195 204
174 194 191
164 184 177
182 200 204
170 187 161
163 184 144
172 193 191
168 186 148
173 193 177
175 195 191
159 175 165
175 196 204
172 191 206
156 174 184
176 194 211
178 195 177
169 188 184
180 197 191
176 195 191
175 194 177
148 165 165
169 191 177
164 184 169
175 197 217
178 194 194
171 191 204
171 190 196
178 198 204
176 196 204
167 190 221
181 198 219
173 192 194
163 183 161
174 194 191
180 200 217
166 187 191
158 177 175
168 190 177
166 189 177
165 184 144
163 182 144
183 201 217
155 176 169
158 177 169
166 184 161
176 194 177
154 174 151
170 192 204
160 179 198
165 188 209
133 151 139
168 188 191
169 188 177
181 200 217
172 191 198
171 191 161
141 157 192
160 178 194
146 165 153
151 170 169
141 160 153
150 166 144
157 177 169
159 178 186
168 190 211
163 181 198
150 168 171
134 158 175
154 174 172
153 174 184
145 166 161
142 163 164
121 140 156
166 185 169
165 188 204
121 142 149
144 163 181
149 168 169
137 158 172
125 146 161
148 168 198
127 148 171
143 165 203
150 173 211
145 166 178
143 161 175
145 163 193
116 133 158
133 154 181
105 129 178
145 167 186
131 153 169
99 118 140
143 164 181
91 114 166
86 106 153
98 117 156
205 222 247
216 233 255
216 232 255
216 233 255
216 233 255
216 233 255
182 199 228
62 98 177
53 85 141
53 85 124
58 92 153
57 90 137
57 91 137
57 93 155
59 95 159
56 90 151
64 99 169
59 93 135
52 84 117
58 91 99
60 96 149
62 98 161
55 86 88
62 97 151
60 96 140
58 92 140
61 96 128
63 98 149
59 94 140
64 100 171
64 100 171
61 97 159
63 99 161
58 92 114
59 92 140
60 95 140
61 97 151
59 94 151
57 91 140
62 98 151
60 94 149
60 94 128
61 96 140
60 96 140
62 97 151
62 97 151
61 96 140
62 98 151
62 98 161
60 95 161
65 101 171
63 99 169
62 98 151
61 96 140
61 96 140
63 99 171
63 99 161
62 98 161
62 97 151
62 98 161
61 96 140
59 93 151
62 97 161
62 97 140
58 93 151
63 99 161
59 95 128
57 91 128
62 96 151
61 97 161
58 91 102
56 91 140
58 93 114
63 99 161
63 98 151
61 97 151
55 87 114
63 99 161
59 92 142
66 102 181
58 93 128
59 94 140
60 95 161
63 98 151
58 91 99
61 94 151
63 98 161
62 98 161
61 96 153
60 96 140
59 94 162
54 85 102
58 92 130
56 90 143
61 90 125
61 96 161
63 99 151
56 88 115
62 97 163
58 91 142
58 90 144
56 86 143
53 84 131
193 208 229
216 232 255
216 232 255
216 233 255
216 233 255
216 233 255
154 157 138
116 117 78
121 122 86
123 125 81
139 137 93
132 133 86
127 129 92
105 109 85
131 130 89
147 144 86
126 128 90
122 125 93
107 110 78
125 123 76
124 126 76
147 145 88
151 147 93
143 142 88
135 134 93
144 142 92
139 134 73
138 138 67
158 153 80
141 137 84
150 148 95
147 144 92
154 148 88
165 161 92
166 161 96
172 165 102
150 146 84
152 149 74
162 154 95
163 155 80
169 163 99
162 157 76
166 163 102
144 143 72
138 138 62
164 159 84
156 152 87
170 166 95
167 161 105
161 157 88
163 158 102
174 167 110
176 170 107
162 158 84
178 171 102
153 150 99
142 138 63
166 160 90
177 171 107
169 165 88
176 168 102
161 156 92
152 150 76
153 151 88
166 160 94
173 165 101
160 154 94
173 166 102
172 166 88
170 163 95
175 168 88
178 172 108
158 154 84
159 155 88
165 164 95
158 154 72
168 163 99
161 156 95
165 159 80
177 168 102
160 155 88
181 172 102
162 156 84
180 170 88
161 155 80
172 166 88
171 168 102
165 160 80
168 164 80
183 174 108
174 167 102
174 167 108
175 166 88
165 159 76
159 157 84
173 167 88
173 163 80
178 169 88
172 164 88
177 168 108
177 170 95
165 160 88
180 171 101
162 157 80
177 172 108
165 157 80
176 169 95
185 175 108
164 156 92
177 171 102
156 150 84
173 167 88
171 166 88
167 165 95
172 166 88
177 171 102
169 164 80
178 170 95
176 168 95
173 168 95
171 167 101
182 174 108
176 167 80
166 161 70
165 158 80
166 161 95
174 167 88
163 159 105
171 165 80
175 168 88
181 172 102
171 165 88
171 166 88
157 153 80
170 167 95
176 168 88
163 155 72
176 169 95
171 166 88
173 166 88
180 172 102
168 164 80
175 169 101
177 169 88
176 170 102
174 167 88
181 173 102
188 178 114
177 169 88
179 172 102
170 166 88
177 172 108
173 195 204
171 192 177
174 195 204
164 186 144
175 194 177
181 198 204
178 196 191
184 202 217
174 194 191
177 198 217
176 195 204
171 189 204
190 206 228
171 191 161
177 194 194
178 197 191
168 186 161
174 195 204
169 192 191
167 184 177
159 182 125
182 201 217
178 196 191
169 190 177
168 188 177
164 185 125
177 195 177
179 198 204
170 190 161
174 192 177
174 190 165
176 196 191
172 188 177
182 198 191
166 184 144
178 196 191
174 194 191
188 205 228
158 179 144
174 193 177
163 184 144
164 185 177
169 187 125
172 191 191
187 203 204
170 189 191
174 191 161
163 181 125
148 167 88
164 186 198
172 194 204
175 195 191
169 190 161
166 187 191
159 176 144
157 176 144
158 176 144
162 181 144
175 197 217
166 185 177
159 178 144
151 170 133
173 194 191
177 198 217
172 193 191
171 191 161
167 186 198
170 188 177
167 185 187
179 198 204
165 183 191
154 175 168
174 194 191
163 180 169
162 177 172
170 186 187
164 183 161
156 175 184
174 193 177
158 180 198
172 191 211
178 198 204
174 195 191
159 178 156
167 187 184
174 194 191
171 192 177
157 176 161
165 185 169
172 191 161
161 182 198
178 198 204
179 196 177
152 174 169
179 198 204
161 180 184
170 189 177
156 176 169
180 201 228
185 204 228
163 184 169
161 180 184
169 188 184
165 184 203
160 180 191
169 189 217
151 171 169
163 183 161
162 180 125
149 164 161
164 185 216
164 185 184
174 193 204
157 178 191
150 169 192
169 190 177
153 174 194
164 182 191
152 173 191
149 170 184
153 170 198
166 186 177
171 187 198
171 191 211
135 152 169
139 158 153
135 153 178
136 158 169
147 169 183
158 179 184
102 122 141
151 171 196
73 100 133
156 178 190
159 180 202
137 158 177
101 124 153
86 107 155
103 124 171
113 132 156
118 140 180
139 160 192
121 140 180
115 134 171
115 137 182
111 128 161
216 233 255
216 233 255
216 233 255
216 233 255
216 233 255
129 151 204
58 94 155
59 93 165
58 92 151
56 90 114
59 94 149
59 93 125
58 93 137
58 92 152
60 95 149
58 91 128
65 100 167
63 98 161
58 93 144
61 96 159
54 87 128
58 93 137
60 95 161
61 95 137
64 99 161
64 100 171
59 95 159
61 97 151
60 96 149
59 95 149
60 96 140
61 98 161
58 92 128
59 93 151
61 97 151
62 98 161
57 92 99
62 99 171
60 95 140
63 98 151
62 98 161
58 93 114
63 100 171
55 87 140
57 89 151
57 90 151
63 99 171
63 99 151
62 98 161
59 94 149
59 95 128
60 92 151
64 101 171
62 98 161
59 94 140
61 95 140
63 98 163
61 96 140
60 93 128
60 95 140
61 96 140
60 92 140
61 95 161
60 95 128
61 98 161
58 92 128
64 99 151
64 100 161
60 95 151
63 99 161
62 98 151
59 94 128
50 81 99
61 97 151
62 98 161
61 97 151
62 97 151
58 93 140
59 94 128
62 99 181
56 88 130
59 92 133
58 93 151
60 94 130
60 96 151
54 84 80
62 96 163
60 95 142
60 94 142
61 96 161
58 93 151
60 93 142
61 94 144
58 92 142
55 86 102
60 95 142
59 94 161
57 90 151
57 88 144
60 95 153
57 90 128
57 93 151
80 99 133
216 233 255
216 233 255
216 233 255
216 233 255
216 233 255
126 134 127
125 126 83
119 119 86
87 91 70
110 113 72
121 122 85
113 116 80
139 140 97
106 111 82
132 128 62
151 147 95
156 152 103
141 142 102
114 115 74
159 154 96
132 134 88
126 124 77
107 107 63
154 153 95
153 150 95
166 163 105
165 161 92
150 149 95
165 161 92
165 158 99
152 149 96
161 155 89
129 127 77
166 161 99
184 175 108
148 143 84
161 159 95
151 146 95
152 149 93
155 154 76
171 163 84
168 163 99
167 163 102
158 154 88
168 161 105
152 150 84
154 152 80
165 159 88
159 156 90
172 165 99
160 157 99
154 150 76
155 150 67
173 166 103
169 163 99
177 172 108
172 166 105
167 160 104
168 161 84
171 165 99
171 162 88
171 165 80
175 169 95
183 175 114
169 166 95
176 168 88
183 173 102
141 138 88
161 154 89
154 152 62
179 172 108
169 164 80
168 162 92
168 161 80
169 165 94
165 162 80
166 160 88
175 169 102
162 160 72
173 166 103
176 170 102
177 169 102
181 172 102
175 169 102
161 157 99
175 170 102
172 165 80
158 157 88
157 153 62
164 161 95
173 166 87
169 165 88
159 158 95
180 172 102
170 166 95
163 154 79
157 151 62
173 165 72
163 159 88
175 168 88
166 161 62
173 168 95
175 169 95
173 169 102
165 160 80
161 154 72
174 167 88
169 163 96
180 172 102
165 162 80
177 171 108
176 169 95
173 167 88
168 163 80
174 167 108
181 174 108
171 166 88
168 163 87
165 157 88
176 168 88
175 168 88
154 146 72
170 166 95
172 168 95
184 175 108
168 164 102
173 166 87
165 158 95
180 172 102
173 168 95
181 173 108
169 166 95
181 172 95
175 169 95
174 167 88
188 176 102
175 168 88
166 159 72
177 169 88
168 165 88
181 173 108
175 168 88
170 166 95
172 166 88
166 160 88
178 170 95
176 168 88
176 170 102
182 172 95
178 171 102
178 170 95
157 177 161
177 197 204
177 195 177
181 199 204
168 188 191
182 200 204
174 194 191
176 194 177
178 194 161
179 199 217
175 193 161
179 197 191
171 191 161
179 198 204
179 197 191
172 192 177
166 189 177
163 181 125
156 178 144
174 192 204
178 197 191
171 190 161
185 202 217
165 185 125
175 195 191
166 187 144
179 198 204
180 199 204
167 188 180
179 198 204
176 196 191
173 191 204
167 189 161
173 190 177
179 197 191
158 179 144
171 192 177
173 192 161
171 192 177
182 199 191
178 196 207
178 198 204
171 190 177
182 200 204
164 184 161
170 190 161
170 190 206
169 190 161
176 195 191
185 203 217
165 183 165
176 197 204
172 189 165
163 183 169
174 195 191
177 197 204
174 195 204
168 184 177
172 194 191
171 190 198
176 196 191
182 200 204
160 181 144
170 186 177
173 192 161
171 189 177
142 162 146
168 187 177
172 192 177
152 171 144
175 196 204
180 200 217
179 193 177
170 188 161
168 186 169
172 192 177
170 191 177
175 195 191
177 192 191
176 196 204
173 193 177
173 193 177
164 185 165
174 193 177
161 181 169
131 153 135
169 189 161
167 188 191
176 195 191
174 193 177
178 198 204
177 197 204
175 195 191
175 196 204
162 183 177
180 197 191
137 158 161
172 191 198
175 189 180
170 189 191
154 176 177
172 190 198
171 193 191
169 188 177
169 190 211
159 180 198
153 173 144
171 191 211
145 163 171
163 182 191
159 178 184
173 191 196
173 191 191
159 180 196
159 179 191
161 181 198
152 169 195
150 174 177
160 180 198
130 153 191
167 190 223
151 169 189
119 141 129
151 170 184
156 179 198
142 164 178
134 156 169
162 181 161
139 160 175
137 157 161
120 137 166
150 171 172
156 178 196
135 154 181
152 170 179
112 133 170
116 136 151
145 169 191
97 116 157
132 152 183
102 124 162
125 147 176
110 134 179
122 140 158
126 146 171
106 126 170
174 192 223
216 233 255
216 233 255
216 233 255
216 233 255
87 113 172
59 92 128
53 84 149
54 88 144
50 79 137
54 86 137
61 97 159
58 93 137
56 90 135
60 94 142
61 96 151
61 96 140
57 89 137
64 100 161
61 96 151
56 88 130
61 97 161
61 96 149
57 90 95
60 96 140
62 98 169
60 96 151
62 97 149
59 95 140
62 97 140
60 95 128
59 93 137
62 98 171
61 96 151
60 93 161
59 93 114
60 95 140
60 94 151
55 89 114
63 99 161
64 99 161
63 99 161
63 99 161
64 99 151
59 95 140
58 92 128
65 101 171
60 96 140
63 99 161
61 97 151
59 94 159
60 94 151
59 94 151
61 95 151
62 98 151
60 95 161
61 97 151
59 94 140
62 97 140
60 94 151
58 91 140
63 100 171
61 96 140
56 88 128
61 95 128
63 98 140
64 98 140
58 93 151
59 96 151
63 97 142
62 98 161
59 93 140
60 94 130
60 94 151
64 100 171
55 88 140
61 97 151
62 96 142
59 93 140
55 88 130
63 98 161
59 93 114
62 97 153
61 96 128
64 99 161
61 96 151
62 95 155
62 97 163
56 89 128
63 97 153
58 90 151
59 94 162
58 94 128
61 96 163
57 90 142
58 89 117
57 89 143
58 89 117
58 89 120
58 90 135
54 86 140
51 79 108
55 87 118
216 233 255
216 233 255
216 233 255
216 233 255
212 226 242
128 129 89
140 138 95
104 107 81
122 119 79
130 129 86
126 130 96
166 162 103
135 135 89
102 108 78
105 110 82
120 121 85
112 116 73
136 132 89
127 130 93
127 127 81
148 146 89
174 169 102
169 163 95
160 155 95
137 138 77
162 158 105
144 141 84
140 139 88
164 159 102
161 155 88
145 144 88
139 138 84
174 167 95
164 158 99
165 158 102
177 169 108
167 160 80
158 152 88
171 162 96
169 161 89
148 146 90
167 160 88
152 150 62
156 153 88
156 150 77
165 160 90
166 159 99
173 169 102
162 158 84
163 158 95
164 159 87
161 157 99
177 171 102
155 153 92
157 153 84
143 142 76
162 156 88
167 163 80
162 158 88
179 171 95
155 149 72
176 168 95
161 156 92
164 160 94
156 152 76
144 141 76
168 161 88
173 169 102
174 168 95
169 164 80
172 165 80
180 172 102
154 148 84
166 159 95
172 164 72
161 158 84
174 167 88
159 157 80
182 174 108
175 164 88
173 168 95
167 162 99
175 168 94
172 167 95
171 167 95
150 146 72
163 158 62
161 156 72
177 169 88
165 159 99
170 164 95
156 152 80
167 161 80
166 162 99
169 164 102
171 166 88
169 165 88
175 168 88
163 157 92
176 170 102
176 169 101
178 170 95
170 167 95
162 157 72
165 162 80
158 157 88
178 171 102
171 167 95
174 168 95
184 174 102
163 158 72
165 161 72
171 164 80
175 165 80
166 162 72
159 155 62
175 170 102
179 171 95
183 174 108
167 163 80
162 157 95
181 173 108
173 167 88
161 155 72
171 165 102
165 159 72
186 176 108
174 168 95
173 168 95
167 164 88
181 172 102
163 159 80
175 169 95
185 176 114
183 174 102
175 168 88
172 166 88
159 157 88
172 166 80
175 170 102
161 159 80
165 160 88
176 172 114
169 163 72
172 166 88
177 169 88
174 167 88
177 169 88
181 172 95
172 166 80
173 167 88
172 193 191
165 185 125
185 203 228
169 190 161
176 196 204
173 194 191
171 190 191
159 179 144
172 192 204
170 187 161
175 193 161
171 191 177
150 168 161
169 192 191
180 198 191
170 190 161
174 193 191
169 188 144
179 197 191
183 201 217
171 191 161
175 195 191
175 195 191
174 194 191
166 187 144
176 197 204
179 197 191
176 196 204
155 175 161
172 189 177
183 202 228
179 196 177
174 193 177
169 185 144
165 186 144
167 189 161
168 187 191
168 188 204
162 182 177
157 172 144
181 200 217
168 186 169
178 196 191
171 191 161
174 195 191
171 189 177
175 195 191
174 193 177
161 182 144
181 200 217
176 191 196
171 193 191
169 190 161
160 180 144
169 186 177
172 191 161
166 187 204
177 192 165
174 191 177
170 191 177
176 196 191
169 188 180
174 193 177
178 197 191
169 187 177
167 187 177
165 187 161
168 187 165
175 192 204
171 191 194
177 196 191
176 196 191
165 185 161
171 191 161
170 187 177
169 187 177
165 184 184
180 199 204
146 165 102
174 192 177
171 192 177
162 183 161
171 193 191
178 196 191
148 170 191
143 165 153
157 173 169
160 182 161
165 187 198
160 177 148
163 183 184
160 181 198
175 191 196
156 176 177
165 185 177
154 175 153
169 191 177
165 185 193
163 181 198
151 173 161
166 184 198
156 176 161
166 182 180
183 202 228
160 177 169
172 192 211
157 178 177
167 188 191
150 171 153
161 181 153
149 170 177
155 177 177
165 184 184
142 163 160
163 183 177
141 163 165
137 154 148
141 160 153
147 168 183
151 170 184
159 178 183
133 153 156
149 168 144
159 180 200
149 169 169
133 154 142
151 168 169
158 178 184
143 164 165
172 193 191
124 145 160
130 151 183
146 164 185
156 178 191
152 173 153
109 130 130
85 110 154
151 169 184
112 135 167
120 137 168
131 154 179
103 126 163
119 142 188
78 101 128
147 170 207
102 124 162
169 187 201
217 233 255
217 233 255
217 233 255
195 212 228
56 89 137
61 95 155
51 82 134
62 97 165
57 91 149
62 97 159
62 98 159
55 88 128
61 95 155
63 98 167
61 97 151
56 90 128
60 96 151
61 96 149
57 89 137
60 96 149
60 95 137
57 90 125
63 99 169
65 101 171
62 98 161
64 100 181
63 98 161
60 95 128
65 101 181
60 95 140
60 95 125
59 93 151
57 92 128
63 98 140
61 96 140
61 97 151
61 97 151
65 101 171
64 100 171
63 98 149
62 97 161
59 94 140
56 89 114
64 100 161
59 95 151
60 95 151
58 91 137
61 95 140
57 91 140
61 97 151
61 96 137
57 91 114
60 95 140
61 96 140
63 98 161
63 99 171
62 98 151
63 99 171
62 97 151
61 96 151
59 93 140
62 98 161
64 99 151
62 98 161
64 99 161
60 93 117
60 96 140
62 95 151
58 93 114
62 98 151
56 87 105
58 93 114
60 96 151
63 97 161
59 92 140
61 95 151
64 97 140
62 98 161
60 93 140
61 95 142
58 91 128
62 96 142
60 94 155
63 100 171
60 94 151
57 91 143
57 91 128
60 95 162
59 92 140
58 93 114
55 88 118
60 94 151
58 91 153
58 93 114
60 92 153
58 89 142
57 90 128
55 86 141
58 90 128
54 84 94
48 69 74
55 86 146
183 199 223
217 233 255
217 233 255
217 233 255
173 185 191
67 76 59
93 94 66
104 112 89
106 108 81
121 124 93
103 106 78
122 120 85
111 112 69
116 118 68
99 102 69
98 105 74
112 113 73
136 135 76
126 127 76
152 148 95
148 142 95
142 138 82
158 153 81
125 126 77
140 137 58
156 153 95
153 149 95
143 140 85
167 162 96
167 158 102
143 139 76
124 124 69
154 151 84
141 140 72
169 164 103
150 148 77
171 168 102
156 152 76
176 168 88
167 160 99
155 152 84
171 166 111
152 149 102
129 129 80
139 139 72
177 167 95
154 152 84
174 168 95
166 162 99
157 155 95
155 152 80
172 165 103
170 163 95
159 155 94
173 164 95
164 160 96
163 157 95
162 157 84
169 161 105
149 148 83
176 170 102
172 167 101
183 175 114
169 160 80
183 175 114
175 170 102
168 161 88
170 163 92
172 165 102
173 168 95
156 150 76
181 170 102
169 165 88
155 148 89
171 166 88
184 175 108
170 164 99
157 153 72
162 159 62
166 160 72
157 155 72
159 156 99
171 165 80
170 163 95
182 174 108
175 168 88
157 155 80
172 167 95
174 165 88
182 172 95
163 159 88
179 171 95
174 168 88
168 164 102
174 168 95
181 173 108
160 156 72
154 148 85
169 163 88
158 151 92
170 167 102
184 174 102
173 167 88
165 157 94
169 162 88
168 163 72
173 167 88
170 166 95
168 166 95
166 161 92
178 171 102
174 165 92
149 148 76
178 169 94
171 166 88
177 169 88
155 153 72
186 177 114
168 161 80
177 172 108
164 159 51
167 161 80
173 167 88
175 168 88
176 170 102
188 176 108
177 169 88
161 154 62
170 166 88
175 170 102
168 161 80
161 160 72
182 173 108
167 163 80
179 170 95
163 160 72
165 161 95
181 171 95
174 168 95
175 166 72
166 162 88
187 176 108
162 160 95
175 169 95
184 174 102
169 163 72
181 172 95
173 167 88
179 169 95
177 170 95
167 162 72
178 197 204
171 190 161
161 181 144
168 190 177
182 201 217
175 196 204
176 197 204
165 185 144
179 197 191
175 195 191
178 199 217
178 198 204
165 181 144
173 195 204
171 193 191
170 189 144
175 195 191
173 190 194
171 192 191
168 189 161
171 193 191
172 190 144
186 202 204
168 189 161
170 192 191
175 193 161
168 189 161
163 180 102
169 188 144
175 193 161
177 197 204
174 194 191
173 193 177
185 200 217
176 193 161
172 191 161
156 178 72
180 199 204
159 180 161
176 197 204
177 196 191
173 193 177
179 197 191
166 186 161
166 186 177
165 186 144
149 170 144
167 188 198
173 191 191
176 196 191
171 192 177
174 195 204
170 190 161
175 193 161
158 178 144
147 165 144
164 186 144
173 192 161
180 199 204
170 192 191
167 189 161
163 184 177
155 177 186
180 200 217
179 198 204
150 173 161
167 188 144
173 193 177
168 187 177
161 179 168
180 200 217
166 185 169
158 179 102
162 181 192
171 192 177
169 187 125
158 179 184
156 175 177
154 172 168
164 183 161
166 186 161
162 180 169
161 181 153
176 195 217
181 198 191
167 188 161
177 197 204
162 182 144
169 189 191
170 191 177
167 189 204
166 186 177
158 174 165
174 193 217
167 187 191
170 189 161
165 186 144
163 183 204
161 181 102
168 186 177
166 182 184
172 193 217
162 182 198
143 161 175
160 180 191
170 189 198
167 189 177
174 194 191
158 177 169
158 177 191
160 175 165
152 169 160
160 182 211
145 165 135
175 193 209
171 191 211
151 171 169
129 152 151
155 174 161
163 185 184
166 186 191
141 163 144
163 182 191
136 155 169
148 168 169
135 156 160
166 187 191
156 177 177
108 129 151
148 168 175
104 125 165
132 154 135
116 134 133
109 131 127
103 125 156
146 167 187
138 162 196
117 136 168
102 121 148
85 103 125
138 158 190
88 108 129
125 143 153
118 134 169
118 138 168
117 139 185
148 169 205
217 233 255
217 233 255
217 233 255
109 132 173
51 83 155
54 87 134
53 86 125
60 92 137
58 93 155
58 92 149
48 77 102
62 97 137
62 98 161
59 94 128
58 93 125
62 98 169
62 98 159
62 98 161
59 93 140
65 101 171
61 97 159
60 94 125
58 94 128
61 97 161
61 97 151
64 100 179
61 97 161
63 98 140
63 99 161
62 97 140
61 95 114
59 93 152
65 102 181
57 92 114
62 97 151
57 91 128
57 91 128
58 93 140
62 98 161
59 92 128
63 97 128
62 98 151
61 95 128
64 100 171
62 97 140
57 92 114
60 95 128
62 98 159
61 96 151
59 95 140
61 97 151
58 93 114
58 91 114
58 93 151
62 96 128
60 97 171
57 90 114
58 93 114
61 95 151
62 98 151
58 92 128
47 75 99
57 90 128
62 97 140
60 95 140
60 95 128
60 96 151
57 90 114
59 94 128
60 94 130
62 99 171
57 90 151
62 97 161
62 98 161
59 93 99
63 98 151
64 100 171
62 98 151
60 93 140
58 92 128
61 94 142
57 89 102
57 91 128
61 93 133
54 86 100
59 91 122
57 92 128
62 97 161
61 94 140
57 87 120
60 96 151
53 85 100
60 92 130
61 93 144
56 87 120
57 90 140
62 97 140
52 80 102
57 88 133
58 88 133
58 89 145
55 85 134
144 162 199
217 233 255
217 233 255
217 233 255
127 133 124
69 78 65
97 100 69
89 88 53
60 71 51
97 100 64
111 114 73
124 126 89
115 115 69
149 144 93
105 108 81
141 140 93
119 119 85
132 130 84
142 138 85
135 137 89
141 139 86
131 131 85
118 120 68
147 145 80
145 142 93
156 156 84
149 144 85
134 132 89
148 146 84
151 146 85
152 149 96
150 146 80
145 143 80
154 152 88
137 135 81
151 147 89
150 148 95
119 120 62
137 137 80
159 155 88
156 154 99
170 164 72
148 145 84
149 146 84
165 160 80
155 150 88
156 150 73
159 154 88
148 146 84
160 156 80
167 164 105
159 154 88
146 144 89
167 159 99
131 133 72
176 170 102
155 153 62
152 149 95
166 160 90
144 143 84
156 153 62
180 172 102
172 166 88
161 158 84
148 145 88
170 166 95
161 156 93
176 169 95
160 157 80
177 168 105
172 163 62
174 169 102
168 165 88
174 168 88
168 162 95
167 160 87
183 174 102
165 160 84
155 150 80
170 164 102
164 159 88
168 161 88
155 150 62
178 171 102
168 162 88
169 164 80
168 164 102
170 164 95
146 141 72
173 165 88
181 171 88
165 161 72
170 165 88
177 170 95
174 167 102
173 165 87
171 164 95
178 170 95
162 157 80
165 160 92
167 160 88
171 165 80
165 161 72
165 158 72
172 166 88
169 164 105
165 157 88
162 158 72
160 154 36
165 161 72
174 166 80
172 164 88
170 162 80
173 164 80
165 161 72
175 170 107
173 165 95
176 169 95
165 158 72
178 170 95
177 168 95
180 171 95
150 147 62
177 169 88
175 169 95
170 165 80
174 168 95
169 163 95
177 170 95
175 169 95
175 170 102
174 167 88
177 170 95
169 162 80
165 160 72
173 165 95
178 172 108
163 159 72
176 168 88
184 173 95
178 171 102
157 154 62
179 172 102
169 166 95
175 169 95
171 165 80
173 167 88
169 164 80
178 169 88
174 167 88
175 170 102
163 185 144
175 195 191
171 191 177
175 196 204
174 193 177
166 185 125
173 192 204
162 183 177
173 190 191
175 195 191
161 183 125
175 197 217
169 189 161
169 186 161
156 176 125
170 189 144
179 197 204
170 188 161
163 185 144
170 192 191
168 189 161
185 201 204
175 196 204
167 189 161
182 200 204
160 179 107
172 194 191
168 183 180
182 199 191
183 200 204
176 193 194
166 180 177
168 187 183
173 192 161
174 193 177
173 189 191
171 189 144
175 195 191
175 194 177
174 188 180
174 193 177
170 189 161
166 187 191
179 197 191
159 179 161
171 191 177
174 194 191
167 185 177
164 186 198
170 188 184
158 178 144
168 187 144
181 198 191
175 195 191
163 183 148
167 187 144
175 196 204
156 179 153
178 197 191
176 196 191
169 189 191
173 193 177
164 180 148
176 197 204
176 191 177
172 191 217
160 180 161
159 179 191
173 193 177
172 187 191
166 180 128
182 201 217
154 175 169
155 175 161
162 181 153
160 178 177
150 167 144
169 191 177
172 190 144
155 176 144
177 198 217
162 178 135
171 193 191
162 183 177
151 171 161
181 199 204
152 173 135
169 189 198
160 180 144
158 177 169
158 177 125
173 189 191
160 184 144
167 186 169
156 174 178
178 199 217
157 178 135
178 198 204
163 183 191
150 173 169
151 172 153
171 187 177
168 189 198
133 150 144
163 183 169
175 195 191
161 180 172
173 192 204
152 169 177
169 192 191
167 186 191
152 173 161
157 177 184
156 174 153
146 164 153
166 188 204
143 162 169
140 158 160
144 163 144
141 161 177
134 156 170
158 178 198
152 172 151
168 188 191
156 177 177
151 170 177
131 152 190
150 171 144
163 184 177
145 166 161
97 121 139
121 143 144
130 153 168
157 180 204
142 162 184
117 139 118
79 102 107
122 141 169
104 125 155
113 136 179
136 153 187
88 109 146
78 94 133
126 145 168
100 124 155
123 146 174
145 164 198
217 233 255
217 233 255
217 233 255
53 86 122
54 86 147
52 84 133
62 97 167
50 81 128
62 98 167
61 97 151
59 94 149
62 98 167
61 97 161
61 97 159
54 88 125
47 75 80
55 88 125
60 96 159
60 95 137
54 87 133
59 94 149
65 101 181
59 95 149
61 98 161
58 91 114
60 95 149
63 98 151
53 86 128
63 98 151
62 97 151
57 91 114
48 77 128
62 97 151
61 95 140
61 96 140
61 96 140
60 95 128
59 94 140
60 96 140
61 98 161
65 102 181
55 89 140
61 95 128
60 96 151
62 97 151
62 98 151
62 96 140
59 93 128
58 92 128
60 95 128
63 100 181
61 96 140
56 91 151
59 93 114
58 94 140
63 99 161
59 92 142
64 100 171
58 93 114
54 87 99
63 99 161
60 94 140
61 95 114
58 94 128
65 100 161
60 95 128
65 101 171
63 99 161
55 87 102
64 100 171
60 94 130
59 94 151
59 91 129
64 99 163
58 90 128
63 98 151
59 93 151
62 95 155
59 93 130
62 97 151
60 96 140
62 96 153
60 95 128
56 88 99
64 100 161
60 92 130
54 83 117
58 92 117
59 90 151
58 89 134
65 99 163
56 90 140
60 94 140
55 87 120
58 92 133
61 94 154
62 98 161
53 85 133
62 96 151
61 91 147
52 81 121
47 76 87
124 140 151
217 233 255
217 233 255
207 222 243
100 102 69
83 87 64
96 99 61
70 79 68
129 129 92
96 100 65
87 94 70
89 98 81
131 130 84
135 137 96
117 118 82
141 138 89
115 117 69
137 136 86
149 145 85
161 157 99
142 138 81
136 133 72
146 144 88
151 149 99
150 147 93
131 129 85
134 133 77
165 154 92
151 150 103
141 138 84
157 153 84
127 129 58
148 143 77
154 149 84
148 143 81
162 158 88
158 154 88
161 154 80
162 157 80
165 160 95
153 150 84
157 155 88
150 147 88
144 141 67
156 152 88
177 171 102
161 158 84
178 171 102
158 152 92
177 169 88
181 173 102
154 152 102
169 162 84
173 167 108
177 170 95
178 168 102
148 143 76
177 170 95
176 169 95
166 161 95
163 155 72
162 156 95
164 160 92
160 156 80
181 172 95
154 149 72
183 174 107
177 169 95
165 161 79
177 169 95
166 161 89
154 152 88
172 164 95
164 160 88
170 163 95
172 166 102
181 172 102
168 163 80
170 163 92
161 156 84
175 168 88
159 157 84
168 162 88
170 162 88
175 169 95
169 163 80
161 156 80
154 151 62
170 164 80
163 159 62
160 156 76
174 168 101
169 161 80
174 167 88
170 162 105
167 161 62
178 169 88
172 166 80
172 163 88
163 159 62
171 165 102
172 168 95
174 165 88
174 166 95
165 160 62
180 173 108
177 169 88
171 165 80
181 169 95
176 169 101
176 168 95
174 168 88
180 173 108
184 174 102
177 171 102
169 163 95
179 171 102
168 160 80
175 166 95
183 173 102
168 161 80
170 166 88
175 169 95
171 165 80
172 166 80
181 172 95
178 168 95
159 157 51
172 163 80
159 155 72
169 163 95
175 168 88
170 163 88
175 169 95
169 163 72
174 167 95
178 169 88
177 171 102
171 164 72
168 164 88
180 172 102
179 171 102
181 173 108
174 168 95
167 160 72
175 168 88
166 162 80
185 175 108
178 169 88
174 169 102
172 166 88
176 196 191
183 200 204
185 201 204
168 187 144
173 195 204
184 201 204
169 189 161
171 191 161
170 190 161
180 200 217
178 196 177
174 192 191
174 194 177
171 193 191
176 195 191
180 197 191
171 191 177
179 198 204
172 192 177
169 190 161
153 175 125
176 196 204
175 195 191
167 187 144
174 195 191
172 192 177
173 193 177
165 184 177
169 188 191
164 185 184
175 191 177
169 190 161
177 197 204
175 196 204
172 192 177
173 190 144
168 188 191
175 197 217
174 195 204
184 202 217
166 187 144
172 192 177
166 188 161
163 182 144
169 189 180
166 187 144
175 196 204
173 193 177
169 187 177
166 186 177
163 179 177
165 184 184
169 190 161
177 193 180
174 193 177
169 188 191
168 189 161
166 186 192
185 202 204
166 186 177
173 191 204
170 189 191
156 175 153
171 187 144
165 187 161
176 196 191
156 176 125
156 175 156
152 173 153
173 193 177
169 188 184
179 199 217
174 194 191
165 185 161
172 191 191
163 181 184
168 187 184
156 179 153
176 194 177
179 198 204
148 167 102
171 190 191
157 172 151
151 173 172
168 188 144
170 189 180
159 181 153
164 181 165
167 188 161
178 198 204
183 202 217
179 197 191
165 186 177
171 190 198
161 183 183
166 184 204
157 177 177
143 162 162
158 180 198
165 180 153
151 172 153
156 175 153
167 188 198
164 181 165
180 197 191
157 177 211
169 187 177
158 176 184
165 185 184
152 173 191
163 183 198
161 181 191
140 158 144
141 162 187
136 156 142
161 178 125
151 170 135
142 163 133
169 189 191
154 172 135
103 124 144
117 139 116
154 171 186
177 195 204
156 176 160
132 151 112
138 155 135
134 157 161
139 159 188
146 166 161
136 157 177
139 159 175
137 157 151
127 148 170
84 109 135
108 128 160
97 116 133
106 122 135
138 160 199
126 150 175
97 120 145
119 137 176
101 119 85
114 133 165
81 100 129
82 101 143
110 128 149
159 175 205
218 233 255
142 158 196
52 84 148
57 90 152
54 85 122
46 75 121
55 88 135
56 90 133
60 93 155
61 96 165
61 97 161
55 88 125
53 84 117
61 96 149
55 87 128
60 96 140
57 90 144
57 91 111
60 95 151
60 95 149
60 94 140
61 96 149
61 97 161
59 94 128
64 100 171
60 96 140
62 98 151
58 91 125
61 96 140
60 95 128
61 96 140
59 93 114
59 94 114
66 101 171
62 98 171
62 97 137
64 101 171
62 98 161
54 87 99
63 99 161
60 95 140
64 98 140
61 97 151
64 99 159
59 94 128
59 92 128
61 96 151
61 94 151
62 96 128
63 98 140
60 94 140
59 94 114
61 95 140
60 95 140
61 96 140
56 91 99
63 98 161
65 101 171
65 101 161
60 95 128
61 96 140
62 97 171
61 97 151
63 99 151
63 99 161
61 97 151
62 98 161
56 89 114
66 102 181
62 98 161
58 92 117
60 93 142
63 98 161
58 92 117
65 101 171
64 99 161
62 97 140
62 97 151
61 97 151
63 98 173
60 93 151
59 93 130
58 92 114
59 94 128
59 92 130
62 96 142
59 91 105
52 80 118
60 93 130
62 97 140
55 87 129
58 91 129
60 95 140
61 93 133
56 88 134
59 93 151
61 93 135
64 99 163
51 80 114
58 88 145
55 85 117
54 83 105
197 213 237
218 233 255
151 154 138
92 93 67
98 101 72
130 129 87
86 93 72
70 78 62
85 91 67
113 113 78
139 136 85
109 110 73
128 125 69
134 133 78
119 121 81
136 131 86
153 152 88
103 105 68
145 144 92
140 140 78
141 138 72
144 142 82
156 153 89
127 130 67
163 158 105
139 138 81
179 169 102
114 117 72
138 136 80
163 159 80
126 129 88
130 129 69
177 171 102
146 145 88
155 153 88
158 153 102
143 141 68
168 163 99
157 154 88
148 143 72
168 163 99
151 149 83
163 159 84
166 160 84
156 153 88
160 153 80
177 171 102
174 167 105
152 150 88
158 154 62
147 141 80
177 171 102
174 168 95
175 168 88
150 149 84
157 151 72
168 163 107
168 164 80
160 157 80
166 162 95
176 166 92
160 156 72
171 165 102
171 165 80
158 155 76
170 164 103
171 167 95
161 155 92
179 170 95
173 163 80
156 154 79
178 171 107
156 153 62
159 152 80
169 164 99
158 151 62
183 173 102
166 160 84
184 176 114
164 161 92
176 170 102
177 170 95
178 171 107
179 172 102
166 161 95
163 158 51
173 168 95
165 160 90
172 166 88
169 164 88
166 161 88
174 169 102
165 159 87
173 165 88
174 168 95
174 167 88
173 168 95
180 173 108
173 167 88
176 168 102
149 146 62
169 164 80
176 169 95
178 171 108
170 165 102
150 148 73
177 171 102
163 158 72
175 170 102
175 168 102
166 159 80
179 170 88
170 164 80
176 169 95
179 173 108
171 163 88
179 171 95
161 155 62
173 166 88
172 166 80
177 168 87
166 160 80
170 165 80
165 158 87
165 160 62
178 170 95
174 167 95
165 158 62
160 154 51
167 161 88
174 167 88
169 165 88
166 161 62
182 174 108
172 163 80
181 173 108
179 173 108
171 166 88
177 169 88
171 165 88
181 174 108
178 170 95
178 169 88
166 162 72
169 163 95
173 165 88
176 169 95
178 170 95
180 172 102
165 155 80
165 186 144
178 196 191
170 192 191
174 193 177
164 185 161
166 187 144
175 194 177
164 185 125
175 194 177
163 187 161
178 197 204
180 197 177
169 190 177
177 195 177
173 189 177
173 193 177
171 193 191
173 193 177
174 193 177
163 185 161
173 193 177
180 199 204
166 185 177
179 197 191
176 195 191
171 190 177
171 190 144
166 187 144
163 181 144
172 190 177
163 185 144
169 187 177
168 188 144
178 197 204
178 195 177
174 193 177
170 192 191
177 197 204
177 195 177
166 184 177
156 177 144
177 196 191
181 199 204
176 195 191
178 196 191
168 187 184
168 188 144
167 190 177
170 190 161
167 186 191
175 196 204
174 194 191
168 186 177
181 199 204
171 190 191
175 195 191
158 175 125
162 181 144
172 191 161
180 198 191
167 183 177
178 196 177
167 188 191
174 192 161
186 204 228
169 190 161
164 184 177
161 183 177
173 191 144
171 190 198
172 190 177
159 179 144
170 189 198
174 192 161
159 179 184
174 194 217
163 182 161
161 182 161
165 184 177
173 193 217
170 189 191
177 193 204
167 185 144
160 179 161
164 182 177
173 189 161
155 175 161
171 190 198
164 183 191
163 184 169
168 191 223
159 178 169
163 183 169
163 184 169
167 188 161
168 189 204
165 184 161
166 183 144
178 197 219
173 191 198
173 190 184
158 178 169
165 185 165
162 181 161
165 185 191
181 198 191
145 165 184
142 163 177
158 179 188
166 185 169
176 194 177
145 166 172
141 161 184
152 172 184
150 170 184
144 165 153
134 155 161
135 156 156
148 168 184
150 167 162
156 176 211
140 163 198
127 147 135
147 167 153
173 192 211
154 174 196
156 178 144
123 144 123
126 147 155
143 162 160
141 163 190
155 173 190
145 168 184
114 135 142
123 143 168
143 163 190
112 132 154
69 94 119
134 159 188
90 111 120
99 122 145
67 87 133
103 122 142
137 158 175
139 158 187
85 103 145
28 48 102
134 149 150
218 234 255
197 213 241
55 87 155
38 63 122
56 89 150
50 82 114
54 85 141
59 93 153
56 88 122
57 91 155
61 96 157
61 97 151
60 95 140
64 99 159
59 95 147
56 89 137
62 96 147
62 97 151
62 99 171
64 100 171
65 100 169
59 93 144
56 89 105
64 100 161
59 94 140
59 95 140
60 95 151
59 94 159
57 90 111
62 97 151
61 97 159
61 95 140
59 94 114
62 96 140
62 97 151
60 96 151
58 92 99
59 94 128
54 87 137
57 90 80
59 94 128
61 96 140
54 84 76
65 100 151
62 97 140
63 98 151
57 90 140
62 97 128
59 94 128
60 95 128
63 98 151
64 99 161
63 98 140
60 95 161
63 98 151
61 96 140
56 90 114
62 98 161
61 97 151
63 97 140
63 99 161
61 96 140
64 100 161
63 97 153
63 99 161
59 94 140
62 98 151
61 96 140
63 97 153
65 101 171
63 98 171
61 95 140
60 95 142
60 94 140
59 91 135
61 95 151
59 92 117
58 91 102
61 97 151
56 88 128
64 100 171
62 97 151
64 100 171
59 94 128
58 92 141
59 92 128
60 94 128
58 88 130
57 89 117
58 91 143
62 97 163
60 92 133
60 95 151
58 93 151
56 91 141
60 96 151
57 89 102
55 86 142
50 78 117
57 87 133
41 66 60
50 75 113
172 189 214
218 234 255
119 130 131
84 88 62
100 102 69
118 117 82
87 93 62
129 129 89
127 128 85
115 120 88
127 127 78
115 119 78
105 108 51
142 139 92
136 135 78
151 148 93
140 137 80
115 118 86
98 104 60
146 143 84
144 142 92
134 133 77
146 144 92
145 142 96
145 142 82
102 109 51
166 160 95
134 131 76
137 135 80
142 138 88
132 133 76
178 168 108
137 135 72
145 144 87
140 140 76
179 172 108
125 127 81
139 140 81
169 164 99
163 155 95
166 164 94
158 152 80
160 152 88
165 158 87
162 158 80
147 142 89
165 158 95
157 151 72
178 172 108
162 155 79
178 169 88
161 157 76
149 146 93
159 156 102
173 169 102
169 164 80
159 154 89
159 156 79
166 161 88
169 164 102
163 159 84
166 162 80
160 155 80
156 152 76
153 147 76
158 154 84
183 173 102
168 162 88
159 152 80
170 164 99
174 168 95
173 165 95
172 166 88
156 154 72
175 170 102
163 157 92
172 163 84
163 157 72
172 167 88
174 169 102
173 168 95
172 165 102
170 165 95
170 161 95
180 171 95
167 159 96
173 168 95
174 167 105
169 163 80
165 160 88
167 159 95
168 163 80
174 167 80
167 163 80
173 167 88
161 157 88
165 160 88
173 167 88
159 155 72
162 156 72
166 161 88
152 146 65
173 166 80
172 165 80
165 160 95
165 161 80
173 166 80
160 154 80
167 161 88
167 163 80
167 161 88
173 166 80
168 163 72
170 164 72
170 165 80
182 173 102
173 165 88
163 161 80
180 172 102
178 169 88
160 158 62
174 168 95
163 159 62
178 171 102
175 168 88
174 168 95
178 170 95
171 166 88
169 164 80
171 164 80
178 169 94
173 166 80
166 162 72
178 170 95
182 172 95
178 171 102
178 171 102
161 155 62
164 158 80
172 167 95
163 157 72
170 165 80
177 171 102
174 167 80
169 161 88
173 169 102
175 168 88
168 164 80
167 158 80
176 166 88
182 200 204
173 192 161
179 198 204
166 186 125
170 190 161
153 172 102
175 194 177
165 185 144
174 194 177
165 183 144
170 188 165
181 198 191
178 199 217
166 187 144
180 199 204
177 196 191
167 188 161
153 175 125
168 188 191
177 195 177
179 198 204
179 194 204
170 190 161
183 201 204
171 190 144
167 186 161
167 189 161
171 192 177
179 197 191
171 190 144
179 198 204
176 195 191
172 188 161
173 193 177
182 200 204
174 189 161
185 201 204
171 190 161
176 195 191
159 178 184
162 179 107
157 177 144
166 185 148
162 182 177
173 194 191
172 191 161
177 195 177
179 197 191
169 190 161
174 193 177
174 195 191
182 199 191
178 198 204
170 192 191
170 188 177
175 193 161
169 192 191
174 193 177
154 176 144
165 185 177
164 184 161
168 189 161
158 176 161
172 191 161
166 187 144
178 198 204
173 194 191
156 175 102
171 190 161
167 187 144
179 198 204
175 195 191
162 183 161
158 176 144
169 186 148
172 189 184
176 198 217
175 191 191
166 185 177
169 189 191
176 192 177
168 188 191
172 189 177
167 187 144
159 173 144
166 186 184
151 169 153
174 192 191
183 200 204
164 180 165
155 172 156
149 169 102
151 171 161
159 178 165
165 185 216
168 186 177
166 184 180
180 200 217
147 167 172
155 174 161
135 155 153
160 179 186
151 172 144
153 175 177
154 175 169
163 181 161
136 153 148
162 184 183
160 183 144
148 172 169
123 144 150
147 167 153
144 165 184
174 194 223
158 177 211
169 187 177
137 156 161
133 153 175
166 186 184
152 173 198
149 171 144
148 169 183
131 146 149
120 138 123
146 168 175
150 172 198
140 159 153
148 166 169
164 183 213
94 112 148
118 141 135
124 146 165
145 163 169
121 138 148
98 117 124
142 163 188
144 162 153
122 141 131
103 124 156
94 115 151
95 116 149
59 75 118
113 132 151
90 106 147
75 88 92
112 131 169
63 83 136
89 101 132
218 234 255
123 137 154
41 68 126
52 84 135
58 94 151
58 91 142
58 91 151
59 93 125
59 95 161
57 91 151
56 89 128
53 85 114
54 86 140
62 97 159
60 95 137
58 92 144
59 94 159
59 94 114
55 90 128
65 101 171
61 95 137
62 97 151
62 98 161
62 97 161
61 96 128
62 97 149
64 101 181
61 97 151
63 99 161
62 97 140
60 94 114
62 98 169
58 93 137
54 87 111
56 88 114
55 88 114
58 92 114
60 96 140
61 97 151
60 97 171
62 97 137
63 98 140
61 96 128
63 100 171
61 97 151
58 93 128
62 97 140
58 93 140
63 99 161
59 94 140
62 98 151
61 97 151
63 98 161
59 93 128
58 93 140
58 92 140
57 91 128
58 93 114
63 97 140
57 91 99
62 98 161
61 97 151
62 97 140
61 95 140
61 95 151
65 101 171
59 91 140
64 100 161
63 97 151
60 95 128
63 99 171
57 90 151
61 97 140
59 94 128
66 102 181
61 94 153
54 85 129
59 94 140
60 95 128
61 95 140
63 99 173
63 99 171
60 94 140
59 92 151
59 90 130
61 96 161
56 83 84
57 90 117
58 91 128
61 93 147
59 90 117
57 88 99
58 92 154
61 95 142
56 87 133
60 92 135
60 92 145
50 76 63
58 87 111
49 76 104
56 85 142
49 72 74
184 200 223
218 234 255
100 101 66
93 97 66
67 71 54
62 67 46
84 83 54
77 83 53
102 105 70
114 116 81
101 100 59
97 100 63
95 99 58
96 100 57
110 110 72
123 123 68
113 114 86
120 124 72
133 133 67
123 123 76
125 128 81
126 125 77
140 140 81
142 139 88
140 139 96
153 149 96
136 137 85
140 138 84
171 164 95
167 158 88
143 140 93
135 133 93
168 162 96
127 123 78
159 152 81
156 151 76
157 155 95
122 126 84
169 161 88
146 144 76
164 159 80
179 172 102
153 149 93
166 161 92
163 160 88
146 146 88
161 158 102
156 153 84
158 155 99
165 157 94
166 159 80
158 153 84
155 150 72
174 168 95
154 152 84
166 161 72
161 157 80
165 161 88
168 163 95
168 160 99
180 173 108
163 160 79
167 161 99
158 154 72
175 168 88
145 145 75
164 158 80
174 168 95
173 167 88
170 165 88
177 170 102
169 163 96
173 166 80
152 148 88
176 168 88
155 152 72
160 155 72
160 155 92
167 162 92
178 171 102
176 169 95
166 162 95
176 169 95
171 165 95
175 167 102
172 167 101
171 166 88
166 163 88
170 167 95
166 161 88
168 162 95
171 164 88
171 167 95
171 166 88
172 166 80
179 171 95
172 165 104
167 163 102
171 165 80
171 166 88
168 162 88
166 160 51
174 169 102
170 163 88
181 173 108
170 166 94
167 163 80
157 154 62
165 158 72
174 165 88
170 165 80
176 167 95
177 170 95
174 169 102
169 163 79
167 162 72
180 172 102
162 158 88
148 145 72
162 158 62
178 170 95
168 163 102
175 170 102
169 164 80
166 161 88
175 169 95
183 173 102
170 165 88
174 167 88
165 159 88
171 165 80
178 172 108
166 161 80
168 164 80
170 161 72
173 165 72
162 157 72
164 160 62
168 164 80
170 165 80
169 164 80
170 164 80
165 159 88
176 169 95
170 164 72
160 157 80
162 157 95
169 161 88
166 160 80
177 171 102
175 195 191
177 196 191
170 190 177
171 190 191
179 198 204
177 196 191
173 190 177
171 191 161
186 202 204
173 193 191
167 186 125
174 194 177
169 191 177
178 197 204
180 198 191
173 192 177
174 193 177
180 200 217
175 196 204
171 193 191
165 187 144
171 189 177
179 199 217
175 192 177
172 192 177
172 189 177
176 192 191
178 198 204
164 187 161
179 197 191
162 185 144
183 199 191
166 187 204
178 196 191
157 178 72
167 185 177
173 192 161
167 185 148
168 184 144
176 195 191
160 178 144
179 196 177
176 197 204
169 191 177
161 183 125
181 196 204
179 195 204
144 163 144
170 189 144
172 191 161
171 193 191
166 179 168
180 198 191
180 199 204
169 188 177
172 190 144
168 189 177
173 189 161
171 189 144
169 188 184
173 193 217
166 184 153
159 178 177
170 190 161
166 186 177
186 203 217
176 197 204
181 196 204
138 160 114
165 185 125
165 185 125
166 188 204
157 179 161
177 198 217
181 199 204
168 188 191
174 192 204
168 188 191
172 192 177
150 166 144
161 177 177
153 173 169
176 193 204
176 195 191
170 187 177
167 185 211
164 185 184
169 186 198
168 187 177
157 175 144
173 193 177
165 186 144
170 193 204
165 183 153
161 178 153
159 178 177
166 183 184
174 195 204
171 190 191
144 164 160
171 190 161
167 185 177
165 185 169
155 178 144
157 177 184
169 188 198
156 173 165
170 189 204
117 141 133
168 189 161
154 171 148
137 158 169
158 177 155
136 157 102
150 169 133
157 172 129
161 183 177
159 179 184
163 181 184
146 164 165
158 175 190
118 137 142
158 176 191
155 175 204
172 192 204
136 158 183
127 144 127
136 158 161
150 170 153
122 141 175
155 173 202
183 201 217
133 150 164
106 129 175
147 163 183
157 177 184
93 109 76
106 126 157
129 147 150
142 161 168
97 115 154
99 116 93
94 114 137
84 109 144
117 136 155
72 92 137
63 77 106
99 122 159
170 184 210
140 154 170
57 92 153
50 81 140
58 92 151
54 87 140
56 90 111
57 90 128
52 84 95
55 86 117
62 96 161
57 91 114
61 96 149
62 97 157
54 87 137
61 96 140
56 89 133
62 96 137
56 90 133
63 98 140
63 100 171
56 89 114
61 95 151
61 97 149
62 96 137
60 94 137
63 98 151
64 99 151
63 98 159
65 101 181
63 99 171
60 95 128
58 92 111
61 98 171
65 101 171
59 92 114
62 97 151
61 96 140
58 93 114
61 97 151
60 95 161
59 92 128
61 97 151
55 88 128
61 97 140
57 90 125
58 92 99
64 100 171
64 99 161
63 99 161
60 95 161
59 93 151
59 92 140
60 95 128
59 91 114
65 101 171
64 100 171
63 98 151
60 93 140
62 98 161
62 98 151
56 87 114
63 99 161
59 95 140
60 94 161
62 98 151
63 99 161
60 94 142
62 98 161
62 97 151
61 95 142
61 94 151
62 98 161
59 93 151
59 93 130
62 97 163
52 83 99
58 92 117
60 95 128
56 88 117
60 96 140
57 89 141
54 87 128
63 99 161
58 91 99
55 85 102
53 84 117
56 88 142
60 94 140
57 90 128
58 90 133
58 91 151
56 88 142
58 91 102
49 76 107
58 90 130
61 90 135
60 93 142
58 90 142
56 89 128
50 77 105
53 81 90
83 103 136
183 197 214
116 118 85
80 85 64
109 109 73
101 102 60
104 107 78
106 106 68
102 104 62
113 114 73
103 104 74
107 110 58
124 125 74
119 117 73
151 147 93
117 120 62
140 134 86
138 136 85
139 139 76
119 121 68
133 132 92
142 142 77
153 147 90
152 150 102
126 125 73
118 117 37
161 160 99
148 146 88
151 144 73
175 169 95
160 155 89
135 135 72
149 146 92
148 145 80
172 166 105
158 152 80
128 125 76
151 151 84
139 137 84
162 157 88
148 145 57
135 132 67
160 155 93
151 147 90
170 164 80
138 135 73
171 166 88
160 154 81
171 165 80
173 168 95
169 166 95
178 169 88
160 155 92
150 150 88
152 148 90
148 143 76
160 156 72
154 148 92
169 163 88
170 165 88
175 169 102
142 140 73
170 163 95
160 155 87
157 152 80
163 157 80
160 155 72
166 160 84
167 162 72
171 166 88
182 173 107
164 159 80
176 170 102
159 156 80
163 158 80
177 171 102
152 149 73
157 154 92
162 159 88
176 170 102
181 172 95
148 145 88
172 167 88
159 154 67
169 164 80
152 149 76
169 164 80
181 171 95
166 161 88
168 164 80
179 172 108
170 163 72
169 163 95
172 165 80
173 168 95
165 159 92
181 172 101
172 164 88
176 169 95
163 158 60
168 163 80
167 163 80
169 164 80
171 166 88
181 172 102
168 164 88
174 169 102
171 165 80
159 155 72
177 170 95
159 156 76
183 175 108
180 171 95
170 162 88
175 168 88
161 157 80
177 171 102
175 168 88
170 165 80
171 166 88
180 171 101
173 167 88
174 167 88
175 168 88
166 160 62
161 157 80
160 154 62
172 166 88
180 171 95
173 169 102
160 155 80
171 167 95
178 170 95
180 170 88
179 171 95
168 160 80
166 163 80
167 162 72
173 168 95
159 156 72
163 154 72
173 167 88
169 163 72
176 169 95
162 156 88
146 145 62
176 167 95
176 170 102
158 153 80
171 162 80
158 179 125
165 186 177
183 200 204
171 191 161
167 187 161
172 189 165
170 190 161
167 186 125
173 194 191
175 194 177
174 193 177
176 194 177
168 189 161
165 185 177
180 199 204
165 186 144
181 199 204
174 194 191
171 191 161
166 185 177
162 184 125
167 186 125
176 196 204
175 194 177
176 194 204
177 195 177
171 194 204
165 184 161
169 190 161
169 186 177
176 195 191
168 185 129
171 189 177
163 181 125
169 190 161
174 194 191
167 189 177
164 186 144
179 197 191
173 193 177
172 191 161
171 189 144
173 193 177
168 184 177
179 198 204
171 190 198
171 190 161
163 185 144
165 187 161
164 184 177
161 183 144
174 191 161
173 191 191
163 183 148
175 195 191
174 194 191
160 177 161
185 204 228
165 182 177
154 173 135
157 174 144
172 192 177
178 198 204
173 191 194
168 187 177
181 198 191
156 176 161
173 193 177
168 185 177
162 182 102
171 191 161
173 193 177
174 195 191
160 182 161
175 195 191
163 183 177
174 192 177
171 192 177
178 195 191
151 175 184
168 188 198
167 185 161
179 198 204
175 196 204
169 188 177
176 193 204
157 175 153
150 168 177
168 188 204
175 194 191
170 190 198
166 185 125
172 193 223
172 193 191
135 159 125
162 182 161
170 186 180
167 187 184
178 197 191
139 158 102
157 178 184
167 184 184
165 182 177
160 182 177
161 181 153
159 179 184
168 188 198
164 180 161
153 173 151
159 179 191
150 170 184
157 175 204
165 182 184
156 176 169
170 191 177
150 171 153
156 178 190
158 176 139
167 188 161
141 156 156
133 153 177
148 170 144
167 184 191
142 161 142
148 166 169
128 147 161
130 150 135
151 170 168
131 149 133
133 154 177
116 136 148
143 164 191
139 159 60
149 168 135
128 151 125
142 157 154
129 154 161
118 139 156
98 115 128
71 85 125
124 144 142
42 68 124
101 122 144
97 119 142
86 104 128
57 73 108
82 99 124
62 82 126
208 222 243
51 81 136
55 88 135
55 88 99
55 87 153
55 87 122
52 84 99
56 90 133
54 87 137
50 78 98
56 87 114
57 91 144
61 96 149
54 85 99
62 97 151
59 92 128
60 95 140
61 97 151
58 93 114
60 95 140
57 90 99
56 89 129
63 98 140
58 92 140
57 92 114
56 91 114
60 97 161
62 97 151
61 96 161
63 98 151
59 92 137
60 95 151
65 101 171
61 97 159
60 94 151
63 98 151
56 88 137
59 92 128
59 94 114
58 92 151
62 99 171
61 96 140
61 97 161
61 97 151
61 97 151
61 96 128
64 99 161
58 92 140
60 95 128
61 96 128
58 93 114
57 91 99
55 88 140
61 95 114
62 98 169
59 94 151
60 93 128
58 90 114
59 94 140
64 100 171
64 100 171
60 95 140
59 92 151
62 98 151
58 91 114
64 99 151
58 93 151
60 96 140
62 97 151
60 94 140
60 95 140
61 95 128
56 90 140
59 90 120
62 96 151
62 98 161
59 94 128
59 92 114
63 96 140
56 87 102
59 95 140
58 92 140
57 89 99
54 88 99
54 84 114
61 96 153
61 95 142
58 89 117
63 99 161
60 94 142
60 95 153
61 93 135
56 89 114
61 93 133
60 91 147
54 84 128
58 90 130
59 91 135
51 78 103
54 85 117
57 89 144
52 81 133
53 83 130
157 170 183
68 69 47
26 36 32
60 65 48
106 107 63
30 42 37
83 86 64
110 110 73
82 84 41
57 65 45
132 131 69
136 132 88
104 105 58
130 131 72
104 108 78
117 118 77
134 132 63
117 119 80
133 130 77
164 160 92
141 138 78
153 150 95
139 138 81
140 139 90
133 132 84
155 152 84
150 143 88
132 131 67
127 129 80
136 133 82
142 143 89
138 136 80
164 159 89
176 167 103
139 136 84
133 132 62
156 152 80
153 152 95
165 158 88
143 142 62
164 157 88
170 165 94
137 135 76
151 147 62
162 156 84
146 142 89
161 155 92
171 165 80
166 162 92
174 168 95
165 158 92
139 138 80
164 159 84
166 162 72
160 153 75
151 145 90
159 156 87
166 162 99
163 157 93
182 174 108
166 159 99
170 164 95
150 149 76
137 135 75
179 171 95
170 163 99
167 163 95
175 168 95
160 155 72
177 170 102
145 145 84
162 158 84
164 159 88
164 158 80
169 162 88
179 172 102
154 151 76
174 166 95
166 162 80
173 169 102
176 170 102
168 165 88
168 165 88
168 163 79
171 163 88
173 165 95
170 166 88
170 165 94
170 166 88
151 145 72
177 168 105
174 166 80
164 158 76
169 162 80
165 158 80
162 158 99
177 169 95
168 162 88
174 169 102
177 167 95
159 156 80
162 155 80
176 168 88
180 169 95
180 174 114
172 165 80
169 163 88
183 173 102
151 144 62
166 162 87
168 161 80
178 167 88
171 165 80
167 162 95
172 165 80
159 156 75
181 172 102
161 154 80
168 165 88
177 170 95
172 166 88
169 166 95
177 171 102
170 164 95
173 167 94
152 147 62
168 163 72
172 167 88
168 164 80
160 158 62
173 167 88
172 165 80
171 165 80
177 167 95
171 165 80
169 164 80
171 166 88
181 173 102
166 160 88
177 169 88
157 155 36
159 155 62
170 163 95
177 169 88
179 172 102
168 164 80
169 163 95
179 171 95
168 158 88
167 187 191
170 190 161
172 192 177
170 190 161
170 190 161
174 191 144
179 197 191
184 202 217
173 192 161
166 184 125
172 191 161
173 190 191
179 196 177
176 194 191
179 197 191
164 185 125
169 187 144
164 184 177
176 194 177
175 195 191
171 192 177
175 194 191
180 196 204
161 180 144
162 182 161
166 184 161
158 178 125
175 192 177
171 192 177
170 190 161
172 193 191
180 199 204
172 193 191
159 181 144
167 189 161
184 201 204
169 186 191
170 189 144
168 189 161
170 189 144
170 190 161
175 193 177
171 191 161
164 184 161
175 193 161
174 193 177
169 191 177
172 191 161
173 194 191
175 195 191
171 188 144
174 192 161
181 199 204
178 197 191
166 189 177
184 202 217
175 195 191
149 169 125
182 199 191
168 184 180
173 194 191
169 191 177
169 187 169
171 189 180
179 198 204
165 185 191
175 194 177
165 183 184
165 183 177
160 180 125
163 183 144
172 190 177
163 183 161
148 170 161
169 191 177
164 184 177
145 166 169
153 173 184
162 180 135
162 181 162
172 185 172
171 189 191
161 178 144
174 193 177
172 188 177
149 170 161
174 191 198
159 179 144
151 170 114
164 185 193
164 185 177
159 179 184
165 183 161
152 173 114
168 189 161
170 188 161
144 163 135
165 184 194
161 181 164
154 175 161
174 193 177
160 181 161
149 167 144
139 157 144
156 174 180
162 182 198
144 163 114
158 180 198
165 184 161
177 197 204
160 181 153
154 171 153
142 165 169
167 184 161
157 176 153
151 172 158
154 174 153
166 187 177
162 183 184
170 188 184
152 173 153
137 156 144
169 186 177
169 186 204
112 132 123
125 146 144
122 145 168
137 155 172
134 158 169
138 157 180
138 153 176
128 149 168
112 135 150
142 163 190
130 151 180
127 147 158
70 96 131
78 100 90
124 141 175
89 106 125
76 99 141
104 120 144
113 129 134
119 138 165
64 88 129
118 139 161
31 52 103
68 89 132
130 143 174
45 73 135
41 65 108
46 74 122
51 81 114
60 93 157
49 77 123
60 94 147
56 89 125
59 92 128
54 86 105
54 87 95
56 89 137
58 92 140
60 95 128
60 95 140
60 96 151
60 96 151
54 86 120
59 94 128
62 97 149
60 95 140
64 99 169
63 99 161
61 98 161
58 91 128
59 93 151
61 97 151
61 97 159
57 91 137
59 94 114
60 94 140
60 96 140
58 91 128
59 94 140
59 94 137
60 94 151
60 95 128
64 100 161
60 96 151
64 100 161
62 98 151
57 92 114
60 95 128
56 90 128
63 99 171
56 89 114
57 91 128
60 94 114
61 97 151
60 95 161
60 94 140
59 94 140
63 98 151
58 92 140
60 93 114
58 93 114
62 97 161
60 94 151
61 96 128
61 96 128
58 93 114
63 99 161
62 98 161
59 92 140
60 97 161
60 97 161
58 92 114
62 96 153
64 100 161
57 91 140
58 91 128
60 96 151
63 98 151
63 98 151
64 99 151
59 92 151
61 96 151
62 98 161
60 94 151
56 88 140
60 95 140
62 97 140
62 98 161
60 93 117
56 88 128
64 100 161
58 88 120
59 91 144
58 92 117
58 90 130
59 91 130
63 98 151
60 91 133
62 95 155
53 83 114
60 93 142
54 82 120
55 87 100
58 91 142
60 92 147
58 89 135
53 82 132
141 153 165
100 100 68
56 62 46
110 113 73
28 39 37
139 136 90
125 124 81
117 121 73
138 133 76
113 115 64
118 119 63
145 142 93
124 125 77
130 129 77
111 115 76
125 126 81
141 141 80
132 131 80
143 140 85
134 132 76
127 124 77
117 119 81
164 159 108
168 161 106
161 158 105
148 144 84
158 153 88
109 110 36
115 117 36
167 161 102
150 146 84
150 145 80
157 154 93
163 157 95
138 135 62
159 154 95
173 165 95
146 146 88
160 155 88
164 161 99
151 147 89
169 164 99
157 154 67
161 156 95
148 145 80
179 172 102
166 158 93
160 151 88
161 151 95
165 161 92
155 153 72
162 157 73
156 153 94
158 156 76
161 156 95
148 146 62
157 154 96
157 153 62
162 158 80
169 163 72
166 160 80
156 155 84
145 142 75
176 168 88
171 164 102
177 168 95
171 166 102
163 155 87
151 148 87
181 172 102
166 159 95
163 159 70
163 159 84
163 157 80
168 161 80
168 164 80
144 143 76
182 172 95
171 165 99
174 168 101
158 155 76
162 157 76
154 151 60
174 166 88
169 162 62
168 163 79
169 166 95
158 153 94
160 158 84
177 171 102
160 156 92
177 171 108
163 159 88
173 167 88
179 171 95
183 175 114
168 163 80
179 171 102
172 164 62
177 167 95
149 150 80
176 168 95
167 165 95
179 170 88
173 164 88
176 170 102
141 141 67
174 167 88
174 168 95
173 168 95
164 160 88
172 166 95
166 160 62
169 163 95
172 166 80
177 164 95
166 158 80
167 162 95
166 159 80
181 173 102
172 167 95
168 161 80
185 173 95
173 167 88
184 176 114
177 170 95
162 158 51
179 171 95
156 151 62
171 166 88
166 160 80
170 164 80
172 165 72
176 169 95
170 165 88
165 160 62
181 173 102
172 166 88
169 164 80
182 175 114
179 171 95
179 172 102
167 163 80
182 170 108
179 171 102
174 166 80
162 159 62
170 165 80
166 161 72
164 187 161
177 196 191
178 194 161
172 192 177
169 189 161
171 189 125
165 182 144
168 186 144
176 195 191
178 198 204
173 195 204
172 190 144
168 188 144
184 203 228
170 190 177
184 201 204
170 188 191
161 181 144
175 194 177
165 183 144
176 195 177
173 193 177
174 193 177
171 193 191
159 176 144
174 192 204
153 171 144
162 181 144
169 191 177
165 185 177
162 184 125
181 199 204
161 181 144
159 176 118
180 197 177
171 188 161
167 186 164
163 182 161
179 198 204
170 191 177
172 192 177
159 182 125
172 193 191
177 197 204
150 166 151
169 188 177
165 184 144
181 198 191
173 192 161
163 179 148
169 186 177
167 183 177
166 185 177
169 191 177
168 187 165
168 189 161
164 184 191
176 195 191
176 193 177
175 195 191
173 193 177
170 187 161
183 197 194
169 191 177
165 185 125
176 195 191
168 186 177
170 186 148
170 192 191
182 200 204
179 198 204
152 174 114
164 183 144
166 186 177
172 190 144
156 172 177
168 189 161
161 177 129
170 187 161
170 189 144
163 181 177
162 180 144
170 189 191
150 169 135
183 199 191
159 178 161
169 186 161
163 183 161
174 190 211
159 178 168
162 179 177
157 179 191
170 188 177
175 195 191
175 193 161
163 184 177
125 143 135
173 194 191
155 176 177
170 190 204
153 170 148
171 192 177
166 181 151
145 163 169
156 172 153
160 180 144
157 176 177
156 175 177
165 183 191
162 181 198
152 173 161
145 165 144
164 183 161
152 171 169
155 177 135
160 179 191
154 174 169
149 168 153
147 169 177
151 171 175
142 161 168
144 165 161
131 153 135
160 179 177
126 144 155
149 168 153
154 176 184
149 168 169
156 176 169
145 161 171
149 168 172
140 161 123
147 165 153
128 150 177
137 158 169
120 141 137
127 146 159
124 144 150
105 125 107
108 125 125
80 95 106
103 124 148
133 149 179
59 77 78
104 118 137
98 118 138
63 86 122
62 80 121
77 92 136
51 82 139
52 83 137
51 82 142
55 87 102
61 96 149
58 91 163
57 92 153
61 94 159
60 93 159
55 87 128
58 92 140
54 87 99
59 92 137
55 88 99
63 98 159
62 96 147
55 87 137
59 92 137
54 87 125
55 87 132
56 89 114
57 91 114
60 95 140
61 96 140
63 98 140
59 93 114
58 91 125
62 97 157
59 93 128
63 99 161
59 94 137
62 97 140
59 94 128
60 96 149
62 97 159
65 100 161
52 82 99
59 94 114
59 95 161
62 97 151
62 97 140
59 93 140
61 97 161
60 94 114
59 93 140
61 95 151
65 100 161
61 97 151
61 96 140
62 98 161
60 92 130
61 96 128
62 97 151
59 93 128
62 97 140
58 92 128
59 95 151
65 101 181
58 92 114
62 95 140
64 98 153
62 97 161
60 95 128
55 88 114
59 93 140
60 96 140
60 94 140
62 98 151
63 98 171
59 93 140
61 95 151
62 97 140
58 93 114
59 94 130
59 94 114
63 97 161
65 101 171
62 97 140
56 88 99
64 97 153
60 93 133
59 89 108
56 90 128
59 91 128
61 97 140
59 92 114
55 85 115
59 90 130
62 95 155
58 91 128
63 97 153
56 90 102
58 92 161
59 93 130
61 94 144
58 89 99
54 84 118
58 91 142
62 94 133
56 83 122
56 88 117
48 72 110
26 37 32
61 58 38
80 81 58
84 89 58
61 66 48
116 116 58
62 69 46
78 85 41
123 122 76
69 79 57
46 61 47
151 148 73
140 137 81
133 130 78
115 111 62
142 139 88
136 134 76
131 131 82
133 131 72
125 126 76
144 138 77
123 125 73
136 134 76
127 129 81
163 158 102
133 136 88
145 144 76
145 139 63
131 133 77
145 139 82
153 148 89
152 147 92
148 145 84
158 154 92
159 156 88
157 152 84
159 153 80
174 166 80
168 161 80
168 159 95
133 131 84
152 146 76
174 166 95
170 164 95
159 155 76
156 153 57
150 147 57
145 142 88
152 149 76
171 163 80
150 146 83
138 137 84
174 168 95
158 153 80
170 164 80
169 161 84
159 155 62
163 158 72
162 155 72
160 155 76
157 153 88
168 165 88
162 158 84
162 160 92
170 165 87
165 160 80
182 172 101
182 174 108
177 169 102
168 164 80
155 151 80
168 165 88
164 158 88
175 169 95
161 155 62
177 169 88
178 168 95
168 158 88
163 158 80
178 170 95
170 164 79
152 148 62
165 157 72
165 159 80
167 163 80
159 156 72
180 170 101
156 152 72
164 159 88
164 159 92
165 160 80
156 152 80
177 169 108
172 166 88
169 164 80
167 163 80
178 170 95
152 149 80
181 173 108
167 159 80
170 164 72
174 167 88
172 165 80
176 168 88
170 166 88
175 166 95
167 164 88
174 165 102
177 170 95
158 155 51
170 165 88
166 161 88
170 163 80
170 161 88
181 171 95
166 160 88
170 163 72
169 163 72
171 165 80
174 167 88
160 155 62
159 150 80
177 170 95
179 171 95
162 159 62
172 167 88
165 159 80
181 170 88
166 159 72
185 173 108
173 166 88
155 151 51
168 162 88
163 157 80
166 157 80
182 172 95
169 164 80
163 159 62
171 166 88
176 169 95
171 164 95
169 161 72
173 167 88
187 176 108
177 170 95
168 163 95
173 166 80
178 170 95
160 151 62
152 173 72
177 195 177
167 185 177
171 191 161
177 196 191
164 185 125
176 197 204
169 191 191
173 194 191
173 193 177
171 191 161
172 189 177
177 195 177
177 196 191
168 189 161
176 194 177
164 183 161
163 184 177
169 191 177
180 197 191
171 190 161
179 197 191
179 198 204
149 169 125
175 193 161
172 190 177
172 192 177
175 193 161
177 196 191
161 185 161
177 193 191
170 188 161
178 196 191
172 193 177
177 197 204
167 186 177
161 183 169
171 192 177
157 176 129
175 193 161
178 198 204
176 197 204
170 191 177
168 187 191
166 186 177
166 187 144
173 194 191
187 204 217
181 199 204
160 182 125
160 180 144
176 196 191
174 193 177
169 185 161
183 201 204
156 176 161
160 180 72
163 179 165
169 188 184
170 187 161
158 181 144
167 188 161
163 179 161
165 186 177
160 179 169
165 178 191
165 184 161
176 194 177
164 186 198
177 195 177
175 190 177
151 168 148
166 183 129
168 187 177
170 190 161
183 200 219
179 199 217
164 183 161
173 194 191
163 177 177
175 195 191
173 192 177
167 182 177
167 185 177
159 179 184
164 184 161
177 190 204
173 194 191
177 197 204
161 181 161
152 172 191
151 173 161
167 186 161
167 189 177
167 184 177
150 173 168
176 195 191
146 163 139
163 183 153
117 138 114
166 184 161
166 187 198
159 180 153
170 191 211
185 201 204
134 155 153
164 182 177
158 173 183
156 178 135
152 171 192
156 176 161
139 156 135
157 176 177
142 162 145
159 179 184
159 179 161
163 179 153
157 175 153
143 164 153
132 153 85
150 170 169
144 166 153
150 169 144
134 155 161
134 152 172
138 157 169
135 158 169
133 153 121
99 122 114
148 165 153
100 122 139
158 177 161
145 163 174
136 156 161
107 125 151
123 145 150
124 143 153
127 148 156
139 157 165
94 104 108
92 107 147
82 102 128
77 95 100
112 128 135
60 78 119
86 105 150
94 110 139
11 25 72
38 63 116
47 75 113
53 85 149
55 87 125
59 92 114
57 91 144
60 96 140
50 78 116
60 94 144
61 95 149
59 95 157
52 85 114
56 88 130
57 90 137
55 88 125
59 94 125
57 89 80
50 82 80
58 91 155
61 96 140
59 93 140
58 92 114
58 92 125
62 98 161
64 99 151
60 95 140
62 97 151
54 87 99
55 87 140
58 92 151
62 96 151
60 95 140
60 95 128
60 96 140
63 98 151
59 95 140
62 98 159
58 92 140
62 98 161
57 91 114
59 94 114
61 97 151
62 97 140
60 94 114
64 99 151
61 97 151
59 94 128
61 96 128
59 94 140
58 93 114
62 97 151
60 95 140
60 95 128
60 95 128
58 91 80
61 96 140
61 96 140
61 96 140
57 90 114
59 93 153
62 98 151
58 91 99
58 91 128
58 91 128
62 98 151
58 91 99
61 97 161
60 94 114
59 94 151
62 98 161
63 99 171
61 94 128
63 98 161
64 99 161
62 96 128
62 96 142
61 97 151
59 94 128
57 91 99
60 95 128
64 99 140
56 86 99
60 96 151
62 97 151
59 93 128
61 96 151
64 99 163
59 90 130
60 94 152
62 95 130
59 92 130
55 88 129
60 94 128
48 76 86
62 93 144
56 88 100
54 83 117
55 84 120
52 83 116
57 86 143
50 75 120
51 80 114
32 52 83
60 70 89
52 53 36
86 90 58
40 55 57
32 44 41
63 67 28
97 98 58
100 103 73
109 107 74
101 104 68
39 56 51
110 113 76
117 119 78
107 110 63
111 114 63
124 125 73
133 130 86
142 140 76
137 135 81
135 133 80
117 116 57
171 164 99
162 157 72
153 151 84
118 120 84
164 160 92
133 134 44
164 160 88
144 141 62
175 168 88
158 147 76
151 150 80
166 160 81
150 145 87
154 148 84
145 142 72
142 140 80
171 165 80
161 155 62
162 156 92
141 140 62
172 162 72
173 164 95
140 141 80
159 155 79
146 143 77
169 164 108
157 150 92
165 160 88
158 155 84
153 150 76
165 160 88
159 155 80
173 164 88
170 164 95
170 167 95
157 154 92
165 164 95
167 161 96
177 168 80
144 143 51
154 147 51
170 165 102
173 165 99
167 163 87
166 161 88
155 151 76
168 163 80
163 157 60
163 156 80
148 144 77
165 157 80
163 160 95
167 161 88
169 162 95
174 168 95
163 158 76
185 175 108
165 161 80
163 157 88
165 157 80
152 146 51
160 155 72
172 166 108
178 171 102
176 169 95
152 147 80
175 168 95
170 162 80
164 160 94
172 167 95
167 159 92
160 154 72
174 168 95
170 164 88
181 173 102
169 162 84
164 158 84
179 170 95
161 156 80
174 164 88
180 172 102
183 173 107
181 170 102
164 159 80
166 159 80
177 169 94
166 162 72
177 171 102
168 162 88
157 154 72
159 152 72
173 164 88
171 167 95
164 158 83
176 165 95
161 159 72
173 167 88
174 167 94
164 159 80
166 160 105
170 161 72
169 163 72
176 169 95
173 167 88
159 154 62
157 154 62
169 164 80
162 156 62
166 162 72
181 172 102
166 161 62
176 168 88
176 169 95
178 169 95
180 173 108
174 168 88
167 161 70
176 167 95
168 163 72
175 170 102
167 160 88
175 169 95
173 164 88
171 165 80
179 171 95
176 169 95
173 167 88
153 150 51
167 188 177
174 189 144
177 193 177
186 202 204
157 178 125
171 187 144
167 187 144
174 192 177
172 191 161
172 192 177
170 190 161
167 188 177
175 193 177
172 189 177
179 197 191
154 172 144
175 194 177
170 190 161
183 200 204
170 188 177
170 189 191
167 186 144
172 192 177
177 198 217
151 173 161
180 197 191
175 195 191
167 185 161
181 200 217
165 187 144
165 185 177
172 192 177
177 195 177
157 176 125
169 188 144
166 187 204
163 185 161
176 196 204
176 194 177
174 193 177
169 191 177
185 201 204
178 195 177
167 187 144
176 195 191
173 193 177
182 200 204
175 195 191
164 178 166
170 190 161
175 195 191
170 186 161
178 196 191
169 190 161
175 190 161
175 196 204
162 181 191
157 177 125
174 194 191
172 193 191
176 194 177
165 183 144
178 198 204
162 181 144
162 180 169
173 193 177
173 191 180
175 190 165
170 192 191
163 183 161
170 190 161
180 200 217
154 172 125
171 191 204
165 186 191
173 192 204
160 180 177
149 166 165
138 158 161
176 195 177
170 188 165
166 184 153
160 179 161
170 189 191
152 171 161
167 188 177
171 190 198
173 195 204
174 193 177
165 185 169
160 181 153
136 154 133
170 188 177
172 188 169
156 175 146
165 183 161
152 172 153
163 181 177
158 178 125
154 175 169
162 180 125
148 162 151
181 196 194
149 168 153
164 181 191
164 185 184
150 169 161
156 174 198
146 164 144
167 187 204
161 180 191
129 147 135
153 173 191
175 195 191
157 175 184
136 156 151
142 156 172
139 157 163
146 166 126
148 168 191
152 171 168
168 189 198
169 188 191
132 155 144
133 154 153
148 167 165
151 172 151
118 137 144
148 168 169
142 161 183
117 137 151
127 149 161
121 137 135
157 177 183
108 127 144
105 123 154
131 147 151
115 133 130
65 89 131
107 126 159
117 135 166
85 104 130
81 102 137
71 87 114
67 91 135
81 101 124
25 44 76
16 30 54
38 62 100
40 66 117
49 80 125
53 84 125
53 84 126
48 78 134
55 89 140
60 94 135
52 83 151
51 82 133
60 94 135
59 93 114
60 93 149
61 97 161
56 87 125
61 95 157
56 89 128
64 99 159
55 89 125
60 94 155
51 80 99
55 89 140
59 93 128
61 96 137
61 96 151
57 89 128
62 97 159
59 94 114
60 95 128
60 95 128
59 95 151
58 92 137
58 92 140
60 95 128
60 93 151
62 98 161
59 94 125
56 90 128
62 96 128
60 95 128
59 94 128
62 98 151
62 97 140
60 96 151
61 95 128
54 86 114
59 94 140
62 97 140
59 93 151
59 94 151
61 95 161
62 98 161
61 96 140
63 98 151
63 99 161
65 101 171
54 87 80
64 100 171
60 95 128
58 91 114
57 92 114
64 98 153
60 93 128
58 91 114
61 96 128
61 96 140
60 95 140
63 98 151
61 94 128
59 93 151
61 96 151
61 96 161
59 95 140
61 96 140
52 82 84
60 95 161
52 84 99
59 91 128
61 96 140
55 88 128
61 95 130
56 91 99
60 96 140
62 95 144
58 91 114
60 94 140
55 84 99
60 95 152
60 90 117
57 90 128
59 93 130
58 92 141
60 93 147
49 77 102
54 85 85
56 87 130
62 97 151
60 93 133
57 88 142
58 89 117
55 86 99
53 82 117
48 74 90
98 98 58
95 98 66
63 70 53
61 67 53
85 90 62
93 98 68
88 92 63
89 92 63
115 114 69
141 138 92
96 102 68
155 152 92
119 116 76
107 106 68
84 89 51
138 135 77
108 110 51
133 131 84
148 140 81
116 117 68
126 128 76
128 125 77
113 115 63
130 129 80
121 123 62
122 122 63
158 155 95
133 132 67
145 140 62
174 165 88
164 158 80
167 161 95
161 156 88
148 145 84
165 160 90
164 158 95
166 159 80
170 163 88
132 129 76
161 156 72
142 140 92
127 127 68
133 134 84
170 165 80
138 139 84
159 155 67
173 164 88
153 150 80
162 156 84
149 142 72
173 168 95
156 152 80
148 146 84
158 153 83
150 145 84
169 165 88
170 166 95
150 146 51
170 163 95
169 164 80
158 155 97
170 166 88
165 160 88
169 163 99
170 163 88
158 155 72
169 164 80
157 148 62
172 168 102
176 170 102
166 158 88
175 168 88
163 157 72
165 158 95
170 163 72
150 147 72
161 157 80
167 161 70
168 164 87
181 173 108
162 159 92
164 161 95
159 155 62
175 168 88
179 172 108
167 163 102
176 169 95
161 159 95
162 155 88
152 147 62
175 169 95
175 170 102
152 147 36
178 171 102
167 163 99
175 169 95
161 157 72
175 166 95
169 164 87
157 151 80
166 162 72
147 143 84
137 133 62
173 164 88
176 168 95
158 153 80
180 173 108
175 168 88
168 163 72
173 166 95
179 170 108
164 159 51
177 170 95
154 151 51
172 166 88
184 175 108
165 160 62
173 167 88
178 171 102
177 169 88
173 167 88
165 162 80
159 156 51
168 162 88
166 162 72
164 158 72
171 162 88
172 167 88
166 162 72
171 164 95
176 168 88
165 157 80
180 171 95
169 163 72
172 167 88
164 158 80
179 169 88
166 160 88
163 158 72
172 167 88
181 167 95
175 168 88
179 171 102
180 172 102
170 164 80
177 169 95
167 162 88
162 157 80
162 159 62
174 194 191
162 181 144
169 188 177
174 193 177
174 193 177
182 199 191
190 206 228
160 180 125
167 188 161
168 183 144
180 198 191
167 185 161
168 189 161
166 187 144
168 188 177
174 192 161
177 197 204
177 197 204
174 193 177
169 190 161
175 195 191
174 195 191
172 188 191
170 190 177
178 199 217
175 196 204
166 186 177
163 183 125
168 187 144
176 196 204
174 196 204
179 197 191
167 186 125
173 189 144
171 192 177
175 195 191
166 187 177
154 175 125
175 193 161
177 196 204
162 181 169
188 204 217
177 195 204
178 198 204
166 187 144
166 181 161
176 194 177
171 187 161
174 190 177
172 191 161
175 192 180
171 192 177
184 200 191
161 181 125
155 171 161
174 193 177
154 174 125
162 180 144
166 186 191
163 182 144
160 180 144
159 179 169
175 194 177
162 181 144
169 190 161
180 198 204
165 185 144
168 188 177
171 193 191
168 187 177
169 186 148
159 179 144
172 190 180
161 181 144
171 192 177
167 187 196
145 164 144
160 180 161
167 185 184
181 199 204
160 181 153
165 186 184
169 187 161
166 186 184
163 183 177
174 193 177
152 173 153
175 197 217
163 183 169
163 182 153
151 167 153
153 176 135
175 193 161
148 164 102
163 181 125
163 182 191
152 169 144
151 167 144
165 179 172
150 167 102
156 178 184
151 171 184
128 147 114
171 192 217
170 188 191
164 183 191
150 171 184
167 183 169
145 169 144
154 173 144
161 180 198
171 189 194
136 157 158
145 162 146
157 175 144
150 169 161
147 165 198
131 148 144
155 176 153
172 192 177
139 160 168
141 160 169
158 178 169
141 162 153
133 154 155
129 147 158
140 159 133
138 158 153
131 149 160
145 166 183
155 171 169
89 110 148
113 135 68
115 135 136
134 156 161
126 143 127
120 134 139
99 116 117
114 134 155
118 135 137
112 133 155
68 88 120
83 98 117
85 103 122
61 80 104
83 96 110
64 73 86
54 67 91
50 62 51
50 81 136
56 91 125
56 89 125
53 84 122
50 79 87
57 91 155
50 79 99
59 94 155
59 93 140
62 97 157
57 89 147
63 98 149
57 92 144
58 92 163
61 96 140
63 98 171
56 90 137
60 92 128
61 96 140
53 84 128
52 83 120
62 96 140
55 87 125
60 94 128
61 97 151
57 90 133
60 94 151
52 84 99
63 98 151
56 90 114
54 87 99
56 90 99
61 97 151
61 97 151
64 99 151
59 94 114
57 91 128
58 92 128
59 94 137
59 94 151
60 96 151
59 93 151
58 92 99
57 91 114
62 97 151
59 94 151
59 93 140
59 94 128
62 98 161
56 91 151
63 99 161
56 90 125
61 96 140
62 97 140
64 99 151
56 88 128
61 96 151
56 89 114
65 100 151
60 94 114
61 95 140
61 94 128
58 93 114
56 89 99
61 96 140
57 93 128
64 99 161
63 98 151
61 94 128
59 92 128
57 91 140
61 94 130
61 95 140
59 91 114
60 96 140
60 94 140
62 97 161
62 98 151
66 102 171
60 93 130
60 92 142
60 96 171
62 96 151
59 93 128
56 88 128
60 95 128
60 94 142
59 92 151
57 90 131
56 87 100
60 92 133
59 94 114
61 93 133
47 73 82
57 89 117
60 95 151
52 81 99
49 76 65
54 83 88
58 89 131
49 77 129
50 77 45
60 70 75
81 85 57
54 54 12
31 44 38
63 71 59
95 96 47
91 89 53
88 93 64
90 95 69
110 109 69
86 85 54
116 114 69
64 74 45
127 125 73
164 158 95
115 114 69
139 135 76
128 127 52
136 134 68
143 140 93
110 106 64
137 134 80
184 175 108
127 129 80
147 141 85
120 119 72
138 135 72
149 144 77
140 138 67
148 145 84
138 136 86
149 146 72
150 145 67
133 132 51
141 140 62
160 154 84
154 148 93
164 160 95
128 127 73
137 135 76
167 159 95
166 160 88
182 170 88
159 155 92
156 153 72
148 143 62
147 145 84
166 162 99
148 146 84
167 159 95
144 141 67
142 140 73
179 172 102
153 146 80
157 152 95
163 158 99
166 161 94
165 161 72
160 155 72
167 160 80
160 152 80
160 154 85
171 163 89
142 141 76
174 166 80
182 173 102
181 171 95
170 164 99
154 150 79
159 156 99
155 151 80
169 163 95
167 163 80
179 170 88
174 166 102
172 164 94
177 169 88
167 162 95
175 167 102
173 165 80
149 147 51
172 166 88
168 163 72
179 171 95
172 167 95
169 163 72
169 161 102
176 167 95
171 165 95
147 146 62
167 163 94
161 156 62
174 166 102
159 152 72
165 159 80
178 170 95
175 169 95
159 148 72
171 165 80
176 167 95
178 170 95
181 173 108
180 170 108
174 166 95
176 169 95
165 160 80
177 169 108
173 166 87
169 164 80
160 156 72
187 176 108
169 164 80
178 170 95
170 162 80
177 169 102
173 166 80
170 164 80
166 161 62
154 150 76
171 163 88
177 170 95
168 164 80
161 155 62
184 174 102
187 176 108
174 166 102
172 165 95
172 166 88
167 162 72
172 167 88
169 163 72
165 160 62
173 163 80
165 159 79
153 147 80
185 175 108
176 169 95
173 167 88
178 170 95
167 160 88
177 170 95
170 166 88
172 166 88
167 162 72
172 167 88
168 162 72
183 175 114
185 176 114
172 168 95
171 189 144
179 198 204
164 183 144
179 197 191
178 196 191
164 186 144
172 191 161
178 197 204
172 192 177
177 196 191
160 184 144
180 196 177
157 178 144
156 177 125
159 182 125
167 190 177
182 199 191
177 194 191
175 195 191
165 186 144
159 179 125
171 189 144
173 193 177
163 179 125
174 192 161
171 191 161
181 197 191
166 188 161
170 189 191
164 183 125
164 185 144
173 191 191
181 200 217
170 189 144
165 184 144
171 188 161
157 175 161
166 184 177
173 193 177
173 193 177
172 191 161
160 181 102
179 197 191
180 197 191
173 193 177
160 178 102
171 190 144
169 188 144
173 193 177
153 170 125
162 184 144
171 191 191
169 190 161
173 193 204
171 186 148
161 179 161
176 195 177
158 175 153
161 180 161
163 183 161
154 173 114
169 188 191
165 184 177
163 182 177
163 183 177
165 184 169
177 193 180
171 189 184
185 201 204
169 189 198
163 183 161
166 186 177
168 184 191
168 189 161
164 182 161
174 192 209
181 200 217
160 179 166
157 176 102
172 191 161
176 194 177
172 191 161
182 201 217
160 179 177
155 176 102
173 190 204
152 170 161
160 175 169
168 187 184
153 170 153
162 181 184
178 197 204
172 190 177
171 184 177
166 185 180
160 181 153
176 196 191
161 181 144
160 179 184
166 185 194
178 195 211
144 164 102
152 171 144
167 188 191
148 168 102
167 184 177
161 180 184
160 177 135
149 168 153
181 201 217
153 173 184
149 168 144
141 161 135
159 176 175
182 200 204
116 134 114
123 139 118
136 157 169
161 180 184
152 173 172
143 157 156
134 157 161
134 154 181
148 170 184
144 164 184
161 181 144
152 173 207
143 165 151
138 158 151
140 160 144
162 181 184
132 151 162
125 142 137
88 106 118
122 140 172
95 113 123
108 128 104
107 128 137
94 114 132
115 132 141
73 90 129
129 145 151
89 105 114
89 105 125
80 94 102
54 68 67
77 89 111
84 98 124
38 60 101
48 78 121
50 81 139
50 81 116
54 88 99
51 82 72
46 76 80
55 88 114
56 88 122
53 86 95
60 95 137
57 91 137
59 94 137
60 94 149
58 91 133
61 95 137
59 93 114
61 96 140
61 96 128
56 90 128
59 94 140
57 91 99
60 95 140
58 90 140
60 95 137
58 93 114
57 90 114
64 98 151
59 92 140
58 91 128
59 93 125
58 92 140
52 84 114
60 95 140
61 96 128
56 90 99
57 90 125
56 90 128
64 99 151
60 93 128
58 90 114
60 95 140
57 90 114
61 96 140
58 93 114
58 92 114
60 94 151
57 89 114
61 96 128
59 94 128
63 100 171
57 91 80
52 81 114
58 93 114
61 96 128
63 98 140
59 94 151
55 88 128
62 96 140
57 91 99
61 96 128
60 95 128
58 94 128
60 92 151
59 92 153
61 96 140
66 101 171
60 96 140
63 98 151
60 94 151
61 95 140
57 91 140
60 93 129
59 94 151
61 96 161
60 94 128
61 96 140
60 94 151
56 89 117
56 87 102
58 91 99
59 90 117
62 96 151
63 98 140
57 92 99
59 93 140
59 92 140
61 96 128
61 95 130
59 92 128
55 83 102
51 81 80
60 90 147
60 95 162
57 85 117
62 94 142
54 84 88
56 89 130
57 87 133
56 86 130
52 80 117
54 85 114
46 69 72
31 50 84
86 86 63
54 59 28
80 83 55
53 54 8
61 65 39
111 113 77
102 102 64
112 115 69
139 135 68
136 130 74
71 77 53
93 96 58
120 117 52
126 124 73
77 83 40
124 125 73
99 103 52
159 154 92
111 116 68
128 128 84
110 112 58
140 137 68
119 122 63
120 123 72
160 155 96
154 149 96
156 153 84
140 137 74
150 145 80
148 141 68
155 151 87
152 150 52
129 128 44
147 142 76
152 148 85
143 138 84
154 150 92
149 146 72
173 167 88
141 139 80
170 162 80
133 132 51
157 153 92
161 157 102
168 164 88
158 154 92
165 159 80
169 165 88
165 159 81
151 146 81
170 165 80
177 169 94
181 173 108
178 169 88
167 160 88
166 162 95
175 168 88
172 164 94
151 147 62
179 172 102
172 165 80
168 164 80
170 160 95
161 157 76
156 150 88
150 146 72
165 158 72
160 157 84
158 155 76
174 168 95
156 150 62
168 162 88
169 159 80
171 163 95
169 162 88
165 158 92
171 167 95
162 156 70
161 156 79
163 157 72
180 170 88
165 159 80
174 168 95
181 171 102
169 165 88
165 158 92
169 163 95
175 168 88
146 145 88
168 163 87
166 162 99
166 161 88
163 158 51
171 166 88
152 148 62
172 166 88
173 166 80
173 166 102
158 154 72
180 171 102
168 158 80
159 155 70
181 172 95
162 159 88
173 166 102
160 152 80
172 164 88
170 162 88
182 174 108
173 164 101
150 144 62
162 160 95
169 164 80
166 164 88
175 167 80
173 166 102
166 161 88
175 166 95
165 159 87
172 164 80
169 164 80
169 160 88
176 170 102
165 157 88
182 173 102
177 170 95
180 171 95
175 169 95
170 161 72
175 169 95
167 162 72
178 170 95
160 153 72
173 167 88
170 165 80
177 171 102
177 171 102
182 173 102
153 152 72
177 170 95
150 145 62
175 168 88
184 173 95
168 161 80
177 169 95
174 167 88
162 160 95
172 164 95
170 190 161
154 177 161
168 186 161
176 195 177
175 195 191
166 186 191
159 177 161
172 193 191
176 193 191
169 185 177
173 190 177
178 197 191
160 177 161
170 189 204
170 190 161
161 181 144
172 191 161
179 199 217
175 193 191
176 195 191
171 190 161
176 194 177
173 193 177
173 193 177
166 185 125
173 193 177
170 188 161
163 182 151
168 189 177
164 180 164
167 190 177
169 189 161
176 196 191
169 186 148
165 186 144
172 191 177
184 201 204
171 191 161
175 194 177
149 165 161
178 198 204
185 201 204
164 185 161
180 199 204
163 182 180
169 191 204
169 187 177
173 191 144
162 178 144
164 185 177
173 193 177
183 200 204
175 190 165
151 172 144
175 195 191
175 194 177
152 170 125
177 195 191
157 179 144
179 198 204
156 173 125
164 182 125
170 187 161
170 189 191
164 182 129
182 198 223
168 185 129
162 180 191
171 191 191
164 185 161
171 193 191
170 188 184
171 191 161
177 195 177
177 191 161
161 181 151
163 182 144
176 196 191
163 183 169
165 185 169
153 170 144
163 183 125
162 178 161
164 184 144
161 182 161
164 184 177
171 192 191
149 167 144
162 180 172
166 188 161
149 167 172
153 169 135
153 171 190
160 182 177
155 174 161
161 181 144
156 174 125
149 164 161
174 196 217
154 173 184
163 182 184
169 184 184
174 191 204
131 148 127
134 154 88
154 172 175
167 186 191
163 179 169
173 191 191
140 158 125
155 176 161
163 183 169
148 166 153
137 157 153
119 137 102
148 167 171
134 156 153
154 174 196
146 166 168
127 144 123
133 153 128
145 163 151
128 146 144
110 127 131
172 189 194
138 160 169
116 134 135
148 167 169
125 145 142
128 147 161
157 178 191
100 117 127
133 152 175
125 149 169
132 150 154
87 110 112
110 133 153
128 151 169
88 104 132
115 130 114
124 142 162
88 104 121
86 97 115
35 56 85
51 66 65
75 90 100
56 70 100
59 66 80
43 70 112
42 69 108
55 87 144
53 83 92
52 83 128
57 90 147
57 92 137
58 91 120
61 96 149
60 96 140
60 95 144
55 86 128
60 95 161
52 82 113
58 92 114
62 98 169
56 91 140
61 94 128
60 95 137
57 91 99
61 96 140
62 95 155
60 94 151
62 98 151
56 89 128
60 96 149
59 93 114
58 92 99
58 91 111
59 93 144
60 95 140
55 88 80
58 92 114
57 90 111
58 93 111
61 96 128
62 98 161
59 94 114
60 95 114
62 97 140
57 90 128
60 95 114
55 89 140
57 91 99
59 93 140
65 100 161
61 97 151
60 96 140
57 91 140
63 98 151
60 93 125
64 98 151
60 94 140
58 91 129
58 93 114
65 101 171
59 94 128
60 93 128
60 96 140
55 88 99
59 92 130
58 94 128
55 87 80
57 90 117
55 88 114
64 99 161
63 98 140
59 93 128
61 96 128
60 96 151
60 95 140
59 91 117
58 92 99
61 96 140
58 92 140
60 95 140
59 95 140
61 94 144
55 89 115
58 92 114
57 89 114
60 95 161
64 96 153
54 86 114
52 83 117
54 87 114
63 99 161
56 89 114
53 83 114
59 91 117
57 90 114
56 89 84
62 96 153
57 85 122
52 82 117
60 95 140
58 92 128
64 99 161
58 89 148
51 76 74
57 87 140
52 78 121
38 59 77
39 57 37
63 59 36
29 41 36
53 55 9
79 79 44
98 98 51
111 112 59
99 101 66
130 128 81
119 115 70
158 152 84
127 125 69
113 113 73
101 103 63
120 121 62
137 135 77
123 123 73
144 141 84
113 116 67
105 110 45
138 137 84
145 143 84
109 112 62
116 116 68
125 123 68
124 125 72
152 150 80
153 150 92
142 140 84
117 117 63
154 148 72
125 125 67
148 146 88
154 151 84
144 139 89
179 169 88
157 152 80
151 147 64
146 142 84
142 139 77
134 132 67
162 155 88
159 155 93
143 139 67
142 142 72
158 154 62
162 157 73
169 163 80
168 160 99
170 162 88
143 143 57
143 139 62
150 145 84
161 158 90
165 161 92
167 160 80
162 156 80
161 157 79
163 157 95
157 152 84
157 154 72
163 157 93
153 148 76
168 162 88
168 159 88
175 168 88
169 164 80
162 155 51
170 165 102
181 173 102
180 172 102
165 157 95
158 154 80
165 160 70
184 174 102
147 142 62
174 166 80
173 167 88
162 158 76
165 159 72
169 161 88
176 169 95
163 157 80
162 158 80
162 157 80
178 170 95
181 172 95
155 150 62
158 152 72
174 167 88
177 170 102
167 160 94
164 159 102
176 168 94
181 170 102
173 165 102
176 167 102
168 162 80
176 166 95
172 163 88
156 152 62
168 163 72
179 168 102
174 166 80
166 161 95
170 164 88
180 171 95
176 168 88
182 174 108
174 166 95
166 162 95
172 164 79
173 165 88
177 171 102
170 164 72
172 165 80
173 166 80
177 170 95
172 161 88
168 162 62
164 161 72
169 163 72
175 167 95
180 170 88
184 174 102
164 156 80
170 165 80
170 164 72
161 155 62
169 162 88
178 170 95
169 159 80
178 170 95
170 163 95
175 167 80
173 168 95
169 163 72
164 158 79
181 172 102
168 163 80
170 164 87
167 162 72
180 171 95
169 163 72
173 166 80
176 168 80
163 157 80
182 172 95
161 153 72
175 195 191
184 202 217
162 183 161
157 177 125
163 184 177
157 180 102
165 184 161
164 182 144
167 186 144
161 181 144
173 191 177
157 178 144
176 193 161
162 182 144
170 191 177
181 196 191
155 177 102
178 194 161
177 196 204
179 196 191
174 193 177
159 178 125
166 186 144
170 186 144
164 184 161
175 195 191
173 185 148
179 196 207
172 191 161
168 184 177
173 193 177
179 197 191
171 190 144
169 190 211
168 190 177
176 195 177
158 179 125
174 192 161
177 196 191
173 189 165
157 178 125
164 186 144
179 197 191
176 195 177
163 184 125
180 195 191
165 186 144
177 196 191
157 176 125
178 194 177
168 188 144
172 192 177
174 192 161
158 179 135
163 182 161
178 197 204
164 181 144
138 155 114
171 186 177
166 188 198
162 183 169
158 178 177
158 179 144
171 189 161
161 181 144
157 176 177
166 187 191
164 182 161
163 184 177
164 182 144
162 182 191
179 198 204
160 178 125
173 192 161
161 181 169
163 180 177
182 196 191
169 192 191
113 128 114
170 186 194
154 174 169
148 164 129
166 184 161
162 181 165
166 183 144
165 182 169
169 187 177
161 182 161
161 181 129
161 184 144
154 171 139
155 172 144
173 193 177
175 192 198
165 184 169
162 180 161
151 169 144
138 160 144
169 188 161
153 174 153
148 163 144
147 165 172
153 168 156
153 174 161
164 182 135
166 184 144
145 165 135
145 167 161
180 197 191
173 191 144
166 182 144
158 177 168
157 179 144
155 172 187
137 156 114
115 134 151
143 161 169
146 166 169
136 152 154
140 159 161
140 161 135
134 155 144
148 168 169
148 168 169
138 157 151
167 185 169
128 147 153
139 158 144
135 154 135
150 169 161
158 174 177
142 162 144
150 167 156
140 158 169
89 107 112
135 154 192
121 140 151
98 118 123
122 141 160
67 86 118
119 138 94
92 108 124
113 132 79
84 104 127
65 73 89
58 70 99
41 50 58
23 37 60
34 57 96
42 69 102
44 71 86
55 87 134
61 94 137
60 95 140
59 93 165
48 78 105
54 85 101
58 93 137
55 87 125
55 88 105
55 88 111
57 90 135
62 97 161
64 100 161
62 96 140
59 94 140
61 97 149
57 89 120
60 95 173
59 91 128
61 96 137
60 94 151
61 97 151
60 94 147
60 95 125
58 90 128
61 94 128
64 98 151
61 96 128
57 90 99
63 99 161
56 89 111
60 96 140
62 97 140
58 92 99
55 86 80
60 94 140
53 86 114
60 95 128
58 91 114
61 95 140
62 98 151
60 93 128
59 93 114
56 91 140
62 98 151
58 92 128
61 96 128
60 94 114
53 84 99
60 96 151
62 96 128
60 96 151
60 95 114
60 93 128
60 93 114
63 98 140
63 98 140
62 98 161
58 93 128
62 98 151
62 98 151
61 97 140
61 95 130
62 97 140
57 92 114
56 90 114
56 91 140
60 93 114
57 91 128
59 94 128
57 87 117
54 84 102
61 94 153
63 99 161
58 92 99
56 89 114
64 100 161
62 96 153
60 95 140
55 86 99
60 94 151
58 93 140
57 91 114
58 89 142
56 88 117
62 93 142
59 92 130
59 90 130
59 93 117
55 86 114
57 91 114
55 86 130
58 89 130
58 89 142
48 76 114
52 80 115
54 82 84
55 86 118
42 66 82
42 67 81
41 60 90
4 7 2
17 23 14
59 66 44
63 69 51
116 113 72
26 34 12
84 86 63
88 92 38
92 95 37
101 106 74
108 108 77
82 89 59
144 143 85
129 129 82
121 121 81
146 140 92
126 124 62
112 110 37
126 122 73
138 138 80
156 151 95
112 112 60
125 122 68
160 155 89
139 137 57
144 139 67
155 151 72
142 139 63
163 156 95
148 145 76
137 135 37
156 154 72
171 164 99
142 140 80
162 156 84
165 160 88
151 145 73
137 134 60
164 158 80
146 141 80
150 146 80
157 152 72
168 161 88
158 154 72
145 141 76
154 151 76
161 156 62
170 163 88
156 149 88
164 158 88
148 146 85
150 146 62
144 140 72
161 157 76
155 152 57
147 144 72
156 151 80
153 151 80
166 159 72
160 156 92
183 174 108
171 162 80
159 155 62
152 150 80
171 165 80
165 159 62
172 164 88
150 146 76
144 142 80
171 163 88
150 148 44
157 151 72
163 158 95
173 165 72
163 159 62
167 161 88
161 157 80
178 171 102
164 159 62
164 158 79
180 170 88
175 167 88
173 168 95
166 160 80
148 147 36
153 150 62
162 156 92
153 148 51
182 174 108
168 162 92
176 166 72
141 139 57
164 157 80
171 164 94
169 163 72
174 167 88
172 167 88
158 157 62
178 169 102
161 155 80
159 153 92
167 159 80
173 163 102
161 157 80
168 161 84
168 163 80
181 172 95
154 150 62
180 171 95
162 157 80
171 164 72
167 160 72
167 162 72
172 163 80
172 166 88
165 160 88
174 168 95
172 167 88
181 174 108
169 164 80
183 173 102
170 164 88
172 166 80
173 164 72
175 170 102
172 163 88
177 169 88
175 165 80
167 159 72
164 161 72
174 167 88
178 170 95
165 158 62
169 161 80
177 166 95
165 162 80
179 168 95
170 164 72
170 164 95
171 166 88
175 170 102
172 166 88
176 169 95
173 166 80
163 158 80
174 167 88
174 168 95
177 167 101
164 186 144
163 184 144
164 187 161
175 195 191
174 192 161
180 198 191
164 185 177
164 186 144
173 193 177
169 190 161
174 194 191
171 190 177
169 192 191
168 188 161
180 198 191
178 195 177
179 198 204
172 192 177
177 196 191
168 187 191
178 196 191
167 187 177
166 186 191
168 187 165
172 191 177
162 182 102
174 193 177
173 187 180
163 182 125
174 193 177
175 194 177
164 183 161
168 188 144
161 179 125
174 189 161
164 185 144
173 193 177
144 165 161
166 184 177
183 200 191
165 183 161
168 189 161
160 177 187
164 178 165
181 199 204
160 177 184
179 197 191
180 197 191
168 188 161
173 190 177
169 188 144
163 182 144
158 176 107
165 182 148
167 183 148
162 183 125
165 184 161
173 190 191
165 184 102
168 189 177
162 181 144
177 196 204
162 180 125
163 183 177
170 191 191
171 187 186
184 203 228
179 198 204
164 183 161
170 189 191
170 191 177
154 174 125
161 181 144
160 176 135
168 183 148
165 183 177
145 163 148
160 174 79
178 198 204
153 168 118
175 190 161
148 167 112
161 178 144
171 192 177
168 189 161
159 177 191
168 183 161
173 194 191
162 181 161
167 186 177
165 184 177
157 176 139
138 160 125
139 158 114
161 180 184
163 181 183
147 165 169
134 150 125
128 149 123
157 179 169
163 179 144
162 182 177
157 178 125
155 173 151
169 191 177
156 171 184
170 190 198
139 161 135
120 141 125
153 174 144
164 183 169
121 140 114
160 180 183
152 172 191
147 164 168
162 179 153
157 173 161
163 180 169
162 181 184
139 157 144
139 156 135
106 127 112
168 187 177
148 166 161
172 190 198
130 150 116
108 128 114
118 136 99
133 151 168
105 124 118
120 139 129
146 160 161
128 149 125
94 119 112
146 165 169
116 138 133
139 157 168
129 146 148
111 128 135
68 93 99
108 119 127
108 127 126
38 61 86
72 86 35
79 95 129
29 47 77
67 78 99
12 17 9
62 84 99
45 73 102
52 82 80
56 88 140
54 86 120
53 84 108
55 89 135
50 81 114
57 91 137
55 87 95
57 91 135
57 90 125
61 96 140
57 91 137
56 89 154
62 96 137
60 94 151
58 91 128
56 90 128
59 93 140
51 82 95
59 93 149
57 90 144
56 89 144
59 94 140
58 92 114
61 96 140
59 92 128
58 92 128
55 88 99
61 97 161
59 94 114
59 93 140
59 93 140
60 95 128
63 98 151
58 93 128
59 94 114
62 97 140
57 90 114
61 94 161
60 95 128
59 93 140
63 98 151
57 91 111
61 96 171
58 92 99
63 99 151
58 93 128
58 94 128
62 98 151
59 92 140
59 95 140
64 99 161
62 98 151
58 92 151
55 88 128
60 93 128
58 92 140
58 92 140
57 92 114
60 95 128
54 86 128
63 97 128
56 90 114
58 91 114
59 93 99
61 95 140
60 94 151
63 98 151
58 93 128
60 95 151
57 90 117
60 96 140
64 99 151
63 98 140
59 93 99
58 93 128
58 89 128
56 88 99
58 91 128
60 93 130
61 97 151
63 99 161
55 87 102
60 94 114
47 74 128
53 82 84
57 88 84
62 96 153
56 87 107
56 88 117
55 87 114
59 93 117
59 91 117
59 91 117
59 89 105
57 91 143
62 95 144
59 90 120
54 82 105
52 81 102
48 74 80
52 61 28
24 34 27
25 33 28
76 77 44
30 38 11
92 94 41
60 61 29
35 49 27
63 73 63
68 79 63
113 115 76
64 74 47
107 109 46
128 127 77
113 112 62
149 146 80
108 109 68
129 128 78
130 129 68
134 133 51
142 143 89
152 148 81
108 110 53
111 109 64
154 149 81
146 143 67
118 122 62
127 127 81
133 132 72
163 158 84
147 144 76
134 132 72
151 145 77
141 140 88
149 144 80
154 149 80
163 157 67
157 153 102
133 128 80
145 142 72
166 159 99
159 151 80
177 169 95
152 149 76
164 156 84
164 158 80
161 159 92
154 152 62
175 167 95
152 147 89
151 148 62
171 166 88
177 168 87
179 171 102
154 150 76
171 166 95
132 131 36
180 170 105
171 163 95
151 149 72
132 129 80
153 152 72
167 162 80
145 145 84
159 151 88
160 156 72
164 160 88
173 167 88
165 160 62
166 160 88
177 170 95
168 160 79
166 161 87
165 161 72
173 167 88
176 168 88
164 158 81
162 156 88
164 160 92
172 167 88
164 154 76
176 168 102
178 168 88
164 159 80
165 158 80
170 164 80
157 151 62
173 165 72
178 169 88
168 162 88
166 162 95
170 163 88
183 173 95
163 154 88
175 169 95
170 163 72
170 164 80
157 152 36
165 157 95
179 171 102
173 168 95
166 161 72
156 152 80
177 170 102
176 170 102
177 170 95
163 158 72
172 167 88
163 157 72
173 167 88
177 168 80
174 165 95
164 157 80
173 167 88
158 155 72
169 165 88
172 164 72
165 159 51
172 164 88
163 160 88
162 157 80
171 166 88
166 160 80
186 176 108
155 153 62
160 151 62
167 158 80
172 163 88
171 163 95
169 162 80
170 164 80
172 165 95
180 172 102
175 169 95
175 167 88
170 165 80
179 170 95
170 164 80
168 164 80
164 160 62
158 152 62
159 153 72
176 166 88
177 166 88
176 167 95
168 163 72
170 165 88
172 165 80
170 164 80
165 181 177
157 174 125
169 188 161
172 194 191
167 188 161
174 193 177
168 189 161
181 200 217
179 196 177
163 181 125
169 186 161
168 188 144
169 189 161
168 189 161
167 185 161
171 191 161
175 192 204
154 171 125
183 200 204
167 188 161
165 187 161
164 177 144
165 184 161
174 194 191
164 185 125
179 197 191
169 190 161
164 183 177
176 193 177
161 177 148
176 194 177
165 187 161
167 183 107
178 198 204
175 194 177
176 195 191
167 189 177
153 174 102
173 193 177
167 187 144
166 186 125
175 193 161
174 192 177
174 192 177
153 174 102
156 176 144
176 195 191
168 189 161
165 188 161
164 183 161
157 180 161
168 188 191
182 200 204
170 190 161
180 196 177
185 203 217
164 184 177
179 196 191
158 176 177
168 188 144
161 184 144
165 183 161
169 186 177
168 190 177
165 185 125
181 197 204
177 192 177
175 194 177
173 193 177
166 185 168
156 175 102
164 185 125
174 194 177
171 190 161
171 189 191
179 197 191
163 181 191
169 191 177
160 175 165
159 176 125
174 193 177
162 183 102
154 176 169
172 187 194
154 172 135
162 184 125
165 184 125
165 183 129
160 181 144
158 178 125
156 176 102
162 182 125
180 200 217
166 183 184
174 194 191
167 186 191
178 196 177
172 191 161
158 176 161
163 184 144
144 159 144
153 171 156
153 175 161
147 167 153
119 135 88
135 154 102
146 167 102
155 176 161
137 156 161
141 161 169
154 174 153
169 187 177
152 169 190
159 175 144
138 156 135
155 172 106
160 176 161
146 166 153
135 154 175
140 158 161
127 145 123
156 177 177
129 146 153
131 149 128
133 152 112
100 120 123
141 161 184
138 156 144
127 149 144
149 168 178
164 182 204
113 133 123
131 150 171
134 155 144
128 146 142
133 150 123
145 165 162
85 103 134
101 122 144
118 136 115
102 117 124
71 88 118
59 74 64
106 126 85
24 42 88
22 37 66
23 36 7
78 95 118
34 54 59
51 81 120
52 82 95
58 92 122
48 78 102
51 83 95
56 87 140
58 92 142
54 87 80
59 94 151
57 91 137
61 96 151
55 87 128
60 93 128
51 80 120
63 98 151
54 87 122
57 91 99
57 91 140
61 96 151
59 93 128
61 96 151
55 88 128
53 85 80
60 94 140
60 96 140
60 95 159
57 90 114
54 86 125
60 94 128
56 90 114
57 90 114
61 95 155
60 94 140
58 92 128
56 90 99
57 89 140
59 93 128
65 100 151
57 91 125
60 94 151
63 99 151
58 92 140
57 91 128
57 89 140
55 88 128
61 95 128
65 100 151
62 97 140
64 100 171
56 90 128
56 88 114
62 96 140
60 95 161
58 92 140
58 92 99
62 98 161
56 87 151
62 97 161
62 97 171
59 93 140
61 96 128
56 89 140
55 88 99
60 96 140
61 96 140
56 88 99
60 94 151
63 98 151
62 97 140
61 97 151
56 86 102
59 92 130
61 97 151
61 96 140
58 91 140
58 91 128
57 90 128
55 87 80
59 93 140
64 99 161
55 88 140
62 98 151
60 94 144
61 96 128
57 89 128
50 80 114
59 93 114
54 84 117
60 94 130
63 97 153
56 88 140
50 75 88
56 90 99
56 86 128
59 93 140
50 77 107
53 80 120
53 83 145
58 91 128
59 89 130
59 92 140
40 66 81
42 66 99
23 29 11
26 34 28
23 31 14
79 83 30
118 116 51
60 64 29
94 96 36
116 113 57
96 97 46
90 94 62
86 92 53
114 114 64
157 151 72
90 89 27
95 98 53
101 102 63
104 108 57
129 131 67
129 127 76
133 129 57
137 132 77
153 151 80
160 156 80
165 159 89
162 157 80
123 123 57
144 142 72
161 157 80
153 149 76
125 127 72
154 151 80
134 131 67
157 150 80
151 148 88
134 134 67
151 149 80
152 150 80
174 165 88
137 135 72
172 166 93
160 153 88
160 154 73
162 159 72
159 155 72
167 162 72
171 166 88
148 147 72
183 173 102
157 153 79
149 144 80
165 160 88
136 134 72
169 162 80
148 146 88
156 153 80
156 152 88
171 166 88
164 160 88
167 162 72
141 138 67
174 168 95
158 152 76
150 143 72
162 158 72
161 152 88
179 172 108
153 150 72
163 156 92
170 166 95
173 164 80
171 166 88
165 159 99
153 149 81
156 154 72
165 159 51
155 149 80
161 158 80
180 172 102
173 166 80
169 163 72
160 155 76
166 164 94
166 161 88
165 160 88
163 159 62
161 158 80
149 144 72
177 170 95
179 169 88
175 168 88
175 166 95
164 155 84
169 163 72
168 161 88
164 157 72
174 166 80
172 163 80
170 165 80
171 161 95
172 164 72
173 168 95
175 168 88
180 171 95
162 151 92
156 152 51
161 157 72
173 167 88
161 154 88
180 170 88
176 169 95
178 171 102
164 159 80
174 166 80
176 167 95
168 161 72
178 170 95
172 166 80
176 168 88
183 172 95
177 169 95
173 168 95
168 162 95
161 154 75
174 168 95
165 161 72
162 156 62
175 168 88
184 174 102
172 167 95
158 155 62
177 170 95
172 168 95
177 169 88
164 157 79
171 163 88
171 166 88
173 164 88
178 172 108
168 163 80
177 171 102
178 170 95
172 166 88
173 164 80
162 157 72
167 160 80
164 159 80
173 166 80
175 169 95
174 194 177
178 194 161
171 190 161
170 190 161
174 193 177
171 191 161
158 179 102
177 197 204
169 188 161
168 182 161
176 193 177
164 184 144
160 183 125
172 191 161
171 191 161
175 191 177
171 192 177
163 182 161
184 200 191
174 194 191
170 188 177
181 199 204
158 179 72
164 186 144
175 192 191
173 193 177
162 180 107
172 192 177
166 186 177
168 189 161
167 189 177
168 189 161
168 187 161
157 172 125
156 176 177
169 187 161
171 190 191
172 188 177
155 171 129
157 176 125
167 185 161
161 182 144
175 195 191
163 183 177
179 197 191
176 190 183
167 186 125
168 188 161
171 188 161
185 202 217
168 187 178
174 193 177
174 191 191
175 193 161
175 195 191
181 198 191
178 198 204
186 202 204
168 188 144
181 199 204
187 203 217
171 191 177
168 187 125
172 191 177
171 185 151
172 192 177
168 187 161
178 195 204
162 180 156
155 173 144
162 184 125
169 188 180
164 179 144
174 192 161
156 175 161
167 187 184
177 197 204
168 184 151
171 188 165
152 170 148
157 175 125
158 177 125
146 164 144
164 181 144
167 184 177
157 177 127
169 186 198
170 189 192
155 175 153
163 181 177
166 185 177
178 196 177
161 175 144
161 181 125
150 167 135
165 186 191
149 172 114
172 192 177
155 177 184
159 180 153
144 160 144
163 182 161
140 158 125
141 159 142
159 178 168
132 147 125
160 182 125
169 188 191
161 180 125
172 189 177
135 154 137
154 171 144
150 170 144
140 159 153
149 167 171
136 155 148
151 169 168
164 183 161
168 188 198
134 154 153
161 180 177
127 148 112
122 141 168
140 159 114
151 168 151
121 141 114
123 146 161
157 175 175
133 154 156
109 126 144
162 182 198
104 122 133
80 103 125
86 108 123
128 145 127
125 149 114
103 125 151
115 137 177
95 114 129
94 113 75
118 136 145
104 120 89
102 116 125
94 110 122
27 46 50
84 93 109
104 117 82
54 59 11
29 50 67
42 68 84
48 79 97
50 80 126
52 83 99
59 93 111
55 88 128
53 84 118
53 86 76
59 93 140
56 90 120
54 85 133
54 85 125
56 88 133
55 89 125
61 97 140
54 86 120
59 94 140
54 86 114
55 88 0
58 91 128
58 91 128
59 94 128
58 91 149
61 97 151
61 96 149
61 95 128
58 93 159
57 90 114
62 97 149
59 93 128
56 87 114
63 98 151
60 95 128
60 95 128
60 95 128
65 101 171
61 96 151
62 97 171
64 99 151
63 97 140
60 94 140
59 92 128
53 84 80
59 94 128
57 90 114
61 96 151
60 94 128
57 90 114
61 96 128
59 93 128
61 95 142
57 91 128
58 93 114
61 96 128
60 95 128
60 93 114
63 98 151
62 97 140
64 100 171
65 99 151
58 93 114
59 93 128
60 94 140
61 95 114
62 97 151
58 91 114
58 92 128
60 95 128
58 90 128
61 96 128
59 91 114
57 90 128
55 88 99
61 96 128
62 98 151
60 93 117
56 89 80
56 87 80
61 96 140
60 94 151
61 95 142
60 94 140
55 87 84
55 88 128
59 94 128
59 91 140
55 87 62
59 93 140
59 92 128
60 92 130
58 91 151
59 93 128
60 96 151
59 92 128
56 88 102
55 83 108
58 90 130
51 80 130
46 73 83
48 77 60
48 75 88
52 79 86
66 65 44
13 19 2
50 47 25
64 64 45
67 73 51
92 95 57
90 95 38
119 115 64
102 100 37
109 109 3
114 116 45
142 136 76
133 127 64
148 144 80
113 111 65
110 112 44
139 137 85
135 132 57
149 143 93
143 141 92
104 105 63
142 143 84
137 134 51
146 140 72
113 114 67
132 128 64
164 156 88
119 115 36
145 142 73
133 135 76
170 164 99
150 147 80
180 171 111
144 142 72
141 142 76
147 144 76
148 142 62
133 133 67
183 175 108
163 159 88
155 151 80
144 143 81
154 149 80
165 159 87
149 147 95
148 142 62
149 146 76
136 134 62
141 141 77
163 157 62
147 144 72
180 172 102
163 157 62
150 147 88
167 161 88
170 166 88
144 143 80
169 161 72
169 162 88
152 148 57
163 158 99
179 170 88
172 164 92
165 160 88
169 163 101
159 155 88
161 156 80
163 159 84
174 168 95
176 169 95
166 160 88
173 166 80
178 170 95
167 159 72
170 167 95
169 161 87
165 161 88
174 165 95
162 157 88
161 156 72
169 163 95
171 162 80
163 159 88
174 169 102
169 164 88
181 173 108
170 164 80
173 167 88
158 148 80
157 152 62
164 159 80
162 153 80
179 171 95
161 154 62
179 168 102
161 157 80
180 171 95
167 161 80
171 164 72
164 158 72
172 166 94
165 160 72
169 165 88
152 149 72
171 163 72
167 161 62
168 161 95
164 158 72
180 172 102
165 161 72
169 164 80
173 167 88
164 160 72
170 165 80
168 164 88
158 151 80
164 157 88
163 156 72
174 168 88
179 171 95
175 169 95
179 171 95
171 165 80
179 171 95
171 163 88
159 151 62
173 165 88
171 165 80
176 168 88
162 157 80
157 153 62
174 169 102
164 161 72
165 159 72
173 165 88
173 162 88
163 159 70
161 157 72
164 157 62
167 158 80
174 169 95
174 166 95
170 163 72
180 172 102
171 165 80
165 158 80
180 173 108
161 157 80
171 165 80
169 186 161
172 192 177
179 196 177
156 176 102
171 189 161
178 197 191
166 181 177
177 195 177
169 189 161
173 188 177
177 195 177
169 188 161
160 182 125
174 192 161
178 196 191
178 196 191
170 190 161
168 186 125
162 179 177
167 186 125
163 184 125
165 184 161
164 182 144
167 185 144
159 179 161
177 193 191
160 180 144
175 194 191
157 175 125
154 173 144
169 188 191
170 190 177
168 186 144
168 187 191
166 187 144
161 181 144
175 193 177
167 186 177
166 187 144
172 191 161
176 195 191
161 181 177
173 191 177
154 174 102
176 194 177
169 185 144
174 193 177
172 190 144
178 195 191
166 187 191
156 174 161
169 188 191
166 187 144
168 187 177
162 182 125
184 203 228
161 181 144
154 172 144
165 185 177
170 188 177
185 202 217
176 195 177
174 193 177
152 168 102
159 179 161
169 188 144
165 184 161
161 181 102
171 190 191
168 187 161
178 197 191
164 180 148
161 182 169
172 191 177
171 188 161
156 175 169
170 187 161
166 183 144
165 182 165
168 186 177
172 186 151
166 182 169
176 193 161
143 160 72
154 175 125
159 177 198
142 163 177
153 171 127
170 187 198
162 181 135
164 186 144
149 168 169
178 196 177
168 188 161
160 178 169
161 182 161
167 186 177
170 191 177
166 183 204
151 172 153
150 161 129
166 187 144
152 173 165
151 169 125
156 178 177
162 180 191
141 161 142
162 180 184
149 168 102
135 147 144
147 163 144
146 165 153
141 158 114
118 138 114
143 162 135
176 195 191
122 141 123
159 176 161
144 165 144
152 171 139
160 178 102
142 162 135
124 140 144
165 184 177
140 161 196
161 178 153
146 168 169
159 176 184
139 161 125
143 166 161
143 160 161
111 126 146
133 153 133
131 149 153
112 131 146
114 134 155
137 157 153
89 109 144
107 126 102
79 102 98
87 106 124
102 115 114
80 97 103
98 112 99
72 88 78
66 84 76
19 33 32
24 39 0
93 108 96
43 70 94
54 86 138
51 82 80
40 65 51
49 77 111
51 84 116
57 90 133
59 92 149
56 90 128
50 79 76
56 88 125
56 89 156
59 93 153
51 80 80
56 88 111
57 90 114
58 91 111
63 98 151
62 97 157
59 93 114
60 95 128
56 88 130
57 90 114
59 93 137
57 91 142
56 89 135
62 97 140
57 90 99
60 94 128
60 94 140
55 88 99
62 97 140
63 98 151
57 91 80
58 91 128
62 97 140
62 97 140
64 99 161
55 87 128
60 94 114
56 89 133
61 96 161
60 95 128
66 102 171
59 91 140
63 98 161
60 93 140
62 96 140
61 97 151
57 91 128
60 94 140
57 92 114
63 98 151
61 96 151
62 95 128
58 91 128
64 100 161
59 93 130
59 93 129
63 99 161
62 96 151
57 90 142
59 93 99
59 92 128
60 96 140
59 93 151
58 91 140
61 94 140
61 96 140
61 95 151
60 95 128
61 95 130
60 93 140
59 94 128
63 97 151
61 93 151
58 92 140
55 86 114
58 91 114
61 94 128
61 95 114
61 96 161
61 95 140
61 95 140
54 84 114
60 92 130
57 90 99
57 88 140
60 94 140
59 91 130
59 91 120
54 83 118
59 91 117
55 82 114
54 83 90
55 82 88
54 84 99
56 90 129
57 90 129
53 83 117
51 79 84
50 78 131
63 73 60
57 58 36
60 64 45
77 76 26
77 81 37
67 70 26
91 95 51
120 114 62
132 127 57
103 105 72
126 121 62
99 97 11
112 111 44
133 132 72
146 144 64
119 118 72
125 124 57
153 149 68
118 115 64
103 107 53
117 115 57
170 161 99
141 139 76
132 127 57
139 140 67
119 115 57
166 157 89
151 147 84
135 135 57
121 119 67
138 137 72
156 152 84
116 121 84
151 145 73
160 155 89
108 107 57
154 150 72
161 156 84
142 140 58
153 147 80
164 158 88
164 158 80
141 138 51
159 151 79
130 127 57
158 156 80
167 160 80
134 132 63
150 147 88
174 167 88
170 162 80
177 171 108
161 156 92
176 168 88
159 154 80
154 150 80
169 161 72
167 161 84
155 150 76
151 147 76
152 149 92
163 160 92
156 153 62
153 151 80
160 155 92
172 166 88
154 153 67
145 142 67
172 164 72
166 161 62
147 146 57
144 140 51
182 173 102
170 164 99
170 164 102
164 158 80
148 143 72
169 162 80
150 146 80
169 162 80
168 160 80
179 169 80
151 148 57
169 164 80
168 161 95
165 157 72
169 162 95
171 164 102
169 164 80
167 163 80
161 156 62
161 154 80
159 153 76
169 164 80
174 168 95
163 157 80
154 149 72
177 166 80
177 168 80
174 164 88
160 156 48
174 169 102
175 169 95
158 155 72
174 167 80
170 163 88
163 159 80
160 157 72
170 163 80
174 167 88
168 160 80
171 166 88
165 156 72
168 163 72
164 157 72
155 152 88
163 157 80
163 155 79
169 163 88
173 166 88
166 161 91
169 163 72
168 160 72
160 157 51
165 156 76
173 164 95
174 167 102
166 158 72
173 166 80
166 161 72
162 158 62
155 152 62
170 165 88
172 165 80
181 171 88
170 164 80
166 162 72
169 161 80
160 156 72
174 167 80
173 164 80
187 177 114
172 167 95
175 168 88
175 168 88
179 170 95
169 164 80
156 152 72
177 170 95
174 195 191
165 187 144
160 181 144
166 185 161
148 166 125
179 197 191
172 191 161
169 189 161
168 189 161
163 184 144
166 185 144
177 194 161
158 179 72
172 190 191
159 179 144
173 192 161
165 183 144
174 193 177
165 184 161
173 193 177
177 195 177
170 189 144
168 185 144
176 194 177
176 194 177
180 199 204
173 192 161
159 174 191
173 191 161
173 192 204
172 191 161
162 185 144
157 178 125
177 194 161
170 190 161
172 192 177
167 187 177
172 192 177
169 187 165
161 180 144
155 173 144
169 189 191
160 179 125
161 180 144
185 201 204
180 199 204
171 189 177
165 186 144
164 182 177
156 177 144
158 180 102
184 201 204
179 196 191
167 184 172
168 186 177
163 179 125
156 174 144
181 196 194
159 178 144
159 179 125
161 180 161
171 190 144
172 189 165
162 184 177
175 194 177
148 168 153
157 177 114
172 188 161
166 187 144
179 198 204
153 173 161
171 189 177
172 191 161
161 174 144
130 153 125
167 184 187
153 170 153
170 191 177
153 169 161
176 194 177
153 175 169
159 180 161
168 184 184
165 180 150
155 175 144
169 189 177
163 184 177
169 187 169
169 187 177
168 185 165
149 163 161
141 163 153
173 192 161
163 180 191
150 169 125
168 188 191
146 167 102
156 177 125
164 185 177
146 163 161
166 185 161
145 163 135
161 181 153
155 174 153
161 177 125
152 173 144
152 170 125
133 151 144
170 189 144
158 176 135
152 172 190
132 153 148
166 184 161
154 174 170
135 158 169
146 163 125
142 162 151
129 148 161
151 170 191
139 160 135
148 164 152
166 183 177
157 177 169
147 169 135
156 173 162
141 161 135
109 125 102
148 166 159
99 121 123
148 165 151
106 128 88
136 153 112
131 151 115
137 155 152
129 146 137
121 140 128
64 87 108
129 147 114
105 124 88
97 119 139
103 120 144
96 107 115
78 100 72
39 61 55
80 93 80
98 111 117
56 73 52
21 34 54
35 56 79
52 83 95
50 78 115
52 84 133
58 93 149
61 95 128
57 90 108
50 80 95
56 87 135
57 92 140
52 83 125
60 95 159
54 86 114
55 88 140
56 88 137
59 93 140
58 92 128
60 94 140
59 93 151
57 91 125
58 92 128
57 90 114
53 85 105
60 93 128
62 98 161
55 88 99
58 93 161
60 94 114
59 94 159
57 92 128
58 93 99
63 97 137
59 93 128
57 90 128
58 91 114
62 97 140
54 85 114
63 99 161
60 96 140
63 99 151
55 88 80
51 82 114
58 92 99
57 91 140
58 92 99
61 95 151
62 97 140
64 100 161
54 87 99
62 96 151
57 91 140
61 96 128
57 89 114
53 83 114
62 97 140
50 80 80
60 95 128
59 93 140
60 97 161
58 92 128
65 101 171
56 88 114
60 95 114
60 95 128
57 91 140
59 93 153
57 92 114
61 96 151
59 92 114
58 94 128
62 96 142
56 90 128
59 94 114
58 91 140
59 93 128
61 94 140
58 92 80
56 88 128
57 90 128
59 92 102
57 89 102
53 84 80
62 96 153
58 92 114
54 85 140
62 97 140
61 95 151
54 84 84
59 93 151
59 93 128
56 85 88
62 95 142
52 80 88
55 85 142
55 84 90
47 74 103
59 90 130
44 70 62
58 90 141
48 72 86
58 90 140
46 71 62
47 71 90
71 70 36
91 89 8
50 57 44
72 77 37
85 86 51
99 99 58
67 66 25
125 120 51
56 60 25
96 94 36
120 117 51
114 116 51
122 116 57
104 106 46
137 135 67
97 99 46
109 109 57
103 105 68
142 137 81
136 131 77
103 104 67
120 121 85
151 146 57
140 138 80
144 141 62
139 136 85
149 145 84
125 125 76
154 152 57
146 142 92
119 121 44
127 126 72
151 147 72
127 127 72
161 155 80
132 131 62
181 172 102
143 141 73
161 156 81
131 128 62
161 157 80
163 156 88
145 140 67
171 160 80
155 148 62
163 159 88
143 140 67
137 137 51
168 161 72
165 159 92
164 159 84
150 146 80
153 147 57
168 160 72
164 160 88
161 157 80
166 162 95
161 158 84
163 157 95
148 147 76
178 171 102
151 146 51
161 155 88
168 164 80
150 149 76
171 164 92
178 170 95
156 151 67
164 157 92
184 175 108
153 146 62
163 160 92
147 143 76
167 161 88
159 149 72
148 146 57
156 152 62
162 155 88
179 168 102
164 160 88
174 167 88
175 168 88
168 161 88
166 159 80
163 157 72
172 165 72
167 161 84
163 157 95
168 163 72
171 163 95
171 165 80
157 153 62
169 165 88
176 167 87
167 161 72
169 164 80
180 169 95
172 164 88
162 157 72
170 164 72
178 169 88
177 169 88
174 168 95
169 164 80
177 169 88
171 163 88
163 159 62
157 155 80
181 173 102
176 167 80
168 161 88
155 153 72
179 172 102
153 150 80
172 165 72
164 154 62
177 170 102
162 157 92
171 164 72
164 159 88
156 151 70
171 166 88
185 175 108
168 163 72
156 152 62
168 161 80
166 159 72
164 160 62
156 151 62
170 162 80
150 146 62
170 165 80
167 163 80
181 172 101
176 167 80
166 161 95
159 155 88
172 167 95
178 171 102
165 159 80
164 159 80
171 165 80
179 170 95
175 168 88
171 165 80
170 160 80
167 163 80
180 174 114
170 164 80
173 193 177
176 193 161
173 194 191
183 198 177
173 193 177
170 189 144
178 196 191
176 195 177
164 184 125
172 192 177
177 195 177
159 178 144
170 187 161
174 190 144
167 187 161
161 181 102
165 183 144
163 181 125
176 195 191
166 185 177
180 196 191
176 192 177
171 192 177
169 189 177
180 197 191
179 198 204
162 175 144
164 183 144
171 188 161
167 187 161
160 178 144
170 186 161
164 184 177
162 179 148
156 178 144
157 177 144
176 194 177
170 189 161
177 194 177
169 190 161
159 178 144
175 195 191
167 185 177
170 189 177
164 181 177
164 185 125
154 174 144
181 197 177
168 186 161
149 170 144
157 172 148
160 179 144
166 186 125
179 195 204
152 171 125
173 188 177
173 188 183
162 178 129
168 186 161
180 198 191
152 170 144
161 183 125
164 185 125
173 191 177
173 192 194
167 182 148
170 186 144
171 189 144
158 172 107
156 177 177
167 184 148
164 183 144
165 183 144
166 186 125
166 182 129
171 187 198
168 186 161
165 185 177
155 177 125
162 177 161
162 179 161
170 189 144
174 189 161
174 195 191
177 197 204
170 188 177
168 185 161
165 183 198
150 169 118
153 169 144
168 185 191
153 173 151
161 180 144
161 178 177
136 158 135
151 171 125
139 153 169
177 194 191
160 180 144
162 180 135
156 176 161
134 148 135
145 163 125
169 187 177
153 170 102
150 168 169
136 155 144
163 182 144
171 189 177
174 193 177
144 162 125
155 172 184
163 185 184
138 156 135
161 182 169
129 149 114
146 163 125
138 158 177
176 195 177
143 164 91
150 170 135
129 149 112
130 147 114
135 150 125
145 163 102
148 164 166
156 176 161
132 152 125
153 171 148
134 152 161
131 153 160
135 154 153
99 122 135
106 121 116
92 110 94
116 132 118
97 116 114
126 144 148
112 129 88
57 74 64
123 140 133
89 106 75
51 59 28
107 122 142
75 90 96
28 46 72
19 32 31
56 68 43
17 29 45
54 86 132
55 88 111
52 83 111
50 78 113
52 82 99
59 93 140
52 84 111
57 90 99
56 91 111
58 91 153
53 83 111
61 96 128
60 95 128
59 92 133
54 86 128
58 92 149
60 95 128
56 88 111
59 93 128
58 92 140
59 95 128
59 94 151
58 91 111
65 100 169
54 86 128
59 92 125
58 89 125
62 95 149
63 98 151
61 97 151
55 89 99
53 84 80
59 93 114
58 93 128
59 93 99
60 95 140
59 94 128
57 90 140
56 90 114
57 90 128
59 93 99
62 97 149
59 94 137
62 98 161
60 95 128
59 94 114
60 96 140
61 96 140
61 95 151
58 92 128
57 90 128
58 91 128
63 99 161
60 94 140
62 96 140
62 97 140
60 95 151
63 100 171
59 93 151
56 89 99
63 99 161
60 94 114
58 90 114
59 93 128
62 97 151
61 97 140
59 92 102
62 96 128
55 87 99
58 91 128
56 87 114
62 97 151
56 88 117
64 99 151
65 100 161
55 86 128
63 99 161
52 82 114
58 90 99
59 92 128
62 96 140
62 95 140
54 84 114
55 88 99
53 84 128
60 95 128
55 86 114
53 83 99
56 89 128
57 88 130
59 91 114
57 86 120
58 92 141
49 77 82
51 77 102
56 86 99
56 89 140
58 88 122
49 74 84
44 68 70
46 66 72
39 62 62
89 95 82
15 19 5
79 78 1
73 68 8
67 67 38
78 80 54
91 92 63
63 66 45
73 78 25
115 116 63
117 118 51
84 82 42
95 99 63
116 115 68
127 126 67
127 127 72
152 148 84
123 122 68
122 118 72
143 139 89
141 140 62
126 125 67
129 127 74
153 150 95
128 126 59
161 157 81
160 152 89
150 148 76
77 84 26
136 134 67
174 166 80
146 144 80
156 152 95
146 142 84
160 154 81
145 144 84
161 154 80
112 113 73
154 146 85
169 162 84
139 135 88
145 139 62
169 161 88
143 142 76
159 156 80
153 150 80
161 157 80
160 156 72
143 140 57
166 156 62
170 161 72
176 168 88
157 152 80
168 162 88
155 147 72
175 167 87
159 154 62
167 160 88
157 151 62
156 150 62
177 170 95
172 165 72
164 159 80
165 160 88
164 160 72
169 159 80
163 158 76
163 158 87
166 159 80
158 151 81
167 162 95
172 168 95
162 159 92
151 145 72
169 163 72
164 159 90
165 160 84
163 159 80
150 148 76
175 168 88
162 156 72
168 164 80
177 171 108
176 167 95
177 169 88
172 164 72
169 162 88
167 162 88
167 162 95
176 168 88
175 165 95
175 167 80
155 150 62
168 160 72
165 160 62
183 174 102
174 165 95
178 170 95
146 143 57
164 156 72
148 148 72
171 166 88
161 156 72
165 161 92
168 161 84
165 159 84
179 170 88
181 172 102
169 164 80
183 174 108
169 163 72
166 163 80
168 163 72
160 155 62
179 171 95
157 154 79
168 163 72
181 172 102
148 144 60
169 162 80
164 161 72
154 152 62
166 160 80
167 161 88
163 159 62
161 156 70
168 162 91
157 155 70
168 163 72
173 168 95
176 169 95
155 152 62
166 159 80
167 161 80
156 153 72
170 164 80
169 163 80
178 171 102
173 166 80
172 165 80
171 164 72
168 163 72
172 165 80
184 174 102
171 164 95
177 169 88
175 168 88
164 161 72
173 166 80
180 196 191
166 187 144
163 181 148
148 170 72
175 194 191
168 186 191
173 192 161
168 187 161
155 174 125
165 187 161
160 180 125
158 178 144
172 189 125
182 200 204
164 187 161
166 189 177
170 189 161
175 195 191
157 176 125
152 171 72
149 168 79
178 198 204
172 192 177
158 180 125
159 178 125
174 195 204
178 197 191
163 180 161
176 193 180
157 178 144
161 175 144
175 194 177
166 184 102
177 194 177
179 196 177
168 187 177
169 189 161
146 165 144
173 191 191
176 196 191
163 184 144
160 177 161
176 194 177
167 186 177
173 189 144
167 189 161
177 195 177
168 187 125
172 188 161
180 199 204
170 189 144
170 189 144
169 189 161
174 193 191
162 181 163
165 183 161
164 179 161
170 188 161
170 191 177
158 178 125
175 194 177
150 169 144
164 186 161
141 160 72
173 192 161
170 190 161
141 160 144
172 190 180
169 184 177
177 196 191
154 174 153
164 183 144
177 192 191
167 188 198
170 188 144
164 186 144
143 163 135
150 167 125
152 170 184
133 152 72
156 176 125
160 180 144
173 192 161
153 166 148
153 174 161
174 195 204
155 174 161
137 158 161
177 196 191
164 183 144
165 184 148
171 190 161
159 175 144
167 186 177
149 167 102
172 192 177
174 193 177
140 157 156
153 173 153
132 149 102
160 177 161
154 172 161
165 187 198
144 165 114
163 183 161
146 162 184
150 167 169
160 180 169
147 165 142
151 169 169
145 164 135
136 154 114
145 163 190
138 157 153
166 187 144
159 176 169
148 167 114
155 173 144
138 156 161
150 166 125
147 165 144
135 150 135
162 181 144
127 144 168
136 155 146
161 178 161
148 168 144
129 146 169
121 139 158
158 175 163
126 145 150
99 121 114
81 101 93
112 130 125
106 123 125
138 156 161
124 141 129
103 117 114
107 125 114
40 65 91
98 112 79
108 121 90
96 112 85
76 88 51
52 68 60
70 85 76
58 70 89
20 33 54
126 139 163
49 78 99
46 74 94
57 90 125
53 82 111
59 94 147
54 87 80
50 80 111
50 80 76
57 90 144
57 89 114
57 91 128
50 80 99
58 93 125
61 95 137
60 94 151
62 97 140
59 92 120
60 93 140
53 84 80
56 86 80
56 90 125
60 94 140
57 91 140
57 90 125
62 98 151
59 93 137
60 94 140
53 84 99
58 92 128
61 96 137
63 97 140
55 87 128
59 93 147
61 96 128
62 97 140
56 89 114
63 99 161
58 91 128
55 88 128
59 94 128
61 96 128
62 97 137
60 94 114
64 99 151
59 93 140
58 90 140
60 93 128
62 97 151
63 97 140
58 90 99
57 91 80
63 98 151
63 98 151
59 94 114
58 93 140
55 87 80
55 87 128
57 90 114
58 92 140
59 93 140
60 93 128
63 99 161
63 98 151
54 85 99
56 88 128
61 95 142
63 98 151
61 96 140
58 91 128
61 95 140
64 99 161
59 93 99
61 93 128
60 94 130
63 97 140
59 94 128
63 97 140
61 95 140
57 88 131
59 93 128
58 91 128
60 92 140
58 91 140
53 83 128
53 83 84
54 83 102
58 92 114
56 87 117
57 92 99
58 90 130
56 88 114
54 86 128
59 92 128
43 71 57
58 89 140
56 86 102
57 86 117
51 79 0
52 81 84
52 77 85
60 93 130
48 74 90
151 160 164
63 62 36
68 67 25
31 40 0
68 70 51
27 35 12
104 102 57
129 125 51
90 88 52
103 102 57
103 103 63
112 116 80
97 101 57
129 129 84
127 125 68
123 120 45
125 122 57
130 127 58
144 139 76
145 142 95
100 100 44
149 147 67
114 114 72
163 158 80
104 106 59
132 129 72
134 133 67
169 162 92
141 135 63
165 157 80
152 145 67
136 133 76
123 121 76
156 150 85
159 155 72
123 122 58
150 148 80
142 138 72
153 149 72
143 141 88
149 145 87
136 132 72
146 140 88
149 145 84
160 156 80
128 131 73
150 146 76
153 151 76
159 152 62
156 149 84
176 170 102
169 163 92
156 152 70
149 145 51
165 159 81
164 153 80
154 147 73
164 158 79
160 156 67
182 173 102
174 166 99
166 161 95
156 149 88
173 167 88
158 150 62
163 157 79
132 131 51
174 167 88
164 160 88
168 161 72
166 163 80
152 152 72
162 157 72
164 155 80
174 168 95
160 154 62
172 166 88
154 154 72
152 147 70
170 163 95
179 170 88
162 157 88
179 171 95
171 163 80
172 166 88
161 155 72
176 169 95
168 165 95
155 148 51
160 155 72
170 163 80
161 155 72
180 172 102
160 156 72
155 151 51
173 165 79
177 167 95
174 164 80
168 163 80
173 168 95
172 166 88
165 160 70
162 155 88
175 168 88
161 157 80
169 164 80
153 151 80
171 165 80
149 144 62
162 156 62
161 157 80
180 172 102
171 165 80
177 170 95
178 170 95
144 140 72
175 168 88
168 164 80
178 170 95
175 169 95
175 164 95
151 147 0
174 168 95
164 157 51
165 159 72
174 166 80
163 159 62
178 169 88
164 160 62
147 143 62
182 174 108
171 164 102
178 171 102
171 163 88
166 162 72
173 167 88
176 170 102
167 160 88
173 166 80
165 161 80
187 175 102
172 164 95
170 164 102
154 148 51
147 142 72
173 166 80
167 160 80
163 156 88
169 165 88
170 190 161
174 194 191
155 173 102
176 194 177
170 190 177
164 183 125
157 180 102
160 180 161
172 192 177
176 196 191
159 180 144
171 187 144
164 185 161
173 189 177
176 194 191
180 198 191
183 200 204
169 185 161
171 189 144
172 191 161
152 170 144
168 187 161
164 180 161
165 184 125
161 180 144
178 194 161
173 192 161
171 191 161
174 194 191
178 196 191
176 196 191
167 187 161
145 162 125
163 182 102
171 191 161
179 196 204
172 190 144
164 184 161
178 197 191
166 184 102
169 190 161
165 181 177
177 195 177
164 184 125
170 189 144
168 189 161
165 182 144
157 177 125
165 180 125
166 185 125
174 194 191
172 190 177
165 183 161
175 194 204
166 186 177
157 179 153
157 177 161
170 189 144
175 194 177
166 184 125
166 183 125
163 181 144
183 198 177
169 190 177
184 201 204
172 191 161
181 198 191
175 194 177
172 189 191
176 194 177
163 180 125
168 185 144
151 168 125
169 189 161
158 179 161
170 188 177
151 163 144
161 180 184
167 184 161
139 158 153
154 170 148
157 175 161
173 189 191
172 191 161
181 199 204
162 179 161
150 171 144
147 165 135
160 179 165
156 177 125
164 184 144
146 166 102
155 171 169
161 180 183
158 173 161
164 180 177
162 179 148
173 192 161
163 182 144
135 155 125
139 155 125
166 186 177
145 161 148
153 171 161
164 184 169
152 172 144
157 177 169
167 184 144
157 173 153
166 185 161
135 150 125
117 139 125
163 182 184
151 169 153
116 138 102
126 146 88
132 153 169
141 159 153
144 164 88
155 177 125
133 152 72
166 186 161
143 163 125
148 162 153
151 171 144
137 155 125
146 167 102
128 150 144
131 151 169
103 124 123
102 121 131
112 127 115
87 107 129
86 107 32
126 142 135
62 77 63
90 111 153
134 151 147
131 149 123
91 110 127
109 125 131
100 115 125
32 53 82
89 102 47
80 97 92
20 33 31
93 110 99
50 58 31
200 215 214
36 57 93
53 83 108
40 67 51
55 88 125
50 81 137
51 82 111
57 90 130
53 86 125
53 85 140
59 93 114
57 89 108
52 83 120
57 90 57
55 88 99
55 89 111
62 97 140
55 88 111
55 88 95
57 90 128
60 93 114
60 93 99
61 96 140
58 92 140
59 93 125
59 93 111
55 87 114
59 92 128
61 94 140
60 95 128
58 93 114
60 96 151
56 89 99
57 91 125
54 85 111
57 89 128
60 93 140
59 94 128
55 87 114
60 94 151
58 91 128
58 91 99
63 98 151
55 87 95
55 88 99
56 88 140
56 91 114
62 97 140
55 88 114
60 95 140
53 84 80
57 91 128
61 96 128
57 91 128
62 96 128
58 92 99
60 93 128
56 89 114
61 96 140
56 90 114
56 88 99
58 90 140
62 96 128
55 88 114
60 94 130
62 95 130
56 88 99
63 96 142
49 78 80
59 93 130
61 95 140
61 94 128
59 91 114
50 77 80
53 85 114
56 89 141
59 91 140
58 91 128
59 93 151
53 85 80
59 94 140
53 82 114
58 91 99
60 95 161
58 89 130
54 86 128
60 93 130
57 91 80
56 89 114
56 87 117
55 86 80
54 84 100
59 92 161
54 86 128
50 75 84
59 92 133
60 94 151
46 75 62
54 84 99
55 88 118
39 60 72
38 59 67
79 93 86
167 173 162
95 94 36
24 30 11
67 68 8
81 81 44
65 74 47
109 109 45
66 66 45
102 100 63
67 76 39
119 118 76
112 112 68
149 141 72
83 91 63
127 126 44
101 97 58
147 142 72
161 155 88
114 114 45
134 128 72
128 124 67
121 119 76
130 130 77
124 122 57
153 149 95
140 139 84
136 131 62
166 159 95
125 127 80
115 113 25
100 103 57
133 130 72
166 159 89
166 160 80
138 137 57
154 150 80
129 127 57
135 134 77
140 134 63
135 130 76
142 137 51
166 158 80
132 127 51
141 138 77
150 147 70
146 141 62
159 153 80
168 160 95
156 154 67
162 155 84
142 139 84
159 156 83
155 149 72
173 166 80
163 153 92
142 141 72
153 148 51
151 149 76
160 155 88
143 142 72
159 154 84
156 149 62
153 145 72
151 149 76
155 147 76
160 155 88
171 163 87
165 159 80
148 145 36
174 168 95
150 144 62
171 162 88
160 156 70
145 142 72
148 145 67
156 153 70
132 133 51
172 163 102
175 169 95
143 140 62
159 155 67
165 158 84
157 152 79
171 165 88
173 167 88
163 157 72
160 155 87
170 164 80
158 155 72
159 154 80
156 152 72
177 170 95
179 165 88
160 154 80
168 164 80
170 161 80
171 164 95
170 164 102
166 161 62
172 164 80
168 161 88
161 156 62
172 163 80
163 158 80
175 166 95
172 164 95
181 170 102
188 177 108
174 167 88
172 166 88
159 153 76
156 150 62
168 162 88
168 163 80
165 162 88
169 164 80
173 166 80
178 170 95
172 166 88
162 155 88
145 142 72
175 169 95
174 167 88
172 166 80
171 165 80
163 159 62
167 160 72
181 172 95
172 168 95
180 171 95
173 166 88
177 169 88
166 158 72
179 171 95
171 166 88
177 169 88
171 165 80
177 169 88
154 153 72
178 170 95
175 168 88
171 165 80
174 160 88
167 163 80
169 160 88
179 170 88
167 162 72
156 155 72
162 159 62
177 195 177
166 185 177
175 193 177
171 191 161
178 197 191
176 194 161
165 186 144
160 179 161
173 192 161
174 193 177
175 193 161
165 184 161
163 184 125
179 196 204
177 196 191
167 183 125
160 182 125
170 189 144
177 196 191
173 193 177
172 189 177
182 199 191
171 190 161
179 196 177
181 196 217
167 188 144
182 199 191
177 195 177
169 189 144
165 185 177
172 190 144
167 185 125
172 189 161
171 191 161
156 177 125
174 190 161
180 197 204
164 183 161
164 185 125
166 185 169
165 184 161
175 193 161
182 200 204
177 196 191
159 179 125
175 193 161
160 177 102
162 181 144
164 180 169
159 177 148
174 193 191
164 180 161
165 183 191
165 188 161
173 193 177
161 176 144
151 170 135
169 188 161
171 188 165
153 174 125
147 167 72
163 184 169
166 185 161
179 197 191
170 189 161
163 181 144
151 169 161
163 184 125
162 181 161
154 172 144
157 175 138
165 182 177
168 189 161
179 195 161
177 192 165
172 192 177
161 179 153
156 174 144
173 191 191
168 188 144
172 189 177
173 191 177
154 174 114
150 165 114
145 164 153
132 150 133
148 163 107
169 189 161
170 191 177
154 172 161
165 183 144
159 177 169
166 185 125
167 185 177
138 154 32
149 170 125
168 187 198
155 173 125
150 168 153
164 183 161
171 191 177
144 162 114
162 183 161
142 159 144
161 179 191
174 193 177
157 176 170
160 177 177
157 177 169
162 183 169
142 161 151
163 184 184
141 159 102
156 173 135
155 172 144
135 156 161
148 168 172
168 185 177
131 151 135
111 130 112
140 161 144
136 154 135
157 173 153
136 153 125
121 142 112
154 173 156
129 149 177
141 160 114
103 121 112
116 131 102
133 149 114
117 138 133
112 133 114
149 169 102
128 145 94
103 119 102
142 164 151
86 102 88
112 131 112
124 143 123
68 91 104
92 110 68
102 119 75
93 107 77
70 85 100
57 70 38
28 46 55
74 89 72
212 225 242
46 74 125
43 69 84
59 93 147
49 78 97
45 73 80
39 63 80
58 91 137
48 78 80
51 81 108
56 88 111
61 95 163
61 97 149
62 96 165
55 85 99
50 81 80
50 81 80
61 95 128
54 84 80
59 92 135
62 97 151
51 82 114
61 95 151
60 94 128
60 95 151
59 93 149
58 90 140
56 89 99
57 91 120
58 92 128
60 96 151
56 88 128
59 94 140
57 91 128
59 92 147
59 93 140
57 90 128
64 100 161
61 96 128
61 97 151
63 98 151
63 98 140
63 99 161
59 93 99
60 95 128
58 92 99
55 86 99
60 95 128
57 90 128
58 92 140
61 96 140
62 98 151
50 82 99
58 94 128
60 95 128
60 95 161
56 90 99
61 95 142
58 89 114
60 94 151
58 93 128
60 96 140
59 93 114
59 93 114
63 97 140
61 96 140
56 90 114
59 92 114
57 91 114
60 95 114
62 97 140
60 93 128
63 100 171
48 78 99
53 85 114
62 95 128
61 94 128
59 91 130
63 99 161
56 87 128
60 95 140
58 91 128
60 95 128
61 96 128
64 99 161
60 92 117
50 79 80
53 84 99
64 99 163
56 87 129
47 75 100
50 78 100
57 88 114
53 83 115
57 85 103
54 84 121
55 86 140
54 85 103
60 92 120
47 70 70
58 92 128
55 85 117
147 162 181
212 225 242
75 75 11
78 77 11
82 77 2
63 70 38
38 47 37
97 98 45
60 67 28
78 84 53
89 90 11
61 65 28
77 86 44
108 110 63
127 128 72
134 128 72
135 132 58
103 104 64
125 123 44
131 132 63
109 109 68
147 143 76
133 130 72
101 104 52
133 134 80
139 135 67
136 135 57
137 134 73
146 142 62
121 121 76
130 129 51
156 147 88
136 134 72
167 160 72
174 166 95
152 145 72
151 147 85
120 119 51
144 140 72
157 151 73
140 137 57
152 146 51
166 156 72
139 138 58
168 163 72
141 136 67
154 150 67
132 129 76
145 140 62
154 151 80
148 143 73
156 152 80
152 148 75
160 155 72
144 142 62
159 155 72
154 152 87
155 152 57
165 161 72
126 122 57
176 167 95
166 158 92
151 147 62
153 147 60
177 169 88
163 158 80
177 170 102
149 141 62
165 155 88
166 159 62
164 158 92
173 164 80
160 151 80
157 149 80
170 162 88
164 157 62
184 175 108
167 162 95
174 166 80
168 160 80
159 153 72
172 167 88
168 163 95
179 170 88
171 163 88
170 165 80
169 160 88
162 154 80
173 164 88
156 153 67
170 163 72
170 164 72
164 158 72
169 163 72
172 165 72
153 147 36
170 163 88
164 157 72
178 171 102
166 159 72
166 162 72
172 167 95
156 151 80
169 161 72
178 171 102
166 160 80
156 151 87
164 159 80
170 164 80
167 160 80
169 162 88
182 172 95
170 164 80
154 152 62
176 171 108
173 166 88
179 172 102
179 170 88
170 164 72
174 167 88
176 169 95
177 170 95
169 159 80
178 169 88
169 163 72
172 164 72
172 166 80
166 159 62
167 159 72
177 170 95
171 164 95
155 153 72
164 155 95
166 156 72
172 164 88
174 168 95
155 151 51
170 165 80
176 165 95
176 168 88
178 171 102
177 171 102
172 163 88
160 158 62
170 164 80
170 162 80
165 161 72
177 168 95
154 148 62
174 167 88
167 188 144
158 179 177
176 192 191
171 188 144
169 186 144
174 194 191
174 192 191
166 186 125
182 200 204
172 192 177
177 196 191
178 196 177
170 186 144
168 189 161
168 189 161
175 195 191
169 188 177
160 181 125
174 192 177
162 178 161
171 191 161
178 192 165
172 188 161
153 174 144
186 202 204
176 195 177
156 174 125
171 191 211
181 199 204
164 183 144
167 188 144
158 176 102
148 169 125
151 171 144
175 193 161
173 190 191
174 193 177
173 193 177
175 195 204
168 186 144
176 194 177
178 195 177
158 175 144
172 190 144
170 189 191
169 188 144
154 173 135
176 195 177
168 188 161
149 167 144
155 171 129
165 179 144
173 189 211
169 190 161
182 201 217
152 170 135
179 197 191
146 168 125
170 190 161
167 187 144
157 176 161
179 196 191
172 191 161
183 200 204
166 187 144
163 179 144
154 173 125
159 181 102
175 193 161
156 174 161
183 199 207
142 158 153
174 188 144
166 184 177
165 187 191
150 169 125
168 186 161
169 191 177
162 184 177
168 187 161
156 179 161
142 160 125
166 183 177
138 157 114
171 187 177
158 174 129
175 192 177
166 185 169
156 175 161
157 177 135
167 189 177
164 183 144
155 177 184
151 171 125
162 177 129
173 192 217
160 180 135
167 184 177
160 177 161
165 183 169
156 176 125
151 168 144
137 157 114
151 170 135
166 183 191
134 153 144
172 189 161
142 163 184
126 144 102
157 174 144
167 188 177
136 148 102
174 191 191
146 166 144
150 167 144
145 163 169
166 186 161
124 145 160
129 146 153
124 144 144
174 192 161
137 155 156
120 141 125
141 160 125
139 157 144
108 125 142
150 168 144
127 147 139
137 157 161
152 175 125
109 129 99
132 147 168
128 148 107
115 134 133
134 154 135
131 147 160
103 121 135
77 97 94
110 129 102
74 92 28
65 87 94
71 86 87
63 81 86
28 45 34
73 92 72
58 75 0
62 72 86
66 80 78
224 237 255
51 81 113
44 73 105
56 88 95
47 77 95
49 77 135
52 83 80
58 93 144
59 93 114
52 84 114
55 87 111
53 83 90
60 95 140
54 85 102
51 82 99
53 84 99
61 95 128
61 95 140
58 91 99
56 89 128
62 97 140
60 94 137
60 96 140
61 96 140
59 94 128
52 84 111
63 97 161
55 88 80
62 97 149
57 89 114
50 81 57
64 99 159
60 94 128
61 97 151
58 93 128
56 90 128
59 95 140
59 93 151
54 87 80
62 97 140
59 95 140
58 92 128
60 93 128
60 95 151
62 96 128
60 95 140
57 90 111
58 93 114
55 86 99
57 92 114
60 93 128
54 86 99
54 87 80
62 96 128
59 94 128
55 89 114
46 73 80
62 97 140
61 95 151
57 92 140
60 94 114
61 93 130
61 97 140
55 87 114
62 98 151
54 87 99
60 95 128
65 101 161
56 90 128
58 91 140
60 93 140
51 79 99
55 87 114
61 97 140
56 89 117
56 85 117
59 91 128
61 95 151
59 92 128
60 94 140
57 91 99
62 96 151
54 86 114
58 90 128
62 95 142
54 85 99
48 74 88
56 89 128
56 86 102
58 91 140
51 81 80
51 80 105
58 90 130
59 89 102
51 79 80
54 84 115
51 80 102
52 84 99
49 75 84
54 82 67
47 72 88
47 72 84
163 177 191
216 228 242
79 73 36
59 62 2
51 55 0
51 55 11
105 105 36
76 77 25
65 70 36
80 85 38
59 68 45
105 104 57
99 99 37
120 116 51
87 93 62
107 109 51
128 123 57
120 119 25
147 140 67
120 119 58
137 136 72
137 134 73
109 108 26
149 144 82
121 121 52
137 135 53
118 115 57
124 123 51
150 143 84
138 134 62
76 80 28
143 138 73
133 133 72
167 159 72
149 145 81
143 138 80
148 141 67
124 118 51
159 154 72
161 155 80
157 152 75
160 154 88
155 151 84
163 158 81
183 174 108
170 163 88
162 157 80
166 155 79
159 158 72
161 153 101
143 137 72
167 162 72
142 142 36
148 146 57
132 130 76
158 153 88
169 162 95
171 161 72
152 148 84
175 168 95
173 164 80
152 148 67
160 154 94
173 167 94
173 167 88
163 157 73
162 154 95
166 161 88
168 159 92
152 149 72
153 150 62
149 141 67
159 154 80
150 148 72
160 155 72
166 159 80
155 151 80
160 158 72
149 145 62
164 160 88
158 155 62
169 163 95
182 173 102
170 162 62
172 164 95
175 168 88
178 171 102
181 172 95
163 158 72
162 158 51
146 142 80
176 168 88
156 154 72
174 168 95
172 164 95
180 170 88
158 152 70
160 158 70
155 150 62
183 174 102
173 166 80
176 169 95
167 159 80
170 163 88
160 155 95
162 158 76
169 161 72
171 165 80
162 158 80
164 159 80
166 160 80
156 150 51
161 157 80
173 166 80
169 162 88
172 165 80
161 155 66
166 163 80
184 174 102
158 151 51
179 170 88
169 164 80
173 166 88
165 159 72
166 161 62
178 168 88
184 174 102
166 159 72
172 166 80
179 171 95
169 158 72
179 170 88
179 171 95
177 168 95
171 163 80
159 155 62
181 172 95
180 171 95
165 160 80
163 157 80
161 153 62
180 171 95
170 161 51
176 165 95
172 166 80
172 166 80
168 163 72
167 159 62
168 163 72
171 163 80
170 190 161
173 190 191
169 190 161
180 199 204
165 184 148
164 185 177
158 178 125
169 190 161
174 190 191
175 194 177
168 188 144
169 188 161
172 190 204
161 180 125
168 187 177
160 179 125
182 199 191
164 186 144
171 186 161
164 186 144
174 194 177
166 187 144
177 195 204
172 192 177
171 191 161
157 176 144
175 190 165
180 199 204
173 191 144
179 196 177
161 178 125
164 185 125
168 189 161
170 186 184
164 184 144
173 193 177
171 186 148
158 181 144
159 175 144
170 189 191
162 181 144
181 197 177
164 184 125
159 178 125
175 194 177
164 184 144
171 188 144
170 188 177
166 184 161
155 173 125
158 175 144
153 174 153
173 192 191
174 193 177
168 181 177
163 184 125
165 185 125
172 191 161
168 185 161
171 190 161
156 178 144
140 156 102
171 189 191
166 187 191
148 167 139
168 189 161
171 189 144
157 176 125
160 179 144
159 177 144
155 175 125
162 182 161
178 197 191
158 178 144
168 187 144
173 192 161
152 172 153
150 170 72
149 170 144
166 188 177
172 192 177
156 173 144
148 171 135
169 188 144
178 195 177
165 185 125
151 166 107
179 196 177
168 189 177
168 186 177
160 181 153
146 166 102
160 177 161
158 177 169
167 185 168
166 183 177
172 189 177
165 185 169
158 176 190
164 180 177
176 193 177
163 175 148
163 184 177
159 179 177
166 187 191
140 161 183
133 153 104
119 133 125
143 163 135
141 161 177
151 173 177
165 184 177
160 179 180
151 168 161
148 165 144
146 166 153
113 131 123
136 150 102
106 124 99
154 173 135
137 156 144
136 154 102
140 156 153
117 135 88
150 170 174
135 154 139
145 163 127
152 163 168
139 156 153
153 171 169
124 147 158
110 123 79
135 151 129
104 120 72
128 145 104
117 135 112
119 138 114
116 135 123
38 61 18
132 148 125
114 129 106
106 122 0
90 105 93
85 103 104
91 102 73
33 54 8
66 75 43
124 137 116
212 227 214
179 197 165
48 77 114
56 90 80
47 75 84
55 87 135
53 84 125
54 87 147
49 80 59
56 89 114
59 94 114
54 87 111
58 90 128
55 87 80
58 92 149
55 88 104
60 93 128
59 92 137
56 90 125
53 85 125
55 87 80
58 91 114
57 92 128
61 95 140
61 95 147
54 85 111
60 95 149
56 89 114
62 98 159
58 90 140
58 92 128
59 94 151
50 81 114
57 91 128
57 91 128
59 94 125
56 90 114
57 90 114
57 90 140
61 94 128
58 92 114
60 95 140
58 92 114
60 94 114
56 90 99
60 95 128
56 87 128
57 91 80
57 91 128
61 95 114
60 93 151
62 97 140
63 98 151
59 93 128
60 95 128
59 92 161
59 94 114
53 86 114
63 98 161
57 91 114
58 92 99
59 92 140
57 90 114
52 84 99
58 91 128
64 100 161
60 95 128
57 91 80
59 92 114
60 93 102
59 92 114
59 94 128
57 90 117
64 100 161
62 96 114
57 91 128
57 91 151
59 92 102
61 95 140
53 85 84
57 90 117
59 93 128
56 89 130
57 90 117
59 94 151
62 98 151
57 89 102
60 96 151
60 91 122
52 81 102
56 89 114
62 96 153
53 81 67
56 87 128
60 93 128
51 78 62
50 76 84
53 81 128
57 86 117
56 81 111
53 81 84
54 82 102
162 174 189
220 234 242
47 52 0
52 56 0
56 56 3
105 103 57
65 73 36
94 94 25
121 120 52
56 62 11
131 127 76
79 80 52
108 105 36
111 108 64
64 76 37
105 106 72
72 76 44
126 123 36
99 99 51
138 132 81
149 147 62
121 121 67
148 143 51
154 146 93
137 134 89
161 155 88
144 139 62
115 114 57
129 128 80
156 151 102
145 141 72
152 150 76
149 145 76
133 132 67
129 127 72
143 140 85
141 138 87
157 154 72
146 141 72
118 116 52
157 153 62
144 141 79
175 169 95
171 164 95
159 154 88
127 124 67
145 141 84
150 149 76
162 155 62
144 141 57
150 144 76
154 149 72
153 146 70
160 155 105
159 156 83
160 157 80
172 164 88
169 161 80
164 155 89
175 169 95
154 150 80
164 159 80
155 148 62
167 161 88
153 146 76
151 146 70
156 153 76
169 162 88
162 157 80
148 143 67
151 148 67
164 158 62
156 151 80
172 164 96
161 156 62
185 175 108
161 157 99
161 153 80
168 162 88
176 170 102
168 163 88
169 163 95
167 163 80
157 153 51
161 152 84
167 162 92
163 154 72
166 160 88
147 144 67
158 153 62
158 153 80
173 166 88
175 168 99
143 137 72
167 163 80
163 151 84
137 135 62
173 168 95
166 160 70
152 147 62
153 150 62
171 162 88
172 167 88
153 147 72
164 158 76
163 160 70
172 163 80
164 157 72
159 155 51
172 165 95
183 172 95
180 172 102
169 162 84
167 160 72
170 161 72
159 156 76
171 165 80
165 160 80
178 171 102
166 162 72
161 158 62
171 165 95
148 142 62
168 161 88
168 164 80
160 152 62
171 165 102
176 169 95
166 157 72
158 153 62
167 160 80
164 159 72
177 170 95
172 165 80
168 162 62
176 169 95
174 165 88
163 158 80
165 156 80
166 163 80
184 174 102
168 163 72
172 167 88
176 167 95
161 152 62
169 160 72
176 169 95
177 170 95
171 165 80
163 155 51
153 171 102
178 194 191
176 193 161
179 197 191
172 191 177
154 173 144
173 192 161
165 186 144
168 188 144
175 193 161
170 188 144
170 190 161
182 200 204
183 201 204
168 187 177
151 172 72
172 192 191
170 190 161
166 185 161
170 189 144
168 188 144
173 193 177
165 185 125
170 191 177
163 184 125
172 189 161
165 185 144
168 184 180
179 197 191
152 171 0
171 185 177
172 192 177
151 172 144
166 185 148
169 190 161
177 195 177
175 194 177
168 186 191
186 203 217
164 181 161
170 187 161
174 193 177
173 190 191
173 193 177
162 178 144
168 188 144
175 195 191
156 174 162
159 179 144
170 188 161
165 185 177
168 182 161
177 195 177
160 178 102
171 185 165
159 178 125
141 157 148
171 191 161
174 193 177
158 178 144
173 192 161
167 185 177
177 194 161
168 185 191
160 181 144
154 175 102
156 175 177
157 176 125
161 179 184
168 187 177
156 175 125
167 186 144
165 184 161
170 188 144
149 170 125
167 187 191
167 185 161
169 185 148
152 172 144
156 178 144
168 186 177
167 185 187
160 178 153
164 184 144
160 181 153
141 155 135
172 188 177
136 154 133
181 199 204
150 170 133
163 181 183
158 179 144
174 188 180
176 195 177
146 167 114
162 183 177
168 186 161
158 175 79
156 175 161
143 157 144
112 132 142
152 170 144
147 164 125
160 179 144
160 177 180
153 173 144
158 177 161
153 173 161
129 149 144
162 179 180
154 175 161
128 147 114
124 142 169
137 156 144
151 169 194
143 161 102
144 162 174
160 175 172
129 143 153
144 164 107
76 99 88
132 150 125
114 136 133
139 155 114
68 90 94
124 142 102
113 131 102
129 147 112
124 140 142
103 121 94
117 135 112
126 145 94
135 153 125
109 127 144
105 124 106
112 128 147
123 146 85
119 137 125
108 128 114
103 120 72
99 116 85
60 74 71
88 110 79
55 71 56
57 68 28
83 98 55
31 51 32
127 147 55
174 198 0
171 191 36
38 63 99
45 73 67
44 71 0
56 88 122
51 80 108
62 96 149
48 77 99
56 88 111
54 86 99
62 96 140
59 95 137
53 86 76
56 90 114
55 87 80
54 87 51
57 93 114
61 95 125
59 94 114
53 85 57
62 95 128
55 88 114
61 95 151
56 90 111
58 92 140
58 93 140
60 94 114
60 95 140
60 93 80
51 81 114
60 95 128
61 95 128
56 89 128
58 92 99
58 92 140
60 93 128
60 95 128
55 87 128
57 88 128
60 94 151
56 87 99
51 81 99
54 87 125
57 90 114
59 94 128
58 91 80
61 95 161
62 96 151
58 92 140
61 96 140
64 98 151
61 96 161
58 92 140
61 96 128
60 94 114
59 94 128
60 95 128
60 95 114
58 93 114
61 96 128
61 95 151
61 96 140
54 86 114
59 91 128
60 95 140
59 93 151
61 96 128
51 80 80
57 88 130
62 96 151
55 87 128
56 87 114
63 96 142
62 96 151
54 85 80
58 91 114
61 95 142
59 93 140
56 87 80
59 93 99
55 87 99
61 94 128
57 90 80
62 98 151
59 94 114
58 92 128
62 97 151
56 88 128
61 96 128
51 81 99
58 92 140
58 89 117
54 86 80
54 79 88
51 77 92
55 87 99
52 83 114
53 84 103
46 71 86
51 80 99
43 65 100
184 203 0
177 199 0
129 146 0
90 88 0
57 61 0
63 66 44
59 64 26
70 71 45
115 114 57
27 36 11
77 80 3
111 111 44
132 129 80
138 137 51
152 146 80
157 150 72
117 117 58
152 147 84
95 97 36
122 117 57
112 113 44
127 123 62
146 139 73
115 115 36
110 106 36
109 112 45
164 159 84
133 131 67
160 155 92
139 137 52
158 152 76
142 140 62
159 153 61
160 154 80
143 142 76
142 137 76
158 152 80
174 164 88
177 169 88
160 154 81
143 138 57
158 153 80
158 153 80
141 139 51
149 143 81
141 139 51
150 147 67
162 156 80
160 151 94
151 147 80
150 145 62
172 166 95
163 158 80
161 156 80
168 158 80
149 147 57
171 164 95
162 155 80
153 152 67
147 142 62
164 159 88
160 155 72
151 146 72
155 153 62
159 155 72
162 156 72
170 162 80
151 148 83
172 164 72
164 159 80
142 140 62
172 164 88
168 162 92
139 137 51
168 160 88
157 152 62
185 174 107
159 154 83
164 159 87
155 153 67
164 158 72
158 153 80
161 154 88
160 153 80
174 169 102
140 137 83
171 166 88
157 150 51
163 156 62
157 149 72
153 149 67
161 155 62
155 150 72
168 163 72
157 153 72
157 148 51
176 168 88
163 158 72
130 126 0
176 167 80
172 164 72
170 166 88
166 161 62
160 154 72
164 158 76
164 161 80
166 161 72
169 163 79
179 171 95
177 169 88
176 166 88
158 152 76
179 172 102
165 162 80
171 162 72
152 150 51
172 165 72
173 168 95
163 158 51
169 165 88
170 166 88
163 158 72
162 157 80
175 167 80
162 156 72
172 164 88
171 165 80
160 156 72
159 153 62
171 164 80
150 147 51
179 170 95
180 171 95
186 175 102
169 163 72
165 160 62
163 160 72
173 167 94
175 168 88
167 162 72
167 163 80
145 137 72
179 167 88
155 153 72
160 153 72
176 166 88
159 152 62
171 164 72
174 167 80
178 170 95
173 193 177
172 190 144
169 189 161
174 190 144
177 195 177
157 174 125
179 196 177
180 198 191
157 174 144
174 193 191
174 190 161
174 194 177
175 194 177
157 174 107
172 191 161
167 188 144
166 185 144
170 191 177
162 180 135
173 191 191
146 164 102
165 186 161
169 188 144
164 185 177
150 172 125
158 178 144
166 184 177
163 182 102
172 190 161
167 184 144
163 183 125
161 180 161
177 196 191
163 184 144
165 187 177
167 185 184
165 184 161
176 191 165
171 190 161
156 176 102
171 190 177
162 179 102
167 183 144
163 182 144
168 188 161
162 183 144
162 181 144
169 184 129
157 173 148
160 180 135
150 171 125
163 182 161
165 185 125
177 194 204
161 180 153
175 193 161
176 194 177
166 184 125
167 185 169
179 195 161
186 202 204
170 190 161
175 194 177
176 194 177
182 198 191
166 188 161
151 166 129
160 176 129
163 180 177
151 171 125
164 182 177
160 180 144
155 174 161
163 185 161
172 192 177
158 172 32
168 187 144
157 174 125
171 191 161
167 185 161
171 187 144
155 171 184
162 180 169
169 190 161
169 188 191
178 196 223
160 181 144
136 155 135
162 180 184
163 181 144
161 180 135
170 190 161
166 188 161
153 171 144
153 170 135
164 184 161
165 182 184
158 176 161
161 181 125
165 181 177
157 175 125
163 183 177
136 154 99
157 176 161
153 173 144
158 178 135
166 184 153
152 171 125
157 177 133
149 167 125
154 169 139
113 136 135
151 170 135
126 145 142
132 150 135
160 179 144
160 179 125
133 146 114
142 158 153
135 155 102
151 168 153
158 177 177
154 171 160
129 148 135
143 159 153
110 129 114
120 139 118
120 135 114
102 118 116
130 149 88
116 132 90
128 150 144
138 155 151
81 102 88
111 127 102
108 128 129
106 123 72
118 135 102
79 101 109
116 133 137
77 92 18
33 55 87
66 78 57
55 68 45
71 86 94
28 47 18
26 44 57
160 181 12
168 195 0
175 198 0
74 99 113
48 76 80
44 72 67
52 82 102
50 80 114
54 86 140
55 86 133
56 90 128
55 87 135
56 87 111
53 83 114
58 91 125
53 85 114
60 93 128
57 89 111
51 84 57
59 91 128
58 89 128
61 96 128
56 88 99
53 85 135
53 84 99
62 97 149
54 87 99
60 94 128
59 93 114
63 97 161
59 93 99
57 90 99
60 94 114
58 91 125
59 92 128
57 88 99
59 94 125
59 93 140
59 94 114
58 91 128
59 91 140
59 95 140
61 96 128
55 87 114
57 91 114
58 92 128
62 97 140
61 96 140
59 93 128
55 87 80
60 93 128
57 90 114
59 93 128
53 84 99
57 89 117
63 99 151
62 98 151
60 93 140
60 95 128
57 90 128
60 95 128
61 95 140
63 98 140
53 85 57
58 93 99
57 89 102
62 98 151
56 89 99
58 91 114
60 94 140
60 94 130
59 94 114
58 90 128
60 96 140
54 84 128
61 96 140
59 94 130
53 84 114
59 94 114
56 89 114
60 95 128
60 95 151
60 93 141
60 92 130
58 92 114
53 82 84
57 88 130
59 94 140
53 83 80
57 90 114
57 91 128
57 88 128
57 89 117
52 77 67
56 87 114
59 92 128
57 90 114
57 90 140
52 82 102
55 87 99
43 66 60
46 70 62
48 71 63
163 188 0
176 199 0
142 160 28
84 82 2
26 31 11
55 52 25
93 89 36
84 85 46
66 72 37
96 97 2
56 61 12
60 66 28
84 85 37
85 85 38
109 106 36
122 118 51
90 93 58
111 112 45
153 145 63
107 109 44
121 118 62
81 85 45
151 149 84
145 141 74
104 106 16
133 130 76
113 114 67
118 119 77
128 127 72
148 142 62
125 126 62
160 155 72
159 151 67
135 134 62
138 136 51
161 155 84
145 136 72
119 116 46
158 152 80
132 131 58
164 156 80
151 146 85
157 152 80
164 158 88
139 138 57
161 159 62
140 137 62
158 155 72
130 127 67
150 144 76
152 146 72
160 157 80
141 141 57
147 145 80
159 155 95
160 154 88
176 165 80
162 155 92
164 157 88
164 158 80
162 156 88
174 167 88
152 149 62
136 136 76
177 169 94
132 129 63
159 155 72
139 138 36
143 140 57
164 160 62
175 170 102
166 155 88
157 147 72
165 161 92
161 159 62
149 148 51
171 165 105
172 164 92
169 163 72
165 159 62
152 149 80
169 162 80
167 159 62
162 157 72
186 175 102
177 166 88
169 162 88
166 157 92
159 155 62
167 160 72
160 152 51
166 161 92
153 147 51
156 150 72
148 145 51
165 159 79
163 157 62
163 160 62
167 161 72
167 163 80
165 160 84
161 158 80
175 167 80
163 156 72
158 155 72
176 168 94
167 160 80
156 151 0
165 156 80
145 143 51
176 164 95
157 153 88
159 152 51
170 165 80
173 165 88
157 151 62
174 164 87
169 161 80
160 154 51
177 168 80
177 168 102
162 155 80
170 161 72
172 166 88
162 158 62
168 162 62
171 166 88
170 165 80
154 150 62
165 159 72
177 167 95
170 164 72
171 164 72
175 166 95
170 164 72
171 165 88
161 158 80
173 167 88
171 165 80
160 153 72
171 164 95
170 164 80
177 169 88
172 165 80
159 156 80
164 159 80
179 171 95
152 147 51
167 158 72
164 158 80
153 174 125
171 189 161
167 188 161
164 183 102
172 191 161
168 187 125
166 183 144
163 182 125
164 182 144
180 195 191
170 189 144
177 195 177
166 187 144
163 185 177
165 186 144
175 195 191
173 192 161
161 180 144
177 195 177
160 182 144
159 178 144
160 182 144
168 186 144
162 182 177
163 182 161
145 165 125
164 186 144
176 193 177
172 188 169
169 185 177
170 189 161
159 179 144
164 187 161
156 175 144
163 182 161
158 176 125
157 174 161
172 190 161
169 187 144
164 183 144
171 190 144
160 181 102
173 192 191
163 181 144
176 192 191
160 180 72
154 168 144
154 172 125
166 186 125
163 183 144
176 190 191
168 188 161
174 193 177
156 174 125
142 161 102
165 185 144
176 193 161
159 179 144
146 164 125
178 197 204
158 178 125
168 189 161
174 193 177
173 193 177
170 190 161
162 171 165
176 194 177
164 183 177
154 174 102
170 189 144
161 178 148
171 189 191
166 185 177
168 187 184
158 176 144
169 186 161
171 189 177
164 183 169
155 173 161
159 182 125
159 175 129
167 185 144
174 193 177
146 165 102
139 155 125
151 170 128
147 163 144
149 168 102
141 158 125
148 166 153
137 155 135
170 188 161
161 179 169
163 181 144
157 176 161
138 156 125
170 184 144
165 183 144
155 175 125
164 185 184
118 134 118
149 161 135
141 159 125
143 163 88
141 161 114
131 149 151
165 178 161
151 169 144
151 172 102
170 191 177
143 163 144
147 168 144
161 179 177
146 165 153
143 161 125
164 178 198
172 190 191
159 174 144
146 165 112
132 151 114
161 179 177
119 138 99
105 124 91
164 180 191
129 149 106
126 144 114
142 162 125
131 148 135
146 163 125
97 115 114
129 140 144
114 134 135
97 113 72
41 65 72
111 135 85
128 145 148
75 95 86
85 103 114
120 134 144
91 111 88
78 92 12
86 103 72
83 104 68
66 76 72
57 70 0
79 90 0
108 123 75
171 196 0
172 196 0
171 196 0
116 137 57
53 83 95
50 80 57
58 91 125
48 76 80
56 90 120
57 89 122
54 87 80
53 85 118
55 87 111
60 93 151
54 86 128
54 87 114
60 94 140
52 83 95
59 92 128
51 83 99
51 80 99
57 90 114
50 81 105
62 97 149
56 89 57
60 95 128
62 97 151
59 91 140
53 84 51
52 82 114
58 93 114
59 95 140
56 88 111
59 92 114
56 90 99
58 93 128
59 94 114
59 92 114
61 96 140
59 94 128
55 88 99
56 89 114
60 95 128
56 90 114
62 96 140
56 88 128
64 100 171
57 90 99
54 88 99
59 90 114
60 93 128
60 95 128
60 93 128
53 86 57
61 96 140
60 94 128
54 86 114
59 92 140
58 92 114
58 90 128
55 87 114
51 80 57
55 89 114
57 91 114
57 88 114
56 87 101
60 95 140
54 86 57
56 90 99
58 91 99
60 95 128
52 83 114
53 83 62
59 94 114
57 91 128
55 86 128
59 94 128
51 82 114
60 93 99
54 86 99
58 90 114
56 86 84
56 88 117
58 92 128
60 93 128
58 90 114
59 94 128
55 86 140
60 94 128
53 85 99
57 88 117
59 91 117
49 74 18
59 92 114
54 83 117
54 85 99
48 76 65
46 73 62
45 70 31
51 78 99
51 78 67
41 63 64
68 89 25
173 197 0
174 197 0
178 200 0
103 104 0
63 69 25
82 82 37
88 86 25
88 87 0
103 103 57
72 77 25
109 106 57
100 99 36
48 64 51
103 104 51
132 126 36
80 85 37
123 122 36
94 97 36
61 70 11
122 112 52
128 121 63
138 134 76
139 137 44
139 138 76
146 137 76
128 125 62
136 128 62
88 91 45
91 91 11
122 121 63
143 139 76
164 156 76
148 141 36
151 147 85
152 145 84
146 142 80
135 132 51
157 151 80
139 134 58
162 158 62
168 162 88
156 152 80
173 167 95
143 142 44
137 133 62
153 150 83
162 155 62
153 145 88
168 160 92
166 158 84
150 143 51
171 165 87
174 168 95
149 147 95
161 154 67
166 161 62
160 155 62
156 152 80
174 167 88
141 137 76
171 163 80
172 163 80
176 167 101
139 137 67
148 146 62
160 155 62
163 156 70
171 160 70
129 126 51
158 152 67
167 160 80
164 160 72
162 156 62
164 157 88
150 148 36
166 160 80
163 159 80
179 168 88
162 155 80
158 154 72
150 145 62
153 149 51
159 156 80
167 161 88
155 148 51
170 162 62
167 160 80
156 149 64
175 168 88
169 162 88
170 158 79
186 176 108
161 157 76
165 160 62
167 161 72
168 161 62
166 160 80
169 163 72
164 156 51
173 164 88
173 166 80
177 170 95
155 147 51
160 156 72
166 160 88
159 151 62
164 159 51
179 171 95
163 158 72
175 167 80
169 164 80
167 162 72
177 169 95
160 152 72
169 164 88
161 157 51
166 158 72
151 144 62
164 161 72
169 163 95
174 167 88
161 152 80
170 164 72
170 165 80
167 162 79
173 166 80
172 166 88
180 172 102
176 168 88
174 166 80
164 159 80
164 158 80
164 160 62
170 162 80
163 157 62
169 162 88
163 159 80
154 152 51
168 162 88
156 152 62
168 161 80
177 168 80
170 162 80
174 167 88
167 162 72
177 169 95
175 167 80
175 169 95
164 159 51
157 154 51
173 190 161
171 188 177
172 191 161
168 186 144
160 177 161
165 186 144
169 188 161
173 193 177
160 181 163
168 186 144
169 188 144
168 187 161
164 185 125
166 184 144
159 178 144
151 173 72
168 186 177
173 193 177
180 199 204
164 184 102
161 181 125
171 190 161
158 174 144
173 192 161
172 192 177
165 185 125
177 195 177
171 192 177
165 186 144
168 189 161
174 192 161
172 191 161
169 187 177
166 182 165
158 179 144
166 184 125
160 180 144
161 179 161
162 181 125
171 190 161
163 182 144
186 203 217
174 191 180
163 182 161
181 195 180
169 188 144
164 185 125
149 167 144
153 173 114
158 179 144
148 164 107
167 188 161
178 196 191
163 179 161
165 185 169
161 180 180
168 185 144
163 182 161
159 176 161
159 179 125
145 165 102
170 189 144
176 194 177
173 193 177
158 176 144
162 184 161
164 183 161
155 174 161
171 189 144
151 170 125
164 178 161
168 184 144
159 182 125
158 173 107
149 164 107
175 193 177
146 164 153
156 173 144
162 182 144
142 159 72
150 166 153
179 196 191
156 173 129
161 182 125
125 142 114
168 186 169
149 169 114
150 169 169
171 190 161
141 162 72
162 177 191
167 187 144
152 172 135
147 165 161
145 166 125
138 153 72
142 161 144
143 162 161
155 177 135
147 164 144
157 173 153
151 167 165
167 188 161
165 182 169
165 183 165
153 171 125
165 183 161
172 188 180
127 148 125
132 152 114
142 163 85
124 145 88
143 163 144
155 173 161
136 156 153
162 183 177
149 166 144
153 172 153
144 160 144
100 115 88
126 144 51
160 180 144
129 147 135
147 166 135
149 166 161
104 121 112
122 140 114
104 119 75
123 140 142
98 117 107
100 119 51
100 120 55
125 146 133
104 123 88
110 127 88
124 139 114
109 125 72
106 124 88
86 104 51
133 145 133
115 132 112
65 82 79
86 97 79
63 78 79
76 89 0
95 112 72
122 143 51
171 196 0
175 198 0
179 200 0
155 179 0
41 64 84
53 83 108
48 75 114
51 79 114
52 83 76
56 89 114
54 84 118
56 89 125
56 88 137
57 89 125
57 91 111
53 85 80
52 83 80
62 96 128
54 86 80
51 82 80
53 82 128
58 91 114
61 95 128
57 90 125
57 90 114
60 94 128
53 85 99
60 94 128
56 89 111
63 98 151
59 92 128
63 98 151
57 90 114
54 86 114
61 96 140
61 95 140
56 89 99
56 89 99
60 94 114
64 99 151
60 93 128
62 97 140
55 86 128
60 94 140
52 83 114
59 92 128
56 89 128
51 81 99
59 94 137
62 96 137
56 89 99
63 99 161
58 92 128
59 93 114
58 92 99
58 92 151
61 94 140
57 92 99
55 87 99
58 91 128
58 91 114
60 94 114
62 97 151
62 95 128
62 98 151
58 92 114
63 98 140
58 91 130
57 92 140
55 88 99
55 87 128
59 92 114
57 90 114
61 96 128
60 95 128
56 88 99
56 88 128
59 93 140
57 90 114
53 84 80
59 92 114
56 89 114
58 91 114
54 87 114
60 93 140
54 86 99
59 92 128
52 80 80
52 82 84
56 86 128
58 91 114
53 83 84
58 90 114
53 85 115
44 68 60
42 64 57
42 67 60
49 75 99
48 69 92
42 64 62
47 71 84
46 71 99
128 145 0
178 200 0
173 197 0
176 199 0
120 126 37
53 57 0
60 67 8
55 61 11
79 78 3
106 106 45
79 81 36
116 114 67
102 99 28
116 110 52
82 85 57
118 110 37
121 122 67
131 128 52
118 114 63
114 111 57
105 105 62
118 116 62
153 148 80
139 132 84
124 122 63
132 130 58
161 155 84
158 151 72
143 141 51
117 118 68
160 151 92
160 154 62
143 139 62
140 137 51
149 146 62
136 133 67
135 126 51
127 126 68
133 129 36
141 139 72
149 145 81
150 145 76
154 150 59
147 143 72
162 156 62
167 161 88
164 160 88
132 129 61
154 150 72
153 151 80
177 168 108
129 126 72
155 146 72
175 166 79
172 165 80
172 165 80
158 153 88
153 148 84
147 142 72
168 161 88
172 165 80
158 153 72
170 162 80
174 166 88
168 163 72
163 157 72
159 154 84
146 145 62
154 151 80
159 154 88
166 159 80
158 154 62
148 143 79
149 144 76
160 152 62
176 168 88
172 163 88
159 154 70
158 155 60
178 170 95
174 168 95
163 156 92
145 143 72
158 155 72
172 163 80
152 147 62
150 144 62
174 166 88
170 164 72
170 163 88
167 159 80
170 164 80
173 165 96
167 162 72
164 160 62
174 166 95
173 168 95
147 146 0
162 157 72
145 145 57
170 165 87
170 164 72
169 164 80
170 163 88
165 158 72
168 160 80
149 145 36
151 147 62
166 159 80
173 168 95
161 154 70
155 149 62
154 143 62
159 155 67
168 164 80
182 173 102
145 142 62
162 154 72
178 170 101
160 155 62
166 158 72
160 154 51
180 171 95
165 162 80
166 162 72
168 165 88
167 160 72
174 166 80
175 168 88
176 168 88
169 163 95
166 161 95
161 154 72
165 159 51
172 167 95
155 152 51
179 170 95
161 156 62
170 164 80
174 166 80
170 163 72
166 158 62
155 154 80
161 152 62
171 162 72
162 156 51
164 158 80
159 151 51
175 167 80
175 169 95
166 158 62
163 183 102
168 187 177
168 188 144
169 188 177
142 162 72
174 192 177
176 193 204
178 198 204
169 186 161
164 183 161
163 185 144
175 194 177
188 204 217
159 176 144
167 186 125
177 195 177
156 178 102
167 184 144
161 178 125
175 192 191
171 188 177
165 185 161
174 194 177
154 174 72
169 185 180
166 183 161
157 177 144
163 183 144
168 188 177
164 182 102
179 197 191
145 164 72
180 196 177
169 188 144
176 195 177
171 192 177
171 189 191
166 185 177
171 190 161
157 175 125
175 194 177
170 189 161
173 192 177
170 188 177
141 161 0
166 187 144
160 178 148
169 186 161
177 193 177
178 195 191
154 171 144
170 190 161
175 192 177
175 194 177
171 190 177
160 177 144
168 188 144
175 194 177
163 181 125
148 167 125
163 180 125
165 184 161
173 193 177
158 176 102
152 169 102
159 179 144
160 178 161
173 189 177
170 190 161
158 174 144
175 194 177
147 167 160
184 200 191
169 188 191
152 174 133
169 191 177
169 187 161
168 186 177
152 173 102
172 191 161
173 189 169
166 182 161
171 185 165
156 176 161
157 176 161
159 177 148
151 171 102
143 161 72
144 160 135
154 173 184
155 173 177
163 180 161
178 196 177
159 177 144
159 179 144
134 151 112
162 183 169
141 160 114
163 179 161
129 147 135
165 186 191
146 159 156
153 171 184
156 175 144
154 176 125
134 151 102
143 164 135
148 165 125
160 179 144
138 155 135
141 158 128
122 141 88
167 187 184
121 136 121
166 183 144
147 161 144
163 182 153
154 174 144
123 139 114
152 167 144
127 147 114
117 136 88
122 140 112
109 126 85
105 123 135
122 140 125
138 159 161
154 169 168
116 132 114
124 141 135
130 150 99
98 121 114
63 75 79
114 132 114
110 132 99
116 134 85
113 130 125
134 151 135
144 161 160
115 129 51
106 117 32
91 108 60
78 97 85
85 100 33
87 103 71
70 87 2
171 196 0
173 197 0
175 198 0
172 197 0
161 186 0
68 92 0
46 74 67
35 58 57
52 82 80
50 80 114
52 83 105
51 81 99
51 81 124
54 87 99
56 88 99
57 90 135
58 91 125
53 85 114
48 77 88
56 89 99
55 88 151
61 95 140
57 92 151
60 94 140
54 86 99
51 81 57
60 94 125
60 93 128
57 90 140
46 74 80
59 92 128
55 88 99
57 92 114
59 92 137
57 91 80
49 79 99
54 87 80
60 95 128
55 87 114
53 85 114
54 87 99
56 90 114
58 91 128
57 90 114
60 95 140
51 82 80
58 90 128
58 91 114
56 90 128
53 84 99
55 87 114
61 95 128
58 91 128
59 93 140
57 91 140
58 92 99
63 98 140
52 82 99
57 89 99
55 87 99
53 85 114
56 89 84
57 91 80
59 93 114
55 87 114
56 90 57
55 87 80
60 94 128
62 96 151
57 88 80
61 95 140
62 94 142
58 93 99
53 83 99
59 94 114
56 87 117
56 89 128
59 91 151
63 98 140
58 91 114
59 94 114
55 87 80
63 98 151
65 97 153
54 84 114
57 87 114
55 86 140
56 88 114
55 87 103
51 78 82
58 89 120
50 81 80
56 87 80
58 90 84
55 85 128
51 81 80
57 89 114
49 71 67
56 85 99
49 76 62
53 78 67
55 82 92
64 84 18
176 199 0
171 196 0
178 200 0
171 193 0
172 193 0
100 100 0
79 73 8
61 64 8
58 62 11
88 90 47
116 116 67
110 111 51
89 95 37
103 103 51
94 92 51
68 67 36
120 117 63
137 135 57
155 151 76
108 110 44
140 138 63
135 131 62
135 131 67
134 130 67
131 131 68
126 123 51
133 132 51
142 135 76
135 132 51
141 133 72
118 115 57
144 142 44
137 133 77
126 123 67
148 147 72
147 144 62
150 146 60
165 159 84
160 154 67
133 131 76
128 128 60
148 144 84
151 146 72
152 149 67
160 152 80
166 159 99
152 146 80
116 117 67
148 145 84
146 142 92
144 142 51
174 164 62
171 163 70
153 150 51
161 158 80
149 144 62
158 150 72
172 163 80
155 151 51
163 157 72
150 148 36
150 146 51
151 145 79
164 156 88
156 152 72
129 129 67
173 167 88
157 152 80
156 152 76
145 144 51
173 164 95
179 171 95
160 154 89
152 147 51
161 157 84
146 145 51
167 162 72
166 160 72
179 171 101
153 148 62
166 161 92
174 167 88
169 164 80
150 146 51
174 167 88
157 153 62
172 163 80
176 167 95
150 147 62
160 154 51
158 154 62
171 166 88
170 164 72
158 153 60
149 143 51
166 159 62
170 165 80
154 148 80
156 153 51
171 163 80
170 162 80
176 170 102
165 158 72
162 156 62
150 147 67
170 164 102
149 147 67
177 168 95
167 163 102
171 163 80
176 169 95
178 168 95
173 168 95
172 166 88
168 159 80
173 167 88
169 161 80
181 172 95
172 164 95
170 163 62
169 164 80
183 173 102
170 164 72
164 154 80
172 164 80
164 156 80
170 165 80
172 162 80
149 138 72
167 160 51
166 157 80
171 160 80
156 149 62
178 168 80
172 162 88
166 161 62
177 170 95
163 157 72
160 155 62
164 160 80
173 166 80
158 153 62
175 166 88
174 164 80
161 154 62
176 167 95
170 160 80
180 171 95
159 158 62
161 157 51
174 167 88
176 194 177
161 181 144
171 189 161
163 185 144
175 194 177
167 184 161
171 189 144
164 182 144
161 179 102
168 186 161
159 178 125
155 175 125
172 189 125
171 188 144
172 191 204
146 165 72
178 195 191
165 185 125
173 190 144
173 192 161
172 190 144
177 195 177
169 189 144
165 187 161
158 179 72
167 189 161
166 183 144
169 189 161
170 188 161
164 181 169
179 196 191
160 180 144
173 193 177
172 191 161
173 192 161
162 178 161
174 190 207
173 192 161
169 187 161
152 171 125
166 183 125
174 188 144
152 172 72
165 184 125
163 180 133
160 180 102
167 186 144
177 196 191
149 170 144
171 189 144
162 180 125
175 193 161
160 179 125
162 183 177
163 180 177
170 188 177
153 172 125
165 185 169
155 172 102
164 183 161
170 187 161
170 190 161
168 185 125
166 181 133
158 177 114
138 159 72
170 187 177
167 186 177
157 176 125
171 189 177
161 180 135
155 173 144
172 189 191
155 175 125
138 158 114
164 184 169
172 189 177
145 165 135
176 192 204
170 190 161
163 180 161
153 169 144
164 183 125
151 170 135
159 176 102
146 166 153
164 183 169
167 183 144
166 183 144
148 168 153
165 182 72
167 187 161
154 172 135
156 176 135
152 172 161
156 173 125
151 168 170
149 170 72
143 157 102
148 165 153
139 159 153
139 161 135
147 165 125
146 161 128
154 171 135
160 177 196
156 173 165
155 174 102
147 167 161
170 189 191
153 172 144
143 160 144
151 171 184
154 172 144
147 167 125
139 157 102
147 162 125
161 178 177
142 161 114
135 151 114
162 181 144
133 149 125
119 133 102
127 148 114
105 125 102
102 118 114
155 174 169
131 150 123
129 146 135
118 132 107
106 121 123
134 151 114
129 146 128
123 138 144
132 152 123
98 116 112
101 118 0
103 124 60
79 98 94
112 131 114
106 121 88
99 120 72
72 91 0
28 45 0
45 60 0
123 138 112
168 195 0
175 198 0
175 198 0
172 196 0
174 198 0
75 96 80
46 74 76
57 89 144
59 93 114
53 85 80
58 91 99
48 78 51
51 84 137
53 84 108
53 84 122
46 74 95
55 87 111
56 88 99
55 86 135
54 86 114
45 74 80
57 91 128
48 77 80
59 94 114
57 89 99
49 80 111
57 89 99
55 88 111
56 88 125
57 92 99
57 90 105
56 89 99
50 80 80
48 76 80
56 85 99
56 88 128
62 97 140
58 92 114
55 86 114
57 90 99
52 82 114
57 90 99
59 94 114
60 95 114
61 94 140
55 89 114
59 94 114
57 89 128
59 93 128
63 98 159
59 92 128
61 95 114
57 91 99
60 95 128
61 96 128
58 91 140
56 89 99
61 93 142
64 99 151
62 97 128
56 89 114
61 95 140
61 94 140
61 95 114
51 83 80
56 90 128
61 97 151
59 93 140
60 93 128
59 92 128
56 90 114
60 94 140
60 94 140
59 91 114
59 93 99
55 87 80
56 86 114
55 87 114
59 90 128
59 93 128
55 88 80
55 87 114
59 92 128
56 89 99
53 83 99
59 93 140
52 84 99
58 88 128
55 86 57
55 87 99
50 79 80
50 79 80
56 87 128
51 78 84
50 81 99
57 89 114
55 79 72
61 95 151
59 91 114
50 77 68
39 60 83
47 71 57
83 103 81
169 191 0
176 199 0
179 200 0
171 196 0
176 199 0
75 77 0
78 82 3
79 79 11
94 93 0
82 82 37
106 107 36
127 127 51
69 68 44
74 78 46
100 101 51
130 125 51
123 117 57
126 117 51
136 132 53
107 106 37
96 99 51
138 135 80
124 119 36
117 117 51
114 115 67
126 126 57
134 132 57
137 133 51
141 136 72
140 138 51
101 103 44
149 145 57
127 123 51
117 114 62
148 144 36
150 146 70
142 140 73
109 109 44
156 151 80
165 158 88
158 151 95
158 152 73
148 144 36
177 168 88
158 154 72
173 165 95
156 150 62
154 148 62
150 144 80
137 136 80
174 166 80
160 152 84
162 156 88
151 144 70
118 116 0
157 153 62
156 151 76
158 153 76
148 141 62
167 161 84
171 163 80
149 147 80
145 141 72
152 149 51
167 161 80
167 162 72
176 167 95
182 173 102
165 160 80
141 136 37
166 158 62
152 147 62
155 150 72
162 157 73
157 152 84
147 144 65
164 160 62
174 167 88
140 138 57
143 140 60
167 162 72
158 154 62
131 133 25
161 154 72
153 149 67
177 169 95
169 164 80
160 154 80
160 155 84
176 169 95
158 151 87
154 149 72
171 164 72
171 164 80
166 161 62
176 168 88
166 159 80
170 162 80
167 160 80
145 139 51
168 162 80
156 152 62
157 153 88
137 136 57
165 162 80
166 159 80
175 167 95
168 160 72
170 163 92
169 163 72
162 157 72
174 168 95
154 148 62
169 163 72
162 157 72
176 166 88
169 164 80
165 158 72
180 171 95
169 162 72
160 156 72
142 138 36
175 166 88
164 156 72
162 156 72
170 164 95
162 158 80
169 164 80
173 167 88
173 166 80
162 156 62
169 160 62
159 152 62
170 163 80
174 167 88
168 163 72
169 160 80
171 165 80
170 164 80
166 159 80
171 164 72
178 171 102
175 167 87
177 169 88
172 166 80
169 162 88
171 165 80
181 173 102
163 155 72
167 161 80
168 163 80
167 185 161
163 184 177
155 168 144
174 193 177
175 194 177
156 177 102
164 185 177
177 193 180
169 188 144
169 188 161
169 188 161
178 195 191
164 184 125
164 185 125
166 186 144
167 183 107
172 191 177
158 179 102
168 183 148
173 194 191
170 189 191
173 190 191
166 184 177
156 176 125
167 187 144
157 177 102
160 179 125
166 188 161
165 181 144
152 173 161
171 190 144
177 195 177
159 179 125
179 197 191
163 182 125
180 198 191
162 182 102
183 200 204
174 191 191
160 177 144
179 199 217
153 171 125
166 182 144
166 186 161
170 186 144
167 185 191
172 191 161
159 174 102
169 186 177
173 193 177
180 198 191
173 186 161
171 187 161
158 176 102
157 174 139
178 195 177
171 190 177
179 196 177
169 189 144
166 187 144
153 174 102
147 167 114
157 173 102
175 194 177
145 164 125
172 191 161
166 183 144
175 194 177
159 174 125
174 190 161
148 168 144
156 176 144
147 167 72
164 184 161
154 175 102
152 168 144
152 167 144
164 182 177
175 193 161
168 184 196
156 176 102
150 171 142
151 171 144
147 166 125
153 171 125
165 183 125
158 173 135
158 176 161
163 182 144
173 189 177
173 190 184
162 178 187
159 179 144
148 165 153
153 170 144
156 176 125
161 178 161
178 196 204
141 160 125
166 183 125
139 158 72
171 189 177
158 175 125
144 164 161
169 188 161
155 177 125
137 155 125
166 180 165
145 165 153
152 170 135
151 171 135
141 159 114
131 152 125
161 177 177
160 176 153
153 173 161
161 178 177
149 166 164
113 126 129
143 163 102
142 163 102
115 132 102
155 173 133
145 166 153
140 154 153
135 156 72
111 131 135
163 179 161
149 169 156
124 140 160
121 138 114
118 130 77
107 124 56
95 113 99
94 113 109
106 123 28
96 114 45
70 87 102
102 118 0
106 122 85
90 109 90
91 105 72
92 110 0
92 107 112
110 125 0
141 166 0
172 196 0
172 197 0
171 196 0
172 197 0
172 197 0
148 172 51
53 82 108
49 78 116
51 82 108
52 81 108
55 86 95
57 91 111
56 89 144
58 90 114
43 71 0
45 74 0
51 81 72
58 92 140
46 74 104
44 72 95
56 90 99
46 72 0
52 84 122
55 86 114
59 92 128
56 89 99
60 94 140
56 90 80
53 85 114
55 87 99
61 97 140
54 88 114
57 90 99
59 94 114
58 91 128
55 87 80
57 90 114
57 91 99
53 84 80
62 96 151
51 82 57
55 87 114
42 69 0
54 86 114
60 94 128
56 89 114
58 91 99
59 93 140
60 95 128
61 95 140
49 80 80
62 98 161
60 95 128
55 88 0
64 100 161
56 88 99
53 83 114
58 92 99
60 95 128
60 95 114
58 92 128
61 94 140
49 79 99
56 88 128
59 92 130
57 90 99
57 89 128
62 96 128
56 88 102
60 95 128
61 96 151
53 84 80
60 94 114
59 92 142
58 94 128
55 86 114
60 93 128
60 93 128
59 91 140
55 87 142
60 93 140
59 93 140
59 93 114
60 93 128
56 86 99
55 87 80
57 90 114
55 87 80
51 78 80
53 82 99
54 82 62
53 80 90
56 88 114
48 77 102
57 90 114
62 93 130
59 93 140
51 80 62
51 77 102
54 79 107
36 54 0
44 68 57
132 152 57
176 198 0
175 198 0
173 197 0
169 192 0
173 197 0
147 166 0
36 50 25
113 109 36
96 96 44
87 90 51
100 99 52
75 81 25
79 82 29
67 76 45
92 92 11
100 100 44
153 148 62
109 109 62
103 105 44
121 121 36
122 122 76
109 107 57
78 77 44
145 139 72
149 143 62
127 125 63
124 123 58
123 123 57
153 147 72
139 134 72
117 117 36
134 129 57
142 135 72
145 143 72
149 146 51
104 105 25
138 137 72
153 150 84
142 140 67
142 137 67
125 124 63
167 160 80
158 153 92
126 125 52
127 126 44
172 164 72
156 152 51
164 157 80
166 159 76
149 141 72
167 158 80
163 155 70
166 159 84
165 157 80
150 145 51
133 130 57
157 153 80
162 156 62
144 140 72
176 166 72
154 150 67
176 167 95
158 153 62
161 157 72
163 158 72
157 152 62
148 143 67
152 147 62
159 154 51
154 151 76
151 147 76
171 165 80
175 169 95
160 151 62
161 157 72
162 153 62
159 153 62
157 150 72
167 158 79
164 158 76
159 152 62
149 147 62
155 152 62
166 161 95
179 170 108
161 151 62
174 166 102
174 168 88
157 151 72
169 161 79
174 167 88
167 157 72
163 157 62
164 160 62
155 152 72
170 163 88
167 159 84
152 150 62
178 170 95
173 160 88
172 166 88
171 165 80
163 157 62
175 169 95
147 146 62
169 163 95
176 168 80
158 152 62
155 149 72
182 172 95
173 166 80
172 164 88
167 161 62
175 165 95
174 167 88
159 155 72
166 159 72
168 162 62
172 165 72
171 163 62
166 158 62
172 163 62
182 172 95
173 166 80
166 160 80
168 162 62
174 166 80
169 161 80
169 162 80
174 167 88
162 155 80
170 164 72
162 158 72
174 167 88
163 158 72
167 159 62
169 161 80
169 163 72
175 167 80
167 160 80
161 158 62
173 165 72
180 172 102
171 163 88
176 168 88
170 162 94
184 173 95
175 168 88
172 166 80
178 170 95
166 162 72
178 198 204
184 200 191
165 185 125
172 191 161
178 196 177
164 186 144
164 183 125
157 175 125
174 194 191
163 186 161
171 189 161
164 181 161
157 179 72
172 190 177
157 174 161
180 198 191
172 190 161
155 175 125
150 167 161
163 185 144
163 184 125
172 191 161
167 183 177
169 187 161
180 198 191
166 185 191
173 191 161
167 183 177
168 188 144
176 195 191
168 188 144
152 171 102
168 185 161
178 195 177
173 192 161
173 193 177
188 204 217
167 185 144
166 186 177
167 185 177
165 184 161
162 178 102
158 175 161
166 187 144
161 179 161
162 181 144
165 183 144
171 188 165
165 186 144
174 191 144
157 178 144
160 179 107
158 170 102
160 179 144
167 185 177
169 187 161
169 188 144
159 175 161
177 195 177
166 184 161
168 186 177
164 182 144
185 202 217
157 177 125
156 176 125
167 184 148
160 179 125
141 159 102
145 165 114
179 196 177
169 188 184
178 194 177
159 177 177
152 173 125
160 180 177
158 177 169
162 177 129
142 160 114
158 175 161
153 168 102
169 188 144
157 176 144
156 171 144
151 168 102
172 191 161
140 157 125
145 163 144
179 196 177
166 183 191
156 170 129
161 180 144
171 192 177
156 170 144
137 155 135
162 180 161
148 163 125
150 169 112
161 180 144
157 178 125
151 173 161
164 181 125
164 182 144
162 182 153
158 175 161
138 159 102
155 172 177
149 169 153
150 167 144
154 174 177
152 170 153
155 173 169
153 171 153
117 137 125
126 142 125
143 159 129
143 162 144
149 167 112
135 156 144
124 141 102
113 128 72
129 146 133
129 147 153
143 163 133
151 170 144
150 169 114
126 145 112
142 159 153
118 135 88
118 132 133
115 131 127
132 151 102
100 115 114
107 126 72
116 135 88
79 93 0
93 112 51
115 130 72
89 102 58
122 140 125
89 109 72
80 99 51
80 99 0
80 90 0
112 125 104
73 92 3
177 199 0
173 197 0
171 196 0
171 196 0
172 197 0
176 199 0
177 199 0
70 95 65
47 75 97
37 59 51
44 70 72
57 90 125
53 84 80
50 80 80
49 78 51
52 82 111
58 93 149
54 86 125
58 90 111
57 89 95
57 89 137
57 90 125
59 92 125
62 97 149
57 90 80
49 79 51
58 91 80
54 86 80
58 91 99
58 94 128
58 90 114
59 92 99
58 92 114
57 92 114
54 86 99
58 91 128
60 95 128
58 92 99
52 82 99
54 87 128
58 92 128
54 86 80
61 96 128
57 91 140
58 93 128
56 88 80
57 88 125
60 93 128
58 92 128
53 84 80
52 84 99
57 90 114
54 85 114
56 89 114
60 93 140
60 95 140
59 92 114
53 84 114
58 92 99
60 94 114
56 89 99
58 91 114
59 93 128
59 93 99
59 92 114
56 88 99
60 94 151
54 86 99
57 90 140
60 93 128
52 82 99
57 89 128
57 90 99
52 84 80
57 91 99
57 91 80
55 89 99
58 90 114
55 85 99
58 92 140
61 95 130
59 91 99
58 92 128
62 97 140
55 86 80
59 93 128
56 90 114
58 90 114
59 92 151
52 81 62
55 84 117
55 87 128
58 88 108
56 87 102
47 74 99
49 78 99
49 74 84
54 84 86
58 88 114
50 74 25
54 84 100
57 90 114
75 95 80
176 199 0
169 195 0
174 198 0
176 198 0
175 198 0
172 196 0
170 196 0
85 88 0
79 83 12
108 108 36
93 94 37
117 114 37
89 86 51
97 96 44
70 74 26
122 118 51
109 107 44
123 122 62
99 101 45
88 94 44
120 120 44
124 121 37
35 47 36
134 129 67
117 114 58
152 150 76
109 111 51
154 151 76
148 146 67
110 103 51
119 116 44
135 131 57
115 113 62
152 147 84
145 141 68
134 132 60
157 147 62
134 132 57
149 142 72
138 134 57
152 146 72
136 131 44
132 129 67
147 143 51
158 150 62
155 150 62
145 139 67
159 153 84
150 145 51
173 164 92
164 154 76
159 155 72
126 126 44
162 157 73
151 147 72
162 156 72
152 148 65
163 156 80
173 164 80
139 136 51
178 168 95
157 152 62
147 144 51
168 161 94
167 162 92
161 154 80
128 125 57
148 144 44
134 128 62
159 150 72
147 142 57
151 148 67
139 135 48
159 154 62
132 126 62
161 157 72
152 148 88
169 162 80
157 150 51
169 161 72
159 154 72
162 157 72
179 170 88
150 144 72
173 164 95
166 157 72
180 171 95
161 153 76
165 157 80
176 169 95
154 152 62
148 144 51
167 157 80
169 164 80
171 166 88
182 173 102
162 157 72
174 167 88
167 163 80
173 167 88
167 162 88
177 169 88
167 160 80
163 155 72
169 161 80
176 169 95
138 132 51
164 159 70
169 164 80
161 153 72
168 163 72
173 167 88
163 155 88
169 163 72
155 150 51
176 169 95
172 163 80
169 161 72
181 172 95
156 148 72
161 157 51
167 159 62
156 147 36
169 164 80
163 157 72
146 141 51
166 160 80
161 157 72
147 140 51
163 158 80
180 171 95
161 154 62
173 165 72
175 164 80
174 164 88
173 167 88
156 152 51
172 165 80
170 164 72
154 147 51
163 160 62
175 168 88
158 154 72
179 170 95
164 158 72
157 150 51
178 169 88
161 155 62
157 153 51
180 171 95
175 167 80
157 155 72
175 191 191
168 186 161
164 185 144
180 196 177
170 188 161
165 183 125
161 181 72
166 187 144
159 181 102
167 188 144
160 178 125
173 192 161
158 174 125
171 189 177
177 194 161
160 178 161
162 181 144
153 171 125
170 190 161
150 171 72
151 173 0
169 186 147
177 195 177
172 191 161
172 189 177
166 183 161
177 196 191
175 194 177
164 182 161
169 189 161
157 174 144
178 194 191
170 190 161
151 169 102
167 182 177
170 188 161
155 177 144
172 190 177
178 192 191
170 189 144
171 192 177
159 178 144
143 160 72
164 184 144
148 167 125
160 179 102
157 174 144
167 185 177
170 190 161
143 161 144
172 191 161
166 185 161
174 193 177
168 188 191
160 180 144
157 176 125
163 183 144
148 165 161
157 176 144
165 184 161
167 187 161
147 162 153
166 182 107
164 182 177
172 190 144
150 168 125
162 179 177
153 171 177
166 187 144
165 184 184
169 187 161
165 181 161
153 170 125
173 189 161
168 187 161
161 182 102
140 158 153
166 185 177
164 181 169
167 186 177
162 182 153
138 159 114
163 181 183
162 183 169
151 171 144
124 141 72
167 184 161
165 182 161
162 182 161
179 196 177
147 167 114
162 182 177
150 166 107
154 171 177
172 190 191
128 146 51
164 182 191
177 195 177
159 177 125
168 186 177
155 176 102
168 188 144
145 166 102
169 189 161
158 175 144
129 147 161
146 166 72
129 150 102
141 157 161
119 138 121
154 171 144
127 144 72
126 144 72
160 176 180
159 180 144
140 155 163
131 145 77
97 117 114
146 165 102
157 176 169
137 156 161
147 166 125
132 149 129
111 127 77
113 134 135
154 173 125
119 138 112
149 166 184
127 144 135
137 152 169
140 157 144
113 127 102
130 151 135
103 120 0
123 143 72
76 96 0
81 100 85
119 135 79
39 63 68
116 132 72
52 68 28
121 137 107
81 90 72
82 96 72
158 179 72
176 199 0
171 196 0
171 196 0
173 197 0
165 187 0
172 197 0
177 199 0
142 164 57
54 86 120
46 73 57
48 78 95
48 77 80
53 82 114
46 74 95
52 82 114
57 88 128
48 78 80
58 93 114
52 82 105
56 89 114
47 75 95
51 82 57
58 91 125
48 78 57
57 89 140
54 87 111
52 82 80
56 88 99
59 92 137
55 89 57
59 93 144
53 85 99
63 97 151
55 87 99
58 92 114
59 92 128
56 89 80
60 95 128
55 89 99
60 95 125
61 96 128
59 93 128
56 89 114
58 90 128
51 80 114
53 85 99
56 87 128
58 93 125
58 89 128
61 95 114
52 83 80
60 95 128
59 92 161
63 97 140
53 85 99
56 89 99
56 88 114
57 89 128
64 100 161
56 89 99
58 92 99
58 91 128
54 85 128
56 88 114
58 88 99
57 88 114
57 91 99
58 89 117
54 88 99
59 94 140
55 87 114
60 96 140
50 81 57
56 89 128
62 97 128
59 93 140
53 85 99
57 91 128
50 80 57
60 92 140
54 81 114
59 90 117
58 89 128
57 92 114
53 81 102
51 81 99
56 87 102
53 82 99
57 89 80
56 88 128
53 83 99
53 83 99
54 85 99
47 74 57
61 95 128
49 76 84
55 87 118
56 87 128
53 85 84
53 82 99
44 67 86
49 75 99
99 121 62
177 199 0
165 189 0
170 196 0
166 193 0
177 199 0
175 195 0
177 199 0
139 147 36
72 76 0
60 58 28
88 92 29
92 88 25
78 81 28
29 39 27
124 113 36
76 81 54
88 86 36
97 94 37
92 95 44
97 98 25
112 113 45
114 111 44
130 123 62
147 141 80
126 120 62
135 132 62
146 143 84
147 141 92
170 162 80
144 143 80
150 144 73
155 151 84
117 115 58
128 129 51
155 150 62
147 142 72
155 143 70
145 141 76
148 145 36
157 152 80
156 151 76
138 135 51
135 130 62
156 148 62
159 153 80
163 156 92
160 156 72
151 146 72
160 153 88
143 140 61
169 160 80
162 155 72
154 148 67
149 147 72
143 139 62
152 145 72
159 154 80
158 152 72
114 117 44
146 143 76
138 138 63
161 154 72
147 141 51
151 147 72
158 153 80
152 145 62
173 164 88
165 159 72
159 153 62
136 130 62
158 148 75
164 160 62
154 148 51
153 146 80
173 167 88
168 161 80
167 160 80
171 161 88
169 161 80
165 160 70
179 171 95
157 149 76
165 161 72
161 154 80
128 124 25
147 144 36
181 171 95
160 154 72
167 160 80
165 156 80
173 162 95
174 166 80
160 152 62
177 170 95
163 155 62
156 149 72
172 166 87
167 161 88
168 163 80
145 139 62
180 169 95
156 149 80
155 149 72
177 169 88
139 134 36
168 163 72
154 153 62
168 159 72
166 157 80
165 161 72
171 166 94
148 142 62
155 150 72
181 171 95
173 168 95
172 163 87
164 158 79
162 153 51
170 165 80
162 156 72
170 161 72
170 160 80
166 161 62
142 135 0
170 159 80
165 160 62
156 147 51
170 163 72
159 154 88
169 163 72
161 154 62
174 167 88
179 169 102
167 162 72
178 170 95
162 158 51
163 158 80
159 149 62
158 155 36
159 156 72
166 160 80
172 165 95
166 155 72
161 156 72
171 164 72
172 162 72
158 154 80
168 158 72
174 168 88
178 170 95
163 157 80
169 161 72
182 200 204
168 188 144
180 198 191
183 199 191
174 193 177
168 187 144
170 188 161
165 185 125
165 186 144
172 190 177
162 182 144
175 194 177
174 193 177
171 192 177
170 189 144
164 181 177
154 174 125
150 167 72
165 185 125
163 182 125
170 188 161
173 191 177
155 175 0
174 192 161
167 187 144
167 183 125
164 181 107
175 193 161
172 190 161
172 192 177
168 190 177
159 178 125
166 184 148
166 183 177
147 168 72
166 180 184
164 183 102
166 182 144
170 188 177
172 190 161
166 185 161
161 180 135
147 164 125
149 170 125
171 183 144
153 170 125
168 185 144
151 171 125
174 193 177
162 182 161
156 175 144
173 190 191
178 196 191
151 172 125
175 192 177
174 193 177
183 201 204
158 178 125
168 187 184
163 183 102
150 168 102
154 174 102
162 180 129
158 177 177
169 187 161
160 178 125
155 170 102
166 184 102
163 183 177
159 179 144
173 190 144
157 174 102
158 176 161
164 183 177
165 185 125
158 172 148
160 180 161
153 170 144
166 184 144
174 192 177
156 175 102
136 156 88
147 169 88
164 182 177
174 190 191
164 182 144
160 178 144
151 170 177
152 171 133
145 164 102
156 174 144
161 179 102
154 173 144
146 164 161
166 183 161
137 155 72
166 185 144
145 163 114
143 161 125
154 170 102
154 172 139
155 176 161
134 152 135
124 145 88
144 162 125
129 148 125
151 170 125
167 185 161
159 177 144
131 150 102
140 161 142
151 168 161
138 156 102
170 186 177
129 149 72
135 147 114
143 163 135
143 160 133
136 155 135
123 142 88
118 138 99
143 161 133
126 145 72
124 142 51
137 157 135
105 124 135
149 168 169
114 132 77
151 168 151
131 151 169
94 111 99
129 146 135
133 149 112
117 136 88
112 128 106
114 133 102
90 107 51
123 137 72
87 99 0
94 110 51
66 83 0
99 116 88
113 128 72
65 81 0
163 186 0
167 194 0
169 190 0
176 198 0
173 197 0
174 197 0
175 198 0
171 192 0
163 188 0
47 75 118
46 74 80
48 77 80
53 85 80
41 67 0
55 88 114
59 93 135
54 86 111
57 89 125
57 90 114
54 87 114
46 72 51
60 94 151
53 83 61
53 85 111
55 87 114
63 98 140
55 87 125
44 70 57
56 89 114
62 98 151
54 86 95
48 79 57
58 92 114
62 97 140
57 90 114
56 88 128
58 93 114
64 99 161
54 85 114
54 86 99
55 87 128
56 89 125
54 84 114
59 94 128
46 74 57
60 95 128
55 88 114
52 82 114
55 87 80
54 87 99
59 94 125
61 96 128
59 94 128
56 89 111
60 92 130
52 83 114
60 94 128
52 83 57
51 83 80
60 94 114
59 93 140
58 89 114
57 88 114
58 91 114
54 87 80
58 93 99
56 90 57
57 89 99
60 95 128
56 89 99
62 96 151
60 93 128
51 82 57
57 89 84
57 91 80
59 93 128
53 84 80
53 84 114
56 89 114
55 86 99
59 93 130
55 88 99
58 89 84
56 88 99
60 94 114
59 91 140
55 88 99
60 93 114
56 89 99
55 87 99
59 90 128
49 76 0
52 79 88
61 93 128
53 81 102
46 71 80
49 76 102
48 75 57
58 91 99
48 76 84
48 77 62
47 73 62
40 61 57
149 171 62
176 198 0
181 201 0
167 190 0
174 198 0
169 195 0
174 198 0
171 196 0
162 184 0
137 140 0
112 112 11
97 96 36
93 95 37
76 79 0
106 100 36
118 115 57
114 113 51
104 105 0
131 123 36
110 106 62
134 129 67
83 87 39
107 109 62
133 130 51
125 122 51
108 108 37
125 123 51
122 122 51
158 153 72
141 139 57
156 148 88
144 137 72
152 147 51
159 153 88
151 147 36
133 131 52
155 148 62
142 136 62
140 134 72
141 137 57
183 173 102
136 132 62
140 134 72
158 156 60
115 115 36
160 155 72
136 131 67
141 135 51
174 164 80
154 151 76
139 137 76
172 161 88
153 148 76
167 162 72
165 159 87
151 147 51
154 148 54
144 142 44
157 151 62
135 130 62
121 121 51
155 149 72
162 155 72
148 146 36
175 169 95
167 158 87
139 140 51
151 147 67
163 157 79
174 166 80
154 148 72
165 160 51
165 159 80
155 151 76
142 138 51
160 156 80
151 146 62
171 163 88
157 147 72
167 162 79
154 146 70
164 157 62
169 163 72
164 158 72
152 147 62
158 150 80
158 151 62
161 152 72
144 139 62
156 152 60
138 137 62
149 145 51
162 155 80
156 153 62
173 164 88
155 151 51
180 168 88
177 167 95
174 167 80
136 136 51
168 160 72
173 164 88
162 155 70
158 153 62
169 165 88
166 158 72
163 156 72
180 168 102
170 166 95
157 151 0
167 163 80
159 154 62
156 154 72
175 165 88
162 152 72
170 163 80
171 164 72
168 163 72
174 165 88
174 165 88
160 155 72
158 152 80
160 154 62
165 157 80
153 149 62
174 163 88
175 168 88
152 149 62
176 167 80
178 171 102
158 151 80
169 162 80
172 164 72
169 160 95
173 164 88
163 153 72
170 165 88
168 159 80
161 157 51
166 162 72
182 172 95
164 159 80
171 166 88
170 165 80
166 159 72
169 162 62
164 158 80
165 159 51
159 156 72
174 164 80
168 160 80
175 169 95
173 166 80
172 192 177
157 175 144
177 194 161
178 195 177
167 186 125
167 186 125
157 177 125
165 185 144
177 195 177
184 201 204
168 188 161
168 187 125
158 179 102
178 196 177
173 190 161
178 198 204
159 178 144
161 183 177
162 185 144
176 194 177
169 188 161
172 191 161
165 185 144
175 195 191
168 187 161
168 187 144
151 166 102
155 177 144
154 174 102
175 191 180
158 179 125
153 171 144
157 179 125
163 181 135
161 179 125
150 171 102
179 197 191
173 189 161
164 184 177
175 192 191
164 183 161
157 179 144
159 177 144
173 190 165
170 186 144
159 176 161
152 172 144
176 193 161
163 184 125
171 187 161
164 183 125
161 179 102
167 185 161
159 180 144
173 193 177
164 181 144
151 170 102
143 163 125
175 190 165
172 191 161
170 189 191
165 184 144
158 178 169
164 183 144
145 165 153
169 190 177
150 170 102
165 182 169
147 167 102
158 175 161
148 163 102
172 189 177
157 172 125
161 176 144
182 199 191
163 182 144
171 189 177
140 155 107
150 162 79
170 184 177
149 166 161
157 176 153
146 162 102
153 173 144
162 182 102
159 178 144
150 170 102
162 183 125
150 168 161
147 166 144
132 152 144
134 151 102
139 158 72
147 164 102
166 179 177
145 164 144
162 176 148
153 173 153
157 176 153
163 183 168
154 177 169
151 164 125
156 175 102
143 161 114
149 168 161
130 146 72
155 173 161
150 168 102
143 161 135
147 164 144
144 161 135
152 169 154
139 157 144
151 167 161
121 135 79
163 181 144
107 121 102
151 172 102
139 159 125
129 145 102
119 136 125
151 171 114
123 144 51
120 133 88
130 143 128
97 111 0
87 104 94
122 143 125
111 127 0
110 127 88
134 152 72
137 156 144
109 128 118
90 106 45
111 130 45
121 140 125
101 119 60
112 130 114
61 76 0
107 125 85
59 75 0
98 111 88
106 120 72
154 174 72
176 198 0
164 188 0
166 189 0
175 198 0
170 193 0
171 196 0
171 194 0
175 196 0
173 197 0
69 91 76
50 81 108
48 75 95
46 73 76
54 83 128
41 67 0
57 89 128
50 76 111
44 70 80
56 89 80
55 88 99
62 97 140
56 88 114
52 84 87
57 92 99
56 91 114
57 89 133
50 80 80
56 89 114
59 93 140
51 81 84
55 87 140
57 91 114
57 90 128
52 84 57
51 83 95
56 89 80
60 93 151
59 94 128
59 93 140
59 92 128
51 80 137
53 85 80
62 98 159
57 91 99
58 90 99
58 91 111
58 91 114
59 93 140
62 96 128
56 89 99
59 90 99
56 89 99
52 83 80
57 91 114
61 96 140
56 88 114
58 89 80
53 87 99
52 82 99
60 94 140
57 90 99
59 92 142
59 93 151
51 83 57
57 90 114
55 88 140
60 94 114
50 80 80
60 94 128
57 90 114
60 93 128
57 90 117
54 85 99
52 84 80
57 90 99
61 95 151
59 92 143
56 89 99
60 94 140
50 78 57
51 80 80
48 75 57
55 85 114
53 85 99
56 88 128
57 89 117
57 88 114
53 86 57
55 87 102
57 90 114
50 79 57
61 94 151
50 76 57
51 81 99
54 83 102
48 71 86
45 67 84
57 87 88
60 92 130
59 90 153
48 76 60
46 74 57
132 152 0
170 186 0
171 196 0
174 197 0
169 191 0
179 200 0
177 199 0
171 196 0
173 194 0
170 196 0
155 177 0
94 90 36
76 79 8
117 114 0
83 78 8
71 74 0
99 97 36
80 77 0
97 94 0
117 118 25
125 121 62
111 106 36
126 123 51
143 139 51
112 114 62
118 115 36
119 115 58
140 135 68
108 106 57
111 114 59
121 121 51
147 142 67
117 119 51
131 128 57
119 121 0
129 124 48
143 139 62
169 162 95
132 132 44
137 132 72
141 137 62
120 120 57
135 131 62
143 142 51
155 146 62
165 153 80
131 131 62
163 157 72
137 136 57
149 141 62
165 160 72
110 113 57
159 147 80
142 134 64
168 160 80
150 141 73
162 156 72
176 167 95
154 149 72
141 133 51
163 157 80
156 147 72
146 142 81
158 153 72
156 152 44
158 152 72
148 145 72
149 145 62
156 150 62
168 163 79
161 155 84
180 171 95
165 161 72
159 155 92
148 146 51
164 155 80
164 158 80
165 159 72
165 158 72
162 160 72
158 150 62
156 149 60
136 135 62
138 131 51
170 160 70
166 162 72
168 160 72
144 141 36
162 155 76
160 151 62
169 163 72
153 147 72
169 164 80
170 161 80
156 152 51
179 170 88
165 159 80
151 149 62
172 163 80
179 170 88
176 168 88
168 161 80
186 175 102
162 153 80
169 160 72
161 154 80
164 159 80
172 165 72
167 161 62
148 142 36
163 154 92
167 161 62
169 159 80
155 148 62
142 138 62
161 158 88
177 169 88
161 155 62
159 151 51
168 162 62
179 171 95
178 168 95
163 153 62
167 162 72
147 144 36
164 158 72
161 157 72
161 157 80
173 166 80
155 151 60
175 166 95
162 155 62
158 154 62
173 167 88
166 158 72
164 155 51
154 149 51
167 162 72
163 157 62
169 162 80
169 162 88
178 170 95
173 166 80
168 164 80
167 158 80
174 168 88
176 168 88
174 167 88
159 149 62
157 149 36
156 148 72
176 166 88
169 163 72
162 158 72
166 187 144
171 189 144
162 184 125
174 191 191
164 183 125
172 191 177
168 184 144
169 190 161
179 197 191
156 176 144
167 185 161
168 187 144
169 189 144
156 175 102
177 196 191
156 175 102
170 190 161
180 198 191
162 182 144
168 182 144
176 194 177
174 193 177
173 191 177
167 188 144
170 189 144
166 185 144
157 180 102
162 181 102
169 186 177
173 192 161
171 189 144
170 189 144
174 195 204
167 186 161
165 183 125
156 175 102
163 180 144
172 186 161
152 172 125
166 185 161
162 183 125
162 180 161
162 181 102
157 174 144
160 181 125
166 186 177
177 195 177
160 179 125
148 169 144
159 180 125
150 167 125
170 189 161
145 167 72
167 186 125
158 178 177
163 180 144
172 192 177
168 186 177
162 181 125
167 185 161
161 183 144
159 178 169
172 186 144
154 175 102
167 186 144
162 180 102
161 179 161
150 168 102
155 172 169
164 181 125
174 193 177
162 179 144
175 193 161
156 175 125
165 184 161
162 179 177
145 161 125
178 195 177
161 181 144
162 180 144
128 149 72
156 174 144
179 197 191
131 149 72
158 176 144
163 183 169
147 167 125
159 176 177
159 177 169
138 155 102
148 164 133
159 175 144
151 169 102
153 174 114
140 155 125
147 169 125
159 177 125
147 165 125
145 162 153
146 165 144
152 169 161
140 158 144
149 168 161
157 175 135
161 180 144
141 160 107
129 150 102
151 168 144
136 150 72
137 155 125
128 148 99
128 146 79
138 153 135
146 166 125
142 158 127
109 127 72
137 152 161
101 117 102
132 151 112
132 150 72
149 168 153
132 151 72
154 174 153
112 133 88
149 169 142
146 163 102
144 161 161
138 154 144
133 150 125
130 147 102
128 142 91
120 136 72
101 121 0
134 148 102
104 121 118
94 111 88
104 119 88
103 118 0
98 116 88
82 98 72
79 92 51
97 112 72
101 120 0
172 197 0
176 198 0
171 196 0
176 199 0
178 200 0
159 182 0
173 196 0
171 196 0
173 197 0
174 198 0
168 191 57
49 79 68
52 82 135
50 77 57
48 74 95
54 84 57
60 95 125
56 88 114
47 77 57
57 91 114
52 84 80
54 86 99
58 90 99
58 92 114
54 87 80
56 89 108
54 86 80
50 78 80
54 86 95
46 75 57
59 92 140
60 95 137
47 75 80
54 85 111
55 88 114
58 91 140
61 95 128
59 92 114
57 87 128
56 89 99
50 81 80
58 91 128
58 92 140
59 94 114
56 88 57
60 94 114
54 85 99
52 82 99
56 89 114
51 82 111
64 99 151
56 88 114
60 95 114
50 80 99
55 88 80
52 86 99
58 91 128
54 86 99
57 90 114
56 88 128
56 89 80
57 90 114
56 87 128
57 89 80
57 89 114
59 92 102
58 91 128
57 89 99
59 93 114
60 93 140
55 89 114
55 86 114
62 97 140
57 89 128
49 81 57
56 85 80
57 92 99
59 89 128
54 86 114
58 88 114
56 89 80
53 84 57
56 89 114
58 92 99
56 89 57
60 93 128
55 87 99
55 85 99
50 77 102
59 94 114
55 87 128
56 84 117
50 76 103
61 91 102
52 81 114
59 90 99
58 89 128
51 76 80
53 81 114
45 68 85
38 61 0
50 79 80
46 70 62
158 177 25
171 196 0
158 181 0
176 199 0
174 197 0
176 199 0
173 197 0
167 190 0
180 201 0
173 197 0
175 198 0
78 82 0
101 100 11
63 59 29
93 96 25
129 129 44
85 83 36
80 80 0
82 84 36
126 124 37
97 93 36
132 128 57
134 131 2
106 106 36
127 124 44
166 156 80
132 126 51
128 120 52
108 104 36
121 116 62
154 147 85
117 115 44
133 130 52
147 142 84
118 115 37
148 146 62
154 148 51
122 126 36
168 161 88
150 143 67
134 134 25
161 150 62
154 149 67
154 149 36
157 152 80
131 131 57
138 132 70
168 158 72
131 126 0
173 166 80
151 148 72
146 141 76
163 153 92
148 142 72
158 153 62
154 150 62
154 145 80
125 121 65
158 153 51
153 149 51
165 159 72
165 160 80
147 143 51
159 153 84
161 152 62
164 156 80
169 161 99
159 153 51
134 133 36
163 158 72
128 127 62
156 150 72
144 138 64
138 138 67
145 141 51
158 151 72
166 159 79
148 142 72
159 155 72
144 141 51
167 159 88
145 142 51
151 148 51
163 156 80
165 156 80
167 162 72
173 164 88
150 149 57
154 147 76
164 160 62
170 165 80
153 148 62
168 159 95
169 161 80
142 139 36
172 166 80
163 154 72
182 172 95
171 164 95
167 162 72
149 144 57
154 149 62
178 170 95
158 153 51
152 147 72
163 156 62
179 168 102
174 167 94
170 162 88
155 150 51
161 153 80
170 165 88
158 152 80
162 156 72
157 152 51
170 162 79
165 158 62
188 177 108
165 158 62
168 160 72
166 159 72
177 169 88
162 156 62
165 161 72
163 157 62
150 146 36
165 159 80
170 162 80
174 165 72
179 171 95
151 147 51
159 151 62
182 172 95
156 150 51
166 162 72
169 163 95
174 165 88
174 168 95
156 154 51
172 166 80
167 163 80
179 171 95
165 158 62
164 158 80
159 155 62
167 161 62
156 153 36
152 150 51
154 150 51
173 166 80
142 131 36
162 157 72
171 164 72
162 158 62
176 196 191
166 186 125
173 193 177
157 176 125
175 194 177
160 179 102
156 174 79
162 177 125
178 195 177
164 184 161
176 194 177
153 173 102
159 181 125
171 186 144
173 191 144
173 191 177
164 184 161
164 184 144
176 194 191
161 183 125
179 196 177
160 179 125
179 197 191
158 177 144
163 182 102
155 174 144
180 195 191
166 187 144
174 194 191
159 180 72
164 183 125
164 183 161
153 173 102
167 186 144
157 172 144
165 187 161
165 186 191
165 183 144
156 173 125
163 183 102
168 187 125
173 190 191
158 171 129
173 192 161
168 189 161
180 197 191
177 196 191
151 173 125
174 192 177
163 183 161
169 187 191
172 187 144
153 172 72
168 186 144
173 190 161
170 188 161
170 190 177
173 193 177
170 187 161
169 188 161
169 187 161
176 195 177
140 158 72
172 192 177
156 174 144
176 195 177
163 181 144
158 177 125
154 173 102
173 193 177
167 186 177
148 165 125
169 185 129
151 171 102
135 155 0
171 189 196
169 188 144
155 174 144
163 180 144
160 180 144
154 172 125
157 175 102
155 174 125
146 165 72
135 155 114
149 166 112
159 176 144
161 178 184
163 183 161
162 184 184
148 170 144
156 175 133
161 179 153
140 160 114
155 176 125
159 177 144
147 161 107
138 158 72
146 160 125
148 161 125
145 161 72
148 168 144
152 169 169
126 146 123
133 153 135
157 171 161
150 168 153
140 161 88
151 171 135
151 170 144
166 184 161
118 137 72
173 191 161
153 168 129
104 123 125
153 169 144
171 189 144
136 158 102
146 162 125
155 175 125
134 151 114
131 153 72
119 136 72
148 165 125
157 173 125
129 144 112
82 99 73
78 98 51
150 169 102
126 142 125
110 127 114
96 113 74
100 118 88
118 129 125
91 105 91
135 153 125
100 117 0
84 105 85
71 91 45
120 134 72
101 116 107
98 114 0
165 189 0
171 196 0
165 189 0
178 198 0
175 198 0
172 197 0
175 198 0
168 195 0
173 197 0
178 200 0
162 184 0
167 190 0
135 156 0
46 73 76
49 79 57
57 90 125
46 74 88
54 85 128
51 81 76
57 92 111
61 94 128
54 87 128
59 94 128
51 82 80
54 87 99
48 76 111
50 80 67
56 88 80
56 89 57
55 86 111
58 92 114
63 97 151
59 93 111
61 95 128
55 88 111
58 91 114
52 82 114
54 86 114
57 90 114
52 84 57
57 90 99
51 82 80
59 94 114
63 97 151
58 93 114
58 90 140
58 92 99
58 91 128
53 85 80
53 84 114
56 88 114
61 94 140
59 93 114
57 90 99
53 85 99
52 83 80
54 86 99
63 98 151
49 79 57
56 88 128
58 92 99
59 94 114
56 88 114
52 82 99
63 98 151
53 86 80
59 91 140
61 94 114
52 83 114
61 95 128
59 93 114
59 91 140
57 88 140
60 94 114
45 73 0
57 88 114
48 75 57
60 92 140
53 83 80
57 90 114
58 91 114
60 92 117
57 92 99
55 86 128
51 82 80
59 92 117
58 91 114
55 82 80
54 87 80
56 89 80
57 90 114
58 90 102
55 86 114
53 80 88
57 90 80
44 67 57
48 75 80
47 71 88
57 89 117
52 82 99
46 68 84
54 83 128
50 78 84
117 133 0
175 198 0
167 189 0
174 198 0
170 195 0
163 188 0
170 196 0
155 178 0
176 198 0
153 177 0
168 190 0
173 197 0
150 170 0
73 75 0
73 73 11
77 80 0
117 112 36
88 89 0
90 90 11
84 87 0
134 130 51
135 129 44
134 129 62
132 131 0
132 131 45
118 114 52
131 128 51
90 89 25
145 139 57
129 125 44
119 118 25
133 132 57
116 117 67
134 129 62
127 126 72
143 138 67
143 140 51
153 146 72
128 126 62
137 134 51
117 118 44
150 143 72
150 145 79
128 128 44
152 146 81
152 145 72
135 130 44
157 152 67
144 142 72
178 170 95
150 145 75
159 153 79
158 151 76
159 152 72
149 145 72
140 136 62
156 150 62
166 161 72
138 130 51
150 145 87
177 169 88
172 165 72
170 165 80
124 123 44
161 154 62
139 135 57
157 150 76
150 148 72
148 145 51
156 152 76
159 152 80
146 142 63
163 158 76
152 145 72
168 159 72
180 172 102
162 156 80
159 155 62
160 154 62
163 157 72
159 153 80
163 156 80
165 159 76
169 161 80
162 152 72
155 152 62
168 163 72
160 152 62
154 146 72
153 149 62
165 156 76
130 129 44
137 133 36
152 147 62
170 164 72
173 166 80
170 163 72
155 152 70
166 158 72
162 156 84
161 156 62
160 157 51
173 167 88
157 149 80
173 165 101
161 152 51
162 156 72
155 150 62
173 166 80
160 153 75
165 160 62
171 164 72
178 170 95
156 150 62
165 160 62
163 158 80
172 165 80
164 155 72
157 153 62
170 163 88
158 151 62
154 148 62
163 157 62
165 161 72
155 144 62
171 164 72
167 161 70
159 154 62
167 163 80
172 163 88
169 161 80
172 165 80
166 161 62
184 173 95
176 167 80
173 165 72
162 154 72
171 165 80
171 162 89
170 161 72
172 166 88
163 159 62
174 167 88
163 153 72
173 164 88
165 156 72
170 164 72
179 167 88
172 165 72
172 164 62
173 164 88
166 162 72
166 159 72
180 171 95
164 158 72
174 192 161
164 183 102
174 192 161
163 183 144
171 190 161
171 189 144
177 197 204
147 165 102
167 187 144
170 189 144
169 187 144
157 178 125
172 189 161
178 194 177
179 197 191
162 185 161
173 192 161
167 186 125
173 191 144
162 181 102
176 196 191
172 190 191
169 188 125
166 183 148
161 181 144
171 191 161
172 191 161
172 190 177
163 184 144
173 192 161
170 189 144
171 188 161
159 178 125
170 189 198
162 181 144
166 186 125
161 180 125
164 184 125
164 181 144
166 179 144
172 193 191
168 187 125
163 179 144
164 182 125
184 200 191
171 190 191
158 178 125
161 181 125
167 184 125
175 194 177
172 191 177
158 177 125
154 174 125
170 191 191
164 186 144
157 177 144
163 181 128
177 194 161
159 176 144
173 189 161
147 165 147
167 187 144
156 174 144
174 190 177
171 191 161
155 173 125
165 184 161
178 194 177
160 179 144
169 185 144
166 187 144
151 164 102
159 178 161
168 188 161
128 148 125
166 180 144
169 187 144
166 184 144
165 182 184
149 166 125
173 191 191
173 190 177
162 180 144
168 184 144
140 158 102
161 181 144
144 164 135
149 166 144
150 165 161
156 177 161
167 184 177
150 170 125
154 169 102
163 181 144
156 173 144
161 176 125
131 152 72
159 175 177
171 188 177
161 181 125
136 157 153
142 159 123
167 186 125
152 168 125
155 171 125
133 152 72
140 157 125
163 180 144
137 155 125
132 148 144
132 149 94
139 157 88
172 187 144
157 176 161
141 159 72
149 167 125
149 166 161
108 126 125
156 178 144
112 130 150
136 156 102
124 141 114
126 146 72
134 149 102
136 155 102
124 141 144
122 140 85
124 140 112
153 171 125
108 126 0
114 133 45
135 154 102
120 136 102
100 118 0
89 106 0
98 113 102
82 99 85
123 139 72
123 139 99
64 81 51
79 91 0
137 159 0
174 197 0
171 196 0
165 189 0
161 186 0
165 189 0
174 198 0
173 197 0
179 200 0
174 198 0
176 199 0
175 195 0
166 188 0
170 194 0
44 71 36
49 79 84
42 68 0
53 83 99
51 82 114
59 93 108
48 78 111
46 74 57
45 75 57
59 93 122
58 89 114
52 85 137
50 81 80
61 95 137
54 85 80
54 85 99
57 90 114
57 89 125
54 85 57
49 79 57
57 90 99
58 91 128
62 96 140
52 84 105
55 87 99
54 86 80
57 90 114
60 95 128
60 95 128
63 99 151
62 96 151
55 87 128
53 84 114
54 86 80
52 84 57
61 96 128
52 85 57
45 70 57
61 95 128
56 89 99
62 96 151
55 87 80
48 74 80
56 87 99
56 87 128
61 96 128
58 89 114
57 89 140
56 87 114
59 93 99
58 92 99
61 97 140
56 89 99
57 90 114
58 93 128
55 85 114
56 90 114
56 90 80
50 80 80
50 83 57
55 86 114
57 89 128
59 94 114
52 83 57
52 84 99
60 94 114
57 91 114
55 86 99
59 93 140
58 92 99
55 87 57
57 89 140
57 90 114
54 85 99
58 92 128
59 94 140
51 75 105
59 93 99
57 90 114
53 83 84
53 80 99
53 84 128
56 87 114
49 74 80
55 84 62
51 81 84
50 76 102
48 77 60
44 65 88
52 77 80
171 196 0
174 194 0
173 197 0
163 188 0
168 189 0
171 183 0
158 182 0
173 197 0
175 198 0
157 179 0
177 199 0
160 182 0
169 191 0
138 150 0
84 83 0
94 95 36
84 84 44
103 105 0
131 128 51
109 106 37
63 59 3
88 90 25
83 87 0
118 118 44
131 129 0
135 132 67
124 120 41
130 127 51
141 131 51
118 113 44
153 144 68
151 143 62
117 115 44
126 122 51
137 135 67
123 121 57
163 156 72
147 139 51
139 129 0
143 139 36
160 154 51
165 157 80
159 152 62
146 143 72
119 117 44
154 148 62
164 158 80
149 144 36
131 125 51
149 144 62
140 137 51
171 164 72
130 131 37
104 105 36
148 141 62
152 147 57
159 154 51
133 129 51
166 160 80
180 168 88
152 149 62
163 153 62
147 146 72
142 138 36
168 161 62
156 150 72
149 142 62
158 156 80
146 144 36
162 154 72
152 150 51
166 159 95
152 148 62
168 161 51
155 149 72
167 161 80
169 161 72
153 148 63
145 139 72
166 155 79
171 165 80
160 154 51
156 147 51
137 135 76
160 153 72
142 139 44
156 151 80
159 152 72
166 158 80
167 157 72
164 160 62
140 138 62
150 143 36
148 144 36
163 157 72
150 145 36
169 164 95
165 160 94
156 153 62
166 161 62
148 145 72
156 150 57
153 146 67
166 159 80
174 166 80
170 161 72
167 160 80
154 147 62
145 140 51
162 155 62
155 148 51
160 156 72
172 161 88
173 166 80
155 149 62
174 168 88
157 151 62
150 142 72
169 164 80
167 163 95
166 161 62
155 149 72
165 158 72
157 152 51
163 159 80
167 162 72
169 163 72
163 156 51
162 159 62
181 172 108
179 171 102
170 162 62
176 165 80
163 159 62
160 157 51
166 160 72
165 161 72
179 170 88
166 161 80
152 148 62
177 169 88
158 152 62
165 158 62
171 161 72
173 167 88
166 159 72
171 165 80
176 169 95
154 149 62
174 167 88
178 169 88
129 130 36
171 164 72
163 158 72
167 157 80
176 193 161
159 177 102
157 177 125
170 190 161
170 190 161
166 185 144
175 193 161
172 191 161
156 174 72
159 181 102
163 182 102
156 175 161
170 190 161
168 182 165
162 183 102
188 204 217
169 188 144
172 188 177
158 178 125
164 184 125
153 173 161
161 181 144
166 185 144
181 197 177
172 190 161
174 192 161
176 195 191
169 189 144
170 189 161
153 170 144
152 166 102
178 197 191
169 186 161
160 180 144
163 181 125
172 189 161
159 178 125
169 187 161
161 181 144
170 188 144
160 181 102
167 184 161
170 188 177
169 188 161
159 180 144
158 177 125
172 186 161
150 170 144
167 182 161
158 177 144
177 193 191
172 186 148
171 191 161
170 189 144
162 181 161
157 174 144
164 181 144
160 179 161
179 196 177
169 186 161
145 162 72
164 184 102
153 172 72
145 162 102
165 183 161
173 190 144
160 177 144
160 181 144
156 176 125
152 167 153
166 185 177
169 189 204
170 188 144
147 164 102
163 184 125
157 176 144
177 195 177
170 187 177
166 183 161
170 190 161
142 161 88
146 166 125
139 158 102
162 181 161
163 181 153
159 179 125
160 178 125
164 180 144
147 164 127
131 152 114
156 173 135
156 172 161
139 158 72
160 180 184
151 173 153
159 180 144
137 157 102
159 181 125
177 196 191
133 147 112
136 158 72
156 176 144
136 157 102
157 176 125
146 165 102
137 155 72
145 166 102
147 163 79
154 171 144
128 146 72
142 157 107
151 170 144
121 139 72
159 171 161
162 181 125
143 162 128
145 164 72
118 135 72
159 177 125
119 133 102
145 160 139
105 119 72
87 99 88
144 160 151
115 131 102
139 153 144
110 128 88
118 136 72
101 120 102
137 154 135
119 139 102
86 98 72
139 158 153
95 114 0
74 91 0
119 138 0
113 133 0
68 84 0
50 62 0
122 137 45
103 123 51
177 199 0
168 195 0
171 192 0
170 196 0
160 184 0
172 196 0
169 190 0
170 195 0
173 197 0
163 186 0
173 197 0
174 198 0
174 197 0
171 196 0
116 140 67
33 56 0
54 83 111
46 72 57
58 90 128
50 79 76
50 79 80
48 76 80
63 98 140
54 87 114
59 92 128
55 88 99
54 86 114
53 84 57
59 93 99
56 89 114
58 91 114
54 84 128
60 95 114
57 91 137
48 77 114
57 90 57
59 93 140
58 91 99
51 81 99
53 85 80
57 91 95
51 81 80
55 87 99
56 89 99
53 84 95
57 89 99
60 94 149
59 93 128
50 81 80
60 94 128
58 91 111
55 87 99
60 96 140
56 89 99
52 82 128
58 90 140
54 86 114
55 88 128
56 90 114
51 78 80
53 84 80
59 93 140
58 91 114
61 95 140
56 86 128
57 89 140
61 95 151
54 87 80
55 86 99
54 85 99
58 92 128
59 92 128
59 93 140
58 91 114
59 89 117
63 98 151
57 89 80
63 97 151
57 91 114
50 79 80
59 94 128
59 92 128
52 83 84
55 87 80
55 88 80
52 82 57
51 82 114
51 80 117
56 88 114
60 92 130
54 85 62
56 88 128
58 89 99
60 95 114
48 77 0
55 85 99
53 83 99
53 84 57
54 85 99
49 77 84
48 72 102
38 63 25
45 71 100
88 107 57
174 198 0
153 176 0
146 168 0
164 188 0
161 187 0
174 198 0
175 198 0
169 192 0
174 194 0
167 190 0
166 187 0
170 192 0
168 189 0
175 198 0
153 155 51
106 105 0
96 99 25
104 106 0
120 113 44
61 67 25
98 102 25
79 81 36
135 133 67
130 128 0
124 116 44
139 133 62
125 125 36
117 116 44
144 134 72
113 110 44
145 141 72
142 134 51
107 105 36
123 119 51
130 129 51
151 146 62
146 140 67
129 125 67
158 150 60
101 103 44
153 146 72
156 150 72
139 136 51
130 124 51
132 127 67
133 128 63
122 119 72
131 128 62
167 160 72
156 150 72
149 146 57
154 149 73
152 147 72
147 143 51
160 153 62
127 129 0
136 130 49
128 129 8
141 138 62
152 148 51
139 133 51
148 141 80
148 143 72
157 151 62
165 156 80
159 153 63
159 155 62
146 141 72
142 135 51
165 156 62
162 156 80
144 142 44
149 147 36
161 151 80
173 162 72
143 139 62
145 138 67
162 157 72
149 145 51
153 150 67
155 155 51
166 159 72
166 158 72
168 163 72
138 137 44
157 152 51
157 153 62
139 134 72
172 164 80
157 151 80
156 151 84
159 153 72
157 151 62
151 146 67
152 148 51
153 148 51
154 147 62
159 154 62
168 160 72
150 145 72
150 144 72
161 158 84
165 157 80
161 155 51
170 164 80
166 164 88
137 138 32
173 165 72
168 165 88
159 151 62
171 163 80
161 154 36
161 155 51
155 152 62
169 161 80
157 152 36
167 162 80
156 151 72
160 153 72
163 159 88
178 169 102
175 166 95
171 165 80
157 152 51
161 153 51
164 160 62
177 169 95
169 162 62
164 158 72
166 161 62
165 156 72
166 163 80
178 170 95
162 158 80
163 158 51
175 166 95
178 169 88
177 168 102
159 154 51
174 168 95
161 156 80
170 162 88
160 158 62
159 156 51
166 157 72
154 148 51
166 160 80
176 168 88
159 155 62
168 162 62
173 164 80
173 165 72
169 164 80
158 154 62
171 165 80
166 186 125
168 185 148
164 185 161
176 195 191
167 186 161
163 181 144
173 190 161
175 194 177
167 184 161
158 177 144
161 180 144
177 195 177
169 188 144
171 186 144
164 185 125
155 172 72
159 179 144
158 178 125
173 190 177
166 184 125
161 180 102
167 184 177
153 175 72
161 181 144
162 179 161
156 174 129
164 182 144
171 191 161
174 192 161
163 184 144
159 180 161
175 192 161
155 176 102
151 170 102
159 179 102
174 193 177
177 192 177
168 186 177
155 175 102
173 188 144
180 199 204
155 174 144
164 182 125
164 185 161
166 186 161
165 185 125
165 183 161
143 162 102
160 181 102
158 178 144
163 184 177
136 157 125
171 188 177
160 180 144
165 186 161
173 193 177
166 184 125
180 198 191
179 196 177
173 192 161
156 175 125
160 178 177
156 173 118
162 180 125
172 189 177
173 190 191
156 173 102
160 175 144
165 183 125
158 177 144
173 193 177
154 174 102
153 174 88
162 178 153
179 197 191
161 177 125
164 185 125
165 182 144
165 183 144
166 187 144
178 196 177
138 156 125
147 166 77
153 168 125
163 179 161
165 185 177
160 173 165
162 180 144
178 196 191
151 170 144
161 179 125
167 184 161
162 182 161
157 174 144
132 151 125
150 168 168
164 185 144
153 170 102
161 178 161
131 148 114
124 140 32
141 160 102
166 184 191
147 162 161
165 182 161
158 176 72
139 157 102
150 165 125
146 165 144
149 166 112
154 169 144
163 179 177
130 148 0
140 155 125
141 156 125
140 156 125
165 183 161
167 183 177
164 180 161
123 137 102
134 151 148
145 162 125
135 153 144
145 165 125
107 124 79
106 122 133
137 152 114
145 160 102
133 151 72
99 114 72
116 133 88
84 101 68
107 124 45
121 139 72
101 122 102
92 107 51
68 85 32
94 114 45
96 111 68
104 117 51
142 163 0
169 191 0
168 194 0
164 191 0
163 188 0
161 185 0
171 196 0
174 197 0
172 197 0
168 190 0
169 195 0
163 188 0
173 197 0
171 195 0
162 185 0
165 189 0
63 81 57
50 79 95
54 86 114
52 82 99
47 75 80
56 90 111
56 89 57
45 73 80
53 84 99
63 98 140
42 68 111
56 87 92
55 87 128
52 81 120
46 75 80
54 87 99
58 91 114
53 83 114
49 80 80
50 80 99
50 80 114
53 87 80
56 90 99
53 85 99
55 87 105
54 87 99
49 79 57
55 86 125
56 88 99
60 94 114
57 90 114
56 87 114
63 96 128
61 94 140
59 93 128
53 85 99
48 78 57
55 88 99
47 73 57
59 94 140
58 91 114
59 93 128
59 91 140
58 90 128
57 90 114
56 88 128
57 90 114
58 91 128
58 89 114
58 92 99
58 92 128
59 92 128
53 85 114
59 93 140
52 82 99
58 92 99
60 94 140
45 70 84
56 90 114
58 91 140
52 81 102
61 96 140
62 96 128
54 87 99
52 81 99
59 92 114
55 85 140
54 83 117
54 86 80
51 81 57
57 88 102
55 87 99
60 93 114
50 76 84
58 91 114
59 93 140
52 76 67
61 93 128
52 83 57
49 79 57
50 77 99
38 60 60
49 78 99
42 65 57
44 67 0
50 76 57
39 58 65
70 94 88
167 190 0
161 182 0
175 198 0
166 189 0
169 191 0
171 189 0
178 200 0
173 188 0
176 199 0
164 189 0
170 192 0
174 197 0
174 194 0
170 195 0
176 199 0
134 150 0
108 102 36
105 101 0
106 104 37
102 101 36
102 99 36
75 72 37
97 99 44
107 106 52
126 123 51
116 115 57
157 151 62
124 121 62
116 113 36
135 123 51
87 91 45
116 110 51
115 111 57
97 99 36
141 137 80
142 140 36
146 143 51
141 135 11
137 134 67
148 143 62
140 136 52
116 114 62
126 122 52
135 131 51
139 139 25
147 140 51
159 154 84
118 115 44
136 134 57
129 125 51
168 161 84
151 144 67
151 149 76
148 141 51
147 141 80
152 148 36
145 137 36
167 163 80
170 162 80
139 136 51
164 157 91
156 150 62
150 147 62
133 129 51
166 160 80
170 162 88
165 158 72
140 135 57
157 149 72
164 154 76
158 155 36
144 139 72
161 155 72
174 166 80
149 146 36
170 163 72
164 156 62
149 145 51
158 150 62
164 157 62
160 154 72
168 159 88
166 162 72
167 162 72
169 158 72
181 171 95
165 158 72
162 158 62
156 152 51
167 160 80
148 144 72
173 167 88
156 152 72
174 166 80
170 161 80
174 166 102
174 167 80
175 166 95
151 144 62
169 162 72
164 156 80
172 165 80
145 140 51
148 142 72
164 160 62
164 155 72
170 164 80
172 168 95
166 158 88
161 154 51
146 146 62
160 156 72
155 149 72
161 156 72
166 159 70
157 154 62
169 161 80
148 147 36
170 160 88
171 165 88
155 151 80
151 144 51
178 168 95
173 163 95
160 152 72
170 162 80
162 155 80
162 157 72
167 162 72
167 163 80
168 163 72
164 158 72
170 160 88
159 153 80
166 162 72
175 164 95
170 162 87
157 152 36
162 155 62
167 161 62
171 164 72
169 163 72
165 162 80
169 163 72
172 165 72
172 163 88
160 157 62
178 167 88
162 159 62
170 164 72
169 163 72
177 167 95
180 168 88
173 166 80
151 149 36
183 174 108
166 186 177
164 185 125
168 187 144
148 168 0
176 193 161
179 196 177
155 174 125
162 181 144
156 177 125
162 180 177
164 184 177
176 195 191
169 187 144
160 179 102
165 185 125
170 190 161
167 186 125
155 174 102
157 178 102
163 182 144
170 189 144
180 198 191
170 191 177
162 181 102
169 190 204
156 174 72
161 180 144
154 172 125
167 187 161
147 163 102
164 181 144
163 184 144
148 165 125
161 179 144
164 184 144
162 182 125
175 194 177
155 176 125
172 188 144
163 182 125
178 194 177
146 163 102
169 186 161
166 185 125
170 190 161
166 185 177
173 192 161
166 184 125
169 188 161
153 174 102
155 170 102
169 187 191
178 194 161
164 182 144
167 186 125
166 187 144
170 190 177
161 180 177
168 187 125
166 186 125
164 183 102
170 189 144
161 183 125
174 189 177
165 183 144
157 175 102
147 168 112
155 173 129
154 172 125
158 178 177
137 156 88
149 167 144
163 182 153
136 155 135
157 176 161
154 174 125
142 157 102
144 163 153
162 180 125
162 183 177
158 177 125
147 162 125
168 186 161
132 147 102
138 158 72
165 182 161
162 181 169
148 165 114
144 161 102
142 160 125
113 129 32
130 148 72
146 164 88
165 184 161
146 165 125
122 143 125
161 177 125
156 172 102
147 166 144
147 166 144
165 181 183
140 158 102
163 181 144
171 188 177
119 136 51
134 152 153
162 178 144
171 190 177
159 180 144
149 168 153
147 168 125
151 170 72
143 161 114
121 138 85
151 170 125
124 142 112
131 152 0
105 116 72
144 161 168
161 180 144
102 121 51
98 116 0
141 158 127
84 97 116
139 156 125
136 155 125
132 147 125
116 131 88
127 143 144
72 92 60
131 147 104
116 133 0
96 116 72
85 95 0
84 99 45
127 144 72
116 131 0
119 136 0
69 83 85
124 140 0
166 189 0
181 201 0
158 180 0
161 183 0
170 189 0
170 195 0
169 195 0
170 192 0
174 198 0
168 191 0
161 181 0
166 190 0
171 193 0
168 195 0
165 186 0
167 188 0
156 177 57
50 78 114
60 93 114
46 73 80
46 73 99
49 77 76
62 96 151
54 86 128
48 77 80
54 87 99
55 85 135
56 89 114
56 88 99
51 82 99
57 90 114
57 89 128
53 84 95
57 92 122
54 85 111
59 92 128
56 89 125
52 81 57
60 94 128
59 94 128
53 85 99
51 82 114
57 89 114
55 88 80
40 64 80
56 88 128
55 89 57
57 90 99
57 90 128
51 83 95
57 90 114
60 93 128
54 84 114
59 93 128
55 87 80
53 83 114
57 89 128
58 89 99
57 90 114
57 91 114
57 90 114
53 84 80
51 82 99
54 84 80
55 86 99
52 82 114
57 91 80
58 91 128
60 94 114
53 84 128
51 83 80
62 98 151
53 83 80
56 88 57
58 93 114
57 88 133
60 95 128
52 82 114
59 91 114
59 93 128
53 83 128
56 85 128
56 89 99
53 85 99
49 78 128
55 87 128
55 87 80
52 84 80
54 83 99
56 86 114
50 81 99
56 86 128
51 79 80
49 76 114
53 82 114
60 93 128
51 79 84
59 89 120
51 80 99
55 86 114
47 71 65
59 92 114
49 75 25
117 137 62
171 196 0
172 197 0
157 180 0
163 182 0
168 188 0
162 177 0
169 191 0
171 196 0
165 189 0
171 193 0
178 200 0
164 180 0
176 199 0
174 194 0
166 188 0
171 196 0
159 163 36
85 80 0
108 101 52
117 115 36
30 37 8
101 101 36
135 127 62
108 108 44
100 98 36
124 119 36
92 94 11
119 115 45
83 87 36
88 87 45
126 120 51
117 118 36
127 127 25
143 136 62
120 115 57
139 134 72
146 140 72
134 132 57
141 137 57
156 150 62
126 126 36
136 127 62
140 135 62
148 141 62
121 121 63
136 134 51
136 131 67
160 151 51
106 108 51
142 137 62
158 150 62
148 144 51
103 106 62
154 148 62
156 151 62
172 166 80
157 150 51
139 134 62
156 149 62
151 147 67
147 145 60
161 153 51
144 140 72
158 153 72
156 151 62
148 144 51
147 137 60
138 138 51
128 125 36
144 140 62
149 148 44
172 167 94
151 146 80
137 132 51
149 142 60
164 157 51
150 142 36
141 138 67
155 149 51
163 156 51
167 161 70
167 157 72
146 142 57
171 166 88
156 152 51
157 151 80
175 166 99
155 151 51
171 164 95
162 154 72
160 153 62
166 161 80
161 155 62
150 146 60
152 145 72
151 141 51
150 144 51
158 155 72
156 150 62
158 150 72
145 142 51
139 139 51
170 165 80
155 152 62
163 160 72
175 167 80
143 143 36
174 165 88
159 154 72
165 157 80
161 153 76
154 150 76
168 161 80
175 169 95
163 158 51
156 153 62
170 163 95
165 160 62
156 153 62
162 155 80
158 154 62
163 156 72
170 163 88
152 150 51
173 164 88
169 160 62
171 164 95
155 146 62
175 167 80
162 157 80
170 164 72
174 164 80
162 156 72
175 167 80
166 162 72
171 163 88
165 158 72
164 155 72
158 151 62
162 156 72
176 168 80
171 162 72
170 164 72
164 159 51
173 164 88
165 159 51
156 151 88
165 159 72
170 164 72
162 156 62
177 165 80
167 162 72
168 160 72
175 165 88
172 165 72
172 166 88
164 182 161
165 185 144
163 183 161
164 182 177
168 186 144
165 186 144
155 177 72
169 187 144
166 187 144
169 187 161
182 200 204
170 190 161
176 194 177
174 193 177
173 191 161
177 193 177
159 177 144
158 178 144
162 181 102
168 185 144
146 164 125
164 183 144
165 185 161
167 185 144
173 192 161
154 172 102
167 186 177
167 186 125
159 178 102
162 183 161
166 186 144
166 181 161
165 182 125
149 168 102
163 181 144
152 171 125
161 182 102
171 191 161
164 184 102
164 183 102
174 192 161
173 192 161
158 178 144
161 178 161
167 187 144
164 181 144
169 187 125
164 181 161
170 189 144
170 187 165
161 178 144
171 189 165
174 192 161
152 174 102
162 182 102
167 184 161
167 183 191
171 189 177
167 186 144
138 155 72
134 149 102
157 178 72
164 183 161
179 195 194
160 178 177
167 186 177
154 170 102
160 179 161
157 179 72
159 176 129
129 150 125
174 191 161
156 174 161
132 150 72
162 180 144
161 179 102
164 181 144
150 173 102
150 169 102
154 176 125
157 175 153
168 182 177
172 189 177
165 186 144
166 182 177
162 181 125
146 164 114
151 169 112
124 141 72
152 172 125
145 163 51
138 154 0
155 174 114
153 169 72
157 173 129
167 184 191
151 166 161
144 160 125
164 184 161
161 177 161
165 179 177
125 145 88
130 152 125
152 167 161
155 176 125
146 164 144
145 162 125
138 156 135
127 145 85
142 158 125
155 168 148
148 167 102
131 148 125
115 134 114
135 155 114
101 121 102
131 148 72
124 141 102
134 154 72
150 168 135
133 151 125
150 169 153
107 122 102
124 143 72
111 131 102
101 119 94
135 155 72
134 146 72
96 114 91
139 156 102
115 132 72
93 112 0
94 110 51
72 85 0
126 140 72
125 138 102
100 113 102
105 121 0
142 163 0
168 192 0
164 188 0
155 177 0
170 195 0
161 183 0
173 196 0
175 197 0
163 184 0
165 189 0
149 172 0
151 176 0
156 182 0
160 182 0
151 173 0
147 168 0
180 201 0
142 163 0
175 196 0
125 148 51
49 77 76
49 77 80
35 59 0
50 79 114
38 62 0
54 87 99
48 78 80
57 89 99
59 94 114
49 78 76
53 82 57
60 93 140
49 78 95
58 90 122
50 81 105
52 84 99
51 80 99
51 80 87
58 91 128
59 93 114
54 85 80
52 82 80
56 89 99
61 95 114
54 84 99
55 88 76
58 89 128
61 95 128
48 77 99
53 85 128
54 86 111
55 87 114
56 90 99
57 89 114
60 95 128
51 79 57
59 93 140
56 88 128
53 84 99
57 89 114
54 87 80
50 79 80
60 94 128
59 91 140
58 90 140
56 86 117
56 89 99
51 83 80
58 91 114
58 92 99
63 97 151
54 86 128
48 76 80
60 94 114
48 77 80
56 87 99
52 84 99
55 87 114
58 90 140
52 80 114
57 90 99
52 83 84
59 90 114
53 86 114
50 81 80
53 84 80
55 88 80
57 91 102
52 80 57
50 80 80
50 79 114
51 82 80
61 95 140
50 80 99
58 91 128
55 85 102
52 82 99
54 85 99
46 72 60
51 81 80
54 86 80
48 75 80
37 58 0
37 58 60
85 105 0
158 180 0
154 174 0
161 182 0
166 190 0
169 195 0
164 187 0
157 181 0
171 193 0
168 190 0
162 183 0
164 183 0
160 183 0
166 188 0
162 187 0
169 189 0
160 185 0
154 172 0
177 199 0
110 105 51
72 66 0
94 92 0
79 82 11
92 91 0
111 109 0
127 123 62
94 96 36
122 120 44
135 125 63
124 116 36
104 103 36
127 122 36
139 133 57
132 131 36
89 93 0
149 141 51
133 126 62
93 97 44
158 155 67
165 159 72
144 137 63
151 145 63
139 133 67
131 126 0
148 141 52
146 144 57
167 158 84
155 148 72
155 148 84
136 136 57
152 149 72
138 136 44
164 153 60
149 145 51
166 153 80
159 152 80
144 142 62
153 145 79
154 150 67
147 143 51
164 153 72
148 143 76
152 149 72
159 149 84
159 151 80
161 155 51
143 139 62
153 150 76
169 163 92
155 152 67
143 140 62
141 136 62
142 137 62
158 147 72
142 139 62
160 151 62
158 155 67
178 168 80
147 140 51
177 169 88
148 146 57
167 161 95
154 151 51
162 156 88
164 157 72
159 152 62
153 145 72
150 147 72
147 142 51
177 170 95
169 160 80
177 167 95
177 169 88
149 142 62
177 169 95
173 165 80
178 168 80
161 153 62
177 171 102
159 153 60
149 146 51
157 150 62
146 144 51
161 155 62
161 152 80
157 151 72
169 160 62
158 154 62
166 161 94
165 156 72
168 164 80
166 161 80
168 162 62
184 173 95
150 145 72
152 147 51
164 158 72
168 162 62
156 148 51
157 153 62
163 156 62
159 155 72
176 168 88
170 164 80
154 147 72
168 163 72
166 161 62
176 168 80
170 161 88
143 142 51
161 157 72
176 168 88
170 162 80
164 161 72
167 158 72
170 164 72
164 158 72
170 161 72
161 156 62
167 159 80
177 168 80
180 171 95
164 157 62
171 164 72
171 164 72
161 156 72
150 148 51
159 156 72
160 157 51
162 157 72
155 147 36
177 168 95
170 164 72
168 159 72
157 150 62
143 140 36
170 161 88
170 164 72
165 185 125
165 183 144
157 177 102
169 188 144
169 188 177
168 187 161
170 189 177
169 189 161
183 199 191
164 184 161
150 166 125
145 164 102
164 184 161
164 182 144
163 183 125
164 182 161
170 187 144
162 181 125
178 196 177
176 193 161
160 180 161
162 181 102
161 181 129
153 174 102
183 200 204
165 181 148
146 166 102
163 182 129
163 184 125
157 175 161
179 196 177
170 189 144
163 182 144
164 186 161
165 185 144
174 192 161
165 186 144
160 183 125
159 180 72
157 174 125
169 191 177
156 177 125
170 190 161
168 185 161
176 190 177
167 186 177
171 189 161
156 171 161
153 169 144
162 180 107
153 169 102
139 160 102
155 172 125
161 181 125
177 194 191
163 182 144
160 178 144
161 179 125
159 177 161
156 174 102
171 191 161
158 181 144
164 182 144
139 156 125
145 164 102
172 189 161
157 175 125
159 180 125
159 174 148
145 167 125
153 173 125
158 176 125
148 166 161
156 175 125
177 197 204
171 189 177
141 159 135
154 172 102
157 173 161
169 190 161
158 179 144
155 173 144
164 181 125
161 181 72
160 179 125
151 166 72
161 177 153
170 189 144
151 171 144
162 181 102
141 161 144
140 160 114
135 153 102
133 154 85
161 178 125
167 187 177
121 139 88
153 170 102
166 185 161
139 157 79
156 173 102
149 167 103
137 156 144
161 181 168
151 167 118
171 188 169
151 170 125
154 169 156
157 175 144
134 150 102
167 184 161
118 135 102
141 160 102
113 131 123
148 168 102
150 166 72
153 170 125
109 126 68
161 176 144
128 144 114
141 160 123
151 167 125
139 158 102
119 138 125
111 126 72
118 136 102
121 139 0
122 139 102
110 121 102
117 132 0
104 118 72
106 122 56
101 113 28
99 116 0
124 140 85
104 119 99
90 108 56
129 148 0
155 177 0
157 179 0
154 176 0
169 195 0
169 193 0
168 193 0
165 192 0
170 195 0
172 196 0
159 183 0
164 185 0
167 189 0
164 187 0
165 188 0
163 185 0
173 197 0
171 193 0
164 189 0
177 199 0
164 188 0
84 107 95
54 84 99
45 73 80
49 78 95
44 71 76
54 85 99
53 84 57
46 75 80
53 84 80
56 89 114
54 86 114
43 69 80
55 88 128
58 91 137
53 83 99
53 84 80
57 89 128
59 93 99
57 90 149
54 86 99
58 92 128
62 96 151
56 88 80
52 83 57
57 91 128
54 85 99
51 81 99
53 83 99
53 83 99
53 85 0
56 87 114
55 86 99
56 90 99
50 80 99
55 87 80
59 91 114
53 84 128
57 90 114
55 87 99
59 94 128
54 87 99
53 83 114
49 80 57
57 89 99
53 84 99
53 83 80
51 82 99
53 84 99
56 89 128
61 95 128
45 73 57
52 83 80
55 88 99
44 69 0
59 92 114
47 75 80
56 87 128
52 84 57
58 91 99
60 92 130
52 84 99
56 86 80
54 85 99
59 91 102
54 85 99
56 86 80
58 91 80
54 85 99
53 84 114
53 83 114
47 73 84
55 84 114
49 77 80
55 84 99
52 82 57
53 84 80
48 77 60
50 77 57
60 92 117
50 76 57
54 82 102
40 60 57
43 67 100
42 64 57
156 179 0
126 145 0
158 179 0
160 183 0
168 191 0
167 184 0
171 196 0
156 180 0
171 196 0
147 167 0
168 181 0
165 186 0
157 176 0
160 177 0
165 189 0
174 198 0
165 185 0
155 179 0
163 183 0
171 190 0
98 97 0
94 89 37
100 102 29
116 115 0
117 111 51
90 87 25
40 53 0
138 132 51
120 120 44
126 124 51
156 146 72
141 139 62
96 98 25
100 102 25
144 137 76
150 140 72
129 118 51
123 116 67
149 139 62
116 115 51
145 142 51
139 137 44
135 130 57
136 132 51
133 130 36
149 144 36
115 112 48
154 150 62
131 126 51
149 142 51
141 136 76
128 124 62
161 157 51
141 137 70
125 124 36
135 131 51
112 112 44
158 152 72
156 150 72
150 148 62
147 140 62
148 140 62
167 159 95
164 157 62
149 143 76
148 144 62
164 157 72
142 138 62
142 138 44
161 159 62
157 149 51
158 150 72
160 154 80
148 145 57
161 154 51
149 145 51
141 133 51
142 136 62
155 149 51
164 159 80
171 165 80
146 143 72
151 146 67
152 145 62
144 141 62
150 142 62
169 162 62
151 146 51
159 153 80
144 143 51
157 150 72
161 156 79
158 153 80
158 151 70
157 153 51
170 163 95
153 152 62
163 155 51
157 149 80
140 141 36
147 139 62
161 156 72
139 136 62
164 154 72
159 155 62
165 159 51
166 158 62
170 161 80
178 169 95
159 152 80
161 156 36
162 154 72
142 138 51
149 145 62
158 151 51
164 157 51
153 153 36
165 160 94
176 167 80
170 165 80
167 159 80
154 151 36
172 162 72
156 149 51
162 153 62
169 162 62
167 160 72
168 161 80
172 164 88
163 154 72
155 149 62
151 147 51
171 166 88
154 152 62
162 158 80
167 158 80
162 157 72
171 162 80
162 155 72
156 151 72
176 169 95
174 164 80
165 161 72
165 160 62
167 161 62
157 148 72
158 151 51
166 158 88
143 139 0
157 153 80
170 163 72
177 163 80
173 163 88
175 167 80
177 167 88
166 162 72
168 158 62
168 159 88
148 165 72
165 185 144
161 180 125
170 185 177
173 193 177
170 189 144
170 191 177
186 201 191
165 185 144
156 173 72
165 182 161
172 191 161
175 194 191
161 181 125
173 191 144
179 196 191
175 193 177
159 178 144
166 185 144
159 178 107
158 176 125
168 186 161
165 185 144
168 187 125
158 175 102
140 156 72
158 179 72
172 190 144
163 182 125
159 179 144
170 189 144
150 168 125
177 195 177
172 190 144
147 163 102
159 179 125
163 183 125
155 171 102
160 180 102
166 181 148
157 177 125
166 185 161
157 177 102
169 189 144
178 195 161
157 176 102
160 180 144
163 179 102
174 192 161
164 186 144
153 174 102
163 178 144
164 184 144
164 185 125
174 193 177
155 177 102
131 150 102
172 189 161
161 183 125
162 179 125
163 180 125
166 187 144
164 182 153
160 179 125
169 185 177
172 188 177
155 169 102
153 171 102
166 186 144
166 181 161
167 183 125
168 188 144
151 169 125
151 168 102
170 187 177
158 174 102
156 174 161
151 172 135
134 153 153
149 168 125
165 184 144
169 186 161
159 178 148
165 183 161
163 183 161
135 151 125
162 182 102
170 190 161
154 174 125
146 166 102
144 159 107
147 161 144
139 154 135
165 183 144
144 159 153
135 153 125
131 154 88
158 174 144
151 170 125
138 152 144
154 172 125
141 156 125
148 164 125
152 165 148
157 173 144
141 156 144
158 175 144
165 182 125
115 131 102
154 168 148
130 149 72
153 169 102
132 149 32
157 176 102
136 153 133
113 129 102
142 158 102
130 149 125
147 165 102
144 161 102
127 146 85
83 104 51
75 94 45
122 133 107
94 114 102
104 120 88
140 157 102
115 132 51
89 99 80
92 111 0
143 161 0
118 138 32
110 127 88
115 133 85
60 74 0
104 119 88
118 134 72
155 177 72
160 185 0
126 149 0
146 167 0
146 168 0
165 187 0
160 184 0
154 176 0
171 194 0
162 182 0
173 197 0
164 188 0
168 192 0
149 169 0
147 169 0
172 192 0
154 175 0
171 193 0
150 172 0
172 197 0
164 187 0
140 161 0
40 63 76
56 86 108
50 81 80
42 68 99
52 83 99
53 82 114
56 88 99
53 83 99
52 83 114
49 78 114
51 81 80
59 92 114
51 83 88
59 93 114
61 96 151
46 76 0
51 81 57
51 80 99
47 75 99
57 90 114
51 80 80
59 91 114
51 82 80
52 83 80
58 91 128
59 93 99
56 88 114
52 84 80
61 97 140
51 82 114
54 85 80
51 82 80
57 90 114
55 87 99
56 90 114
54 86 80
59 93 99
62 97 140
53 86 80
56 90 114
55 86 99
56 87 128
54 86 80
57 91 80
53 84 99
53 84 99
53 85 57
53 85 80
53 81 114
60 93 140
54 87 99
54 85 114
51 80 25
53 85 114
62 98 151
58 89 114
56 88 128
55 89 128
55 86 84
62 95 140
53 85 114
50 77 80
60 93 140
59 90 128
56 89 128
52 83 80
50 80 62
52 83 99
60 92 117
55 87 102
46 70 99
51 81 57
58 92 99
52 83 114
48 73 57
44 70 25
51 78 99
53 81 99
46 69 62
58 92 80
50 76 80
45 68 57
113 128 25
165 185 0
150 162 0
164 183 0
171 196 0
164 185 0
162 183 0
159 184 0
152 172 0
163 179 0
167 185 0
165 188 0
168 190 0
170 192 0
166 185 0
152 164 0
173 191 0
170 196 0
167 186 0
167 189 0
167 187 0
175 195 0
103 100 0
100 97 25
94 88 37
107 104 25
104 99 25
122 120 25
120 118 36
134 131 51
138 128 51
125 121 36
123 113 36
107 106 36
139 139 0
119 113 37
143 139 51
141 135 0
134 130 0
134 130 51
150 148 36
163 153 80
154 145 36
130 127 62
122 119 36
123 119 0
161 152 51
145 139 51
142 137 57
159 155 62
149 141 72
150 140 72
162 152 76
139 131 72
140 137 44
119 112 62
141 139 67
128 127 0
159 155 48
157 153 57
152 149 36
173 164 88
137 132 62
156 149 51
145 135 51
167 161 88
135 130 62
155 149 62
149 145 51
141 135 36
148 143 51
174 167 80
154 148 62
143 140 62
159 151 72
161 153 72
158 151 72
143 137 36
165 159 88
161 158 51
150 145 36
162 156 72
160 155 72
128 118 36
163 159 62
157 152 84
161 158 80
151 144 72
160 155 72
173 163 88
166 160 62
161 151 72
150 143 51
170 163 88
159 153 80
164 156 72
167 161 84
157 150 62
157 149 51
156 152 36
165 160 62
162 159 70
173 165 95
162 155 62
160 155 72
177 170 95
158 151 72
158 151 62
149 143 51
149 142 62
168 161 95
181 171 95
175 167 80
154 146 62
155 151 62
141 133 51
172 165 72
174 164 80
160 155 62
177 167 95
160 157 51
158 156 76
173 164 72
170 165 80
150 146 51
157 154 62
152 144 62
168 163 72
179 170 88
148 140 51
164 156 80
149 145 51
165 160 62
148 145 51
171 162 72
177 167 88
164 160 62
175 167 80
175 164 80
161 158 51
148 144 62
169 161 72
169 163 72
165 159 72
168 162 62
165 161 72
172 166 88
167 159 62
185 174 95
158 152 62
164 158 62
175 167 80
156 147 62
180 169 80
165 161 72
160 155 72
173 165 95
177 166 88
177 169 88
171 191 161
163 183 161
161 181 125
152 172 102
164 183 125
169 188 144
173 190 177
169 189 144
153 175 102
150 166 125
167 185 161
171 190 161
169 189 161
153 173 102
158 176 125
151 166 125
157 176 144
161 182 102
170 187 161
153 173 102
155 173 161
153 172 102
183 200 204
160 183 125
170 189 144
165 185 144
164 183 144
180 196 191
163 182 144
172 191 161
177 194 161
169 187 177
158 177 102
168 187 144
155 174 72
170 188 177
171 190 161
161 181 125
164 180 144
171 190 161
155 174 144
163 183 161
167 186 177
173 191 177
161 182 102
155 171 125
162 181 102
157 178 144
166 184 125
159 178 125
167 184 144
165 184 144
160 175 107
153 172 125
168 188 144
166 187 144
162 182 102
166 185 102
163 183 125
169 189 161
159 176 125
161 180 107
150 165 125
155 175 125
129 146 72
167 187 144
142 161 144
157 174 102
143 163 102
144 164 72
150 169 102
169 188 161
165 182 144
168 188 144
141 163 72
169 186 161
156 174 125
160 177 169
155 172 168
146 164 125
170 190 161
152 169 144
155 170 125
154 173 135
159 178 144
166 188 161
172 191 161
149 168 125
152 172 161
143 162 125
165 183 125
127 148 51
163 177 129
147 165 135
161 178 161
146 161 153
168 185 177
145 164 72
152 172 135
160 179 125
152 164 125
159 176 161
137 155 102
143 158 79
152 170 102
138 155 102
135 154 72
149 166 144
152 169 125
145 165 135
139 155 125
127 143 102
144 159 125
150 170 72
162 177 153
142 157 144
135 152 114
112 131 0
147 164 72
124 141 102
126 145 135
134 151 102
128 145 72
125 140 102
144 161 102
107 125 0
96 110 88
121 137 72
106 118 72
141 160 102
90 107 0
99 113 88
91 109 51
120 135 125
112 125 72
102 118 0
124 143 0
158 180 0
179 199 0
173 194 0
167 193 0
168 190 0
151 174 0
177 199 0
160 182 0
152 176 0
171 196 0
166 190 0
155 179 0
150 171 0
171 191 0
173 195 0
164 188 0
159 180 0
134 156 0
162 182 0
170 188 0
158 181 0
147 168 0
128 149 57
47 76 0
51 82 76
50 80 76
52 83 80
48 77 76
60 94 137
51 81 99
45 72 57
52 83 80
56 86 114
57 90 128
57 92 99
51 82 80
47 76 57
51 80 80
53 85 99
59 92 95
52 85 57
49 78 80
49 80 0
55 88 99
53 85 114
59 94 114
55 88 99
57 90 99
54 85 99
53 83 80
59 92 114
59 93 114
53 85 128
58 90 128
60 93 114
47 76 80
53 85 80
59 91 99
56 89 114
55 88 114
57 88 114
58 91 99
61 93 125
58 91 128
58 94 128
57 91 128
49 81 80
54 86 114
60 94 114
60 94 128
51 82 80
49 79 80
59 92 114
50 81 99
59 94 114
52 83 57
47 75 80
53 84 57
54 84 114
63 96 140
54 88 57
62 97 140
51 81 80
50 79 114
54 85 80
46 72 99
56 85 99
59 90 117
50 79 80
57 89 128
56 89 114
51 78 57
47 77 80
60 93 114
56 88 128
53 82 80
42 62 80
50 78 99
51 79 57
55 84 114
45 73 80
49 73 84
40 62 80
106 126 57
153 177 0
171 192 0
166 189 0
166 187 0
157 176 0
163 188 0
147 165 0
173 193 0
160 179 0
168 191 0
143 165 0
162 182 0
172 196 0
160 181 0
162 183 0
166 186 0
174 194 0
170 189 0
167 184 0
140 151 0
150 171 0
167 183 0
155 165 0
91 88 36
115 111 52
92 94 25
105 100 0
112 114 25
110 105 44
117 113 51
110 103 51
93 95 25
104 104 51
131 128 51
144 135 62
142 139 57
87 87 36
123 121 51
146 144 44
131 131 36
141 135 62
119 121 0
138 134 51
146 135 63
117 114 51
128 122 62
157 151 72
121 120 51
144 137 62
131 125 62
114 115 25
155 149 72
147 143 72
146 144 72
163 151 72
154 146 72
151 144 36
139 136 76
160 154 72
143 140 36
147 144 75
145 140 51
137 135 57
157 152 72
164 154 51
137 133 0
143 138 51
154 147 62
150 148 48
141 136 44
178 166 95
159 152 67
144 140 67
160 150 67
163 157 80
138 132 76
140 139 36
155 152 62
155 146 36
161 155 51
164 157 72
141 134 51
147 142 36
160 153 51
153 146 80
165 162 80
142 136 51
166 158 62
174 167 102
164 156 76
160 153 51
156 150 72
153 147 62
160 156 72
166 158 62
140 136 36
145 140 36
157 152 72
162 155 88
164 156 62
155 149 57
167 162 72
156 147 80
171 165 80
159 155 62
147 141 51
156 151 72
164 155 72
150 142 62
162 155 62
181 171 88
165 160 62
144 141 51
169 160 72
165 160 62
172 163 80
167 161 62
170 159 80
165 157 62
163 157 62
163 156 51
164 157 62
154 150 51
151 148 62
159 151 60
167 160 72
158 153 36
147 142 51
156 148 36
160 152 72
171 164 72
158 147 51
169 163 72
153 147 51
171 164 72
157 151 62
154 149 51
160 152 62
157 149 62
163 156 60
167 161 62
160 154 72
173 167 88
174 167 88
175 168 88
177 170 95
165 160 62
163 157 62
167 160 80
170 164 72
173 164 80
161 159 62
169 162 80
169 163 72
169 163 72
166 161 62
169 163 72
163 153 72
154 148 51
162 182 125
164 184 102
181 199 204
167 186 125
176 195 191
155 177 102
145 162 72
169 188 144
173 193 177
160 180 144
156 174 125
170 190 161
170 186 161
153 174 72
174 189 177
171 187 144
175 194 177
164 185 125
165 185 144
165 181 144
127 146 0
162 183 102
155 176 125
160 177 161
137 157 102
167 186 125
163 183 161
146 163 102
178 196 191
165 178 148
162 183 144
158 177 102
163 181 144
163 179 161
162 180 125
162 182 144
151 172 0
173 190 191
174 188 177
162 180 144
166 183 102
162 180 144
163 181 144
164 184 144
166 185 161
153 173 125
153 169 125
163 181 144
156 173 125
167 188 144
166 185 161
149 167 125
154 172 72
153 172 125
156 174 144
162 179 102
156 173 102
172 190 144
117 138 51
161 181 102
145 166 72
160 176 161
169 186 161
182 200 204
162 182 125
146 164 102
160 179 144
175 194 177
171 188 161
158 178 125
150 170 102
148 167 144
171 184 165
177 195 177
162 182 125
152 168 102
147 166 125
159 177 144
156 175 125
172 190 161
146 167 125
147 167 125
147 166 114
141 156 107
158 176 144
155 171 125
143 160 72
136 157 88
139 153 114
161 180 144
143 159 102
151 170 135
167 187 144
130 150 72
162 181 102
164 183 125
138 154 94
144 162 125
154 174 72
131 145 125
176 191 161
150 166 72
155 174 125
143 161 114
130 149 0
140 154 125
139 155 60
122 137 118
160 179 144
128 147 72
153 171 125
162 180 169
164 184 102
116 135 0
117 136 85
117 136 102
147 167 102
127 145 72
108 123 72
133 146 72
126 147 102
110 122 102
119 138 72
137 155 102
111 125 72
94 110 72
136 152 153
121 137 72
114 130 102
128 146 72
59 78 0
108 123 88
109 124 1
122 136 135
109 125 0
132 153 45
166 188 0
146 171 0
169 190 0
169 191 0
148 170 0
162 185 0
160 182 0
160 184 0
161 180 0
165 188 0
164 183 0
178 200 0
162 184 0
151 173 0
145 169 0
163 187 0
154 177 0
162 184 0
158 183 0
172 197 0
154 176 0
144 166 0
165 188 0
158 183 0
106 129 57
46 74 57
46 74 101
51 83 108
42 69 99
47 74 114
54 85 125
58 90 114
36 61 0
51 80 80
52 82 80
60 94 114
43 70 80
55 88 80
55 87 114
53 84 80
54 87 80
55 88 99
52 83 57
51 81 95
59 92 128
61 95 151
61 95 140
56 88 114
53 85 99
58 91 99
58 92 99
58 91 128
50 81 57
58 93 99
58 91 114
49 77 99
53 83 114
53 85 57
57 88 128
53 85 80
57 89 114
48 77 57
63 99 151
53 86 57
55 86 114
56 89 99
49 79 80
54 85 114
56 89 99
48 75 80
54 84 140
55 85 114
58 92 128
55 86 128
59 92 114
47 76 80
54 84 57
59 92 114
50 80 99
55 87 114
58 91 99
44 70 99
52 83 80
59 90 114
58 91 128
56 90 99
48 74 80
55 87 0
41 64 57
53 83 80
53 83 57
60 94 128
45 71 99
53 81 84
55 87 80
48 73 84
50 77 99
51 80 80
51 77 80
54 82 25
49 75 57
43 66 80
50 79 80
89 110 57
147 169 0
149 169 0
127 139 0
165 189 0
164 181 0
165 188 0
141 146 0
148 164 0
141 155 0
168 195 0
153 174 0
155 173 0
156 177 0
173 190 0
172 196 0
155 166 0
157 176 0
160 178 0
163 185 0
162 182 0
173 197 0
157 176 0
143 163 0
162 179 0
146 152 0
83 78 0
109 109 0
108 106 0
99 93 44
100 95 36
120 117 57
108 105 25
127 125 0
90 89 37
106 107 25
123 117 51
126 123 62
123 124 62
136 129 51
151 143 72
113 110 44
135 128 62
132 131 57
115 113 36
141 134 62
136 132 51
126 120 48
139 132 36
143 137 72
144 136 62
153 147 51
115 114 58
133 128 72
147 142 68
152 146 72
147 140 62
139 135 36
156 148 62
156 149 70
153 147 62
135 127 51
122 123 36
140 135 75
138 134 51
159 152 62
150 147 57
155 150 67
119 119 57
152 147 72
146 139 62
166 158 84
158 154 62
159 155 48
149 147 36
150 141 62
157 151 62
161 155 70
163 150 72
155 147 70
162 155 72
166 157 72
153 147 51
158 155 72
138 137 51
161 155 62
164 157 72
165 158 72
137 130 36
161 154 72
149 146 72
154 151 62
166 159 80
168 158 95
144 140 51
171 166 88
170 162 94
163 155 80
152 147 62
156 151 51
167 160 80
163 156 72
143 136 51
162 157 62
158 156 51
180 169 87
164 159 51
162 154 80
159 152 62
172 166 80
147 144 51
161 153 62
162 159 62
172 162 88
156 152 57
159 149 62
155 152 51
164 157 62
169 163 72
170 164 80
134 131 51
165 160 80
171 165 80
161 155 51
168 163 72
168 161 80
174 167 88
153 149 36
173 166 80
150 143 62
171 160 80
153 145 62
160 152 62
157 150 62
151 144 62
146 147 36
158 150 62
164 158 80
172 166 80
176 167 80
161 154 62
175 167 80
162 156 62
166 160 95
178 168 80
168 158 72
170 161 72
161 156 72
170 163 72
162 158 62
172 166 80
154 149 62
168 160 80
172 166 88
165 154 80
144 142 36
170 162 80
169 162 62
171 163 88
156 151 51
165 160 62
167 185 144
163 183 102
166 186 125
162 181 102
159 176 144
163 181 144
156 175 144
166 186 125
160 178 102
165 185 125
168 188 144
153 173 102
166 186 125
170 187 144
153 167 102
158 177 144
155 171 125
159 178 125
158 180 125
174 193 177
156 175 72
168 185 161
163 180 144
165 183 144
174 192 161
174 192 161
177 195 177
160 180 102
179 196 177
164 185 125
163 180 125
172 191 161
154 174 72
157 176 102
170 189 161
161 178 144
172 190 177
154 173 72
159 178 102
134 154 102
162 182 161
170 188 177
170 188 144
168 188 144
155 175 102
146 166 102
157 173 107
163 182 144
164 183 144
167 183 144
163 181 102
161 182 102
173 191 161
160 182 125
166 185 144
162 178 161
158 179 72
151 170 102
161 180 144
169 189 177
168 188 144
162 180 144
175 193 161
160 179 125
151 171 125
161 175 129
167 185 102
166 184 102
169 187 161
150 166 102
178 196 191
159 174 125
170 189 161
168 186 144
161 178 144
161 174 129
166 184 144
160 176 32
169 186 177
163 181 144
156 174 125
158 174 144
155 175 144
152 172 183
176 193 161
161 181 144
146 164 144
149 171 102
148 166 144
161 179 125
148 167 125
148 168 125
133 151 72
131 152 72
149 166 144
167 183 161
172 188 169
153 169 153
145 163 72
148 167 102
153 171 72
147 165 153
155 168 102
149 168 125
151 165 144
174 191 144
123 141 72
130 149 114
155 174 148
154 170 139
140 158 153
118 136 114
122 139 0
154 168 102
151 166 102
148 166 102
144 161 135
148 166 125
122 143 45
116 128 72
120 136 88
104 119 0
135 156 99
129 144 72
126 144 114
139 153 72
95 115 51
126 143 102
127 144 125
111 128 0
84 101 88
85 100 0
131 147 72
93 108 72
148 165 72
161 183 0
166 187 0
164 186 0
151 174 0
156 179 0
158 180 0
158 179 0
126 146 0
163 184 0
167 185 0
158 179 0
121 143 0
153 175 0
152 174 0
150 172 0
156 179 0
146 167 0
150 173 0
164 190 0
131 152 0
137 158 0
153 173 0
161 182 0
158 179 0
150 169 0
154 177 0
117 137 57
53 82 80
48 77 57
50 79 120
54 84 114
47 75 76
52 83 99
46 75 57
46 75 57
58 92 140
46 73 57
54 86 111
49 78 118
55 87 57
53 85 80
62 96 140
53 84 99
55 87 99
49 79 0
52 83 80
49 78 80
55 89 114
48 77 99
53 86 80
46 74 80
50 80 80
48 78 80
56 89 99
58 90 80
54 87 114
58 92 140
55 85 114
58 89 128
56 88 128
56 88 80
59 93 99
59 93 128
56 88 114
52 82 80
54 85 57
57 88 114
53 84 80
61 95 114
51 82 57
51 80 99
55 87 57
53 83 128
53 84 99
50 80 80
54 86 80
47 75 57
47 76 80
56 90 80
57 91 80
57 90 99
58 89 128
52 81 114
58 89 114
50 82 114
57 88 99
50 81 80
58 92 114
56 89 114
50 77 57
62 97 128
52 83 57
47 76 99
43 68 99
51 82 57
53 83 99
54 83 114
53 80 36
47 76 80
47 70 67
51 80 80
42 66 25
51 80 80
68 86 0
129 144 0
163 183 0
154 172 0
171 196 0
157 173 0
152 166 0
139 159 0
153 168 0
163 184 0
165 179 0
161 183 0
155 172 0
154 163 0
151 169 0
162 186 0
145 159 0
150 171 0
154 169 0
153 171 0
159 174 0
160 182 0
163 180 0
169 188 0
169 188 0
157 174 0
154 175 0
118 125 0
110 108 36
110 103 51
111 101 36
78 73 44
106 103 36
124 120 51
113 113 51
112 111 0
129 122 51
107 108 37
107 104 0
132 124 36
143 141 0
125 122 44
116 116 44
144 142 36
145 140 72
118 113 44
126 122 62
124 116 51
120 118 0
167 161 80
154 146 72
134 131 67
140 138 67
132 129 51
139 139 36
155 150 72
133 131 57
160 153 76
141 135 51
139 133 62
153 151 60
169 163 72
151 143 70
154 149 67
159 152 80
151 141 72
160 152 80
147 142 51
154 149 62
164 154 72
129 127 62
137 134 67
126 116 62
157 150 62
145 141 62
148 140 36
160 153 80
141 133 51
157 153 62
159 150 62
162 155 80
147 142 51
161 156 72
150 145 72
146 138 72
158 150 72
167 161 62
152 144 62
157 148 80
153 151 51
171 164 95
136 134 36
169 160 72
163 158 51
153 150 51
164 160 62
142 141 44
168 160 72
176 168 88
154 151 51
150 142 51
170 165 80
162 158 88
153 151 0
159 149 62
160 152 62
156 148 51
155 149 51
165 158 72
144 136 62
165 161 72
139 136 51
158 151 72
173 166 80
164 160 72
163 158 80
158 150 62
158 152 62
163 158 62
175 168 88
159 153 62
154 151 51
151 143 51
158 156 51
154 149 62
156 151 51
161 154 72
167 163 80
171 161 80
162 157 72
169 162 62
180 171 95
164 152 62
154 146 62
147 144 36
153 146 62
176 167 95
166 156 72
163 155 80
173 164 80
145 140 36
173 166 80
167 161 88
169 164 80
174 165 72
167 160 62
165 158 72
162 153 62
169 163 72
170 164 80
162 159 62
181 172 95
162 150 72
169 159 72
171 164 72
171 165 80
170 163 72
164 155 62
149 144 51
171 165 80
172 163 88
166 159 72
166 183 177
165 185 125
158 178 144
161 180 102
173 192 161
154 175 102
169 188 144
171 189 161
179 196 177
179 195 191
175 193 161
163 181 125
166 184 161
140 161 125
159 174 125
168 184 161
168 187 144
178 196 177
162 178 125
161 181 125
161 177 161
169 188 161
155 177 144
175 192 177
161 182 102
166 187 144
167 183 144
161 180 144
154 172 72
163 184 125
151 173 125
153 175 125
164 185 125
160 180 144
156 175 102
157 173 161
145 165 102
163 182 125
156 173 125
160 181 102
164 181 144
156 177 72
161 183 125
161 183 125
169 188 161
181 197 177
152 174 125
146 163 102
168 187 144
160 180 102
146 165 102
166 183 165
167 187 144
161 179 102
162 180 125
176 195 191
167 184 129
138 151 102
168 181 125
155 176 102
151 170 144
131 149 125
158 175 144
162 183 125
154 171 125
170 186 161
167 185 161
167 185 125
155 174 144
157 176 102
163 182 144
174 192 161
148 170 102
162 183 102
159 176 161
135 151 102
156 173 144
156 176 125
149 170 125
160 180 102
168 185 161
172 188 177
140 161 72
157 172 144
155 173 144
166 182 161
128 144 72
144 164 102
155 172 144
123 133 79
153 173 72
143 163 102
167 184 161
152 170 144
161 176 177
164 178 161
126 149 0
165 184 125
143 160 102
153 167 169
150 167 161
146 161 125
143 162 72
133 152 72
147 157 133
156 174 144
121 140 72
128 146 114
152 171 125
123 140 102
144 158 125
142 160 102
139 156 72
124 138 102
134 151 102
147 162 102
116 131 135
87 102 94
94 109 0
122 140 72
128 144 72
125 142 0
145 163 125
127 143 102
119 136 88
125 141 102
149 168 125
118 130 125
104 120 72
136 154 102
83 101 51
127 145 88
105 120 0
156 179 0
163 186 0
167 189 0
161 183 0
167 189 0
145 167 0
164 187 0
167 187 0
140 161 0
141 164 0
152 174 0
146 166 0
157 178 0
165 187 0
151 171 0
162 184 0
146 168 0
152 175 0
165 188 0
142 162 0
136 157 0
132 152 0
160 180 0
152 176 0
147 171 0
163 188 0
134 155 0
123 143 0
156 179 0
86 112 84
51 82 99
50 81 76
52 82 80
45 73 80
56 88 99
52 84 80
53 85 80
62 96 140
55 87 99
51 82 80
46 74 57
55 86 80
46 74 57
58 91 114
55 86 114
52 83 80
49 76 57
47 78 80
56 87 114
60 94 137
50 80 80
46 73 57
53 85 99
58 91 114
45 71 0
58 92 99
56 89 80
52 83 99
50 79 57
56 89 57
47 74 80
57 91 99
57 89 114
54 85 128
52 82 95
56 89 128
57 88 99
56 88 80
55 86 114
53 84 80
58 90 140
46 74 57
52 82 80
48 77 57
49 77 99
49 79 80
51 80 128
57 89 128
48 77 80
59 93 99
56 88 80
54 86 114
56 89 114
47 74 57
56 89 99
56 85 117
55 86 114
58 88 99
52 81 99
55 87 114
56 85 80
57 90 114
43 66 80
56 87 80
55 88 57
61 95 114
54 83 114
58 91 114
46 72 100
39 60 25
51 77 115
49 77 99
46 72 80
46 74 57
44 67 57
140 157 0
140 156 0
149 167 0
140 159 0
147 170 0
146 160 0
158 173 0
165 189 0
163 183 0
153 173 0
153 175 0
163 187 0
178 190 0
158 177 0
167 183 0
139 156 0
153 171 0
151 169 0
138 149 0
144 162 0
142 149 0
176 192 0
160 179 0
161 178 0
162 183 0
166 179 0
136 148 0
147 163 0
150 150 0
135 128 36
100 98 0
97 95 36
111 108 51
114 109 44
118 116 36
129 127 0
111 100 51
158 152 84
90 91 44
143 135 51
132 128 36
125 121 0
140 138 51
138 134 51
138 130 72
133 129 51
127 124 52
154 148 72
156 149 51
139 137 36
170 159 88
157 148 62
128 118 0
145 137 62
146 142 51
110 110 0
165 156 80
145 142 72
152 146 67
133 127 44
139 130 62
159 152 72
128 118 51
137 129 36
123 118 48
153 146 62
132 127 51
142 134 51
169 160 72
142 138 62
147 140 72
136 133 36
136 133 57
148 142 62
157 151 51
155 147 72
142 141 0
170 160 70
145 138 36
135 131 51
152 147 36
149 144 67
167 158 62
154 147 67
158 154 62
162 153 72
164 160 62
140 133 51
158 153 36
147 145 62
144 139 62
168 162 62
154 151 36
146 141 60
155 151 51
166 156 62
163 154 62
160 155 72
159 151 62
161 154 72
144 140 51
146 143 51
183 172 95
167 159 72
168 158 72
171 164 72
152 147 51
172 166 80
165 157 72
147 136 36
159 152 62
150 146 62
168 161 80
164 158 62
176 166 88
173 163 72
152 146 51
163 158 62
176 168 88
149 146 62
157 151 76
159 155 72
162 154 72
174 168 88
155 153 62
165 157 62
173 165 88
168 161 62
167 160 72
173 166 80
161 156 62
162 153 51
160 150 62
170 165 80
157 149 51
169 163 72
151 147 62
166 159 72
164 157 62
152 149 36
160 153 72
151 144 72
169 163 72
171 165 80
147 137 51
162 156 72
167 160 62
172 160 80
172 166 80
173 165 80
163 155 62
169 161 72
157 145 51
166 159 80
169 161 72
169 162 62
161 156 72
172 163 80
161 157 80
153 145 62
167 160 72
172 165 80
173 191 161
166 185 144
179 193 161
154 174 102
167 187 144
162 182 125
163 182 102
165 184 102
164 183 125
162 180 102
164 185 125
164 182 161
169 189 161
171 189 161
158 178 72
174 193 204
156 173 144
164 182 144
166 186 125
164 185 125
166 184 161
160 176 161
176 193 177
154 172 72
161 179 144
154 175 102
166 187 144
156 176 125
172 188 177
164 184 144
172 189 144
166 179 144
170 189 144
161 181 72
161 181 144
165 186 161
162 181 125
156 176 125
162 181 102
162 182 161
154 177 72
151 170 153
165 183 144
159 179 102
168 186 161
158 174 144
178 192 177
168 187 161
171 187 161
157 175 102
162 181 102
175 189 165
166 185 168
162 182 144
167 185 144
171 191 161
150 169 102
161 179 102
151 166 144
151 172 102
155 173 144
160 179 135
151 171 125
140 159 102
158 177 125
146 164 72
146 163 114
124 143 72
146 162 125
167 186 144
140 160 102
169 186 177
150 169 72
161 176 144
136 157 72
165 186 144
144 161 102
142 159 102
144 162 102
158 177 79
127 147 88
142 162 72
156 173 125
153 171 125
162 179 144
138 156 125
156 172 129
164 177 144
153 173 151
152 170 0
145 158 129
167 185 153
156 173 125
162 175 161
156 176 125
145 164 102
144 163 125
157 175 125
128 148 125
154 171 144
115 131 88
115 137 72
157 175 144
115 133 72
138 157 88
146 166 72
145 162 125
131 146 102
134 148 72
135 153 72
128 142 0
146 163 114
141 158 125
134 152 102
150 169 102
151 168 144
147 163 125
138 152 102
134 153 72
134 151 72
133 147 112
133 151 125
97 114 72
138 148 102
128 145 125
100 120 0
129 145 72
120 137 88
98 113 0
140 157 72
112 130 102
35 54 51
120 139 0
166 187 0
150 172 0
161 185 0
153 173 0
154 175 0
144 160 0
152 172 0
138 163 0
147 171 0
167 191 0
133 155 0
156 178 0
142 165 0
151 171 0
156 176 0
154 176 0
137 155 0
152 170 0
141 163 0
158 177 0
161 183 0
170 189 0
165 187 0
147 169 0
145 167 0
153 174 0
144 167 0
147 169 0
135 160 0
137 157 57
68 94 0
46 75 57
49 78 57
49 77 57
53 84 114
46 76 57
46 72 99
51 80 99
51 81 57
39 64 76
51 81 99
58 91 99
43 70 57
50 80 57
50 80 57
53 83 99
46 72 57
58 90 114
56 90 80
60 94 114
49 79 80
51 82 80
53 85 99
59 94 114
59 91 114
56 89 95
54 86 114
41 69 80
47 76 57
50 79 99
58 89 128
56 90 114
54 84 99
57 89 140
45 73 80
50 80 80
47 77 57
51 80 99
46 75 80
54 86 99
55 84 114
54 86 114
47 75 80
61 96 128
58 92 99
59 92 114
54 86 57
59 93 99
59 91 84
50 81 57
49 76 80
58 91 140
44 69 99
51 83 114
45 72 57
37 59 57
48 77 57
58 92 80
56 88 57
41 64 57
46 74 80
54 86 114
53 85 57
48 78 80
53 85 114
43 68 80
49 75 80
56 86 114
49 77 57
54 83 80
55 84 128
44 68 57
48 72 62
76 95 80
128 148 0
102 123 0
120 140 0
134 151 0
143 160 0
154 171 0
142 153 0
153 173 0
142 156 0
156 171 0
125 140 0
134 152 0
144 164 0
125 141 0
138 150 0
150 172 0
160 183 0
158 174 0
142 158 0
166 183 0
141 153 0
160 182 0
154 170 0
144 155 0
148 166 0
148 161 0
150 156 0
162 178 0
176 192 0
161 174 0
133 148 0
98 94 0
94 88 0
112 108 44
126 123 36
146 137 51
125 113 0
150 141 62
110 102 36
121 117 44
98 95 36
106 100 0
127 127 36
134 131 62
98 90 0
142 139 62
101 102 25
151 144 62
131 128 11
125 122 51
170 164 72
127 121 51
128 123 0
122 121 51
149 145 48
146 136 62
135 131 36
131 132 25
146 136 62
92 87 0
151 143 72
152 144 51
139 135 51
160 155 62
142 137 51
174 165 88
149 145 51
129 123 0
152 142 62
173 164 88
161 153 62
126 123 36
128 123 36
157 153 51
150 146 51
168 162 88
167 156 72
154 146 62
135 127 51
155 149 62
158 153 80
167 158 62
162 152 62
146 140 51
157 149 67
163 157 72
170 161 72
137 131 57
143 139 51
159 152 72
173 166 80
170 163 62
164 160 62
146 141 51
173 164 88
162 151 51
155 147 72
165 156 80
159 151 62
161 155 62
170 160 80
163 158 51
157 152 51
157 149 62
153 142 62
178 169 88
164 158 80
163 155 72
155 149 51
161 154 80
147 145 51
145 141 0
146 143 36
142 138 51
154 149 62
174 166 80
163 157 72
166 160 80
160 153 72
159 150 72
170 164 88
134 128 51
161 154 88
158 151 51
163 157 72
170 164 72
151 144 48
158 153 62
177 169 88
169 161 80
162 155 51
168 163 72
168 160 72
164 157 62
169 160 80
154 145 51
148 142 62
176 168 80
164 156 88
161 156 62
162 156 72
177 169 88
160 151 62
178 170 95
162 156 72
151 146 0
163 156 62
160 156 72
173 165 88
157 153 62
164 160 88
174 166 80
169 161 80
143 135 36
150 142 62
156 152 62
154 148 62
164 155 62
160 154 72
173 164 80
158 154 36
154 146 51
154 148 36
164 183 144
163 183 102
169 187 144
173 191 177
184 201 204
175 194 177
162 179 102
165 182 144
167 186 125
157 175 125
162 178 125
160 176 102
150 169 72
173 192 161
149 170 102
167 186 125
158 178 102
161 179 144
154 175 102
161 180 125
176 192 177
161 182 125
160 180 102
171 190 144
151 170 125
155 173 72
174 191 144
172 191 161
157 175 106
144 161 102
170 187 161
174 191 144
154 175 102
153 173 72
159 179 125
167 188 144
141 162 0
156 177 125
169 187 125
166 184 125
161 180 125
153 174 0
166 185 161
165 185 125
163 183 161
158 179 72
160 180 102
148 164 102
160 176 144
156 176 125
156 172 102
162 181 144
165 183 125
161 179 144
166 185 125
167 185 144
160 178 144
150 165 102
162 178 129
160 177 144
152 171 144
156 176 102
145 162 125
164 184 125
142 158 102
164 179 161
157 172 161
169 187 125
162 180 125
156 174 144
148 165 161
150 163 153
161 179 125
167 185 125
148 169 72
156 173 129
163 181 102
143 162 135
169 187 144
160 179 125
164 182 144
131 146 125
157 175 125
140 156 102
145 162 72
142 160 125
118 138 114
163 181 125
166 182 144
143 161 125
136 153 72
162 181 144
123 137 0
132 150 0
147 165 102
158 177 125
131 149 72
140 158 72
167 186 144
156 176 125
149 166 125
141 161 72
129 145 0
146 161 125
150 168 153
142 162 72
126 143 114
161 176 153
129 148 72
148 164 133
111 128 72
125 138 72
144 161 102
146 163 125
125 141 88
136 153 72
131 147 112
124 142 102
135 153 125
117 135 51
113 131 72
108 122 72
146 162 102
121 136 118
111 128 51
120 135 102
111 129 72
109 128 0
98 110 0
88 107 0
84 98 0
124 141 0
155 177 0
146 166 0
160 183 0
155 178 0
153 172 0
144 166 0
159 180 0
140 164 0
164 184 0
141 161 0
145 166 0
144 166 0
165 187 0
153 173 0
145 166 0
155 175 0
135 156 0
160 182 0
139 161 0
149 169 0
149 170 0
159 181 0
149 168 0
140 162 0
137 157 0
145 165 0
143 166 0
162 184 0
126 151 0
125 145 0
142 163 0
159 182 0
45 71 99
30 50 57
39 64 51
45 73 57
49 78 57
47 76 80
52 83 80
56 88 99
56 90 99
56 90 57
53 86 80
60 95 128
57 89 99
51 84 57
56 87 114
53 84 57
52 82 80
57 90 99
58 92 99
56 88 114
53 83 137
51 82 57
46 73 99
57 89 114
62 94 151
52 82 80
53 85 99
53 84 57
56 88 80
45 72 80
63 99 151
51 81 99
55 87 114
52 82 80
52 81 80
59 93 99
55 88 99
46 75 57
55 86 80
55 86 80
51 81 99
52 84 80
50 80 80
53 84 99
53 84 57
59 93 99
54 83 128
56 88 99
59 94 114
60 94 128
48 77 57
53 81 114
44 70 80
39 63 25
40 65 80
54 83 128
52 83 80
57 90 114
49 78 84
49 77 57
43 67 57
59 91 128
51 80 99
50 78 80
54 86 99
53 83 57
49 75 25
52 81 82
55 85 114
43 69 0
50 77 80
89 103 0
163 184 0
156 173 0
149 166 0
145 163 0
126 137 0
135 145 0
154 174 0
151 172 0
151 172 0
148 159 0
159 180 0
154 170 0
152 167 0
151 175 0
160 186 0
162 175 0
157 173 0
131 151 0
150 166 0
136 155 0
163 169 0
135 152 0
157 177 0
143 158 0
158 178 0
136 148 0
147 161 0
164 187 0
145 153 0
148 166 0
145 163 0
146 161 0
135 140 36
106 106 25
95 97 36
118 114 36
138 132 44
107 104 36
133 126 51
127 124 36
143 136 44
95 97 0
134 127 52
121 120 36
151 141 62
113 109 51
137 131 51
158 147 62
157 149 51
149 145 51
150 143 62
129 121 51
113 110 36
147 142 62
159 154 63
149 144 84
130 128 36
129 120 72
142 136 51
150 146 51
163 155 80
151 145 80
148 145 51
144 137 57
134 129 0
147 141 80
147 142 36
134 130 36
148 141 51
144 141 72
169 163 72
151 138 62
156 147 51
151 146 36
127 126 58
175 164 88
127 124 57
165 158 72
140 136 57
161 154 62
157 153 51
155 151 60
123 118 36
143 142 51
151 142 51
152 147 51
167 160 92
162 154 80
152 142 62
171 165 87
146 140 72
150 143 62
146 141 0
165 160 80
155 147 72
147 139 62
160 153 62
157 151 62
158 151 62
160 151 62
158 151 79
170 166 88
159 151 72
166 161 62
156 152 36
149 141 62
131 131 36
171 166 88
169 160 72
145 141 0
156 152 57
153 147 63
170 164 80
161 151 62
158 153 62
175 167 80
161 158 62
170 162 88
159 152 62
178 169 88
141 137 51
157 150 62
150 145 51
165 156 72
163 157 72
149 139 72
161 156 72
175 168 88
160 150 80
144 141 48
176 168 88
165 158 72
162 154 80
168 160 72
161 154 62
158 153 72
155 148 51
168 163 72
154 151 51
157 155 51
157 152 36
155 148 36
170 162 80
168 162 62
169 161 88
163 157 72
171 166 88
158 152 80
162 158 51
169 161 72
180 169 95
178 169 88
153 142 51
151 146 36
154 150 72
171 165 80
160 153 36
161 155 51
152 148 36
160 157 51
162 154 62
166 159 80
155 150 36
163 157 62
173 192 161
164 182 125
170 186 161
166 185 144
166 183 125
163 184 125
181 198 191
170 188 144
171 188 144
175 192 177
176 193 161
171 188 144
166 185 144
157 174 144
141 160 72
168 185 144
160 179 177
170 188 161
160 177 72
169 185 144
165 181 125
169 188 144
149 167 72
159 178 125
168 188 144
169 185 161
160 179 125
159 180 161
171 189 161
163 180 125
170 187 144
152 171 102
157 175 102
160 178 144
164 186 144
158 175 144
160 179 102
172 189 177
165 183 144
150 169 0
143 162 72
167 185 102
173 191 177
166 186 125
157 175 125
167 185 144
174 192 161
157 173 102
165 184 125
158 177 102
159 177 144
180 196 177
149 167 102
148 166 72
182 199 191
158 175 144
170 189 144
149 168 102
166 187 144
176 194 177
165 180 125
178 198 204
168 187 125
160 178 102
181 197 177
163 182 125
157 172 125
161 177 125
150 169 102
153 172 102
159 178 144
141 161 112
145 162 153
140 155 127
159 177 125
167 186 169
150 169 72
162 179 177
171 189 177
134 151 102
134 154 0
155 176 135
158 176 144
168 184 161
145 165 72
153 171 102
161 177 125
155 172 125
147 165 102
157 174 125
153 171 102
170 186 177
138 154 114
173 191 161
164 181 125
146 162 114
154 173 125
144 160 0
153 171 102
164 181 177
159 177 125
147 165 102
112 132 0
129 147 72
129 149 0
143 160 102
137 151 72
153 170 125
142 159 79
133 150 0
154 171 125
103 124 0
123 140 72
118 139 0
134 150 72
136 153 88
128 144 72
150 168 102
134 149 72
123 142 85
107 124 72
141 161 72
103 121 0
118 134 72
147 163 125
136 151 72
117 135 85
118 135 51
117 135 72
103 117 0
135 155 51
143 166 0
146 165 0
146 169 0
155 174 0
148 169 0
156 173 0
150 171 0
141 163 0
151 172 0
154 176 0
171 193 0
141 160 0
167 185 0
155 177 0
135 153 0
127 146 0
145 164 0
136 157 0
134 154 0
158 181 0
157 179 0
164 185 0
153 172 0
148 172 0
132 149 0
164 187 0
129 145 0
128 144 0
161 183 0
132 149 0
144 167 0
120 137 0
153 173 0
135 157 0
67 92 0
44 69 80
49 75 95
41 69 57
43 69 57
49 76 99
47 76 57
51 82 57
57 90 114
58 91 137
48 76 57
53 85 95
59 92 114
52 83 80
45 72 80
60 95 128
56 88 114
54 84 80
56 87 114
51 85 57
59 93 80
53 84 99
53 85 99
51 81 80
53 85 99
55 87 99
50 80 99
49 80 57
51 81 80
58 92 80
57 88 140
57 89 114
53 84 80
57 90 114
56 87 99
54 86 99
57 89 114
51 78 80
52 79 99
52 81 99
54 85 80
49 78 99
52 82 60
60 94 99
60 94 114
52 83 80
51 80 80
54 88 0
49 77 57
47 73 62
58 91 114
55 86 80
48 75 57
50 79 80
56 86 114
54 88 99
49 74 80
56 88 99
35 55 57
51 79 80
51 80 0
49 77 80
53 84 57
55 87 114
46 74 57
49 76 99
42 70 0
46 68 80
43 71 0
73 93 80
113 127 0
150 166 0
148 167 0
138 147 0
120 134 0
128 144 0
137 150 0
155 179 0
134 151 0
164 177 0
133 153 0
158 175 0
157 176 0
158 173 0
131 147 0
147 169 0
147 165 0
142 156 0
132 143 0
141 162 0
168 187 0
158 178 0
145 157 0
171 193 0
138 152 0
156 162 0
154 169 0
161 182 0
151 165 0
138 154 0
169 186 0
167 182 0
145 163 0
147 151 0
139 144 36
103 101 0
126 119 0
89 88 36
119 114 51
117 111 0
135 128 36
127 120 36
143 135 51
145 141 0
120 121 44
130 125 0
114 109 36
139 138 51
138 133 51
137 133 51
117 116 0
130 126 51
148 144 44
145 139 36
113 111 36
122 120 62
164 158 72
136 134 36
139 133 51
147 143 51
160 155 62
141 137 51
157 150 62
114 107 58
129 127 25
130 132 0
150 143 62
100 100 0
160 151 62
123 120 36
151 139 62
126 122 51
141 138 36
176 166 72
148 146 62
161 156 72
144 135 52
143 135 51
163 153 80
168 159 62
162 156 70
156 147 51
155 150 36
161 156 72
164 156 72
155 150 62
143 138 36
141 138 51
158 149 72
163 157 62
174 166 80
156 152 36
160 147 72
162 151 72
158 153 51
154 151 51
158 154 80
154 146 72
143 139 62
151 143 62
160 154 51
153 147 51
158 153 36
164 157 80
167 158 72
148 142 62
153 148 72
141 139 51
146 141 62
174 167 88
164 157 51
166 159 80
142 136 36
166 160 80
159 151 62
163 155 80
164 157 62
157 148 72
143 138 51
159 151 62
177 167 95
169 162 72
152 149 36
149 141 36
175 168 88
162 154 80
146 144 51
147 145 51
155 151 51
165 159 72
175 167 80
169 160 88
164 160 62
153 144 51
159 150 72
157 145 62
160 156 72
153 147 51
151 145 62
156 150 62
164 159 62
142 138 36
167 161 62
167 161 62
172 164 72
174 167 80
168 162 79
154 149 51
161 153 72
168 161 80
169 161 88
162 155 62
173 161 62
139 133 36
166 160 80
165 161 72
162 156 62
153 148 72
164 158 72
176 168 88
175 167 80
165 157 51
169 160 80
155 148 62
160 155 72
159 177 102
155 175 125
172 190 144
163 184 125
166 185 125
161 179 144
163 180 144
179 196 177
167 185 125
163 180 125
162 183 125
154 174 72
173 192 161
161 181 144
176 194 177
173 187 161
166 187 144
160 178 125
164 182 161
134 151 0
157 178 102
162 181 102
166 184 144
166 184 161
165 183 144
173 190 144
173 192 161
175 193 161
166 184 125
169 189 161
153 172 125
158 177 125
162 182 125
158 175 144
160 179 125
159 177 125
174 192 161
155 174 102
158 174 107
149 171 72
157 178 102
175 193 161
146 166 72
165 185 169
153 171 125
163 183 125
169 183 165
160 179 144
168 188 161
168 186 144
171 188 165
143 164 102
172 189 161
166 186 161
162 180 125
167 187 144
157 174 125
165 184 102
168 187 125
152 167 102
156 176 102
173 191 161
162 180 125
158 177 125
171 190 161
135 151 125
172 189 125
139 157 125
166 185 125
158 179 72
166 185 177
155 174 125
161 180 125
143 159 102
164 182 144
170 188 177
167 185 144
154 172 102
138 153 88
138 155 0
135 158 102
109 127 72
154 172 102
166 180 187
164 185 125
155 173 102
146 159 125
159 176 129
144 160 102
159 173 161
146 160 107
147 165 102
163 180 144
124 140 102
152 171 102
153 167 144
161 178 107
104 121 0
151 170 125
158 177 161
145 160 144
136 152 102
154 175 114
124 139 22
160 177 125
149 168 72
141 154 125
164 181 144
130 147 88
112 132 72
136 154 125
114 134 0
131 149 0
157 172 125
112 127 102
132 149 0
137 152 116
149 163 125
104 116 102
101 119 72
122 138 102
128 145 0
132 147 0
101 116 0
126 140 102
120 137 0
118 130 0
129 141 125
112 128 0
146 167 72
146 166 0
150 173 0
163 183 0
140 158 0
154 172 0
155 175 0
163 186 0
135 155 0
149 169 0
154 176 0
133 151 0
155 174 0
165 186 0
139 160 0
141 163 0
144 163 0
160 181 0
155 176 0
134 155 0
135 154 0
127 141 0
151 172 0
149 170 0
145 166 0
140 160 0
149 170 0
115 134 0
149 170 0
143 162 0
130 149 0
149 169 0
158 179 0
138 159 0
133 156 0
130 150 0
140 160 0
70 92 51
50 80 80
37 60 57
48 75 80
37 59 51
50 80 57
42 66 57
46 73 80
44 72 57
40 65 57
52 83 99
51 81 57
54 84 128
39 65 0
48 77 99
45 71 99
47 76 57
52 83 80
45 74 0
52 84 0
57 89 128
60 93 128
49 77 57
62 96 151
53 82 99
46 75 80
49 79 80
47 75 80
53 82 99
57 90 111
56 87 114
52 83 80
48 75 57
52 84 80
50 81 80
52 83 80
55 86 99
56 89 114
47 76 57
50 78 80
44 72 57
54 86 80
52 81 80
56 89 57
54 87 114
47 76 57
46 75 57
54 85 114
40 67 0
42 68 80
59 93 99
55 87 99
57 88 128
50 79 80
51 79 80
59 91 80
48 76 80
48 74 57
47 75 80
61 94 114
40 65 0
40 64 0
52 83 80
51 81 57
37 59 57
49 78 80
46 70 57
73 88 57
107 123 0
107 125 0
146 163 0
111 132 0
163 184 0
129 150 0
149 157 0
131 148 0
138 150 0
119 137 0
125 146 0
150 168 0
148 165 0
147 159 0
154 169 0
146 165 0
136 153 0
155 170 0
147 169 0
140 153 0
139 153 0
151 171 0
131 140 0
121 135 0
144 162 0
136 141 0
159 173 0
158 174 0
172 193 0
140 158 0
143 158 0
141 157 0
150 169 0
157 170 0
145 157 0
139 148 0
133 147 0
93 81 0
131 120 51
81 80 0
131 126 36
84 82 0
132 122 44
102 102 0
116 117 57
96 90 44
135 131 36
109 98 0
120 116 0
126 118 51
107 99 36
131 129 36
116 117 36
144 138 62
129 120 36
151 147 51
153 147 62
122 120 0
137 135 57
98 95 44
124 120 44
142 134 51
153 145 63
155 149 51
148 143 62
151 147 62
136 128 70
138 129 51
131 126 51
149 139 51
142 136 36
155 150 80
163 153 62
140 137 0
169 160 88
162 159 62
156 151 62
156 150 72
156 148 72
162 154 62
165 153 72
150 145 51
148 145 51
130 126 51
170 163 62
152 147 57
152 146 72
138 129 36
143 143 44
133 131 51
143 138 62
155 146 51
166 161 62
177 165 80
131 129 51
156 152 62
141 139 51
150 144 63
165 157 62
154 148 62
169 162 72
166 157 51
174 165 88
139 136 0
132 129 51
143 138 62
146 142 72
155 151 72
152 145 62
164 156 80
129 127 72
181 171 95
166 162 72
149 141 51
173 166 80
149 144 62
153 147 62
173 165 95
145 142 0
162 153 88
167 161 72
166 157 80
156 150 51
158 153 51
163 157 72
157 150 62
158 149 72
156 150 36
161 155 51
163 159 80
152 149 36
163 158 51
159 153 72
152 141 62
172 165 72
169 164 80
162 156 88
172 165 72
163 156 62
173 166 101
164 158 62
148 146 62
167 156 62
158 151 62
175 167 80
175 166 88
169 163 72
168 163 72
169 163 72
137 131 36
165 160 62
175 165 88
180 173 108
166 158 62
171 165 80
163 154 62
160 156 80
158 151 72
159 151 62
161 152 62
159 153 62
153 150 51
156 148 62
164 156 80
158 149 51
163 157 62
187 202 204
167 186 144
161 182 102
163 183 125
171 188 161
164 181 125
167 185 144
171 189 144
168 185 144
149 167 102
152 171 102
160 180 72
169 187 125
160 179 72
173 190 144
170 187 144
173 190 144
164 183 125
166 184 102
162 181 161
179 196 177
172 189 161
169 186 161
169 187 161
155 172 125
160 179 102
155 175 125
164 182 125
154 169 102
173 189 161
158 176 144
155 172 125
159 177 144
174 193 177
147 168 102
147 167 72
160 180 144
169 185 129
164 182 144
156 177 102
149 171 72
169 184 129
161 181 102
163 183 125
164 183 125
150 171 125
155 173 125
172 188 177
142 159 72
161 180 72
160 178 144
161 180 125
168 183 144
169 185 125
135 155 72
169 184 165
152 164 125
166 183 161
155 171 102
157 176 125
158 179 102
136 151 72
154 174 125
162 179 161
167 185 148
147 163 125
135 153 102
161 180 144
167 188 161
150 168 125
140 157 72
158 176 144
173 191 177
147 168 72
164 180 148
149 168 0
162 183 125
146 164 102
161 179 125
150 170 102
152 168 102
156 172 153
149 164 102
153 167 144
152 172 135
136 155 72
150 170 72
178 191 148
146 164 72
135 155 72
156 177 72
114 132 88
122 138 102
147 164 153
161 181 144
146 164 72
133 153 125
157 176 125
138 160 0
164 183 102
140 158 72
140 160 102
136 149 102
133 152 45
152 169 125
122 140 72
109 124 72
131 151 102
143 158 102
112 130 72
139 156 114
134 154 72
114 128 72
105 119 72
149 164 72
137 153 72
136 151 102
144 162 72
136 152 72
111 126 72
128 146 72
115 129 72
121 140 72
141 160 102
117 135 0
111 129 0
88 102 0
106 122 51
138 156 0
156 175 0
140 161 0
161 186 0
140 156 0
148 165 0
155 176 0
137 155 0
140 161 0
152 176 0
107 124 0
153 169 0
123 141 0
134 153 0
128 147 0
129 145 0
127 147 0
164 186 0
124 141 0
151 171 0
138 158 0
151 177 0
137 159 0
127 146 0
151 170 0
154 173 0
154 174 0
134 153 0
147 169 0
132 150 0
115 135 0
126 146 0
129 150 0
126 145 0
122 137 0
141 163 0
112 131 0
111 132 0
153 175 0
102 127 57
40 65 57
46 73 80
50 80 99
55 86 114
47 75 80
41 67 57
31 52 57
54 87 99
33 56 57
47 75 80
54 87 80
58 91 128
53 84 99
43 71 76
53 82 114
49 78 80
49 77 57
48 74 80
54 86 99
43 69 80
61 96 128
38 62 0
44 73 80
48 73 57
48 77 0
54 86 99
59 93 140
57 90 114
51 81 99
60 92 151
55 86 140
49 79 0
57 90 99
50 80 57
54 85 80
43 67 80
54 85 99
48 76 80
50 79 80
54 86 99
54 86 80
51 81 99
45 73 80
50 80 80
49 78 57
53 84 99
49 78 57
45 70 57
52 79 80
51 80 84
49 78 114
50 78 80
51 81 80
48 76 62
41 63 0
53 84 80
50 78 80
53 82 80
50 78 99
48 76 80
45 73 0
48 78 57
53 81 80
50 77 0
114 136 0
115 132 0
137 156 0
137 154 0
142 155 0
111 122 0
141 160 0
124 143 0
138 148 0
148 164 0
128 145 0
99 113 0
119 132 0
143 161 0
113 126 0
125 144 0
136 152 0
127 147 0
127 138 0
147 165 0
108 119 0
131 148 0
146 161 0
142 155 0
167 176 0
150 163 0
164 178 0
136 154 0
126 136 0
152 163 0
135 153 0
174 192 0
125 130 0
149 155 0
116 126 0
167 176 0
129 131 0
138 143 0
157 166 0
143 157 0
129 122 0
116 112 36
98 95 0
107 105 25
101 100 0
133 126 36
120 117 36
120 114 36
128 120 51
117 109 36
144 134 51
131 128 51
138 131 0
119 114 36
137 129 51
124 121 36
132 128 51
131 127 62
129 126 36
112 105 36
114 117 44
137 131 36
136 133 51
137 130 62
130 129 36
120 114 36
166 157 80
150 145 51
158 151 51
159 152 62
145 141 72
154 145 36
156 144 62
140 138 44
150 145 62
112 110 41
158 151 51
158 150 51
146 142 67
149 138 62
175 166 80
141 135 51
154 145 70
155 148 51
138 135 36
167 160 80
151 147 51
132 127 36
155 149 62
151 146 51
159 150 51
157 146 72
160 154 62
146 143 67
164 155 72
165 159 80
177 170 101
127 126 36
151 144 62
162 156 72
153 148 51
140 136 62
152 144 62
158 147 51
157 154 72
156 147 62
153 147 51
142 136 57
148 146 51
131 127 36
164 155 62
150 144 72
160 152 62
147 144 51
152 147 51
161 155 62
169 159 88
144 138 51
161 151 80
161 155 80
167 161 62
168 162 72
165 158 62
154 147 62
178 169 88
155 149 36
154 147 51
156 151 36
162 153 62
151 146 36
162 151 72
163 159 51
152 147 62
154 149 67
166 158 62
162 155 51
162 154 62
173 164 88
158 152 62
171 162 72
162 159 62
162 158 51
171 160 79
173 163 80
125 125 51
148 144 36
159 151 36
166 155 80
169 162 62
172 165 95
162 156 62
176 165 88
156 149 51
154 144 0
180 170 88
167 157 72
170 160 62
166 160 80
167 162 72
165 154 72
155 149 51
161 155 51
175 168 88
159 153 72
173 164 80
149 145 51
164 158 62
161 155 51
150 169 72
156 176 102
171 188 144
164 183 144
157 177 161
166 182 125
168 187 144
155 173 102
172 191 161
160 178 161
172 191 161
167 184 161
147 167 102
165 181 144
161 178 102
173 191 144
164 185 144
151 174 102
154 174 102
162 182 102
163 182 144
154 171 102
153 172 125
155 174 102
168 186 144
161 177 125
157 175 161
166 184 144
166 184 144
179 196 177
162 179 129
157 177 125
170 190 177
155 176 102
166 187 144
167 186 177
158 178 125
158 174 102
162 182 102
159 179 125
176 193 161
141 159 72
156 171 102
155 176 125
175 193 161
162 177 125
161 181 125
144 163 72
156 178 102
156 175 102
161 180 144
161 177 107
165 182 161
162 180 125
163 185 144
154 172 102
167 185 161
154 172 144
172 188 177
130 149 88
156 176 125
158 178 125
168 186 125
144 158 125
166 185 144
174 192 161
148 164 102
145 166 72
148 167 72
134 153 51
155 169 144
159 178 125
172 188 161
167 183 165
152 172 72
142 162 72
158 174 102
168 187 125
156 172 125
155 173 144
142 158 125
160 178 144
168 183 153
151 169 72
133 153 102
147 165 125
153 171 144
138 160 72
139 156 72
126 146 0
155 174 102
167 178 125
136 153 72
150 170 125
141 157 102
163 177 177
145 161 102
124 140 102
125 143 72
115 135 0
108 124 0
139 154 125
159 177 72
116 135 0
130 148 102
154 173 125
128 144 88
161 180 102
143 163 102
122 140 0
151 168 102
120 139 88
135 149 102
128 146 102
128 144 112
137 157 0
139 156 0
134 150 102
132 148 102
144 160 102
144 161 102
118 135 0
114 133 0
112 127 72
123 137 72
110 125 72
144 160 0
109 126 0
143 161 0
139 159 0
151 169 0
128 148 0
126 145 0
132 148 0
154 174 0
121 138 0
117 137 0
127 143 0
150 171 0
131 150 0
125 145 0
122 143 0
114 135 0
142 161 0
145 163 0
123 143 0
138 156 0
109 130 0
140 159 0
139 156 0
140 161 0
114 135 0
107 128 0
129 151 0
125 144 0
149 167 0
138 159 0
159 180 0
101 125 0
120 140 0
112 131 0
126 143 0
144 162 0
127 146 0
116 135 0
135 155 0
133 149 0
103 123 0
113 129 0
46 75 80
39 63 0
59 94 114
50 80 57
46 75 95
42 70 57
53 84 114
49 79 80
59 93 99
46 74 57
58 91 114
56 89 99
57 92 99
39 63 99
45 74 80
45 71 80
54 87 99
45 72 57
57 89 125
41 65 57
50 79 80
56 89 99
50 80 99
48 73 99
56 88 114
59 93 128
50 77 99
56 91 80
55 87 114
57 89 128
49 74 99
54 86 99
56 88 99
53 85 114
52 81 99
56 88 80
47 73 80
54 85 99
56 88 114
47 76 0
57 90 114
51 81 99
49 78 99
53 84 80
51 80 80
53 85 99
51 78 80
52 82 80
54 82 57
53 82 57
57 89 99
52 82 99
53 84 80
53 83 114
51 80 80
49 76 57
43 69 57
51 79 114
46 70 0
49 78 80
44 69 57
46 73 57
63 81 0
89 100 0
88 101 0
85 97 0
142 157 0
117 128 0
116 120 0
118 127 0
138 159 0
115 134 0
127 147 0
163 186 0
119 127 0
161 182 0
124 132 0
133 150 0
116 130 0
127 144 0
140 158 0
114 134 0
128 149 0
118 131 0
135 140 0
151 167 0
128 142 0
138 151 0
115 126 0
140 149 0
133 139 0
143 158 0
127 137 0
150 166 0
172 186 0
130 143 0
129 135 0
154 165 0
150 161 0
148 160 0
165 184 0
145 162 0
144 157 0
150 171 0
113 118 36
87 88 25
77 79 0
121 115 36
92 89 0
100 95 25
145 142 36
129 124 36
116 108 37
133 131 44
119 114 36
106 102 0
154 146 51
109 98 36
125 121 51
154 146 72
114 113 36
147 137 62
149 144 62
130 127 36
115 112 36
139 133 44
133 123 62
123 121 36
132 132 36
122 121 36
149 137 51
132 127 57
156 150 72
144 137 62
147 143 51
116 116 36
129 126 44
153 146 62
139 136 57
146 140 48
149 143 51
153 149 62
145 141 36
139 137 51
145 140 51
152 141 51
136 131 36
169 163 72
153 150 51
167 160 51
127 125 36
116 114 0
149 142 51
170 163 62
134 131 42
150 146 36
154 148 62
152 144 62
172 161 80
151 145 51
155 148 51
133 129 36
166 158 62
151 147 51
156 149 76
144 143 60
162 159 62
161 154 72
158 152 62
160 157 51
163 157 62
155 151 51
180 170 102
152 148 57
163 159 62
153 144 36
167 159 62
162 156 62
179 170 95
154 149 62
166 161 92
161 155 62
149 139 62
151 146 62
163 151 62
153 149 72
157 151 62
149 144 62
150 140 72
179 170 95
176 168 88
165 156 72
168 161 51
179 169 80
156 146 51
147 142 51
173 165 72
161 152 72
171 163 80
163 155 72
153 146 72
158 150 62
154 152 0
171 162 80
157 148 62
154 148 51
163 157 62
163 154 72
159 149 62
164 158 72
149 144 36
152 145 51
169 162 62
154 150 36
167 159 80
163 156 51
160 154 51
152 144 36
155 150 72
169 161 80
162 156 62
154 152 51
170 165 80
157 150 62
152 148 36
155 151 51
165 157 62
167 161 62
168 160 72
167 159 62
168 155 72
154 172 125
169 188 144
154 174 125
169 186 125
176 194 191
166 184 125
171 191 161
167 186 125
167 184 125
166 186 125
151 168 72
156 174 125
170 189 144
150 167 102
171 188 144
151 169 125
163 183 102
149 169 125
154 173 125
170 189 144
162 181 161
136 153 72
153 173 72
154 172 102
155 177 102
172 191 161
174 191 161
170 187 161
169 187 161
158 176 0
156 173 102
165 183 144
168 183 161
165 182 125
170 189 144
167 182 125
162 180 144
162 183 144
159 178 125
144 165 102
167 186 125
161 180 161
158 175 125
160 183 125
168 186 161
157 175 102
166 184 153
152 171 125
165 185 125
154 172 102
169 187 125
157 177 102
155 174 102
159 177 125
160 180 102
175 192 191
140 160 72
147 164 107
151 170 72
139 155 102
154 171 102
161 180 125
150 167 102
146 163 72
153 169 144
144 163 72
163 182 144
165 183 144
164 184 161
163 185 144
164 183 102
165 181 129
158 178 125
145 164 102
141 161 72
167 186 125
152 171 125
150 169 72
162 181 102
145 164 114
160 176 129
163 179 144
169 186 163
165 181 161
135 153 114
155 170 144
140 155 102
149 161 125
167 185 144
161 175 125
153 170 135
140 157 102
136 152 0
140 153 102
138 152 0
148 168 144
128 147 72
159 179 125
141 160 72
156 175 102
126 142 72
155 173 79
146 163 144
150 168 125
120 135 102
142 162 72
121 138 102
135 150 72
144 158 135
133 150 102
147 165 102
138 155 102
130 148 0
121 133 102
94 109 88
108 125 0
125 143 0
137 155 125
139 150 79
108 123 0
136 153 125
84 98 51
84 100 45
95 107 0
95 108 0
140 156 72
118 136 0
150 171 0
109 125 0
127 145 0
128 146 0
145 164 0
150 171 0
145 160 0
137 156 0
161 180 0
155 172 0
137 155 0
154 176 0
147 165 0
163 182 0
155 176 0
128 147 0
151 171 0
137 155 0
122 142 0
149 170 0
124 145 0
135 157 0
132 149 0
106 125 0
133 153 0
152 171 0
113 131 0
139 160 0
146 167 0
138 161 0
101 123 0
136 158 0
154 177 0
124 143 0
124 145 0
140 159 0
151 171 0
142 160 0
150 167 0
93 111 0
130 147 0
127 144 0
124 141 0
36 57 57
51 81 57
40 64 57
53 85 95
45 72 80
43 69 0
42 68 57
54 85 114
52 83 80
40 64 80
46 72 80
50 80 80
54 86 57
40 65 57
50 80 99
57 91 114
51 82 80
57 90 114
53 85 57
54 85 99
53 85 99
41 67 0
44 72 80
53 84 128
45 73 57
60 95 114
54 86 80
46 75 57
44 71 80
53 85 57
57 88 114
56 84 99
52 82 80
51 80 99
47 74 80
51 81 99
60 94 114
45 74 80
52 84 80
54 84 57
55 88 99
52 82 99
58 91 114
50 80 57
48 78 57
54 84 99
40 66 0
45 69 57
45 70 0
47 76 99
37 60 0
48 75 99
53 82 80
42 70 57
42 66 0
37 61 57
51 77 99
47 72 57
53 82 80
33 53 0
100 114 0
135 148 0
140 157 0
108 126 0
107 124 0
85 101 0
99 113 0
149 171 0
131 146 0
119 124 0
123 140 0
112 133 0
93 104 0
145 164 0
153 169 0
120 138 0
117 130 0
138 154 0
126 139 0
140 149 0
158 172 0
142 162 0
139 151 0
142 156 0
145 163 0
155 167 0
157 170 0
122 132 0
159 173 0
118 128 0
132 143 0
134 143 0
160 169 0
155 165 0
111 124 0
137 151 0
158 172 0
131 144 0
172 186 0
154 166 0
157 169 0
138 146 0
153 157 0
143 154 0
137 133 0
76 73 0
106 102 36
123 121 51
119 116 36
122 118 57
127 121 0
127 123 51
118 116 0
144 137 57
139 130 51
155 147 62
117 110 44
136 131 36
132 128 0
125 121 36
116 107 36
126 118 25
120 118 36
163 158 72
152 143 62
131 127 36
154 147 51
157 150 57
130 128 51
143 139 48
158 151 62
160 155 72
139 132 36
139 136 0
136 132 51
157 149 51
118 111 45
144 136 62
125 120 36
150 144 51
165 157 80
139 136 51
161 151 67
166 158 80
142 136 36
158 151 62
154 149 62
159 147 88
152 148 57
147 142 51
160 152 51
160 157 51
135 131 52
172 162 80
144 142 25
140 133 51
152 147 63
139 134 51
164 160 62
130 129 36
157 151 72
168 155 80
145 143 36
148 145 51
163 152 72
146 142 0
153 148 62
146 138 62
152 149 51
170 161 80
139 140 36
143 142 0
162 151 72
147 144 51
150 146 51
141 135 36
162 156 62
157 150 51
154 149 51
163 158 62
156 148 62
172 163 87
171 161 80
171 165 80
152 147 51
168 161 80
168 162 80
154 148 36
159 153 72
159 152 72
153 147 36
153 147 72
160 154 51
172 165 80
158 150 72
150 144 62
169 162 80
172 166 87
147 144 51
164 154 72
170 161 72
165 157 72
174 163 72
157 152 51
138 134 51
152 148 62
170 161 72
157 150 72
169 160 72
144 142 36
171 164 72
176 169 95
151 146 36
157 152 62
164 156 72
166 161 62
163 157 62
169 162 62
163 154 72
160 155 51
170 159 80
161 156 62
169 161 72
166 162 72
164 155 80
166 160 51
163 153 51
165 160 62
165 160 80
168 158 72
176 194 191
164 184 144
168 185 102
149 164 144
160 181 102
157 177 102
169 186 144
174 191 177
166 182 161
153 171 102
167 186 125
173 192 161
163 178 144
169 188 144
160 180 102
168 185 102
170 188 125
159 174 125
164 183 102
164 184 125
160 181 102
170 186 161
171 188 144
148 167 102
164 185 125
147 166 72
175 194 177
150 171 102
172 191 161
165 185 125
149 167 102
160 178 125
157 173 125
160 176 125
152 171 72
159 177 161
165 182 161
152 172 102
172 189 177
163 182 125
161 180 125
148 166 144
169 189 144
173 193 177
164 183 102
168 188 161
153 174 102
156 174 144
155 176 102
153 173 102
151 171 72
152 173 102
142 162 72
154 172 144
175 194 177
151 170 72
153 173 102
148 164 161
157 177 125
176 196 191
140 158 0
161 174 125
152 171 102
164 183 144
158 175 125
154 176 125
160 179 144
156 173 177
131 150 0
168 187 125
160 179 125
163 183 125
161 178 161
168 184 144
132 149 72
148 164 72
147 164 102
143 159 102
153 173 125
123 138 102
146 160 144
140 155 102
146 165 114
158 178 125
145 158 107
141 161 88
133 147 79
150 168 114
148 169 114
149 168 125
151 165 102
145 163 135
162 180 144
139 158 72
156 175 125
137 154 0
129 145 102
139 157 102
160 180 144
140 154 144
159 174 125
141 159 102
122 141 0
109 125 0
134 152 102
124 142 72
155 172 125
130 147 153
147 161 129
135 151 72
108 121 0
142 159 0
132 150 0
127 145 0
132 147 0
137 155 0
122 138 0
105 120 85
114 130 72
109 123 0
127 141 72
124 140 0
119 132 102
124 139 102
154 172 72
152 173 0
121 138 0
110 126 0
132 151 0
145 165 0
154 175 0
148 166 0
119 138 0
127 145 0
137 153 0
121 141 0
129 145 0
141 156 0
132 147 0
143 163 0
129 146 0
131 150 0
145 166 0
140 160 0
145 163 0
144 158 0
145 167 0
150 170 0
139 157 0
129 146 0
117 137 0
125 141 0
142 163 0
109 125 0
130 148 0
117 134 0
144 165 0
136 155 0
125 144 0
102 116 0
99 119 0
136 158 0
98 118 0
113 130 0
100 121 0
97 116 0
114 128 0
130 148 0
129 151 0
100 119 0
83 100 0
109 124 0
53 85 114
45 70 57
45 74 0
47 74 57
48 78 57
52 79 128
47 78 57
47 75 57
47 76 80
45 73 0
52 82 80
41 65 57
51 79 125
50 79 80
45 72 57
56 89 99
38 61 0
43 71 80
51 82 114
55 86 99
54 86 57
44 72 0
48 76 80
41 67 0
44 72 57
49 79 80
51 80 57
55 86 114
56 89 99
51 81 99
58 91 140
52 83 128
50 78 99
51 82 99
50 79 99
50 80 99
46 74 80
54 84 128
48 78 57
43 70 80
51 80 80
54 86 80
52 83 60
47 70 80
52 83 80
47 76 57
50 77 80
46 70 99
54 83 80
45 72 57
53 84 80
43 68 18
51 80 99
45 73 57
50 80 80
44 71 57
103 122 0
111 126 0
130 149 0
113 124 0
87 107 0
126 139 0
118 138 0
108 112 0
117 135 0
107 121 0
121 134 0
117 132 0
143 161 0
109 130 0
148 170 0
139 155 0
123 138 0
128 135 0
125 138 0
134 151 0
121 135 0
118 129 0
127 140 0
158 173 0
111 124 0
117 136 0
161 181 0
123 130 0
125 138 0
146 167 0
127 136 0
131 144 0
134 140 0
158 172 0
114 116 0
122 136 0
133 139 0
145 157 0
149 156 0
128 130 0
123 127 0
129 142 0
152 154 0
129 129 0
134 145 0
145 150 0
136 143 0
139 147 0
118 109 36
81 82 0
123 112 0
105 106 25
112 108 48
124 116 0
142 138 51
106 103 0
128 123 36
118 111 36
127 125 36
125 122 36
126 121 51
117 113 36
135 133 62
131 122 51
129 124 51
111 105 36
143 136 36
138 132 0
136 132 62
122 120 0
156 146 51
157 150 51
148 141 36
147 139 57
149 144 0
156 151 62
140 135 62
122 111 0
130 124 44
126 122 0
122 120 36
135 129 51
139 134 62
140 138 0
150 147 57
151 145 36
162 153 51
150 146 36
150 142 51
158 151 62
151 148 36
162 153 51
150 143 51
165 160 62
154 148 51
149 144 44
159 155 62
162 153 72
163 153 62
143 140 36
140 133 36
161 153 72
166 156 80
158 150 62
143 139 51
167 160 72
153 145 51
178 164 95
153 147 51
147 140 51
182 171 88
172 164 79
146 144 51
184 174 102
147 144 62
174 166 80
166 158 80
156 149 60
164 159 51
168 164 80
160 152 62
165 152 72
162 157 72
150 146 36
157 151 62
140 135 36
138 134 36
157 148 80
156 151 72
156 148 72
161 154 62
171 160 80
152 148 72
166 158 62
149 145 36
182 171 88
176 167 80
160 156 36
170 162 80
161 156 62
170 162 80
163 156 62
136 127 36
173 165 88
151 143 62
166 154 62
154 149 62
163 156 51
158 149 0
161 153 72
165 160 62
168 163 72
175 167 80
158 154 36
168 160 72
168 163 72
166 161 62
158 148 51
163 158 51
157 152 51
159 150 62
154 151 51
157 154 72
143 136 62
161 151 51
144 135 36
174 165 88
169 161 80
165 155 62
166 158 62
169 160 72
162 154 72
163 184 125
163 182 144
172 190 144
170 188 161
167 184 144
171 188 161
163 182 125
169 180 144
169 186 177
168 188 144
151 170 125
159 177 144
166 183 144
162 179 125
161 179 144
156 173 161
171 186 161
158 179 125
157 173 102
173 193 177
174 192 177
176 192 161
156 175 0
142 162 72
158 179 72
156 172 144
164 183 125
167 186 125
152 171 102
151 173 125
157 173 125
140 157 102
149 170 72
158 177 135
171 190 161
165 184 125
164 183 144
153 173 125
156 176 72
156 174 144
166 183 102
174 191 191
152 170 102
160 175 102
162 181 144
169 185 144
158 176 102
153 163 79
166 183 102
162 182 125
164 184 125
157 178 72
163 183 102
148 166 72
137 154 125
152 172 72
139 154 102
146 165 0
171 187 177
159 179 125
167 185 161
138 158 72
150 169 125
143 165 72
149 167 102
142 159 102
155 176 0
165 182 144
156 174 125
161 179 125
137 154 72
159 179 102
145 162 72
141 161 0
142 161 102
164 181 125
139 157 72
149 165 72
136 151 94
139 158 72
145 164 72
138 152 125
159 176 72
150 165 72
160 180 72
168 185 125
141 162 102
150 166 144
149 169 72
158 175 133
140 159 102
152 167 144
125 142 72
122 141 72
127 146 102
157 176 72
145 162 102
127 142 72
164 184 144
141 159 114
108 126 0
115 133 88
134 150 125
139 155 72
144 164 125
124 141 0
123 137 102
139 156 135
113 129 0
138 152 102
133 148 72
150 168 133
111 128 0
129 141 102
122 134 107
145 164 102
137 153 0
137 155 125
105 117 72
130 148 102
112 129 88
67 84 0
143 160 0
112 126 0
135 151 0
125 142 0
139 158 0
143 161 0
153 173 0
126 143 0
125 143 0
126 143 0
101 116 0
171 189 0
132 150 0
119 140 0
131 148 0
131 146 0
143 160 0
118 135 0
157 175 0
126 144 0
145 162 0
115 130 0
131 151 0
165 185 0
96 113 0
124 146 0
108 127 0
153 175 0
122 138 0
113 130 0
123 143 0
168 189 0
124 144 0
138 159 0
110 129 0
145 167 0
123 140 0
130 150 0
116 133 0
94 113 0
99 122 0
131 145 0
132 151 0
130 150 0
65 81 0
99 120 0
112 131 0
122 141 0
125 143 0
84 100 0
80 98 57
49 78 57
41 66 0
47 75 80
40 66 57
52 82 57
50 79 80
48 76 80
45 72 80
46 74 0
50 81 128
48 77 80
49 78 80
42 68 80
52 84 80
43 71 80
55 86 80
49 78 80
51 80 99
52 81 128
45 73 57
46 73 80
55 86 99
50 77 57
39 64 57
40 64 57
56 88 114
47 73 80
52 84 80
50 78 80
51 82 80
52 82 57
50 81 80
51 81 80
48 76 99
46 74 0
50 81 99
53 83 80
49 77 57
45 70 0
44 70 57
43 70 80
58 92 128
49 76 84
53 82 117
50 79 57
50 78 80
57 88 114
51 80 0
48 77 99
50 78 80
38 62 57
40 62 80
47 76 0
76 98 57
98 109 0
131 150 0
80 99 0
125 145 0
103 118 0
106 122 0
122 136 0
118 135 0
107 117 0
149 169 0
107 122 0
127 143 0
104 117 0
99 111 0
86 98 0
104 121 0
128 144 0
139 152 0
96 114 0
131 150 0
140 152 0
125 133 0
146 163 0
120 131 0
125 139 0
145 160 0
134 148 0
110 115 0
151 163 0
128 141 0
160 173 0
110 122 0
119 121 0
152 162 0
143 143 0
129 138 0
131 142 0
153 170 0
131 139 0
135 145 0
136 140 0
134 137 0
139 138 0
151 156 0
175 186 0
140 147 0
159 165 0
135 137 0
126 132 0
105 107 0
125 125 36
106 97 36
107 101 0
108 94 0
100 89 0
110 103 0
136 127 36
127 120 36
144 138 62
122 117 0
114 104 51
145 136 51
134 126 44
142 137 36
146 142 0
124 118 37
155 146 72
102 98 0
136 130 62
139 134 57
113 112 36
115 115 0
141 135 0
145 141 57
130 123 51
150 141 51
126 122 51
134 126 36
125 118 36
155 150 62
142 136 36
159 152 62
148 140 51
140 138 36
157 149 51
147 142 62
129 119 36
127 127 0
154 146 51
155 144 62
144 141 48
165 158 62
157 153 62
149 140 51
166 158 62
129 123 36
147 142 36
148 144 62
158 153 62
162 155 62
156 148 62
159 151 72
156 150 62
141 135 62
170 161 80
149 140 0
152 146 62
167 161 72
158 153 51
135 134 44
150 139 51
178 170 95
164 155 62
130 130 0
144 137 36
152 148 0
123 119 0
157 150 72
170 160 72
144 138 51
162 156 62
159 153 36
151 147 62
163 159 62
153 147 76
140 138 0
159 152 62
176 169 95
143 137 62
144 140 36
163 150 51
155 150 51
170 165 80
164 156 62
165 156 72
162 156 62
152 148 36
163 159 51
162 155 62
157 147 51
172 166 80
155 150 51
157 151 51
158 154 51
173 167 88
148 137 51
165 158 62
158 153 36
169 162 62
165 161 72
168 163 72
157 153 51
174 165 88
163 158 51
158 151 62
160 157 51
167 158 62
166 159 80
167 159 80
167 159 72
164 159 80
171 164 88
163 157 62
159 150 36
154 151 51
168 164 80
168 160 72
167 155 72
162 155 62
171 162 72
166 160 51
169 163 72
163 154 72
155 174 125
170 188 161
166 185 144
175 191 177
153 168 125
158 175 102
162 181 72
152 169 125
166 186 125
166 184 161
168 189 161
165 184 144
169 186 125
163 183 102
160 178 125
166 185 125
155 173 125
165 182 125
169 185 177
157 176 125
164 182 125
164 184 125
158 176 144
151 170 102
148 165 102
158 177 125
159 177 125
161 180 144
167 185 161
172 190 161
140 160 72
170 187 144
151 171 102
169 187 144
164 185 125
161 181 161
153 173 102
153 172 72
161 179 125
146 162 144
151 167 144
148 164 72
163 183 102
171 189 161
166 187 144
148 163 125
159 175 125
135 156 51
162 180 144
147 164 102
159 178 125
118 133 72
170 189 177
160 182 125
154 175 102
148 164 102
157 179 144
157 175 72
146 164 72
166 186 125
178 195 191
167 186 144
162 182 125
149 166 125
147 166 72
158 175 144
166 185 125
148 165 118
134 147 102
160 178 125
162 181 161
157 176 102
152 167 144
139 159 102
162 180 144
154 170 102
156 175 102
142 162 72
157 174 102
165 184 144
152 172 102
160 181 102
155 170 125
156 174 72
140 157 72
158 177 102
154 170 102
132 149 72
143 162 102
133 150 102
122 138 0
153 173 125
143 161 72
160 180 144
149 166 102
146 163 102
133 149 0
142 159 135
147 164 125
128 146 102
136 157 72
127 145 72
152 168 102
131 146 102
135 151 114
148 162 125
155 171 144
156 171 125
147 163 102
129 146 72
137 152 125
115 131 72
121 136 72
136 152 0
103 118 0
104 119 0
140 154 102
98 110 0
145 163 102
123 141 0
128 142 102
119 134 0
140 157 0
134 149 0
135 148 0
123 140 0
134 150 0
120 133 0
102 118 0
129 146 0
122 141 0
115 129 0
131 148 0
99 115 0
102 117 0
129 145 0
128 147 0
120 133 0
123 140 0
116 134 0
145 165 0
142 159 0
125 141 0
135 154 0
113 127 0
103 121 0
115 131 0
141 161 0
98 114 0
141 156 0
124 143 0
149 168 0
136 153 0
102 121 0
137 154 0
147 168 0
113 131 0
126 143 0
159 176 0
86 100 0
143 159 0
96 110 0
121 137 0
69 86 0
113 130 0
107 123 0
86 105 0
78 98 0
117 134 0
109 126 0
59 76 0
106 123 0
66 78 0
107 125 0
65 85 0
36 57 57
39 64 80
47 74 114
42 68 80
38 61 0
46 73 57
38 62 0
49 78 80
39 62 57
45 71 99
45 74 0
50 80 80
47 75 99
44 70 80
38 62 0
37 62 57
58 92 128
48 78 0
49 78 80
46 71 80
52 82 99
31 51 57
52 83 80
42 69 57
41 66 0
52 82 99
45 73 80
55 87 80
57 91 57
47 75 99
52 82 99
51 80 99
55 87 128
48 76 80
54 84 80
55 86 99
42 64 57
45 74 0
42 70 0
47 73 99
40 67 0
53 83 114
50 79 80
53 84 99
47 74 99
45 70 80
39 62 57
38 61 57
46 71 57
34 53 0
112 128 0
98 108 0
117 129 0
117 136 0
103 121 0
96 107 0
148 165 0
69 88 0
98 110 0
138 156 0
116 133 0
118 136 0
119 138 0
105 116 0
135 145 0
150 161 0
132 142 0
148 163 0
136 150 0
121 130 0
111 122 0
116 131 0
132 145 0
141 155 0
127 147 0
114 122 0
80 89 0
115 127 0
147 156 0
156 167 0
115 132 0
149 164 0
115 132 0
149 165 0
127 134 0
134 136 0
140 149 0
126 131 0
110 123 0
141 155 0
142 151 0
146 151 0
128 132 0
115 121 0
147 156 0
137 149 0
147 155 0
135 133 0
150 154 0
139 147 0
131 128 0
124 129 0
141 142 0
110 110 0
143 137 32
127 120 36
123 116 36
127 120 36
141 137 36
121 117 36
84 73 0
131 122 36
115 111 36
90 89 36
150 141 62
138 132 36
125 121 62
143 138 0
104 101 36
127 122 44
129 119 36
138 132 51
138 132 52
157 149 62
152 148 51
105 105 0
138 131 51
140 132 51
153 145 70
136 128 36
150 144 67
152 147 72
148 138 51
149 147 36
152 146 51
164 157 62
148 141 36
137 135 0
154 143 36
142 130 62
159 152 62
159 146 72
153 146 51
148 142 72
114 109 36
158 154 62
144 143 62
165 156 72
149 146 51
160 154 62
154 150 51
112 111 0
138 127 36
151 142 62
160 152 51
152 145 51
151 143 62
148 144 51
142 135 51
157 150 62
141 132 66
175 168 88
161 151 62
142 139 62
159 150 62
156 152 62
155 148 62
165 158 72
169 159 80
164 158 72
165 158 62
156 150 36
158 156 51
173 165 72
157 153 62
167 161 62
154 146 62
155 144 51
180 169 95
148 143 51
173 160 80
163 153 62
172 165 72
166 158 72
153 149 51
167 154 62
165 153 62
161 155 72
155 150 36
161 153 36
154 146 51
171 164 72
174 167 88
176 168 88
167 162 72
149 144 51
167 162 72
160 151 51
161 153 51
170 157 80
155 150 0
175 166 72
180 171 95
167 159 62
174 167 88
165 160 62
164 160 62
159 152 72
163 153 51
168 161 88
155 146 51
156 152 51
165 155 62
156 149 72
148 140 62
165 157 62
159 154 62
159 154 51
161 154 62
159 153 51
155 151 36
164 158 80
166 162 72
173 165 72
144 143 36
174 191 161
140 159 72
172 191 161
149 169 125
161 179 125
165 181 102
172 191 161
171 189 144
153 174 102
166 184 144
163 180 161
164 181 125
169 187 161
152 173 72
167 186 161
169 188 144
149 168 102
169 188 191
165 182 125
167 186 125
175 195 191
163 181 102
166 183 144
162 177 125
150 166 125
167 185 144
149 170 102
162 181 144
157 176 102
166 183 144
170 189 144
138 156 72
148 167 72
161 179 125
154 176 0
143 158 125
168 185 177
142 158 72
156 173 144
167 181 144
156 175 125
148 165 102
171 186 144
156 172 125
137 155 0
169 185 129
159 178 102
165 185 144
150 167 144
158 176 102
168 185 125
164 183 125
167 183 144
151 172 72
160 181 102
165 183 125
157 176 125
160 177 125
159 175 161
159 177 125
150 172 88
138 157 114
157 178 125
150 166 102
153 175 102
133 151 72
159 177 102
156 172 148
154 174 102
162 181 102
166 184 144
157 175 144
147 166 102
150 162 107
159 181 102
160 175 102
152 170 102
156 171 129
172 189 144
136 159 0
160 179 102
124 141 102
171 189 144
143 161 125
149 166 72
145 162 0
140 156 102
170 190 161
134 149 72
152 169 144
151 167 72
132 150 102
129 146 72
158 174 144
141 156 125
116 133 0
141 159 102
164 182 102
127 146 114
133 152 72
134 153 72
111 128 72
144 162 114
134 149 0
141 158 125
130 145 72
138 154 102
125 138 72
133 150 72
118 133 72
110 128 72
149 163 125
104 120 72
126 144 0
128 145 72
102 112 72
112 128 0
126 143 0
89 102 0
118 138 0
142 159 72
131 146 0
122 139 0
123 140 0
140 158 0
120 136 0
130 146 0
134 153 0
129 144 0
134 150 0
145 164 0
122 136 0
129 143 0
98 115 0
150 169 0
120 133 0
133 149 0
108 123 0
112 126 0
126 144 0
118 136 0
77 93 0
160 179 0
143 158 0
140 154 0
90 104 0
77 97 0
114 129 0
102 117 0
150 168 0
150 167 0
115 133 0
101 117 0
146 166 0
104 118 0
137 156 0
117 136 0
127 147 0
120 138 0
101 116 0
140 161 0
147 164 0
124 142 0
62 82 0
104 121 0
115 134 0
104 121 0
91 108 0
63 79 0
57 73 0
123 141 0
88 102 0
87 104 0
100 118 0
98 114 0
118 132 0
60 82 57
75 98 57
47 75 80
48 76 80
46 74 57
35 57 0
40 64 0
35 58 0
51 81 99
49 77 80
46 75 57
39 64 57
42 68 0
50 79 114
50 81 0
44 72 0
45 74 0
59 91 149
52 81 57
44 72 57
45 74 80
45 72 80
50 78 80
53 85 99
49 79 80
52 83 99
52 82 80
52 83 57
50 80 80
48 76 99
49 79 57
56 89 99
45 74 57
47 70 0
50 79 80
45 73 80
46 73 0
41 65 57
53 84 80
52 82 99
59 91 80
43 67 80
48 76 57
50 77 99
40 65 0
40 64 99
58 76 80
41 63 0
95 109 0
69 88 0
101 120 0
97 110 0
108 121 0
79 87 0
124 138 0
65 81 0
128 144 0
45 47 0
74 83 0
99 112 0
88 103 0
110 108 0
85 103 0
105 114 0
129 146 0
92 100 0
134 145 0
144 157 0
127 137 0
120 134 0
132 149 0
151 165 0
92 101 0
137 154 0
145 162 0
109 123 0
137 149 0
128 141 0
114 126 0
108 117 0
142 157 0
113 118 0
128 138 0
133 143 0
148 161 0
103 113 0
162 172 0
87 90 0
139 152 0
148 163 0
144 155 0
109 113 0
97 102 0
134 141 0
105 101 0
131 128 0
142 140 0
166 176 0
140 143 0
113 115 0
135 145 0
131 132 0
117 123 0
97 92 0
101 90 0
157 149 51
89 86 0
123 117 51
83 76 0
116 107 0
134 127 51
138 130 62
131 124 48
128 122 0
126 124 36
139 132 0
133 125 36
118 113 60
99 98 0
144 137 36
143 137 51
131 117 36
146 137 51
142 135 36
120 117 51
166 159 80
132 126 51
136 135 0
130 126 48
147 140 36
134 129 44
163 151 72
145 138 62
148 140 36
155 144 51
165 156 72
156 151 51
117 115 36
153 144 51
147 137 62
133 126 0
144 138 36
145 137 51
152 143 62
134 132 51
157 149 62
152 148 67
144 138 62
140 139 36
169 161 88
162 157 62
162 151 80
162 153 62
160 155 72
165 155 62
165 153 80
155 150 36
138 136 36
162 152 72
152 147 51
160 150 80
157 151 72
154 150 51
129 126 0
167 157 80
168 157 88
170 163 62
152 144 36
141 140 36
163 158 51
164 155 72
139 134 36
157 153 62
163 154 72
147 144 62
156 148 51
159 152 62
150 140 51
181 171 95
156 143 62
158 150 51
147 142 36
177 164 88
164 155 62
145 139 65
160 152 51
136 128 51
164 156 51
159 153 72
158 148 62
172 162 72
173 163 88
166 156 79
169 159 72
166 158 80
150 140 36
155 152 51
177 169 88
163 159 62
156 150 51
162 151 62
160 151 36
149 142 51
159 154 51
160 156 51
179 167 88
154 150 62
157 150 51
174 165 88
163 157 62
157 153 62
156 150 72
153 148 51
176 167 80
171 164 72
152 145 51
171 163 62
159 151 62
148 143 0
166 160 80
147 137 36
162 152 51
162 156 62
162 158 51
157 178 72
159 177 102
149 167 72
185 200 191
172 191 161
161 180 125
168 187 144
152 171 125
166 183 125
174 191 161
162 180 144
161 178 161
158 177 72
165 184 125
171 188 177
165 184 144
155 173 102
169 186 125
166 183 161
165 181 125
136 154 72
175 195 191
170 189 144
161 178 161
148 166 72
161 182 125
157 176 125
149 169 102
162 180 125
156 175 144
169 187 161
167 186 125
159 180 125
160 179 102
157 178 125
146 162 125
155 173 125
160 177 72
144 160 125
155 173 102
170 189 144
155 173 72
165 183 125
169 188 161
157 175 102
165 179 144
148 168 72
152 170 102
159 178 125
151 170 72
154 172 102
142 158 125
174 192 161
136 154 102
169 187 125
167 185 144
169 187 125
157 176 102
138 156 125
168 187 144
131 150 72
156 174 102
156 177 102
150 169 102
161 178 125
149 167 102
170 187 144
153 172 102
145 163 102
154 173 125
151 171 72
141 157 72
157 175 125
159 179 144
137 155 102
158 179 102
155 172 102
146 165 102
145 164 72
148 166 72
141 157 102
130 147 32
148 167 102
151 170 102
137 154 102
142 158 125
164 181 144
172 188 144
142 157 102
145 162 102
144 163 102
119 134 72
139 157 72
147 164 125
140 153 107
127 145 0
124 135 72
143 163 102
137 154 102
138 156 135
144 163 88
137 157 72
122 138 72
155 173 102
95 112 0
133 149 0
136 152 72
124 140 72
149 166 102
132 147 88
134 150 102
121 135 72
87 98 0
158 176 102
109 124 72
104 117 72
109 125 0
129 145 0
109 119 72
144 158 0
123 138 0
92 104 0
101 113 0
135 149 0
136 155 0
151 167 0
146 161 0
134 153 0
118 135 0
127 142 0
144 160 0
146 163 0
142 159 0
128 145 0
130 144 0
125 140 0
126 142 0
129 145 0
125 140 0
123 140 0
130 148 0
140 159 0
122 135 0
134 150 0
111 130 0
110 126 0
106 121 0
129 146 0
114 129 0
118 137 0
116 137 0
94 112 0
123 142 0
113 131 0
96 113 0
98 114 0
136 153 0
133 151 0
67 83 0
125 143 0
72 91 0
78 97 0
127 146 0
60 77 0
116 132 0
100 117 0
125 142 0
93 110 0
117 134 0
106 123 0
74 91 0
134 151 0
81 97 0
81 96 0
107 124 0
93 106 0
86 99 0
63 78 0
36 56 80
36 60 57
48 76 57
32 56 0
40 66 0
34 58 36
47 75 99
49 78 57
47 75 80
48 77 0
51 82 99
38 60 0
43 67 0
53 82 99
43 68 57
52 84 80
55 87 114
46 75 0
46 75 80
43 67 57
49 80 57
41 66 57
45 72 57
54 82 114
53 86 57
40 64 57
36 59 80
40 64 0
50 78 0
39 65 0
54 86 99
45 73 0
39 67 0
45 71 80
34 57 57
50 81 57
48 74 80
48 78 80
52 82 80
43 67 0
47 74 57
38 61 57
47 73 80
101 113 0
106 121 0
107 119 0
104 112 0
115 127 0
131 148 0
117 131 0
103 118 0
110 124 0
35 55 0
121 129 0
130 143 0
145 163 0
90 97 0
102 117 0
150 172 0
130 142 0
115 126 0
98 112 0
111 130 0
112 120 0
108 113 0
105 121 0
102 117 0
135 152 0
140 152 0
104 120 0
113 124 0
96 100 0
127 134 0
143 159 0
93 107 0
133 134 0
93 104 0
143 159 0
125 131 0
136 152 0
89 95 0
132 146 0
131 147 0
102 107 0
156 161 0
138 147 0
109 113 0
117 117 0
106 110 0
121 133 0
107 98 0
139 153 0
120 130 0
114 122 0
138 144 0
163 171 0
122 125 0
111 112 0
128 130 0
104 99 0
123 127 0
116 110 0
106 100 0
118 115 0
114 105 0
119 111 44
85 85 44
106 100 57
124 116 0
87 82 0
130 119 48
104 102 0
109 98 0
131 125 36
125 121 51
145 142 36
141 133 62
158 144 51
145 134 51
126 120 36
131 119 36
134 126 51
144 138 51
157 149 51
80 80 0
150 139 72
114 111 25
142 138 51
143 134 0
139 135 0
165 158 62
124 121 62
151 144 51
129 129 44
157 148 72
130 126 0
150 145 36
144 137 62
137 132 51
154 144 51
151 145 36
151 144 72
168 161 88
164 157 72
159 154 62
126 116 36
150 144 72
155 146 62
150 147 51
150 139 51
132 127 36
156 148 36
167 159 62
168 158 62
164 157 62
153 146 62
153 143 51
156 149 62
146 139 51
169 161 72
158 154 0
159 153 62
161 152 51
142 135 51
157 152 36
152 146 51
153 143 62
128 118 0
149 145 62
163 158 72
141 131 51
171 163 80
176 166 72
162 153 72
158 152 51
171 165 80
163 156 51
137 134 36
138 131 36
158 151 72
158 149 72
170 163 62
168 159 62
152 149 36
165 160 62
175 168 88
154 146 62
167 157 72
163 159 62
163 155 72
158 153 51
156 148 62
165 160 62
154 149 72
166 161 62
151 138 80
165 158 62
169 156 80
146 136 72
155 148 36
160 154 36
154 151 36
157 150 62
163 149 51
157 153 51
165 157 51
156 148 51
157 149 72
164 160 62
164 156 72
162 155 51
167 160 51
151 141 51
168 159 62
163 155 62
154 145 51
174 166 80
173 166 80
165 158 62
159 157 51
155 148 62
175 169 95
158 176 72
159 180 125
153 171 125
156 175 102
162 182 102
161 182 125
155 176 102
155 173 125
161 180 125
158 176 102
155 171 144
154 169 125
143 163 0
167 182 125
145 161 72
164 183 125
161 181 125
150 169 102
148 168 72
164 182 125
145 162 102
164 180 125
165 185 125
135 154 0
162 179 161
162 182 125
142 158 102
146 164 72
164 181 125
163 179 144
158 175 144
159 177 125
154 171 125
149 169 0
160 176 102
149 169 72
165 184 125
153 173 102
159 176 125
143 160 102
151 168 72
173 192 161
158 176 125
156 173 102
148 167 125
169 186 161
151 173 125
160 179 125
154 172 125
163 181 125
154 171 102
158 176 144
154 171 125
161 177 125
141 160 72
143 161 102
167 185 161
153 169 102
147 168 72
152 169 144
150 168 72
164 185 125
151 172 125
147 169 72
146 160 0
154 173 102
150 169 102
148 164 102
150 167 125
144 163 72
146 164 125
139 158 72
143 162 72
126 141 0
165 180 148
155 170 102
157 175 102
142 160 72
127 145 102
146 162 72
142 161 72
161 178 125
154 173 72
164 180 72
147 165 0
143 161 0
145 163 72
146 162 125
150 166 125
125 142 72
149 167 102
134 155 102
150 167 102
142 161 72
143 163 102
151 169 102
139 154 72
140 160 0
139 157 72
127 144 72
143 163 88
124 141 72
141 157 125
147 163 125
141 155 72
142 159 102
112 133 0
131 151 72
121 138 0
109 125 88
126 142 102
90 103 72
122 138 0
104 117 0
152 169 72
133 145 72
77 91 0
59 68 0
144 159 0
83 97 0
95 105 0
123 139 0
108 123 0
120 136 0
135 152 0
98 112 0
107 121 0
109 123 0
127 141 0
120 133 0
109 123 0
120 136 0
99 113 0
148 165 0
99 114 0
129 144 0
110 125 0
132 152 0
81 96 0
122 139 0
89 102 0
114 133 0
115 134 0
103 118 0
123 140 0
106 122 0
145 164 0
144 161 0
112 131 0
94 113 0
135 153 0
152 169 0
101 120 0
76 89 0
117 131 0
135 153 0
76 87 0
116 130 0
158 176 0
115 134 0
137 155 0
123 141 0
124 142 0
105 119 0
112 133 0
66 89 0
60 70 0
69 86 0
119 134 0
78 97 0
150 167 0
126 145 0
27 44 0
67 84 0
104 117 0
75 91 0
78 98 0
89 102 0
84 95 0
63 76 0
65 78 0
64 89 80
35 56 80
40 65 0
48 77 57
48 77 57
53 82 128
39 64 0
40 66 57
48 78 0
42 66 57
43 69 80
38 60 57
46 72 57
53 82 80
53 85 80
38 62 57
54 86 80
44 70 0
43 69 0
51 81 99
44 70 57
42 67 57
43 69 57
44 69 0
52 81 57
36 60 0
47 77 80
47 73 80
41 66 57
48 74 80
47 74 57
46 73 0
44 72 0
34 56 0
38 60 57
49 77 80
47 73 80
28 46 0
86 92 0
93 108 0
59 70 0
113 123 0
105 119 0
95 107 0
69 83 0
149 163 0
89 94 0
131 147 0
64 77 0
43 64 0
62 80 0
126 135 0
78 91 0
118 132 0
65 79 0
80 90 0
132 136 0
105 115 0
104 120 0
112 128 0
124 139 0
114 126 0
137 153 0
146 158 0
106 116 0
118 132 0
114 130 0
113 126 0
93 105 0
129 140 0
122 134 0
114 127 0
141 155 0
113 117 0
137 150 0
128 139 0
152 172 0
155 167 0
112 124 0
139 152 0
132 140 0
118 132 0
102 109 0
112 118 0
121 128 0
134 142 0
136 136 0
118 119 0
135 142 0
144 154 0
105 109 0
130 141 0
118 125 0
102 105 0
107 116 0
109 119 0
130 124 0
130 131 0
110 109 0
96 86 0
128 122 0
122 125 0
86 76 0
134 129 36
131 122 0
108 105 0
121 110 0
105 102 0
116 110 0
131 124 25
92 82 0
99 101 0
116 109 51
164 154 36
117 113 48
161 153 72
129 121 36
125 119 36
126 120 51
144 135 36
144 134 51
109 108 0
137 133 51
134 130 37
152 143 62
149 145 51
144 136 36
117 115 44
139 135 44
149 145 36
153 146 36
138 134 51
152 147 51
156 149 72
132 126 51
152 142 36
149 144 62
144 132 36
154 148 62
152 142 62
159 153 36
132 131 36
159 151 84
142 134 36
150 136 36
146 136 48
138 133 51
125 123 0
153 147 62
150 144 51
144 134 51
155 147 62
162 154 62
160 155 67
162 156 62
143 139 51
167 161 62
156 149 36
168 161 51
170 159 80
166 161 62
131 126 48
155 151 36
160 154 62
168 162 62
129 123 36
158 151 51
150 142 51
154 150 72
143 134 62
150 140 51
152 139 62
162 154 72
148 141 36
140 132 36
174 159 80
149 141 51
166 157 72
141 138 0
124 123 0
158 155 36
142 137 51
164 156 80
152 146 36
154 149 51
173 166 80
163 153 62
171 163 80
161 153 72
175 162 88
147 142 0
152 145 72
151 146 36
153 147 36
160 155 51
158 149 51
159 152 72
165 157 62
167 162 72
176 166 88
166 158 62
155 147 51
160 155 51
149 143 0
144 140 51
155 149 51
152 146 62
156 152 51
157 153 51
160 153 72
170 162 88
162 155 51
168 157 62
155 151 36
168 159 62
146 143 36
145 141 0
153 149 36
156 154 36
168 184 161
178 194 161
136 154 102
161 179 144
159 177 144
154 170 144
160 176 125
160 178 102
163 182 144
156 176 102
147 164 125
162 179 125
155 172 102
173 190 161
154 173 102
182 198 191
149 168 102
151 167 102
160 176 144
149 170 102
161 180 125
162 181 72
149 164 72
161 178 144
185 199 191
168 187 125
172 191 161
158 176 125
152 170 125
167 185 125
159 177 125
161 180 144
161 180 125
158 173 102
151 170 102
158 176 125
164 184 125
151 170 72
158 175 125
157 176 125
174 193 177
135 152 0
161 178 125
153 173 125
151 169 125
150 167 72
156 173 102
164 185 125
151 171 102
148 166 72
130 150 72
172 187 161
152 166 125
160 179 125
172 184 161
130 148 72
142 160 72
158 178 72
170 187 144
150 169 125
170 188 144
162 182 102
152 174 102
138 156 72
154 174 102
146 165 72
155 176 125
164 183 125
143 159 102
150 165 102
136 154 72
158 176 102
159 178 72
149 166 102
163 177 144
156 175 72
150 168 102
134 150 102
156 172 125
158 175 129
140 156 102
130 147 72
129 144 72
139 160 0
148 167 72
151 167 125
136 153 102
154 172 72
150 166 125
137 154 0
134 147 0
152 169 102
149 163 144
157 173 102
134 151 102
147 165 102
100 112 0
156 176 114
146 166 102
151 169 125
134 150 72
100 115 0
137 156 72
113 128 72
132 147 102
118 134 72
116 132 72
112 125 0
106 120 0
138 155 72
162 176 144
118 134 72
120 135 102
110 125 72
114 126 72
143 156 0
124 136 0
117 129 0
121 136 0
74 86 0
103 115 0
76 90 0
127 139 0
99 115 0
111 123 0
100 115 0
135 152 0
118 132 0
132 147 0
114 127 0
107 124 0
129 145 0
127 145 0
134 149 0
102 117 0
139 159 0
123 143 0
122 139 0
119 134 0
114 134 0
105 119 0
106 120 0
112 128 0
128 148 0
113 132 0
126 137 0
115 134 0
141 158 0
98 116 0
98 117 0
125 148 0
133 150 0
133 151 0
117 136 0
118 135 0
115 131 0
99 116 0
129 148 0
97 115 0
98 117 0
106 125 0
134 151 0
102 113 0
127 145 0
87 105 0
112 129 0
133 147 0
103 117 0
138 158 0
102 115 0
51 67 0
94 107 0
113 128 0
32 52 0
102 113 0
33 52 0
61 74 0
88 102 0
79 88 0
64 79 0
34 55 0
25 42 0
70 78 0
40 65 0
29 50 0
50 79 114
43 67 95
38 62 0
47 77 57
40 63 57
46 74 57
46 71 99
43 69 57
37 59 57
46 74 57
32 55 0
45 73 57
33 55 0
46 75 57
42 67 99
53 85 80
37 63 57
34 57 0
52 81 99
50 81 57
49 77 99
39 66 0
36 60 0
34 57 57
46 73 99
36 60 57
45 72 80
43 69 57
40 64 57
42 68 57
33 54 57
62 76 0
132 145 0
62 68 0
29 47 0
28 42 0
87 103 0
60 68 0
31 50 0
104 115 0
64 73 0
118 136 0
65 74 0
112 127 0
115 130 0
23 37 0
133 148 0
112 125 0
99 110 0
83 95 0
86 94 0
134 152 0
70 88 0
137 153 0
140 157 0
88 97 0
97 109 0
61 75 0
106 122 0
105 120 0
146 157 0
117 133 0
139 158 0
133 145 0
118 135 0
116 132 0
105 117 0
119 128 0
112 117 0
118 132 0
142 145 0
129 141 0
125 128 0
114 123 0
137 156 0
107 112 0
126 131 0
108 113 0
84 97 0
115 119 0
125 137 0
114 125 0
117 124 0
166 173 0
111 109 0
113 123 0
112 108 0
133 139 0
108 109 0
149 159 0
107 106 0
76 74 0
110 114 0
105 103 0
121 124 0
130 141 0
105 111 0
80 79 0
102 92 0
131 132 0
93 85 0
81 67 0
126 114 36
120 107 36
130 117 0
126 117 36
116 108 0
128 122 36
144 134 51
117 111 36
102 96 0
110 105 0
127 120 36
148 141 62
117 114 36
155 150 51
123 115 36
145 134 51
149 142 51
125 121 0
135 131 57
126 124 36
133 125 51
138 133 62
149 140 51
146 140 51
156 145 62
158 152 51
162 152 72
152 144 62
161 150 62
144 142 0
141 133 36
167 158 72
137 131 36
125 126 36
157 150 62
156 148 72
160 152 80
165 157 72
114 111 36
166 161 72
134 131 0
137 123 51
140 137 36
148 141 62
140 135 0
149 143 51
162 159 62
134 127 0
153 150 51
150 144 62
154 148 62
156 148 62
166 159 76
158 155 36
152 142 51
166 159 72
140 131 36
146 137 62
170 161 80
160 155 62
150 140 51
147 142 62
151 149 36
166 161 62
173 166 87
161 155 62
163 156 62
157 150 72
140 133 36
169 159 72
166 158 72
157 150 72
159 152 62
177 166 88
153 148 51
164 154 62
172 162 72
158 152 62
163 158 62
153 145 51
157 145 36
158 153 36
165 158 62
154 146 62
169 162 62
169 161 80
143 133 36
158 153 51
165 160 51
161 154 80
141 137 36
164 157 62
160 154 72
169 163 72
150 142 72
158 151 62
164 158 62
161 154 72
167 159 62
152 147 51
175 166 80
163 153 62
183 172 95
153 149 62
165 161 62
155 146 62
157 150 62
140 136 51
146 142 0
170 161 72
159 150 51
162 155 51
165 157 51
161 178 144
171 189 161
170 187 125
156 172 102
167 187 144
139 156 72
158 174 125
124 144 0
164 183 125
152 170 102
155 173 125
163 179 144
155 174 102
164 181 125
155 174 125
158 176 72
138 156 72
161 180 125
169 186 161
160 180 72
164 182 144
170 189 144
169 186 102
161 176 161
132 151 72
153 171 102
172 189 161
147 167 72
158 177 144
157 174 72
149 169 72
152 171 125
168 184 125
168 186 161
178 197 191
175 192 177
152 171 125
160 178 125
158 175 161
153 169 125
151 168 125
167 185 161
157 175 144
146 165 102
163 180 125
159 178 144
160 181 125
153 171 72
168 185 129
172 191 161
154 174 125
131 149 72
145 160 125
164 181 144
141 158 102
162 178 144
166 185 144
158 176 125
164 182 144
149 168 102
158 177 125
158 178 144
115 130 0
135 154 0
151 166 102
160 174 129
170 189 161
149 167 125
164 181 102
127 147 114
151 169 102
166 183 161
170 188 125
152 170 125
142 160 102
139 154 72
165 182 144
146 162 102
141 157 125
130 146 102
141 156 102
151 170 72
155 171 144
142 159 72
134 153 102
133 150 102
145 162 102
144 162 102
141 158 102
133 152 72
145 165 72
138 157 72
129 149 0
142 159 153
125 142 72
142 162 72
134 153 0
148 166 102
131 146 72
121 136 0
131 148 0
113 129 72
115 129 0
119 132 0
115 132 0
134 150 0
131 147 102
111 127 0
147 164 102
120 132 0
100 111 72
125 137 0
116 131 0
95 109 0
107 117 0
100 109 0
125 136 0
131 145 0
110 123 0
123 138 0
111 122 0
119 134 0
93 106 0
106 116 0
113 124 0
133 149 0
125 138 0
121 134 0
110 123 0
101 115 0
114 130 0
117 134 0
105 119 0
143 156 0
128 146 0
129 146 0
122 141 0
95 110 0
99 115 0
117 131 0
129 145 0
134 150 0
110 129 0
83 93 0
92 103 0
122 140 0
121 138 0
101 112 0
116 135 0
137 152 0
133 149 0
132 146 0
103 120 0
102 116 0
110 127 0
122 139 0
107 121 0
122 137 0
96 114 0
140 157 0
114 127 0
104 118 0
85 100 0
119 132 0
79 97 0
112 134 0
133 151 0
94 107 0
118 134 0
113 129 0
62 77 0
85 99 0
84 97 0
114 130 0
102 118 0
101 115 0
88 101 0
62 74 0
88 100 0
104 117 0
66 83 0
56 69 0
97 111 0
63 76 0
113 127 0
101 116 0
21 36 0
27 46 0
40 63 57
46 74 57
26 45 0
48 78 80
43 71 0
47 76 0
50 80 80
26 46 0
43 68 57
19 35 0
47 73 57
42 66 0
34 56 0
47 75 57
36 59 0
50 80 57
49 78 57
37 60 57
40 65 0
46 74 57
35 58 0
44 68 0
36 60 57
36 56 57
84 90 0
69 85 57
18 28 0
27 45 0
66 81 0
32 49 0
95 105 0
79 87 0
33 50 0
62 74 0
76 82 0
79 83 0
134 149 0
113 126 0
97 105 0
58 72 0
99 105 0
87 100 0
93 100 0
145 160 0
64 72 0
89 97 0
101 115 0
95 105 0
105 120 0
142 151 0
127 136 0
74 88 0
80 93 0
109 125 0
117 132 0
117 129 0
105 109 0
100 116 0
104 114 0
111 123 0
123 130 0
100 110 0
113 122 0
101 114 0
108 123 0
114 126 0
83 97 0
117 118 0
134 143 0
161 178 0
88 91 0
112 121 0
110 114 0
115 126 0
115 118 0
122 129 0
124 126 0
118 129 0
96 107 0
120 129 0
145 149 0
97 100 0
111 121 0
110 120 0
107 104 0
124 136 0
138 152 0
130 127 0
118 121 0
117 127 0
109 109 0
129 117 0
84 84 0
86 89 0
138 147 0
120 126 0
106 106 0
62 52 0
100 98 0
105 98 0
138 124 72
107 103 36
122 113 36
139 132 51
124 114 36
143 132 51
139 134 36
127 120 36
132 130 0
143 131 36
135 124 36
138 131 51
142 138 51
146 140 51
156 148 72
139 126 36
133 124 36
129 126 0
143 135 51
148 141 62
123 120 36
120 116 36
125 118 51
114 101 0
137 132 0
120 115 0
131 125 51
161 151 62
156 147 72
162 154 51
157 153 62
145 141 62
142 137 0
153 146 0
148 138 0
124 117 25
141 136 51
133 126 36
152 144 62
157 152 36
167 159 72
164 157 51
155 150 72
158 148 51
157 149 36
165 155 72
163 154 62
129 126 0
147 142 36
130 127 36
157 151 62
139 133 51
157 148 51
163 154 72
139 136 0
166 157 72
144 137 51
163 154 62
162 154 72
168 161 80
154 150 36
154 149 51
152 147 62
156 150 62
167 161 62
152 146 36
164 156 51
153 145 36
155 148 51
156 154 36
167 159 62
163 155 72
152 138 62
146 144 36
164 154 62
172 165 80
149 139 62
159 152 72
163 157 72
157 149 36
161 157 72
169 158 72
157 150 62
136 130 36
160 150 72
178 168 80
171 162 72
172 164 88
166 153 62
161 154 72
155 146 62
170 161 72
154 151 51
162 159 62
157 155 36
175 165 80
177 168 88
152 147 36
154 150 62
159 153 36
169 161 72
163 157 62
153 145 62
174 164 80
166 158 62
153 147 62
160 151 62
146 138 36
149 140 0
166 161 62
171 163 80
156 149 36
161 180 102
166 183 125
155 173 0
153 169 72
168 185 144
163 182 102
157 176 102
155 172 125
148 166 125
160 179 125
171 189 191
156 178 72
149 167 102
157 173 102
170 187 144
149 167 72
168 187 144
164 182 144
173 192 161
150 170 72
168 187 161
153 172 72
169 187 125
151 169 125
171 189 144
154 176 102
156 174 125
142 158 72
141 158 125
166 184 144
157 176 102
171 189 144
151 171 102
157 177 72
153 173 102
154 175 0
135 156 72
151 167 125
161 180 144
157 176 72
132 151 0
157 177 144
164 181 102
160 178 102
168 187 125
160 179 125
169 186 144
153 169 161
159 176 144
146 164 102
170 187 144
170 185 125
159 179 102
153 169 144
154 169 102
145 163 102
147 166 102
145 162 135
134 151 125
130 152 0
157 177 144
159 176 32
129 147 72
168 185 125
174 189 161
144 161 102
151 170 102
141 159 102
156 173 102
154 172 102
133 151 72
136 152 72
140 154 125
140 156 102
172 190 161
157 173 102
144 162 72
142 158 102
145 159 102
166 186 125
146 164 102
156 173 125
144 162 125
166 184 144
139 158 0
131 148 0
131 148 102
138 156 72
149 166 102
139 154 102
130 144 0
140 157 125
146 163 72
160 178 102
145 164 88
138 154 114
141 154 102
154 169 102
106 121 102
138 154 72
130 144 72
147 165 102
111 126 0
111 126 72
144 162 125
129 141 102
110 123 72
127 141 72
112 128 0
99 110 0
108 121 0
139 153 72
93 103 0
49 60 0
131 144 0
95 110 0
78 86 0
146 160 0
113 127 0
125 138 0
102 116 0
133 147 0
124 140 0
112 124 0
126 138 0
96 111 0
105 118 0
98 117 0
119 133 0
153 172 0
130 145 0
122 135 0
124 137 0
116 131 0
99 111 0
108 124 0
114 135 0
94 110 0
130 145 0
125 143 0
135 152 0
121 139 0
123 141 0
143 161 0
119 134 0
118 132 0
117 134 0
123 137 0
110 128 0
128 143 0
110 126 0
86 104 0
89 109 0
114 131 0
143 167 0
104 121 0
118 131 0
119 135 0
113 133 0
71 84 0
86 97 0
119 135 0
123 141 0
77 97 0
103 119 0
70 87 0
121 142 0
30 50 0
129 146 0
69 87 0
111 125 0
143 158 0
122 139 0
104 119 0
105 123 0
61 73 0
47 59 0
60 73 0
105 116 0
110 126 0
21 36 0
40 61 0
120 134 0
100 112 0
30 49 0
66 79 0
67 83 0
76 85 0
18 31 0
85 98 0
83 91 0
35 57 0
69 86 57
64 79 0
50 62 0
31 50 0
39 65 0
27 47 0
43 68 57
29 49 0
35 58 0
34 50 57
40 65 57
33 53 57
28 45 0
40 65 0
28 46 57
26 42 0
89 102 57
66 78 0
56 52 0
101 109 0
62 72 0
84 96 0
87 98 0
29 47 0
85 96 0
98 105 0
121 136 0
102 108 0
89 92 0
99 108 0
90 106 0
66 76 0
28 40 0
22 35 0
78 90 0
73 86 0
111 123 0
117 131 0
111 125 0
102 105 0
104 115 0
85 87 0
104 119 0
140 158 0
120 133 0
100 115 0
84 90 0
88 106 0
114 127 0
98 115 0
114 128 0
129 141 0
147 168 0
89 101 0
116 136 0
150 164 0
100 110 0
109 123 0
120 132 0
101 117 0
125 137 0
143 156 0
106 115 0
108 115 0
134 151 0
133 146 0
97 110 0
148 158 0
125 136 0
114 123 0
126 133 0
110 125 0
118 126 0
130 142 0
143 155 0
143 155 0
121 120 0
96 104 0
82 86 0
110 111 0
134 143 0
106 115 0
97 103 0
126 138 0
156 167 0
65 63 0
92 101 0
109 110 0
114 120 0
135 143 0
86 76 0
107 98 0
117 107 0
99 92 0
97 98 0
103 105 0
121 118 0
135 129 57
117 106 36
133 121 36
128 114 36
95 90 0
121 115 51
135 125 51
139 130 62
149 138 62
146 134 51
129 122 51
135 124 51
133 128 36
119 107 0
107 96 0
103 97 0
151 140 51
151 147 62
129 125 37
127 122 63
135 132 36
148 141 51
120 114 36
144 133 62
156 144 36
151 143 36
155 147 62
136 130 51
122 118 51
159 149 80
156 151 62
142 132 36
152 147 36
140 133 51
158 149 62
139 133 36
159 152 72
142 137 62
140 135 62
152 148 51
166 161 62
151 143 51
154 145 62
141 137 48
141 134 62
159 155 72
131 127 51
160 154 80
159 154 62
160 150 62
154 147 51
167 161 62
148 141 62
146 142 36
161 152 88
139 135 36
140 138 36
147 143 36
165 157 72
167 159 72
147 141 62
155 149 36
136 130 36
160 149 51
151 140 70
161 152 62
135 120 36
140 138 36
157 146 80
162 156 62
159 150 51
149 145 51
143 140 36
160 149 51
156 149 62
148 142 51
155 148 51
165 160 88
159 150 62
170 161 72
134 130 36
176 166 72
137 132 36
172 166 80
163 154 72
162 153 80
155 152 51
157 151 51
164 160 62
172 163 80
169 160 62
164 157 72
148 140 62
165 160 62
166 158 62
154 148 51
157 152 36
143 138 36
155 152 51
152 148 62
155 149 36
161 155 51
162 153 62
156 145 51
153 147 62
174 164 80
161 152 51
153 148 51
149 143 36
170 163 62
168 158 80
150 167 102
158 176 144
155 174 72
159 178 144
162 181 102
165 187 161
161 179 125
157 176 102
163 181 144
166 183 144
149 168 102
174 191 177
159 176 125
148 166 72
163 182 125
163 182 125
155 175 102
172 190 144
168 185 161
168 184 125
150 169 72
159 177 102
155 175 72
158 174 125
169 187 161
159 176 102
158 176 102
157 173 102
163 183 102
159 177 125
157 176 72
157 177 72
159 177 125
156 174 144
155 178 72
162 179 144
170 190 161
152 172 102
152 172 72
164 182 102
150 170 72
152 169 125
151 168 72
149 170 102
164 185 125
151 169 125
156 179 102
157 175 102
143 162 0
150 162 125
141 160 72
149 168 72
140 160 102
158 174 102
138 152 102
149 167 102
146 165 125
142 156 72
155 174 125
164 181 125
134 151 102
171 189 144
150 168 72
158 176 72
136 154 0
156 175 102
143 163 102
156 172 102
157 171 125
142 161 72
158 178 102
158 177 125
134 152 72
137 154 72
157 174 125
154 176 72
148 167 102
152 168 125
130 149 0
140 156 72
139 159 0
163 182 144
161 179 102
145 163 102
109 126 0
135 152 0
150 165 125
143 161 0
137 155 72
139 160 102
150 166 72
94 112 0
155 166 99
131 147 72
136 151 72
147 161 102
151 167 102
129 147 72
154 171 102
134 150 72
124 140 0
114 132 0
122 134 0
145 158 72
97 106 0
118 134 72
111 126 0
137 152 72
134 150 0
132 147 72
128 142 0
114 126 0
95 105 0
112 126 0
95 108 0
84 100 0
141 155 0
106 123 0
96 106 0
107 120 0
108 124 0
100 118 0
105 118 0
116 135 0
123 136 0
115 128 0
136 152 0
108 127 0
90 107 0
98 112 0
94 104 0
100 114 0
126 138 0
130 144 0
122 140 0
91 105 0
70 85 0
94 109 0
131 145 0
85 98 0
124 141 0
95 111 0
74 92 0
94 107 0
151 170 0
139 155 0
104 122 0
102 117 0
99 116 0
63 77 0
92 105 0
107 121 0
104 122 0
111 127 0
163 182 0
146 162 0
96 110 0
149 168 0
102 119 0
79 95 0
84 95 0
108 123 0
134 152 0
117 135 0
52 71 0
108 124 0
83 99 0
63 81 0
106 122 0
109 122 0
72 86 0
85 98 0
79 90 0
119 137 0
80 95 0
87 101 0
64 76 0
27 45 0
62 70 0
22 38 0
104 118 0
62 76 0
103 113 0
35 55 0
53 71 0
44 52 0
35 43 0
50 67 0
87 103 0
12 21 0
31 49 0
62 71 0
59 65 0
116 128 0
86 96 0
1 4 0
62 74 0
53 58 0
3 9 0
22 36 0
6 13 0
88 97 0
17 29 0
84 95 0
43 54 0
69 73 0
75 86 0
21 33 0
63 73 0
24 39 0
62 72 0
59 65 0
59 65 0
89 102 0
94 99 0
66 79 0
59 67 0
111 119 0
78 87 0
70 80 0
79 87 0
117 135 0
29 44 0
58 70 0
105 121 0
60 69 0
85 95 0
119 134 0
114 127 0
82 91 0
54 63 0
121 137 0
23 41 0
108 116 0
80 94 0
118 131 0
66 76 0
100 109 0
140 142 0
128 148 0
87 101 0
108 121 0
119 135 0
124 137 0
89 106 0
114 126 0
142 148 0
77 88 0
109 126 0
121 136 0
132 147 0
156 169 0
128 139 0
150 162 0
28 45 0
131 148 0
113 130 0
110 117 0
134 143 0
123 135 0
130 146 0
119 134 0
109 111 0
114 124 0
104 110 0
146 164 0
131 144 0
127 129 0
123 134 0
100 105 0
119 124 0
137 141 0
100 105 0
100 100 0
114 111 0
107 111 0
110 120 0
78 72 0
118 119 0
113 114 0
111 101 0
90 84 0
109 104 0
121 122 0
100 104 0
102 101 0
158 165 0
73 75 0
93 92 0
102 100 0
79 77 0
110 104 0
114 108 0
107 103 0
121 109 36
137 130 51
124 117 0
101 101 0
135 129 51
120 113 0
140 136 48
134 127 11
150 140 51
125 114 32
128 118 36
136 127 36
127 119 0
149 145 36
150 141 36
119 113 36
147 141 36
164 159 51
146 139 62
115 113 0
129 117 0
158 151 51
156 145 62
143 134 51
142 136 36
112 100 0
161 154 48
150 143 36
139 132 51
145 135 36
137 128 51
151 147 0
167 156 72
116 116 0
140 137 0
158 149 62
148 143 72
153 143 72
161 155 62
150 143 48
160 155 72
166 161 62
151 149 36
146 134 0
145 142 51
151 139 62
156 150 72
151 141 51
149 145 36
157 153 51
152 147 62
166 158 72
162 152 62
171 163 62
163 154 62
127 124 36
151 145 51
148 143 0
140 133 51
157 150 62
138 132 0
148 142 36
142 137 51
170 164 72
146 140 36
153 141 0
153 147 51
158 149 62
133 129 0
169 161 72
165 159 51
171 165 80
159 151 51
171 158 62
157 150 51
170 161 80
160 148 62
150 144 51
146 139 36
145 137 62
155 147 51
175 165 80
159 148 62
169 158 72
153 146 36
166 156 62
159 149 72
156 152 51
154 148 36
160 152 51
151 142 51
161 152 62
170 160 62
168 157 72
147 139 62
162 156 62
161 158 51
157 150 62
167 161 62
164 157 80
169 162 62
158 153 62
163 157 62
163 157 36
145 142 36
159 153 72
163 182 161
152 170 144
165 183 144
161 178 125
157 177 102
160 178 125
149 168 102
145 163 72
170 187 144
160 173 161
162 180 102
162 182 125
170 187 161
164 182 102
175 191 177
150 165 0
150 171 72
146 163 72
158 174 125
153 172 102
173 192 161
157 175 144
156 171 144
141 160 72
139 158 0
163 180 161
158 176 125
163 181 125
173 190 125
157 176 102
146 164 72
162 179 102
151 170 102
145 165 102
151 170 125
159 177 102
161 178 125
169 185 144
147 162 125
165 185 125
152 169 144
149 167 125
146 162 102
147 167 72
155 170 125
154 170 102
149 167 0
156 171 144
155 175 72
154 171 72
178 193 191
153 172 72
147 163 125
151 168 102
148 166 125
156 177 125
146 166 72
154 172 72
167 184 102
154 171 102
163 182 72
137 156 72
145 161 102
157 172 144
148 164 102
140 158 102
139 160 72
133 147 125
168 185 144
127 144 72
145 162 88
138 156 72
132 146 72
142 159 72
140 157 0
157 177 72
157 173 125
147 166 0
149 165 125
138 156 0
137 156 0
143 162 102
131 150 0
147 160 125
148 165 102
132 146 72
139 152 102
126 140 72
140 158 125
117 137 72
160 176 125
126 143 0
141 160 102
136 155 0
151 168 125
136 152 102
124 137 72
127 141 72
116 128 0
129 142 72
110 125 51
105 116 0
144 163 72
119 135 0
115 130 72
105 116 0
128 143 0
85 95 72
127 138 0
129 140 0
73 84 0
89 99 0
108 119 0
107 119 0
62 71 0
87 98 0
112 125 0
133 146 0
136 148 0
108 119 0
100 114 0
149 164 0
130 144 0
71 88 0
126 142 0
152 167 0
101 114 0
100 114 0
126 140 0
112 130 0
120 135 0
116 130 0
116 130 0
122 137 0
119 140 0
142 161 0
124 140 0
106 122 0
122 138 0
134 150 0
137 155 0
141 160 0
126 142 0
112 128 0
116 132 0
125 142 0
86 103 0
102 117 0
110 126 0
132 149 0
77 95 0
110 123 0
105 120 0
132 149 0
123 139 0
143 161 0
108 124 0
91 106 0
144 160 0
104 123 0
96 112 0
105 121 0
133 149 0
121 140 0
77 89 0
99 115 0
113 130 0
102 118 0
93 109 0
94 109 0
114 131 0
119 133 0
129 149 0
80 96 0
80 95 0
59 72 0
91 109 0
30 49 0
121 137 0
92 104 0
54 69 0
51 67 0
86 99 0
108 123 0
94 105 0
83 93 0
85 94 0
50 59 0
67 78 0
65 79 0
77 88 0
30 48 0
61 70 0
66 80 0
61 73 0
8 18 0
65 77 0
63 74 0
64 76 0
6 14 0
6 15 0
59 65 0
47 53 0
67 82 0
37 56 0
47 47 0
97 106 0
28 44 0
67 73 0
84 90 0
65 76 0
26 43 0
101 112 0
64 78 0
25 36 0
112 123 0
62 76 0
97 112 0
105 113 0
71 77 0
129 143 0
87 99 0
126 142 0
113 127 0
111 120 0
114 118 0
111 125 0
98 108 0
32 51 0
118 132 0
133 146 0
136 144 0
78 85 0
63 80 0
86 103 0
124 126 0
67 64 0
113 122 0
112 127 0
124 139 0
79 84 0
113 131 0
130 144 0
88 102 0
87 103 0
128 139 0
122 132 0
66 71 0
143 158 0
136 146 0
103 113 0
90 108 0
144 155 0
131 138 0
116 123 0
149 162 0
157 176 0
135 147 0
125 129 0
93 101 0
123 134 0
128 143 0
88 95 0
118 130 0
88 104 0
106 110 0
134 146 0
83 91 0
103 104 0
146 158 0
119 117 0
90 99 0
119 114 0
128 128 0
121 118 0
114 116 0
138 141 0
121 128 0
98 96 0
128 133 0
96 92 0
134 138 0
92 90 0
125 127 0
67 61 0
88 81 0
84 87 0
98 93 0
131 127 0
98 85 0
101 98 0
90 83 0
107 105 0
122 106 36
96 83 0
128 120 51
116 112 36
124 115 0
143 132 36
130 119 51
127 117 0
142 131 36
111 105 0
92 85 0
100 94 36
152 143 51
111 100 36
143 129 67
133 130 57
121 120 0
143 131 63
166 155 72
140 137 44
140 130 36
132 130 0
138 127 36
141 136 51
142 139 44
118 117 0
139 128 36
134 129 0
161 151 72
153 150 51
125 121 62
144 138 62
147 143 51
150 140 80
145 137 62
155 146 51
144 140 36
160 150 51
159 153 51
158 149 62
136 128 0
166 157 72
152 146 51
154 145 51
162 155 51
151 143 36
157 146 51
155 146 51
170 162 88
164 152 62
161 155 62
155 147 62
163 153 62
176 165 88
163 157 62
157 152 36
159 151 51
143 136 62
163 158 80
156 151 36
170 161 80
161 155 80
152 142 80
133 126 0
157 149 51
162 155 51
147 140 0
171 164 72
165 155 62
141 133 51
143 133 51
162 156 62
166 161 62
154 146 51
166 154 88
165 160 62
144 133 62
171 160 80
155 150 51
162 151 62
153 146 36
164 159 51
164 160 62
161 157 51
168 160 72
161 154 36
167 152 72
140 134 51
163 157 62
157 151 36
160 152 62
166 161 62
157 150 51
145 139 51
159 151 62
173 162 72
153 147 51
171 159 80
144 136 0
167 160 80
163 154 62
150 145 36
160 157 51
167 161 62
154 145 62
168 162 62
169 161 80
163 182 102
154 173 0
168 187 125
147 167 72
171 188 161
160 179 144
161 178 102
165 184 102
167 188 144
156 175 72
170 188 144
157 176 125
154 175 72
162 179 102
171 187 161
159 175 144
157 173 125
159 180 102
165 183 144
158 176 102
165 185 125
154 174 0
152 171 125
162 180 125
148 166 102
169 187 125
136 153 0
169 184 144
156 177 72
153 170 125
144 161 102
136 153 72
175 193 177
158 176 72
174 191 144
156 178 102
146 167 102
147 167 102
155 176 72
153 169 125
156 175 102
159 177 102
157 174 125
152 168 72
167 186 125
166 182 125
150 166 102
163 178 125
140 157 102
150 164 125
149 169 72
164 180 144
155 174 125
161 177 72
168 187 125
152 170 125
147 164 102
148 162 102
169 187 125
160 178 135
163 181 102
164 182 144
158 178 72
163 182 102
132 151 72
151 164 125
160 177 125
158 176 125
149 166 102
150 166 102
163 182 125
138 153 72
139 157 102
152 169 125
161 177 102
158 175 125
135 153 102
116 130 102
135 151 102
145 162 125
163 181 102
117 132 0
141 155 153
156 173 72
125 142 0
141 156 125
150 164 0
157 174 72
148 167 102
138 153 125
134 152 72
127 142 0
122 141 0
119 136 51
127 143 102
124 139 72
119 138 88
115 133 0
122 134 72
130 146 0
108 125 0
115 129 72
93 103 0
115 129 0
98 108 72
75 82 0
77 87 0
82 91 0
114 125 0
107 120 0
94 106 0
71 80 0
117 130 0
84 95 0
107 120 0
99 111 0
127 140 0
97 113 0
115 129 0
118 134 0
118 133 0
117 131 0
138 152 0
139 159 0
72 84 0
78 95 0
84 96 0
123 138 0
152 168 0
149 169 0
131 148 0
112 128 0
109 124 0
93 106 0
121 137 0
107 124 0
123 140 0
118 133 0
138 155 0
108 125 0
117 135 0
143 161 0
146 163 0
127 146 0
120 138 0
94 111 0
141 160 0
116 133 0
94 110 0
85 98 0
134 155 0
116 133 0
146 163 0
116 136 0
115 128 0
77 93 0
86 106 0
130 148 0
114 128 0
134 149 0
128 147 0
129 147 0
120 138 0
131 145 0
81 98 0
87 105 0
84 100 0
141 156 0
75 91 0
95 111 0
109 124 0
36 57 0
93 113 0
88 105 0
60 75 0
37 59 0
120 135 0
94 108 0
49 63 0
85 104 0
63 77 0
86 101 0
88 99 0
83 94 0
96 106 0
88 104 0
30 48 0
7 16 0
102 120 0
63 74 0
64 79 0
67 80 0
77 89 0
23 36 0
86 97 0
96 101 0
50 63 0
25 40 0
65 76 0
104 118 0
90 103 0
27 42 0
101 111 0
62 76 0
101 114 0
51 58 0
65 76 0
23 37 0
84 96 0
28 43 0
132 145 0
24 39 0
56 58 0
82 94 0
69 85 0
97 108 0
118 134 0
75 89 0
58 68 0
115 130 0
83 96 0
118 134 0
95 104 0
105 121 0
115 129 0
104 119 0
71 88 0
128 140 0
88 100 0
113 124 0
153 169 0
115 125 0
80 93 0
56 67 0
112 128 0
97 109 0
113 131 0
139 157 0
119 134 0
130 143 0
117 130 0
138 159 0
102 116 0
104 112 0
137 152 0
128 146 0
111 119 0
129 139 0
128 137 0
131 149 0
119 137 0
127 140 0
113 124 0
115 132 0
116 131 0
116 128 0
92 99 0
82 93 0
106 113 0
137 147 0
95 107 0
129 139 0
88 96 0
91 100 0
110 125 0
140 155 0
154 167 0
137 151 0
132 146 0
81 87 0
123 130 0
110 112 0
110 113 0
121 128 0
69 69 0
156 169 0
114 111 0
116 122 0
113 128 0
96 102 0
118 113 0
128 132 0
128 139 0
133 131 0
108 116 0
102 94 0
94 90 0
112 106 0
88 82 0
122 113 0
100 90 0
116 120 0
82 61 0
67 53 0
117 106 36
119 106 36
127 113 36
85 74 0
92 82 0
137 127 0
120 114 0
141 127 0
124 116 0
126 120 51
127 122 44
143 134 51
119 114 0
145 137 51
125 116 36
144 138 36
135 126 36
140 129 36
144 142 36
130 118 0
126 118 0
147 142 62
158 149 51
150 141 51
154 143 51
144 135 0
142 135 51
151 147 51
140 138 36
142 136 51
152 146 36
156 149 51
147 142 36
147 141 62
117 116 25
137 131 36
141 136 36
137 123 36
136 128 36
147 142 36
146 136 0
149 145 51
159 153 51
169 160 72
142 133 36
157 149 62
139 136 36
160 153 62
149 141 36
159 150 51
155 149 51
157 146 62
151 145 36
159 153 62
159 151 51
147 140 36
147 138 36
153 146 62
165 160 62
147 138 51
149 138 51
148 140 36
158 150 62
166 155 72
170 163 62
160 154 51
167 159 62
154 149 62
141 134 0
130 123 51
161 153 72
150 141 51
151 139 36
163 157 62
155 149 62
149 142 51
160 152 72
137 136 0
160 149 51
163 154 62
166 158 72
158 148 36
154 145 51
168 155 80
165 154 80
159 152 62
160 151 51
153 146 36
149 140 36
148 144 36
156 148 62
152 148 36
166 158 62
168 163 72
162 152 72
158 152 62
143 136 36
148 138 51
170 164 72
161 155 62
153 146 0
152 144 51
159 153 36
156 152 51
166 160 51
162 152 51
147 167 102
156 174 125
153 172 144
155 175 102
162 182 144
150 168 102
165 185 144
127 145 0
159 178 102
150 170 72
158 176 125
156 176 102
148 162 125
155 175 0
151 166 125
157 177 125
159 175 144
159 178 102
150 169 102
161 179 144
149 166 0
161 179 125
157 176 102
148 167 0
135 150 102
151 169 125
150 170 125
159 177 125
169 186 144
158 177 125
155 172 144
165 182 144
135 151 72
166 181 161
155 174 72
151 168 102
150 169 102
162 180 125
139 157 0
160 177 125
160 180 72
158 178 125
157 176 125
163 182 125
155 175 0
169 186 161
146 166 102
147 162 125
140 156 102
144 168 0
144 162 102
149 167 102
149 167 102
154 171 125
172 189 144
137 155 72
173 190 191
147 165 102
171 188 161
139 158 72
150 165 102
176 192 191
156 173 102
156 173 0
127 142 102
153 171 125
136 155 102
146 160 72
137 156 125
159 178 102
145 161 114
150 169 102
157 173 125
135 153 102
131 150 72
164 181 125
145 163 72
133 150 72
141 161 0
143 160 125
144 161 102
136 151 72
150 170 72
115 131 0
124 143 0
154 171 102
143 156 72
127 146 88
146 163 72
151 169 125
135 151 102
154 169 102
123 139 72
108 125 0
114 128 0
109 126 72
137 150 102
114 127 72
125 143 0
114 127 32
136 148 72
82 93 0
116 130 0
72 81 0
96 106 0
94 104 0
75 83 0
164 177 0
115 128 0
102 114 0
133 147 0
131 144 0
99 112 0
101 111 0
106 117 0
79 90 0
101 110 0
74 86 0
68 80 0
134 150 0
112 126 0
112 128 0
103 116 0
108 121 0
134 151 0
143 158 0
118 135 0
96 106 0
99 115 0
75 87 0
121 139 0
94 110 0
133 149 0
109 122 0
119 135 0
139 155 0
163 181 0
119 136 0
105 121 0
82 103 0
129 144 0
105 121 0
113 131 0
112 130 0
139 158 0
131 146 0
123 143 0
69 89 0
115 134 0
67 90 0
124 141 0
125 139 0
120 140 0
98 115 0
81 96 0
126 145 0
109 125 0
87 101 0
84 104 0
91 109 0
85 99 0
121 141 0
95 111 0
104 123 0
60 76 0
99 118 0
92 112 0
79 96 0
72 85 0
99 114 0
104 122 0
102 115 0
65 81 0
120 138 0
85 99 0
87 104 0
31 50 0
87 106 0
84 98 0
99 119 0
128 145 0
53 66 0
109 125 0
82 96 0
82 95 0
55 71 0
99 113 0
132 150 0
108 123 0
28 46 0
49 59 0
57 74 0
63 77 0
75 89 0
103 119 0
55 73 0
31 49 0
65 79 0
93 105 0
83 94 0
105 116 0
81 94 0
26 40 0
22 35 0
20 33 0
87 97 0
99 111 0
28 42 0
24 38 0
60 67 0
31 50 0
102 115 0
63 74 0
105 120 0
112 129 0
99 114 0
55 66 0
84 94 0
34 54 0
84 98 0
110 124 0
101 116 0
107 122 0
112 126 0
108 121 0
65 81 0
102 118 0
118 136 0
118 131 0
104 120 0
66 82 0
130 148 0
76 87 0
89 98 0
122 140 0
119 132 0
130 148 0
104 118 0
105 114 0
67 81 0
104 118 0
148 162 0
127 132 0
130 147 0
103 110 0
113 117 0
86 99 0
56 63 0
95 109 0
112 128 0
114 130 0
127 138 0
121 134 0
83 93 0
112 121 0
127 142 0
130 137 0
98 100 0
131 138 0
123 132 0
107 117 0
111 115 0
87 98 0
137 147 0
112 125 0
107 114 0
100 114 0
94 105 0
114 116 0
106 112 0
75 84 0
134 138 0
117 127 0
104 112 0
106 113 0
103 105 0
129 134 0
117 118 0
121 120 0
122 129 0
72 77 0
83 84 0
96 95 0
111 118 0
105 103 0
119 119 0
140 151 0
98 93 0
81 73 0
81 71 0
91 92 0
93 85 0
105 102 0
77 77 0
87 71 0
97 87 0
101 91 0
94 85 0
119 106 36
114 109 0
112 101 0
126 111 0
141 132 0
114 102 51
100 95 0
120 111 0
130 121 0
150 144 51
153 144 36
141 130 36
132 117 0
153 144 36
146 133 0
137 130 36
126 113 36
154 143 36
144 137 0
141 127 36
164 154 72
150 138 51
115 115 0
144 132 36
143 133 44
140 132 36
129 123 36
157 152 36
142 135 36
122 116 36
151 147 36
156 147 62
151 138 62
141 132 36
156 149 72
129 120 22
162 150 62
136 126 36
153 141 51
135 131 36
159 149 72
144 137 36
151 145 36
159 152 51
145 134 36
148 138 51
149 143 51
158 149 51
159 153 36
158 148 62
145 137 51
151 139 51
157 144 72
144 138 36
159 149 62
152 147 62
141 134 36
141 132 0
155 146 62
158 149 80
134 128 0
175 164 88
159 152 72
158 151 62
153 144 36
153 150 36
135 128 0
177 168 80
153 150 36
150 144 51
151 147 62
163 156 51
145 138 36
160 152 62
169 162 62
165 158 72
174 166 80
167 157 72
168 161 72
152 143 36
148 141 51
166 155 62
149 139 62
159 149 51
153 147 36
160 157 51
158 151 51
154 149 36
153 148 51
161 152 51
171 162 72
149 142 0
160 151 62
158 149 62
168 160 80
148 143 51
161 150 62
154 146 62
172 162 72
159 145 62
156 145 72
160 147 72
141 160 0
173 190 144
162 181 102
162 181 72
156 174 72
160 180 72
150 170 72
165 183 125
149 166 125
154 175 102
169 188 144
166 185 125
158 176 102
135 155 0
154 173 102
162 178 144
146 162 72
172 187 161
157 177 72
162 180 125
145 166 0
167 184 144
164 182 144
160 178 144
161 177 125
144 161 102
157 172 72
142 161 102
154 172 0
162 180 102
168 186 161
157 176 125
155 173 144
178 194 177
133 154 0
164 180 144
149 165 144
127 147 0
149 166 125
148 168 102
127 142 0
144 162 0
158 178 125
162 179 161
147 164 72
144 161 72
136 152 88
156 178 72
141 158 72
157 175 125
159 178 72
154 171 107
158 175 125
147 167 72
149 164 125
164 183 125
151 169 114
155 171 146
154 171 102
156 173 102
130 145 102
155 172 72
145 165 102
169 185 102
158 174 125
116 131 0
136 154 102
148 167 72
144 160 102
165 182 125
159 178 102
134 150 0
133 149 72
148 167 72
155 172 125
162 179 125
143 164 72
148 167 102
149 168 102
128 143 0
153 169 102
133 150 0
116 133 0
153 170 125
144 159 125
132 148 72
144 160 102
151 169 125
108 124 72
165 183 125
147 162 102
131 147 102
118 131 72
144 161 72
115 130 0
108 126 0
130 143 0
97 109 0
128 142 0
107 123 0
100 106 0
50 55 0
40 46 0
78 85 0
116 126 0
89 97 0
124 136 0
100 110 0
132 147 0
94 106 0
107 121 0
104 116 0
96 111 0
89 101 0
119 133 0
96 109 0
136 148 0
116 130 0
113 129 0
125 135 0
114 129 0
110 126 0
99 113 0
117 133 0
88 103 0
106 122 0
96 110 0
124 139 0
111 127 0
118 135 0
133 150 0
124 139 0
108 122 0
111 126 0
117 135 0
118 133 0
119 130 0
124 139 0
159 177 0
121 137 0
95 113 0
84 100 0
141 162 0
120 137 0
150 168 0
137 155 0
139 160 0
135 152 0
107 122 0
108 128 0
100 114 0
127 145 0
135 153 0
153 169 0
146 163 0
133 152 0
105 126 0
90 105 0
100 115 0
89 101 0
79 94 0
102 123 0
111 131 0
110 122 0
116 134 0
85 103 0
119 135 0
119 135 0
99 116 0
84 98 0
122 136 0
122 138 0
92 106 0
63 78 0
77 87 0
67 84 0
61 77 0
66 77 0
105 118 0
115 132 0
67 88 0
86 102 0
95 108 0
66 86 0
60 74 0
95 112 0
104 119 0
113 126 0
88 104 0
59 72 0
105 120 0
18 32 0
41 63 0
83 99 0
116 133 0
48 61 0
86 99 0
27 46 0
91 106 0
73 92 0
65 79 0
105 120 0
86 100 0
69 81 0
63 73 0
26 42 0
27 40 0
53 61 0
107 122 0
82 95 0
91 93 0
24 36 0
127 141 0
96 107 0
94 106 0
104 119 0
98 112 0
98 110 0
80 92 0
81 92 0
139 157 0
87 99 0
89 102 0
69 84 0
133 147 0
112 127 0
64 80 0
104 117 0
92 102 0
113 125 0
137 149 0
130 143 0
86 95 0
111 127 0
116 129 0
95 104 0
53 67 0
126 144 0
125 145 0
108 120 0
79 88 0
121 138 0
107 121 0
135 145 0
101 111 0
135 146 0
101 115 0
136 155 0
104 118 0
116 125 0
151 165 0
86 100 0
99 111 0
86 107 0
108 110 0
84 103 0
99 104 0
114 120 0
130 145 0
110 121 0
131 144 0
138 154 0
114 127 0
107 113 0
114 125 0
114 118 0
144 160 0
121 132 0
134 146 0
125 135 0
121 124 0
143 149 0
124 138 0
88 89 0
116 112 0
149 161 0
110 108 0
118 127 0
135 140 0
109 118 0
100 105 0
129 130 0
115 115 0
114 113 0
85 94 0
107 114 0
123 118 0
94 88 0
104 109 0
116 116 0
67 49 0
65 76 0
129 129 0
78 71 0
110 109 0
93 89 0
86 88 0
104 101 0
76 70 0
102 94 36
105 93 0
123 108 0
96 87 36
140 133 52
108 100 0
139 125 36
139 132 44
147 137 62
132 127 36
117 107 0
142 132 0
133 123 36
146 142 0
107 95 0
127 118 44
158 149 51
159 151 36
148 144 51
116 107 0
134 120 36
147 136 36
143 134 51
135 129 36
160 152 51
151 142 36
115 103 0
153 144 51
133 121 36
123 121 51
121 114 0
137 137 0
137 131 51
152 140 36
116 116 25
139 130 51
142 135 0
140 133 62
157 147 51
141 135 36
155 149 51
169 161 60
136 129 36
155 147 36
166 160 51
159 148 72
159 154 51
144 133 36
148 139 36
154 148 51
165 153 72
159 149 72
162 156 62
166 158 62
143 131 0
146 141 62
147 143 51
135 125 36
141 136 0
156 151 36
136 127 51
150 141 51
153 147 36
137 135 0
141 136 36
164 157 62
151 143 62
163 150 62
160 151 62
157 145 62
136 133 36
169 162 62
170 163 72
162 150 51
168 157 62
147 137 51
150 138 51
159 151 62
144 134 51
169 161 72
159 152 62
165 156 80
145 136 62
140 136 36
159 149 36
156 152 51
169 160 80
171 162 80
163 157 62
162 155 62
145 137 51
162 149 72
152 142 51
162 151 62
174 166 80
162 155 62
152 147 36
162 153 51
165 158 62
156 144 51
163 155 36
173 197 0
172 193 0
150 170 72
174 194 125
153 171 102
144 162 0
160 178 144
165 183 125
150 167 102
157 174 125
140 159 102
166 181 144
144 159 102
160 180 102
158 174 102
168 185 125
159 176 144
149 165 102
157 176 102
161 180 72
145 166 0
166 185 125
162 178 161
148 165 102
161 178 144
151 172 0
154 173 72
158 178 72
180 194 191
163 183 125
148 166 72
150 170 72
153 173 72
162 177 144
158 177 72
153 171 125
153 169 125
160 177 125
142 158 72
166 183 144
142 158 72
133 152 102
171 185 161
148 166 102
139 158 0
144 165 72
150 165 102
164 183 102
145 164 102
143 160 102
142 164 72
156 177 102
146 162 102
138 157 72
152 168 125
156 174 102
154 173 125
140 157 102
159 178 102
152 173 72
137 155 72
145 163 72
141 155 32
163 177 125
143 161 72
152 170 125
142 162 72
143 160 72
151 165 72
124 139 72
122 135 0
162 179 125
123 139 72
135 153 72
141 156 72
156 169 102
151 171 72
154 172 72
154 171 72
130 147 72
120 138 0
136 151 72
118 134 0
112 130 0
142 157 72
140 161 72
156 172 102
126 142 72
134 147 72
116 129 72
121 136 0
134 149 0
123 133 0
118 132 72
112 125 0
118 133 0
105 119 72
76 87 0
80 89 0
87 95 0
93 102 0
84 94 0
71 79 0
88 97 0
110 121 0
62 74 0
71 85 0
100 108 0
105 119 0
84 96 0
67 79 0
113 127 0
111 123 0
136 152 0
51 66 0
65 79 0
105 115 0
84 97 0
141 156 0
104 117 0
121 135 0
108 122 0
133 149 0
104 121 0
132 149 0
141 157 0
130 147 0
130 146 0
93 105 0
111 128 0
105 123 0
107 124 0
143 162 0
146 164 0
140 158 0
136 154 0
109 126 0
130 149 0
118 132 0
111 130 0
122 141 0
100 116 0
126 147 0
128 145 0
142 161 0
135 151 0
121 138 0
129 151 0
101 120 0
116 133 0
101 121 0
99 116 0
116 132 0
94 112 0
92 107 0
103 120 0
119 138 0
144 163 0
102 118 0
130 148 0
99 115 0
108 126 0
53 84 0
95 109 0
113 130 0
119 139 0
111 123 0
97 115 0
80 98 0
88 106 0
61 72 0
110 127 0
84 97 0
37 59 0
32 53 0
66 83 0
118 130 0
60 74 0
102 118 0
57 66 0
92 108 0
85 97 0
114 130 0
78 91 0
108 122 0
63 77 0
77 88 0
86 101 0
86 103 0
64 76 0
35 55 0
23 39 0
79 91 0
64 80 0
76 91 0
90 104 0
85 97 0
107 120 0
60 69 0
104 118 0
101 110 0
31 51 0
87 100 0
104 120 0
64 74 0
69 92 0
84 97 0
89 104 0
63 77 0
29 46 0
74 86 0
71 87 0
123 137 0
133 150 0
105 120 0
72 70 0
129 145 0
83 100 0
100 114 0
74 93 0
86 100 0
73 83 0
124 141 0
125 140 0
63 83 0
121 135 0
74 94 0
119 136 0
127 144 0
103 116 0
87 97 0
128 144 0
97 107 0
107 119 0
115 127 0
66 81 0
87 104 0
118 134 0
141 155 0
110 124 0
112 127 0
100 120 0
99 114 0
88 102 0
120 131 0
137 149 0
111 121 0
113 127 0
125 142 0
140 152 0
134 140 0
133 143 0
129 148 0
116 129 0
139 154 0
130 139 0
94 97 0
156 174 0
138 145 0
97 104 0
133 146 0
124 129 0
93 104 0
102 111 0
89 100 0
140 150 0
138 145 0
112 117 0
124 137 0
131 139 0
128 139 0
126 143 0
100 98 0
96 106 0
101 108 0
140 148 0
114 122 0
115 115 0
110 114 0
134 140 0
110 111 0
93 99 0
122 117 0
85 78 0
76 65 0
104 110 0
85 82 0
106 104 0
93 98 0
96 80 0
123 124 0
97 91 0
63 60 0
91 97 0
92 85 0
99 96 0
90 73 0
100 107 0
60 41 0
84 76 0
62 52 0
65 55 0
102 95 0
119 112 0
104 90 0
120 107 36
115 104 0
119 113 0
153 143 36
106 102 0
122 108 36
144 129 51
139 131 32
140 130 36
126 114 36
137 128 36
99 94 0
124 116 0
150 144 51
145 134 36
142 132 36
140 129 36
153 139 51
150 141 51
166 158 62
148 137 36
130 120 0
151 141 62
145 136 51
136 127 51
155 146 62
134 130 36
145 144 0
152 137 51
149 141 51
150 143 51
150 143 51
149 146 51
136 126 36
151 149 36
143 133 36
148 137 72
151 139 36
154 148 36
128 119 36
145 132 51
144 136 51
161 150 62
151 144 36
161 152 72
163 154 62
148 134 51
156 146 51
140 134 36
151 141 36
142 130 51
157 151 51
160 154 62
151 143 51
149 144 36
142 134 62
167 159 62
164 156 51
154 147 51
159 151 62
153 144 36
170 163 62
160 155 62
147 140 36
148 132 36
159 151 51
165 154 62
155 149 62
153 147 36
150 143 36
151 136 51
164 155 62
146 141 0
157 140 62
148 134 62
163 156 51
149 142 36
175 165 80
168 160 72
160 155 62
143 135 51
160 152 62
172 160 80
151 141 36
154 147 72
165 159 72
160 152 51
150 143 36
152 145 36
164 150 80
162 154 72
147 137 36
157 166 51
172 187 36
173 194 0
166 187 0
167 189 0
170 191 0
169 189 0
167 189 0
162 182 0
165 183 102
153 170 102
173 188 161
157 177 72
164 179 102
160 179 102
156 175 102
144 163 102
150 170 102
152 171 72
161 180 102
159 178 102
166 184 72
169 183 161
168 185 144
129 146 0
149 164 125
161 179 102
164 183 144
158 174 125
158 174 72
156 173 102
162 181 125
128 145 0
153 172 72
159 176 125
158 176 72
143 159 0
151 170 72
143 161 72
151 170 125
153 171 72
153 173 102
158 176 125
159 179 72
151 171 72
144 162 72
149 167 102
149 166 125
152 171 125
174 189 144
148 167 102
149 167 102
151 166 125
167 183 144
168 186 161
168 186 125
169 187 144
145 162 102
154 171 102
134 154 72
151 164 125
152 170 102
161 179 125
149 167 102
144 159 72
153 170 72
141 160 102
155 172 102
167 183 161
137 153 102
159 177 0
148 163 102
142 159 72
119 134 0
155 173 72
154 167 102
132 148 102
143 158 102
156 175 72
153 172 102
109 121 0
129 140 32
145 162 72
146 161 72
130 147 0
145 161 72
150 167 102
123 138 0
140 157 102
122 138 0
133 149 72
139 150 79
126 142 72
139 158 72
129 144 102
118 132 0
71 74 0
79 89 72
43 47 0
54 61 0
103 112 0
56 63 0
89 98 0
101 111 0
111 123 0
86 95 0
89 100 0
82 90 0
121 134 0
112 123 0
84 95 0
115 128 0
113 126 0
117 130 0
117 130 0
111 124 0
115 127 0
134 147 0
107 119 0
120 133 0
136 151 0
122 137 0
85 97 0
100 116 0
107 121 0
147 165 0
116 129 0
113 131 0
99 114 0
107 124 0
140 158 0
138 155 0
124 139 0
123 138 0
140 155 0
121 135 0
115 132 0
134 150 0
138 154 0
99 114 0
122 141 0
137 156 0
121 140 0
110 127 0
112 129 0
127 147 0
122 142 0
144 160 0
124 141 0
115 133 0
109 126 0
153 173 0
116 131 0
143 162 0
85 107 0
110 125 0
132 150 0
145 163 0
118 135 0
62 76 0
115 129 0
119 136 0
126 144 0
121 136 0
127 141 0
145 165 0
125 142 0
86 101 0
112 131 0
117 133 0
86 99 0
73 89 0
107 123 0
97 110 0
104 118 0
124 141 0
112 129 0
94 113 0
145 161 0
126 142 0
91 104 0
87 102 0
116 134 0
117 135 0
65 86 0
14 27 0
87 106 0
119 135 0
105 117 0
84 99 0
91 103 0
122 138 0
84 99 0
103 121 0
59 74 0
132 149 0
66 84 0
100 118 0
34 54 0
118 137 0
89 104 0
89 102 0
63 78 0
101 118 0
23 36 0
80 90 0
102 113 0
83 93 0
88 101 0
62 78 0
62 77 0
84 93 0
62 76 0
84 99 0
115 126 0
129 143 0
83 98 0
117 133 0
73 90 0
66 85 0
132 143 0
115 132 0
94 101 0
101 113 0
125 143 0
105 118 0
128 146 0
65 79 0
102 121 0
112 129 0
119 136 0
136 151 0
98 112 0
101 119 0
128 143 0
91 105 0
117 135 0
122 135 0
85 92 0
12 21 0
125 141 0
142 155 0
144 163 0
103 106 0
103 119 0
104 108 0
120 135 0
101 116 0
93 105 0
70 77 0
79 82 0
105 116 0
158 176 0
121 132 0
94 99 0
138 147 0
115 119 0
135 156 0
123 140 0
114 125 0
124 134 0
112 131 0
146 162 0
95 92 0
123 138 0
103 111 0
114 125 0
152 164 0
104 107 0
130 143 0
86 88 0
104 104 0
119 130 0
133 134 0
138 152 0
127 139 0
133 138 0
133 136 0
142 150 0
131 140 0
120 129 0
136 146 0
126 125 0
109 113 0
59 61 0
121 123 0
128 123 0
113 115 0
147 149 0
90 86 0
134 136 0
104 108 0
117 114 0
98 98 0
95 90 0
79 82 0
94 84 0
80 71 0
110 102 0
100 98 0
66 56 0
54 44 0
51 40 0
87 79 0
73 61 0
81 66 0
103 94 0
76 71 0
97 75 0
126 115 0
125 113 36
120 113 0
145 136 36
104 93 0
109 101 36
133 121 36
134 123 0
134 127 36
142 134 36
141 130 60
151 141 36
122 106 0
116 112 0
132 122 0
102 95 0
138 127 0
136 122 36
139 131 0
134 125 36
131 128 0
141 134 36
140 132 36
143 135 0
149 142 36
144 130 51
134 119 36
146 134 36
150 145 36
138 134 36
147 140 36
135 122 36
150 146 36
144 136 51
160 150 72
139 132 51
147 146 36
152 142 48
149 141 51
144 138 36
147 138 36
137 130 0
161 155 62
153 140 62
145 132 51
169 161 72
155 147 51
144 136 51
155 148 62
159 152 62
165 153 62
148 135 36
144 130 36
152 142 36
146 139 36
159 148 62
159 147 62
158 149 72
160 150 62
150 143 51
168 158 72
153 146 36
131 121 0
157 147 72
152 148 36
160 152 51
151 144 36
158 152 72
155 148 51
162 153 51
175 165 88
148 139 62
148 138 36
148 143 36
154 144 62
158 148 72
175 165 80
156 144 72
156 148 62
141 127 36
139 132 36
150 142 51
141 134 36
161 148 72
163 152 62
166 159 36
159 152 51
152 156 36
152 149 0
166 189 0
169 190 0
171 189 0
165 188 0
174 197 0
174 198 0
170 192 0
167 187 0
172 193 0
172 196 0
171 192 0
179 200 0
169 194 0
157 175 0
156 173 72
143 163 0
150 168 72
157 173 144
157 175 125
165 178 144
160 178 125
162 182 125
145 161 102
156 170 161
147 163 125
147 170 0
140 157 0
161 179 125
173 189 144
162 181 102
150 165 102
155 172 72
154 171 0
146 166 0
154 173 102
154 172 72
148 165 102
162 179 144
135 155 0
145 163 125
158 176 72
156 175 72
161 180 102
151 168 125
138 156 72
154 173 102
146 159 102
145 161 125
154 173 72
135 153 125
164 182 125
155 174 0
150 168 125
159 177 144
133 152 72
151 168 102
157 176 102
145 162 72
125 141 72
143 159 102
145 162 72
137 155 72
149 165 102
132 149 0
136 155 0
139 156 102
153 172 102
144 163 72
168 187 125
147 164 102
143 159 0
138 157 72
159 176 125
150 168 125
147 166 0
134 149 72
144 166 0
163 178 161
133 150 0
149 165 125
148 164 72
156 173 102
131 148 72
141 159 72
147 163 102
107 122 0
167 182 161
129 145 72
152 168 72
141 158 72
121 137 0
115 132 0
107 120 0
129 144 72
112 126 0
102 114 0
70 78 0
75 82 0
81 90 0
59 66 0
107 116 0
71 81 0
74 82 0
95 105 0
93 102 0
112 122 0
79 87 0
89 98 0
84 93 0
83 92 0
100 112 0
133 145 0
101 115 0
80 88 0
62 73 0
109 124 0
124 137 0
96 112 0
106 119 0
140 155 0
101 117 0
119 134 0
140 155 0
106 122 0
89 104 0
113 129 0
125 143 0
141 158 0
117 137 0
122 140 0
105 118 0
119 134 0
113 130 0
116 131 0
149 167 0
122 141 0
107 123 0
93 106 0
119 137 0
142 160 0
128 145 0
142 163 0
148 170 0
128 147 0
126 144 0
131 149 0
110 129 0
118 137 0
134 154 0
131 146 0
129 145 0
86 107 0
102 119 0
109 128 0
98 115 0
107 122 0
106 125 0
127 146 0
60 73 0
81 99 0
100 112 0
94 111 0
99 116 0
140 160 0
98 112 0
82 95 0
116 133 0
115 129 0
92 109 0
112 134 0
112 131 0
148 167 0
99 114 0
106 119 0
86 107 0
112 130 0
98 116 0
128 142 0
66 77 0
136 154 0
93 106 0
99 113 0
87 100 0
94 110 0
117 134 0
89 105 0
100 118 0
85 100 0
103 120 0
100 115 0
84 103 0
112 127 0
38 60 0
105 121 0
55 75 0
78 93 0
100 117 0
105 120 0
119 134 0
105 123 0
82 97 0
60 72 0
88 101 0
85 99 0
90 109 0
64 79 0
70 87 0
105 123 0
111 126 0
83 97 0
95 100 0
63 79 0
73 92 0
134 151 0
47 73 0
94 107 0
88 99 0
90 109 0
83 100 0
119 125 0
103 116 0
96 111 0
100 119 0
102 119 0
90 101 0
109 127 0
115 131 0
60 72 0
112 126 0
89 104 0
97 111 0
99 114 0
100 111 0
105 120 0
67 83 0
74 86 0
119 135 0
99 117 0
81 98 0
115 112 0
104 113 0
140 160 0
108 118 0
69 83 0
110 118 0
117 134 0
112 127 0
139 155 0
112 121 0
125 139 0
132 143 0
120 136 0
117 135 0
97 114 0
116 133 0
131 142 0
99 111 0
96 108 0
133 155 0
113 130 0
136 153 0
103 113 0
123 140 0
101 116 0
124 133 0
147 162 0
105 108 0
144 150 0
125 129 0
110 117 0
136 157 0
118 133 0
130 139 0
85 97 0
66 79 0
150 164 0
123 131 0
124 138 0
101 108 0
135 149 0
64 65 0
138 144 0
112 115 0
118 128 0
122 135 0
105 114 0
108 117 0
136 137 0
113 106 0
91 98 0
96 98 0
99 102 0
133 139 0
96 95 0
89 87 0
126 128 0
95 85 0
94 89 0
102 108 0
95 96 0
105 102 0
94 93 0
73 66 0
111 107 0
88 84 0
84 82 0
83 65 0
70 62 0
87 73 0
66 52 0
71 65 0
88 78 0
90 76 0
87 83 0
109 89 0
63 55 0
109 97 0
124 109 51
133 124 36
131 118 0
122 108 36
133 122 36
162 150 62
146 133 48
137 131 0
124 120 0
129 122 36
142 134 51
109 101 0
130 120 0
151 139 51
149 136 51
155 145 62
136 125 51
136 126 0
155 147 51
139 128 0
112 103 0
158 148 80
157 143 62
127 119 0
130 125 0
141 131 51
146 139 51
152 146 51
122 111 0
160 154 51
149 144 0
150 142 36
128 119 36
139 130 62
149 139 36
146 135 36
155 140 36
161 149 72
143 136 36
161 149 36
147 144 36
132 123 0
136 131 0
138 136 0
151 142 51
152 146 36
152 146 51
148 139 0
139 131 36
157 146 62
168 156 62
124 118 0
163 156 80
161 155 51
141 133 36
153 144 62
145 133 72
152 147 36
151 148 0
150 143 36
161 153 72
167 159 62
155 144 51
158 149 72
159 152 36
141 136 36
149 140 36
154 149 51
150 145 36
149 139 36
154 142 36
150 143 36
147 140 36
157 149 51
149 142 36
148 140 51
142 135 0
156 147 51
153 151 0
170 188 0
171 189 0
175 198 0
170 192 0
171 193 0
176 195 0
164 176 0
168 187 0
170 190 0
178 200 0
168 195 0
167 189 0
160 182 0
174 198 0
160 187 0
160 180 0
170 190 0
156 178 0
166 188 0
171 194 0
160 177 0
159 178 72
155 173 102
162 179 125
157 173 102
143 161 72
156 172 125
155 170 144
158 174 102
149 167 102
155 172 102
166 184 125
151 171 72
153 169 102
156 175 102
153 171 102
153 173 72
153 173 72
172 186 144
154 172 72
140 160 0
162 180 72
130 145 72
138 151 72
162 182 125
170 187 125
162 181 102
144 164 72
136 151 102
147 165 72
124 139 0
152 170 72
165 183 125
151 171 72
135 151 72
139 158 72
153 172 125
130 150 72
148 162 32
129 146 0
134 150 0
134 149 72
146 163 72
142 158 72
150 165 102
158 175 102
138 157 0
143 158 102
145 163 72
165 182 125
141 159 0
141 161 0
128 147 0
151 169 72
151 168 72
146 162 72
136 151 0
141 159 72
148 162 0
148 165 102
152 167 144
147 164 72
123 140 0
143 158 72
108 125 0
147 161 125
129 146 0
144 162 0
147 165 72
117 131 72
121 136 0
126 141 0
155 171 0
132 147 0
116 128 72
109 119 72
71 81 0
117 128 0
85 93 0
50 59 0
86 94 0
121 131 0
108 118 0
84 95 0
93 101 0
110 120 0
79 89 0
113 127 0
57 70 0
107 118 0
113 125 0
92 105 0
123 138 0
99 112 0
119 131 0
112 127 0
112 126 0
143 161 0
121 136 0
125 142 0
117 134 0
103 117 0
127 146 0
64 79 0
127 142 0
133 148 0
104 118 0
90 105 0
92 106 0
152 169 0
98 116 0
64 78 0
132 148 0
130 147 0
113 125 0
137 158 0
136 154 0
100 118 0
115 131 0
140 158 0
112 130 0
124 143 0
132 155 0
135 154 0
113 133 0
121 142 0
121 140 0
106 125 0
73 86 0
64 84 0
123 143 0
143 162 0
91 114 0
130 148 0
120 136 0
119 140 0
142 158 0
133 152 0
101 120 0
84 99 0
94 107 0
101 118 0
123 143 0
113 131 0
126 146 0
143 162 0
141 160 0
146 165 0
152 168 0
140 158 0
130 147 0
104 122 0
146 165 0
124 141 0
103 122 0
131 147 0
86 101 0
32 52 0
117 128 0
137 156 0
99 116 0
95 114 0
108 125 0
98 118 0
113 127 0
97 114 0
117 133 0
126 144 0
72 87 0
68 89 0
120 136 0
82 94 0
94 113 0
59 83 0
110 130 0
115 130 0
93 113 0
69 83 0
151 170 0
76 89 0
116 134 0
62 77 0
51 67 0
69 85 0
124 145 0
82 94 0
77 88 0
72 90 0
84 101 0
86 105 0
81 97 0
84 98 0
111 125 0
98 112 0
83 100 0
83 99 0
159 176 0
65 78 0
93 105 0
96 108 0
82 99 0
93 108 0
105 119 0
59 71 0
98 117 0
108 120 0
129 145 0
65 75 0
115 133 0
127 143 0
115 131 0
128 146 0
84 102 0
128 145 0
66 83 0
119 137 0
101 118 0
92 101 0
118 131 0
128 143 0
100 111 0
118 134 0
129 137 0
105 113 0
116 136 0
105 120 0
122 135 0
106 122 0
101 113 0
123 136 0
66 85 0
108 120 0
138 150 0
89 99 0
139 150 0
123 144 0
83 93 0
131 145 0
123 144 0
139 155 0
162 180 0
133 148 0
121 139 0
117 133 0
120 127 0
152 167 0
113 128 0
124 142 0
112 132 0
143 153 0
124 134 0
111 126 0
105 109 0
99 106 0
107 114 0
140 152 0
137 152 0
121 126 0
103 104 0
116 126 0
103 105 0
127 131 0
136 138 0
140 148 0
115 116 0
124 136 0
142 153 0
117 124 0
115 114 0
129 144 0
134 139 0
131 139 0
119 107 0
159 170 0
85 83 0
109 110 0
95 89 0
127 135 0
100 100 0
125 119 0
84 82 0
92 92 0
112 106 0
131 130 0
73 63 0
109 103 0
71 70 0
131 128 0
124 121 0
102 98 0
102 93 0
121 119 0
103 99 0
84 81 0
57 48 0
83 79 0
81 80 0
94 91 0
60 49 0
57 35 0
102 84 36
120 105 0
100 86 0
118 96 0
130 120 0
131 120 0
150 134 62
111 105 36
143 129 36
123 105 0
150 142 36
121 115 0
144 133 36
146 137 36
130 122 36
135 133 36
136 123 51
138 128 0
156 149 51
144 134 51
148 136 36
142 135 0
131 122 36
154 146 51
147 137 36
154 144 62
145 137 62
143 135 36
147 139 36
141 129 51
151 145 51
135 127 0
144 131 51
142 137 0
155 146 51
149 141 0
159 154 51
148 139 51
145 141 51
151 137 36
153 145 51
152 142 51
137 131 0
154 144 51
152 143 51
148 136 51
141 126 36
120 114 36
146 141 36
147 144 51
133 123 51
155 146 51
150 145 36
153 149 36
164 154 72
158 153 62
160 152 51
157 151 36
159 151 62
146 136 51
149 140 36
161 154 36
151 147 62
169 162 62
165 160 51
162 156 51
140 129 36
153 147 36
139 133 0
154 141 51
171 164 72
170 163 62
149 141 36
154 146 62
146 131 36
150 149 0
167 170 51
153 158 0
162 179 0
157 174 0
165 184 0
175 195 0
176 192 0
171 190 0
172 186 0
169 181 0
174 194 0
173 193 0
172 197 0
168 189 0
167 192 0
174 198 0
168 192 0
171 193 0
170 190 0
169 193 0
162 182 0
172 191 0
167 188 0
179 197 0
168 189 0
169 190 0
172 195 0
174 196 0
165 185 0
151 170 72
154 173 102
149 171 72
158 175 125
163 181 72
142 161 0
147 166 0
169 189 144
158 176 144
157 174 125
157 176 102
146 166 72
158 173 102
155 172 102
145 166 0
173 190 161
147 163 72
155 172 72
144 163 72
147 165 102
156 172 125
144 160 102
167 185 125
155 172 102
144 160 102
144 160 0
154 172 102
128 145 0
150 170 72
159 177 125
153 171 102
146 165 0
158 174 125
145 165 72
163 181 125
146 165 72
144 159 102
150 168 144
142 158 72
140 158 72
157 175 125
128 145 0
154 172 102
144 161 102
145 158 72
136 151 102
145 160 102
137 154 0
133 146 102
155 174 0
154 168 125
155 173 125
146 161 144
128 143 72
131 147 72
141 159 0
143 160 72
143 158 102
116 133 0
136 149 72
142 159 72
102 118 0
115 132 0
130 146 72
126 138 0
119 132 0
124 139 102
95 106 0
83 94 0
92 101 0
70 79 0
89 98 0
76 83 0
72 80 0
78 87 0
112 123 0
117 128 0
75 84 0
109 120 0
78 87 0
96 107 0
109 121 0
68 76 0
92 103 0
100 115 0
120 134 0
145 160 0
135 149 0
116 129 0
79 89 0
124 139 0
84 93 0
108 122 0
98 111 0
136 150 0
111 127 0
79 91 0
127 144 0
139 153 0
135 150 0
123 139 0
120 137 0
112 131 0
133 148 0
120 137 0
102 116 0
122 137 0
102 116 0
99 115 0
91 105 0
118 136 0
127 147 0
83 99 0
128 145 0
126 143 0
128 144 0
92 107 0
122 140 0
115 132 0
105 121 0
109 128 0
108 122 0
116 135 0
144 163 0
94 110 0
134 153 0
156 178 0
138 158 0
104 126 0
127 148 0
111 125 0
128 150 0
126 148 0
105 123 0
112 131 0
92 111 0
115 133 0
111 134 0
136 152 0
126 144 0
105 117 0
114 131 0
114 134 0
141 161 0
89 105 0
134 156 0
115 134 0
151 170 0
144 162 0
137 154 0
94 113 0
121 140 0
115 133 0
81 93 0
111 129 0
131 143 0
88 106 0
34 56 0
113 133 0
104 122 0
141 157 0
104 120 0
112 133 0
127 145 0
95 114 0
130 147 0
72 85 0
114 134 0
114 127 0
92 110 0
111 128 0
67 81 0
124 144 0
80 91 0
102 119 0
136 151 0
117 134 0
83 101 0
133 151 0
87 105 0
141 158 0
41 64 0
81 96 0
95 111 0
88 108 0
86 100 0
147 165 0
97 114 0
66 85 0
35 55 0
130 150 0
84 102 0
88 106 0
118 134 0
103 121 0
115 132 0
93 103 0
110 122 0
102 117 0
91 103 0
99 113 0
90 107 0
67 88 0
114 127 0
121 133 0
116 135 0
117 135 0
109 130 0
129 147 0
115 130 0
117 130 0
76 88 0
106 118 0
83 99 0
82 97 0
130 147 0
79 89 0
127 148 0
86 106 0
121 135 0
136 151 0
104 118 0
125 141 0
100 118 0
116 125 0
146 163 0
152 170 0
117 137 0
147 159 0
127 144 0
80 87 0
111 127 0
135 156 0
117 125 0
142 157 0
117 134 0
64 74 0
111 126 0
121 136 0
109 123 0
118 126 0
142 158 0
124 139 0
110 125 0
119 125 0
160 175 0
138 149 0
79 91 0
140 156 0
134 149 0
132 140 0
154 167 0
116 129 0
142 156 0
124 135 0
92 99 0
124 140 0
127 131 0
135 148 0
103 112 0
138 149 0
144 153 0
131 143 0
119 132 0
113 119 0
128 136 0
104 100 0
122 132 0
95 89 0
119 121 0
144 151 0
143 151 0
118 123 0
138 140 0
120 126 0
144 154 0
144 143 0
147 149 0
105 106 0
129 137 0
98 100 0
134 134 0
116 114 0
116 120 0
118 122 0
103 101 0
113 107 0
119 113 0
84 86 0
107 106 0
93 88 0
76 64 0
81 67 0
73 71 0
78 59 0
98 97 0
77 65 0
77 74 0
60 40 0
64 57 0
85 78 36
115 104 0
132 123 0
133 125 0
116 108 0
124 116 0
116 107 0
111 103 0
163 153 62
113 99 0
138 124 51
128 118 51
139 121 0
151 134 0
143 131 36
140 128 62
138 128 0
145 134 0
157 148 72
127 116 51
143 136 0
154 142 51
147 139 36
146 137 36
150 137 36
152 144 51
148 132 36
125 114 0
137 128 51
164 156 51
158 148 51
139 124 36
141 134 36
148 141 51
150 139 51
154 137 72
150 143 36
155 144 62
145 134 62
146 137 36
142 132 36
144 137 36
152 140 36
160 151 36
128 119 0
152 142 72
145 136 36
148 141 0
155 146 62
145 131 62
130 127 0
135 127 0
160 150 62
161 152 62
161 155 51
149 139 36
166 160 51
157 153 51
166 154 72
153 141 51
158 152 36
159 146 62
143 138 0
147 145 36
148 140 36
153 138 0
167 163 62
161 171 36
158 168 0
164 180 0
160 173 0
173 197 0
160 174 0
175 188 0
157 168 0
163 174 0
165 186 0
177 199 0
173 197 0
167 183 0
162 173 0
169 190 0
167 191 0
176 195 0
162 184 0
163 187 0
165 184 0
173 197 0
162 183 0
177 199 0
152 175 0
175 195 0
167 192 0
174 197 0
171 192 0
151 172 0
164 184 0
161 182 0
157 178 0
163 185 0
158 178 0
168 189 0
172 192 0
155 178 0
163 186 0
158 173 125
161 179 102
152 167 0
130 145 102
152 172 72
166 183 125
157 176 125
149 168 72
160 177 102
151 164 125
167 185 125
158 176 102
158 177 72
143 161 0
157 173 102
151 165 72
126 143 0
153 169 102
147 164 72
158 174 72
156 172 102
157 174 72
162 176 102
148 162 72
150 169 0
150 167 102
132 147 72
142 160 0
138 156 0
153 172 0
134 150 72
127 145 72
162 179 125
123 141 0
153 170 102
130 147 72
156 172 102
146 164 72
139 155 0
137 150 72
139 156 72
125 143 0
157 175 0
147 160 125
132 143 102
116 131 0
132 149 72
131 144 102
126 143 72
154 169 144
148 164 102
152 169 102
148 165 102
150 162 79
121 135 72
98 111 0
143 156 102
106 119 0
126 137 72
92 102 72
91 100 0
68 74 0
89 97 0
75 82 0
113 123 0
98 108 0
92 102 0
90 100 0
94 107 0
72 83 0
104 116 0
107 120 0
100 107 0
102 111 0
45 52 0
113 125 0
121 133 0
143 158 0
135 149 0
97 109 0
108 117 0
96 109 0
83 96 0
109 120 0
142 158 0
146 162 0
136 151 0
120 134 0
139 155 0
121 136 0
120 134 0
102 120 0
121 136 0
113 126 0
143 160 0
124 138 0
114 129 0
130 147 0
132 149 0
116 132 0
98 109 0
139 155 0
118 136 0
113 134 0
118 136 0
123 142 0
126 145 0
129 146 0
158 181 0
108 126 0
136 155 0
130 149 0
118 137 0
142 161 0
102 122 0
118 138 0
158 177 0
126 147 0
145 163 0
114 131 0
141 159 0
108 123 0
118 138 0
127 148 0
150 170 0
125 146 0
81 95 0
143 163 0
109 125 0
135 153 0
116 134 0
110 126 0
138 157 0
124 143 0
138 157 0
77 87 0
128 149 0
70 91 0
141 156 0
136 153 0
124 141 0
99 116 0
131 146 0
132 153 0
121 144 0
121 137 0
106 124 0
118 134 0
128 147 0
128 147 0
133 153 0
108 125 0
141 161 0
85 104 0
90 110 0
134 153 0
100 117 0
81 101 0
120 140 0
64 81 0
124 144 0
121 138 0
128 143 0
107 124 0
136 156 0
101 120 0
94 109 0
104 121 0
127 146 0
91 108 0
88 107 0
101 119 0
139 158 0
103 121 0
91 111 0
111 126 0
103 120 0
114 131 0
111 123 0
85 102 0
87 100 0
83 100 0
100 118 0
108 122 0
72 84 0
102 122 0
126 141 0
90 109 0
102 119 0
107 118 0
64 81 0
84 91 0
140 155 0
54 62 0
123 138 0
103 125 0
85 99 0
86 103 0
113 124 0
111 127 0
115 135 0
113 129 0
131 151 0
125 133 0
107 125 0
134 155 0
113 126 0
122 136 0
126 143 0
88 105 0
155 172 0
141 152 0
93 106 0
105 117 0
116 135 0
133 146 0
133 151 0
117 132 0
140 158 0
133 147 0
136 145 0
94 110 0
114 127 0
109 121 0
130 148 0
144 158 0
127 144 0
137 145 0
149 166 0
154 173 0
112 131 0
131 142 0
146 163 0
145 164 0
110 126 0
122 127 0
147 161 0
133 148 0
119 133 0
119 132 0
101 111 0
160 171 0
136 147 0
128 141 0
137 150 0
140 150 0
140 152 0
143 156 0
124 132 0
107 102 0
132 140 0
142 153 0
132 141 0
102 111 0
102 110 0
141 149 0
92 93 0
99 100 0
141 151 0
92 82 0
133 147 0
115 120 0
123 133 0
126 131 0
124 132 0
116 108 0
92 80 0
124 127 0
130 143 0
143 146 0
136 143 0
108 110 0
141 144 0
110 112 0
112 106 0
100 93 0
121 125 0
89 85 0
84 75 0
114 104 0
129 126 0
84 72 0
118 109 0
77 68 0
106 98 0
117 114 0
72 61 0
105 90 0
129 128 0
119 123 0
76 68 0
78 63 0
106 96 0
93 79 0
105 99 0
76 72 0
77 73 0
106 100 0
112 100 51
89 75 0
89 79 0
120 108 0
123 108 0
137 128 36
121 103 36
132 128 0
115 107 0
137 129 36
145 135 36
134 122 36
132 115 51
142 128 36
148 133 51
133 123 36
125 117 0
142 129 0
144 132 51
142 130 36
138 130 0
125 116 0
170 160 62
148 139 0
124 111 36
146 137 36
128 122 36
156 143 51
136 125 36
162 154 72
129 114 0
129 123 36
127 116 36
137 130 36
123 116 0
143 133 36
134 131 36
140 125 0
147 142 0
160 154 51
162 156 72
146 137 36
156 145 72
158 146 72
155 144 51
164 154 72
156 150 51
158 148 62
149 141 0
146 135 0
154 146 51
158 147 51
151 143 51
134 126 0
156 152 36
160 149 62
139 122 36
153 145 62
153 147 36
153 152 36
164 164 36
158 157 51
171 185 0
169 180 0
175 192 0
163 178 0
163 180 0
159 173 0
162 174 0
161 178 0
164 178 0
165 177 0
160 175 0
154 164 0
172 186 0
174 194 0
153 169 0
163 181 0
163 184 0
160 171 0
162 184 0
161 179 0
164 185 0
169 193 0
161 183 0
171 193 0
177 198 0
168 188 0
164 188 0
172 192 0
170 193 0
167 189 0
168 191 0
157 178 0
163 183 0
149 169 0
165 187 0
159 179 0
163 185 0
168 191 0
164 183 0
170 192 0
170 188 0
162 181 0
158 177 0
165 182 72
160 179 72
154 170 102
136 155 0
128 147 72
154 172 0
151 169 125
143 165 0
137 155 0
154 171 102
159 177 72
148 168 102
142 160 72
163 183 102
152 169 72
135 153 0
145 165 72
143 161 0
142 158 0
155 174 72
131 146 72
132 148 72
142 160 0
137 154 72
142 157 72
156 174 72
132 152 0
140 154 72
139 155 72
137 155 72
122 138 0
146 162 72
129 144 72
135 152 72
148 165 72
110 126 0
134 152 0
152 168 72
118 135 0
129 144 0
173 188 161
118 134 0
152 169 72
136 153 72
141 158 72
126 144 0
126 140 72
128 143 0
140 155 72
120 131 0
106 117 0
66 73 0
71 77 0
92 100 0
90 99 0
86 96 0
80 88 0
113 123 0
74 83 0
102 112 0
88 97 0
98 108 0
125 136 0
110 122 0
104 114 0
111 123 0
122 133 0
102 112 0
99 112 0
102 115 0
85 94 0
109 120 0
92 104 0
137 151 0
87 98 0
88 99 0
142 156 0
141 157 0
112 125 0
88 102 0
95 108 0
105 115 0
66 75 0
130 147 0
103 114 0
142 157 0
74 89 0
126 142 0
118 131 0
118 134 0
143 159 0
124 140 0
152 170 0
141 160 0
109 127 0
135 151 0
105 120 0
114 127 0
112 131 0
114 130 0
139 156 0
140 158 0
142 156 0
131 150 0
131 145 0
119 137 0
129 149 0
141 161 0
141 159 0
97 116 0
134 157 0
121 138 0
123 137 0
117 136 0
158 181 0
109 128 0
143 163 0
148 169 0
121 141 0
119 139 0
129 147 0
127 149 0
134 153 0
95 117 0
128 146 0
141 162 0
111 128 0
120 142 0
129 145 0
119 140 0
66 83 0
112 130 0
153 169 0
81 95 0
147 169 0
115 134 0
121 137 0
129 150 0
126 148 0
133 155 0
124 143 0
138 158 0
100 118 0
89 104 0
128 144 0
129 147 0
98 117 0
113 132 0
102 121 0
150 168 0
112 130 0
80 96 0
89 105 0
98 118 0
66 88 0
119 138 0
36 57 0
100 118 0
118 135 0
39 62 0
136 154 0
102 121 0
110 129 0
125 143 0
86 99 0
135 151 0
128 142 0
102 125 0
107 126 0
83 101 0
108 128 0
116 134 0
86 101 0
85 107 0
65 80 0
61 77 0
88 99 0
102 119 0
125 141 0
102 117 0
112 129 0
107 125 0
148 170 0
105 122 0
118 132 0
87 110 0
55 66 0
78 93 0
89 104 0
103 119 0
99 112 0
79 97 0
110 124 0
137 158 0
100 116 0
133 151 0
140 161 0
62 69 0
151 169 0
110 126 0
105 124 0
90 108 0
98 115 0
111 132 0
99 116 0
116 133 0
105 119 0
86 102 0
98 114 0
89 107 0
111 122 0
106 121 0
104 123 0
101 122 0
114 131 0
76 88 0
125 143 0
128 142 0
68 79 0
142 161 0
119 135 0
151 166 0
128 148 0
114 132 0
85 99 0
133 145 0
143 163 0
116 134 0
140 152 0
118 127 0
118 131 0
141 154 0
124 141 0
137 156 0
99 119 0
118 135 0
110 121 0
148 165 0
119 125 0
123 133 0
143 155 0
141 153 0
105 121 0
152 163 0
149 165 0
115 127 0
139 154 0
107 117 0
146 157 0
150 164 0
133 142 0
85 93 0
154 159 0
135 148 0
139 151 0
146 158 0
89 95 0
146 151 0
125 134 0
130 136 0
96 93 0
120 125 0
133 135 0
135 146 0
118 131 0
111 119 0
101 108 0
120 121 0
121 135 0
88 97 0
121 128 0
104 98 0
124 130 0
144 142 0
123 127 0
132 136 0
128 129 0
118 107 0
124 123 0
96 89 0
102 99 0
115 108 0
88 86 0
116 114 0
125 122 0
96 82 0
111 102 0
76 63 0
98 91 0
97 81 0
86 69 0
125 125 0
106 101 0
92 86 0
83 71 0
102 91 0
103 90 0
90 77 0
106 92 0
100 91 0
117 96 0
81 67 36
109 96 0
116 107 36
110 93 0
115 103 36
151 139 62
136 126 36
103 84 0
147 136 36
159 149 51
122 114 0
110 106 0
147 134 51
126 122 0
141 129 36
148 139 36
154 147 51
142 128 36
142 132 36
157 150 62
124 113 36
164 154 51
139 129 51
164 153 62
158 148 51
157 147 36
158 148 51
136 122 51
117 106 0
162 153 51
144 135 36
174 163 72
151 141 51
146 137 36
165 150 72
155 146 36
153 146 36
144 126 36
139 128 51
166 157 62
152 137 36
152 144 36
141 128 36
130 123 0
137 127 0
148 141 36
148 142 36
145 139 0
156 155 62
154 156 51
162 171 36
149 156 0
164 171 0
163 164 0
171 186 0
173 193 0
165 176 0
157 168 0
161 166 0
168 184 0
170 192 0
160 174 0
161 173 0
152 161 0
173 186 0
164 181 0
159 174 0
147 153 0
170 184 0
165 182 0
171 188 0
170 183 0
164 180 0
169 189 0
165 181 0
175 197 0
167 187 0
162 182 0
172 193 0
160 181 0
157 179 0
162 185 0
162 182 0
167 190 0
171 194 0
165 187 0
168 187 0
165 186 0
170 192 0
158 179 0
157 175 0
156 180 0
155 174 0
172 192 0
158 176 0
155 175 0
172 191 0
152 170 0
161 179 0
141 161 0
151 171 0
169 190 0
154 173 0
151 172 0
149 168 0
155 173 0
163 185 0
150 167 72
146 160 0
132 149 0
144 162 0
144 161 72
146 162 102
132 149 0
136 150 0
160 176 125
149 168 72
146 163 72
157 173 125
149 167 72
148 164 102
112 124 72
144 159 72
131 147 72
150 163 102
130 145 0
136 152 0
120 134 72
150 167 72
130 148 72
119 132 0
144 158 72
156 172 125
136 153 0
157 173 102
140 155 72
116 129 0
124 141 0
122 133 72
146 161 0
117 130 72
112 122 0
124 137 72
80 90 0
123 138 72
74 83 0
87 95 0
94 103 0
73 80 0
126 138 0
94 101 0
92 102 0
81 90 0
114 124 0
102 111 0
113 125 0
88 97 0
83 91 0
71 79 0
69 78 0
108 115 0
119 130 0
120 131 0
65 77 0
116 127 0
93 105 0
111 123 0
117 132 0
98 109 0
93 106 0
114 125 0
144 158 0
139 155 0
117 130 0
101 118 0
88 97 0
100 112 0
120 134 0
119 133 0
117 133 0
142 158 0
119 135 0
138 155 0
133 152 0
133 147 0
128 147 0
122 138 0
158 175 0
101 115 0
162 180 0
147 166 0
148 168 0
106 122 0
149 167 0
109 122 0
115 133 0
135 152 0
125 142 0
139 158 0
144 160 0
156 176 0
111 129 0
122 140 0
100 114 0
141 160 0
155 175 0
114 130 0
96 109 0
131 145 0
147 168 0
152 166 0
154 172 0
141 157 0
157 174 0
139 160 0
112 131 0
106 129 0
118 136 0
98 117 0
118 134 0
152 172 0
151 171 0
122 143 0
128 147 0
142 157 0
135 154 0
128 148 0
114 134 0
128 147 0
137 156 0
109 127 0
85 105 0
112 131 0
154 173 0
137 156 0
102 120 0
83 96 0
111 131 0
108 125 0
127 148 0
140 158 0
139 159 0
101 121 0
125 142 0
140 160 0
144 161 0
121 140 0
125 140 0
123 141 0
113 130 0
106 125 0
109 124 0
150 169 0
96 113 0
130 146 0
123 142 0
99 117 0
110 129 0
113 130 0
123 142 0
86 105 0
106 126 0
93 111 0
90 110 0
127 146 0
117 136 0
78 94 0
90 105 0
120 137 0
143 162 0
114 131 0
129 146 0
145 167 0
114 136 0
123 131 0
101 120 0
76 90 0
82 100 0
128 142 0
115 135 0
115 136 0
117 133 0
73 94 0
106 122 0
109 125 0
127 146 0
97 113 0
105 124 0
117 129 0
68 88 0
115 129 0
104 118 0
104 121 0
119 136 0
126 140 0
123 133 0
85 102 0
115 129 0
124 141 0
139 150 0
115 134 0
116 132 0
100 113 0
105 116 0
99 105 0
116 133 0
137 154 0
85 101 0
127 145 0
111 131 0
115 126 0
107 123 0
121 136 0
124 141 0
121 140 0
137 159 0
136 155 0
114 130 0
125 144 0
122 138 0
110 126 0
123 134 0
125 140 0
147 163 0
118 130 0
100 113 0
151 172 0
154 168 0
150 167 0
100 113 0
92 102 0
79 79 0
127 140 0
106 123 0
127 139 0
137 153 0
94 102 0
115 124 0
116 134 0
114 130 0
139 153 0
137 159 0
97 111 0
149 167 0
93 91 0
99 110 0
106 121 0
125 130 0
145 156 0
131 145 0
117 131 0
132 140 0
123 139 0
132 142 0
140 153 0
99 105 0
131 128 0
155 171 0
106 117 0
122 133 0
99 110 0
112 116 0
95 100 0
127 138 0
108 111 0
130 130 0
84 93 0
121 120 0
142 154 0
148 149 0
114 111 0
127 132 0
122 118 0
135 139 0
104 101 0
114 113 0
121 118 0
124 118 0
125 131 0
118 118 0
125 127 0
77 65 0
132 123 0
81 67 0
110 110 0
95 79 0
123 121 0
99 85 0
76 63 0
110 104 0
103 99 0
86 68 0
107 104 0
59 48 0
103 97 0
98 87 0
110 101 0
86 73 0
117 116 0
70 48 0
76 62 0
118 118 0
101 93 0
85 72 0
111 104 36
112 99 0
111 99 0
166 166 0
118 114 36
140 136 0
140 130 51
124 111 36
139 127 36
130 117 36
135 124 51
155 146 51
162 149 51
145 130 36
144 136 36
145 133 51
141 133 36
139 131 0
127 112 0
127 116 0
118 105 0
136 122 36
147 140 0
154 145 51
151 141 0
127 117 36
146 134 51
135 130 0
154 147 36
148 141 0
152 146 51
128 117 0
137 132 0
146 138 36
152 150 36
173 173 51
140 129 36
154 144 36
148 145 0
147 149 0
165 175 0
172 175 51
155 161 0
147 150 0
168 184 0
165 176 0
158 164 0
161 170 0
153 158 0
175 191 0
157 168 0
171 189 0
170 181 0
163 175 0
153 156 0
170 178 0
168 186 0
173 187 0
157 170 0
158 162 0
156 165 0
164 177 0
170 190 0
168 180 0
165 179 0
158 170 0
167 187 0
175 191 0
170 185 0
173 188 0
170 189 0
162 180 0
163 185 0
168 186 0
177 199 0
162 183 0
168 191 0
170 191 0
166 188 0
175 196 0
163 183 0
177 199 0
159 179 0
163 187 0
168 191 0
164 184 0
168 191 0
156 175 0
169 189 0
162 183 0
172 194 0
158 178 0
162 179 0
159 177 0
149 167 0
159 177 0
165 181 0
177 195 0
153 173 0
162 182 0
164 183 0
171 190 0
167 185 0
155 177 0
158 174 0
164 182 0
163 184 0
139 155 0
148 165 0
159 173 0
147 164 0
166 183 0
154 171 72
137 152 72
129 145 0
145 159 72
121 134 0
131 151 0
122 137 0
137 152 0
118 131 0
122 135 0
142 158 0
150 163 72
122 134 72
98 109 0
134 149 0
129 142 72
123 137 72
132 145 0
95 107 0
128 140 0
139 151 0
96 105 0
121 133 0
93 100 0
95 105 0
102 113 0
103 112 0
66 72 0
109 118 0
133 144 0
122 135 0
136 148 0
94 103 0
95 105 0
107 118 0
109 120 0
101 110 0
81 89 0
85 93 0
116 128 0
144 159 0
128 141 0
104 116 0
104 116 0
131 144 0
143 157 0
116 128 0
85 100 0
127 142 0
125 139 0
90 104 0
130 143 0
103 118 0
104 115 0
130 143 0
110 125 0
110 121 0
133 146 0
99 113 0
148 161 0
124 136 0
101 113 0
108 122 0
129 145 0
104 116 0
117 131 0
112 128 0
130 148 0
141 160 0
100 118 0
116 132 0
131 147 0
146 162 0
139 158 0
137 157 0
124 138 0
109 126 0
102 121 0
105 124 0
134 152 0
109 128 0
135 154 0
156 172 0
141 163 0
144 163 0
155 174 0
146 164 0
154 173 0
130 146 0
122 142 0
100 115 0
120 140 0
125 143 0
126 142 0
129 147 0
132 151 0
136 157 0
128 145 0
124 139 0
130 146 0
146 164 0
128 148 0
104 121 0
132 151 0
135 151 0
115 138 0
120 136 0
108 128 0
138 158 0
136 156 0
128 146 0
139 160 0
117 137 0
143 165 0
134 152 0
100 116 0
156 176 0
119 137 0
147 169 0
142 159 0
154 173 0
121 139 0
130 154 0
107 126 0
128 148 0
119 136 0
130 150 0
100 119 0
88 106 0
146 163 0
110 130 0
114 129 0
97 113 0
109 129 0
125 141 0
87 98 0
143 164 0
117 133 0
104 121 0
137 156 0
119 136 0
142 160 0
104 124 0
88 111 0
126 145 0
124 143 0
114 131 0
99 117 0
117 139 0
112 131 0
119 139 0
118 128 0
146 168 0
113 133 0
52 73 0
88 106 0
108 128 0
113 130 0
98 112 0
128 150 0
117 137 0
82 91 0
116 135 0
142 162 0
102 116 0
106 121 0
83 102 0
124 137 0
103 122 0
121 141 0
86 102 0
101 120 0
115 134 0
69 90 0
141 159 0
102 112 0
97 107 0
84 104 0
61 74 0
117 131 0
132 146 0
113 133 0
117 131 0
124 144 0
107 124 0
135 145 0
116 136 0
96 115 0
89 109 0
114 122 0
120 135 0
88 106 0
82 96 0
119 136 0
122 139 0
116 133 0
116 132 0
138 154 0
125 142 0
124 141 0
138 153 0
126 150 0
129 150 0
135 152 0
139 147 0
129 146 0
136 152 0
139 154 0
115 127 0
153 168 0
140 152 0
115 137 0
95 110 0
130 148 0
99 109 0
99 113 0
139 156 0
123 140 0
100 113 0
140 154 0
149 160 0
115 124 0
128 138 0
138 156 0
145 149 0
144 154 0
137 154 0
155 167 0
122 139 0
143 161 0
132 145 0
173 186 0
157 168 0
147 156 0
137 151 0
129 145 0
115 127 0
128 133 0
127 145 0
141 153 0
149 162 0
114 127 0
141 148 0
131 148 0
136 143 0
88 94 0
101 111 0
111 111 0
142 154 0
110 109 0
90 80 0
157 166 0
133 137 0
103 114 0
119 112 0
127 132 0
102 110 0
113 115 0
134 143 0
129 135 0
115 106 0
89 89 0
114 118 0
119 124 0
116 121 0
117 115 0
127 124 0
103 101 0
141 144 0
101 98 0
89 78 0
126 120 0
127 122 0
83 70 0
116 116 0
149 154 0
144 148 0
107 93 0
110 93 0
85 80 0
108 104 0
106 102 0
124 118 0
84 65 0
120 115 0
56 33 0
91 82 0
123 122 0
103 96 0
101 84 0
101 99 0
116 105 0
115 105 0
75 57 0
110 97 0
87 68 0
123 120 0
106 96 0
121 119 0
118 116 0
117 109 0
101 85 0
138 136 0
116 102 0
127 110 0
115 103 0
123 118 0
152 148 36
152 147 36
130 119 0
143 132 36
143 137 36
125 122 0
141 138 0
132 127 0
142 145 36
133 128 0
143 145 0
141 138 0
137 140 0
163 177 0
146 155 0
153 158 0
164 176 0
167 179 0
164 178 0
161 172 0
147 159 0
156 164 0
173 190 0
155 165 0
160 164 0
163 179 0
157 162 0
158 171 0
172 190 0
149 156 0
161 168 0
168 178 0
163 170 0
170 182 0
168 180 0
165 179 0
169 179 0
167 181 0
161 175 0
168 184 0
171 185 0
164 170 0
151 158 0
166 184 0
165 182 0
167 183 0
168 187 0
163 174 0
178 193 0
157 168 0
168 180 0
164 178 0
173 193 0
175 197 0
161 184 0
166 188 0
172 190 0
165 185 0
166 189 0
162 185 0
167 188 0
170 193 0
170 193 0
160 183 0
168 188 0
162 182 0
149 167 0
165 188 0
164 186 0
166 189 0
164 184 0
169 189 0
156 175 0
153 170 0
162 182 0
143 162 0
135 152 0
160 177 0
156 174 0
159 179 0
158 175 0
158 176 0
152 172 0
125 142 0
155 175 0
164 182 0
161 180 0
160 180 0
138 154 0
153 171 0
148 165 0
168 188 0
158 175 0
151 168 0
136 152 0
142 157 0
106 118 0
124 136 0
134 149 0
138 151 0
129 142 0
149 164 0
109 119 0
160 174 0
103 116 0
138 150 0
121 134 0
112 123 0
89 101 0
132 144 0
113 124 0
108 120 0
134 146 0
134 145 0
112 123 0
133 147 0
121 133 0
97 106 0
106 120 0
88 98 0
90 101 0
127 138 0
108 119 0
101 110 0
118 130 0
103 112 0
103 113 0
88 98 0
98 108 0
82 92 0
127 141 0
99 110 0
103 116 0
125 139 0
116 127 0
102 113 0
113 125 0
122 139 0
110 123 0
122 138 0
117 131 0
150 165 0
130 144 0
138 152 0
144 157 0
109 122 0
155 170 0
118 135 0
130 145 0
121 138 0
109 122 0
91 108 0
129 144 0
119 133 0
144 161 0
144 161 0
115 128 0
125 137 0
145 161 0
100 119 0
140 156 0
147 164 0
124 138 0
160 178 0
131 149 0
138 154 0
131 148 0
128 145 0
113 128 0
157 174 0
136 154 0
131 146 0
118 135 0
144 163 0
135 152 0
145 164 0
146 166 0
119 135 0
139 159 0
146 164 0
142 159 0
98 112 0
117 138 0
159 185 0
109 123 0
132 148 0
100 119 0
151 171 0
147 166 0
117 135 0
114 134 0
131 151 0
139 162 0
154 174 0
138 153 0
117 135 0
108 127 0
145 162 0
132 154 0
146 170 0
115 131 0
135 158 0
80 96 0
141 159 0
111 125 0
121 145 0
108 127 0
142 161 0
113 133 0
81 97 0
95 118 0
128 151 0
138 157 0
134 151 0
117 130 0
99 119 0
130 148 0
132 148 0
116 138 0
130 147 0
88 108 0
155 175 0
104 119 0
100 120 0
118 140 0
141 163 0
111 124 0
119 136 0
118 135 0
135 155 0
113 134 0
112 132 0
85 105 0
114 132 0
108 125 0
126 145 0
60 76 0
118 135 0
105 121 0
110 126 0
112 131 0
102 122 0
117 138 0
155 176 0
111 122 0
101 119 0
134 156 0
123 146 0
85 101 0
108 128 0
109 124 0
109 130 0
127 146 0
113 130 0
116 135 0
147 169 0
126 146 0
135 157 0
133 149 0
101 119 0
125 136 0
66 82 0
131 149 0
112 130 0
116 133 0
128 147 0
120 134 0
120 141 0
144 163 0
124 144 0
102 120 0
99 113 0
122 143 0
100 114 0
98 115 0
130 144 0
108 121 0
120 137 0
102 122 0
125 134 0
135 153 0
114 127 0
125 145 0
141 160 0
111 122 0
113 131 0
125 140 0
125 148 0
125 141 0
141 158 0
107 120 0
106 123 0
100 118 0
89 107 0
114 134 0
132 152 0
111 131 0
112 130 0
115 133 0
142 156 0
150 158 0
146 167 0
138 157 0
144 160 0
139 158 0
159 177 0
148 162 0
123 133 0
131 148 0
133 145 0
143 157 0
121 128 0
120 132 0
135 152 0
137 159 0
108 125 0
111 121 0
118 127 0
143 162 0
133 139 0
159 171 0
137 159 0
112 129 0
133 149 0
139 156 0
112 125 0
116 134 0
135 143 0
113 112 0
126 144 0
109 114 0
141 156 0
122 134 0
129 139 0
138 148 0
124 131 0
163 179 0
103 110 0
129 127 0
148 161 0
118 124 0
116 124 0
124 120 0
140 147 0
130 132 0
119 113 0
138 142 0
108 114 0
126 118 0
129 123 0
152 165 0
136 141 0
139 147 0
121 126 0
120 119 0
82 83 0
113 110 0
114 115 0
144 147 0
82 81 0
113 115 0
111 103 0
139 142 0
112 106 0
113 110 0
99 87 0
120 124 0
96 78 0
99 97 0
120 124 0
124 121 0
115 103 0
136 140 0
97 83 0
116 104 0
62 47 0
88 75 0
114 110 0
107 98 0
111 103 0
131 126 0
113 104 0
105 97 0
139 140 0
117 119 0
99 98 0
133 130 0
106 99 0
92 74 0
108 97 0
111 100 0
90 72 0
105 102 0
107 91 0
130 125 0
139 142 0
136 136 0
109 99 0
137 135 0
136 137 0
150 154 0
120 114 0
113 97 0
137 138 0
144 140 0
162 169 0
144 148 0
128 120 0
148 153 0
127 125 0
141 143 0
132 122 0
158 168 0
135 136 0
169 182 0
143 145 0
150 157 0
150 156 0
151 158 0
139 135 0
148 157 0
161 169 0
160 168 0
156 159 0
153 162 0
161 166 0
152 153 0
150 149 0
165 174 0
158 166 0
163 175 0
153 163 0
173 190 0
146 146 0
159 171 0
160 174 0
156 165 0
163 181 0
160 176 0
141 150 0
162 171 0
154 167 0
174 194 0
161 178 0
174 191 0
159 171 0
157 172 0
170 192 0
162 175 0
167 183 0
166 183 0
170 189 0
161 181 0
165 184 0
168 188 0
141 158 0
170 189 0
158 176 0
172 195 0
170 191 0
164 184 0
163 183 0
159 180 0
166 184 0
162 183 0
177 195 0
159 179 0
158 174 0
155 172 0
154 177 0
164 182 0
158 176 0
161 183 0
157 178 0
144 160 0
169 188 0
155 172 0
152 168 0
169 191 0
168 189 0
158 179 0
144 160 0
145 163 0
144 164 0
151 169 0
166 186 0
150 168 0
148 163 0
159 175 0
141 156 0
139 154 0
167 186 0
152 169 0
122 134 0
156 173 0
133 147 0
133 146 0
149 164 0
113 125 0
112 122 0
117 131 0
133 148 0
135 151 0
132 145 0
121 134 0
141 155 0
124 135 0
136 148 0
109 120 0
108 120 0
120 135 0
102 114 0
121 136 0
110 120 0
100 110 0
121 132 0
105 117 0
125 138 0
98 109 0
127 139 0
108 115 0
140 152 0
117 130 0
124 138 0
94 102 0
110 121 0
131 144 0
123 137 0
128 140 0
121 132 0
126 139 0
126 139 0
110 122 0
102 116 0
90 104 0
99 109 0
108 120 0
103 113 0
108 119 0
126 139 0
134 147 0
147 165 0
78 91 0
116 130 0
88 101 0
122 136 0
112 125 0
141 157 0
132 147 0
117 137 0
130 143 0
105 121 0
143 160 0
143 159 0
113 128 0
109 123 0
120 134 0
143 162 0
125 141 0
119 135 0
122 137 0
124 138 0
120 137 0
155 173 0
124 143 0
142 161 0
122 140 0
123 142 0
156 173 0
110 123 0
139 157 0
114 129 0
126 146 0
133 152 0
142 158 0
147 169 0
139 153 0
127 146 0
139 158 0
138 158 0
128 147 0
130 153 0
120 140 0
139 157 0
129 151 0
153 171 0
124 140 0
131 153 0
132 153 0
122 143 0
93 105 0
127 149 0
131 152 0
116 133 0
146 165 0
147 168 0
139 160 0
124 142 0
150 167 0
113 131 0
140 163 0
130 148 0
160 181 0
137 155 0
113 129 0
123 143 0
140 158 0
114 131 0
147 166 0
151 169 0
110 129 0
138 160 0
120 139 0
153 173 0
127 147 0
102 117 0
123 140 0
149 168 0
68 80 0
145 165 0
126 148 0
104 116 0
97 114 0
160 182 0
116 131 0
121 137 0
95 116 0
75 90 0
123 138 0
105 117 0
124 140 0
167 185 0
129 148 0
116 130 0
122 135 0
127 145 0
120 141 0
151 170 0
131 148 0
127 147 0
113 132 0
103 118 0
124 140 0
112 126 0
120 138 0
140 160 0
120 140 0
154 171 0
130 149 0
123 141 0
112 129 0
116 136 0
60 73 0
138 156 0
159 181 0
116 137 0
121 142 0
113 131 0
57 74 0
81 96 0
83 101 0
118 133 0
114 131 0
144 163 0
113 134 0
133 149 0
126 142 0
115 137 0
122 144 0
143 163 0
106 120 0
132 148 0
132 147 0
97 116 0
100 116 0
117 134 0
157 180 0
99 115 0
150 168 0
133 151 0
113 132 0
139 161 0
118 135 0
131 148 0
131 148 0
143 160 0
98 117 0
97 114 0
105 122 0
156 175 0
101 118 0
134 145 0
91 94 0
142 156 0
128 148 0
117 130 0
126 140 0
126 142 0
133 150 0
136 158 0
102 121 0
102 116 0
147 164 0
153 169 0
145 165 0
121 141 0
120 130 0
125 144 0
146 161 0
121 134 0
115 129 0
131 144 0
101 117 0
144 163 0
146 166 0
135 150 0
124 140 0
138 145 0
106 125 0
145 155 0
131 145 0
130 145 0
139 151 0
155 166 0
112 117 0
132 146 0
158 174 0
123 137 0
137 154 0
145 152 0
120 127 0
134 145 0
147 162 0
118 135 0
135 145 0
145 155 0
136 151 0
140 145 0
105 105 0
108 116 0
149 162 0
141 148 0
122 126 0
145 151 0
136 148 0
110 115 0
127 136 0
124 132 0
134 146 0
123 131 0
123 126 0
128 135 0
110 113 0
117 118 0
127 129 0
131 139 0
139 144 0
119 131 0
126 119 0
88 91 0
122 116 0
148 150 0
158 159 0
126 116 0
139 141 0
114 113 0
85 88 0
105 99 0
106 99 0
118 114 0
89 84 0
100 79 0
141 153 0
92 76 0
103 97 0
94 75 0
105 104 0
94 77 0
124 128 0
127 129 0
108 99 0
106 101 0
125 115 0
141 140 0
141 142 0
122 111 0
114 118 0
106 95 0
133 135 0
127 126 0
82 67 0
120 111 0
128 121 0
133 125 0
146 146 0
116 107 0
133 134 0
144 140 0
128 124 0
130 129 0
125 115 0
152 155 0
108 102 0
131 127 0
142 141 0
146 146 0
150 148 0
135 127 0
128 114 0
134 128 0
137 137 0
122 120 0
137 137 0
142 141 0
146 146 0
164 178 0
133 128 0
148 145 0
174 185 0
143 146 0
149 147 0
147 152 0
155 160 0
154 161 0
156 165 0
164 179 0
146 148 0
163 166 0
143 151 0
168 181 0
162 174 0
158 167 0
162 173 0
157 164 0
156 168 0
163 178 0
170 188 0
158 164 0
164 177 0
164 180 0
160 167 0
166 179 0
163 175 0
157 174 0
172 190 0
160 172 0
167 183 0
161 177 0
173 194 0
162 176 0
164 183 0
166 186 0
161 183 0
172 191 0
166 187 0
156 176 0
167 186 0
164 185 0
160 181 0
162 183 0
164 183 0
158 176 0
166 183 0
166 184 0
172 191 0
168 188 0
170 190 0
162 183 0
165 184 0
152 169 0
146 164 0
161 181 0
165 184 0
166 182 0
164 183 0
159 176 0
163 183 0
156 178 0
169 188 0
150 167 0
160 177 0
135 150 0
150 167 0
152 166 0
150 168 0
144 161 0
150 166 0
157 170 0
146 163 0
138 154 0
158 175 0
144 158 0
149 166 0
159 176 0
138 152 0
117 130 0
145 161 0
145 163 0
139 156 0
146 163 0
134 148 0
136 149 0
145 158 0
117 130 0
144 160 0
140 154 0
117 130 0
146 161 0
109 123 0
139 154 0
133 146 0
122 134 0
102 112 0
115 127 0
116 127 0
123 135 0
124 136 0
107 118 0
141 154 0
85 94 0
129 143 0
127 139 0
131 143 0
108 121 0
119 132 0
92 104 0
126 139 0
109 120 0
139 153 0
90 103 0
88 98 0
104 117 0
116 129 0
109 123 0
127 139 0
144 161 0
150 164 0
122 136 0
130 144 0
133 150 0
134 148 0
137 151 0
151 168 0
112 127 0
129 142 0
112 127 0
152 169 0
129 142 0
122 136 0
96 112 0
125 144 0
155 171 0
96 110 0
87 102 0
83 91 0
129 141 0
106 121 0
132 150 0
115 132 0
120 138 0
86 103 0
118 135 0
131 151 0
123 138 0
124 141 0
141 159 0
154 170 0
120 134 0
149 169 0
116 134 0
96 111 0
113 130 0
130 144 0
150 171 0
159 179 0
118 132 0
135 154 0
103 122 0
113 127 0
156 178 0
95 115 0
142 163 0
163 183 0
124 139 0
157 175 0
144 164 0
169 190 0
153 175 0
150 172 0
152 173 0
133 153 0
156 177 0
103 121 0
130 146 0
135 153 0
158 179 0
131 151 0
110 132 0
116 137 0
142 158 0
126 144 0
127 148 0
148 165 0
118 139 0
148 159 0
119 137 0
123 144 0
106 123 0
145 165 0
125 147 0
133 152 0
143 166 0
127 148 0
131 146 0
142 161 0
138 157 0
102 124 0
137 153 0
100 114 0
119 139 0
114 134 0
123 139 0
112 130 0
86 106 0
125 145 0
134 154 0
125 147 0
129 149 0
73 93 0
88 106 0
131 151 0
118 138 0
154 174 0
136 156 0
127 149 0
105 124 0
135 155 0
110 127 0
110 133 0
158 180 0
91 104 0
99 118 0
111 131 0
131 145 0
107 124 0
66 91 0
113 129 0
122 139 0
112 135 0
112 129 0
123 137 0
102 119 0
117 136 0
99 118 0
113 133 0
83 102 0
116 137 0
97 114 0
78 97 0
64 75 0
105 127 0
122 140 0
121 133 0
119 138 0
118 139 0
133 153 0
129 146 0
88 106 0
108 127 0
109 122 0
142 159 0
165 185 0
128 146 0
160 178 0
130 146 0
119 139 0
140 161 0
151 171 0
169 191 0
137 154 0
136 157 0
122 138 0
133 152 0
143 158 0
81 99 0
140 157 0
118 129 0
146 161 0
120 131 0
114 137 0
89 107 0
140 157 0
142 157 0
115 126 0
136 153 0
122 136 0
127 148 0
111 125 0
105 115 0
99 114 0
123 136 0
99 116 0
154 173 0
139 157 0
119 136 0
126 146 0
126 145 0
123 139 0
142 157 0
122 134 0
141 157 0
122 129 0
110 125 0
110 119 0
146 160 0
160 176 0
119 137 0
155 174 0
118 127 0
116 127 0
136 146 0
131 149 0
134 152 0
105 111 0
112 120 0
117 127 0
106 122 0
118 129 0
125 136 0
134 140 0
138 145 0
139 160 0
136 148 0
129 136 0
134 146 0
147 159 0
101 103 0
143 144 0
150 164 0
158 170 0
165 179 0
150 159 0
80 75 0
127 132 0
113 124 0
120 124 0
126 134 0
139 139 0
107 101 0
144 151 0
133 135 0
119 128 0
117 118 0
137 142 0
146 159 0
157 170 0
107 103 0
148 156 0
128 140 0
150 160 0
116 116 0
130 133 0
122 120 0
148 159 0
141 143 0
131 130 0
131 128 0
135 135 0
120 121 0
131 122 0
83 78 0
119 114 0
106 91 0
120 116 0
127 121 0
118 109 0
128 128 0
80 70 0
109 93 0
118 111 0
137 133 0
137 142 0
112 97 0
126 122 0
137 136 0
122 108 0
128 125 0
106 98 0
124 119 0
101 95 0
117 117 0
110 105 0
123 120 0
123 119 0
141 138 0
119 107 0
143 148 0
107 98 0
131 131 0
136 140 0
116 108 0
113 104 0
129 124 0
119 111 0
152 155 0
132 129 0
142 142 0
137 134 0
143 141 0
105 100 0
142 143 0
166 178 0
167 178 0
122 117 0
142 141 0
163 165 0
163 160 0
147 150 0
151 153 0
135 132 0
139 143 0
134 133 0
159 170 0
159 163 0
151 158 0
156 169 0
154 160 0
168 184 0
162 176 0
164 175 0
149 149 0
147 149 0
152 159 0
153 160 0
148 154 0
168 180 0
173 185 0
163 183 0
165 190 0
177 192 0
157 167 0
166 179 0
148 156 0
166 186 0
167 177 0
179 190 0
175 183 0
158 166 0
165 178 0
167 182 0
159 175 0
172 185 0
171 193 0
162 182 0
157 178 0
166 185 0
158 177 0
164 182 0
156 176 0
161 181 0
170 191 0
163 183 0
170 189 0
164 184 0
152 173 0
162 181 0
163 182 0
161 180 0
144 162 0
152 170 0
168 186 0
166 183 0
169 187 0
147 164 0
158 176 0
159 177 0
155 174 0
157 174 0
160 177 0
160 177 0
154 171 0
160 180 0
154 171 0
111 123 0
158 175 0
139 154 0
163 180 0
155 173 0
152 170 0
136 151 0
151 164 0
134 149 0
163 181 0
143 160 0
120 134 0
144 158 0
108 118 0
131 144 0
140 155 0
119 130 0
123 137 0
133 150 0
121 133 0
126 143 0
140 153 0
107 119 0
137 152 0
142 156 0
130 144 0
121 134 0
117 129 0
137 149 0
135 149 0
137 151 0
124 136 0
126 140 0
101 112 0
133 146 0
96 108 0
115 128 0
134 146 0
141 155 0
115 127 0
124 138 0
105 121 0
113 125 0
120 130 0
87 100 0
107 118 0
145 160 0
134 149 0
134 148 0
100 111 0
129 144 0
118 130 0
123 138 0
145 160 0
117 130 0
143 157 0
142 160 0
115 129 0
120 138 0
107 116 0
138 154 0
123 137 0
101 117 0
120 136 0
152 167 0
121 135 0
121 137 0
148 164 0
141 158 0
141 159 0
137 154 0
126 143 0
147 163 0
122 140 0
113 130 0
159 177 0
136 152 0
136 153 0
116 131 0
138 158 0
149 169 0
151 167 0
141 158 0
133 151 0
114 129 0
121 140 0
141 161 0
128 146 0
156 179 0
118 132 0
124 139 0
136 154 0
125 143 0
131 150 0
131 149 0
133 151 0
142 164 0
130 152 0
124 142 0
132 150 0
118 136 0
162 180 0
137 153 0
125 144 0
145 163 0
99 120 0
142 161 0
160 180 0
120 137 0
118 138 0
133 153 0
146 166 0
117 135 0
145 165 0
141 161 0
132 153 0
131 149 0
149 168 0
126 143 0
138 157 0
136 155 0
122 140 0
136 159 0
137 158 0
85 103 0
125 145 0
130 146 0
126 149 0
126 145 0
104 124 0
113 132 0
133 154 0
141 162 0
132 155 0
133 154 0
130 147 0
114 134 0
117 134 0
119 134 0
135 155 0
119 138 0
125 147 0
147 167 0
85 104 0
135 157 0
113 133 0
133 150 0
85 100 0
111 132 0
125 145 0
115 132 0
141 165 0
129 144 0
123 139 0
135 157 0
99 113 0
148 167 0
128 148 0
133 155 0
129 146 0
99 113 0
139 158 0
120 143 0
146 164 0
111 131 0
130 148 0
118 138 0
111 130 0
104 121 0
125 146 0
97 119 0
118 137 0
47 70 0
116 135 0
152 171 0
114 135 0
121 142 0
143 162 0
117 138 0
139 159 0
112 134 0
104 124 0
121 141 0
120 138 0
148 170 0
116 135 0
66 84 0
115 125 0
85 102 0
123 140 0
119 139 0
100 122 0
136 156 0
123 140 0
87 105 0
107 120 0
119 131 0
122 142 0
114 124 0
111 125 0
137 157 0
150 170 0
113 128 0
132 156 0
144 162 0
110 128 0
119 129 0
166 184 0
129 140 0
82 99 0
118 133 0
123 138 0
75 92 0
126 142 0
122 139 0
142 163 0
147 162 0
125 148 0
137 153 0
106 120 0
109 130 0
127 136 0
130 147 0
113 127 0
152 169 0
132 150 0
144 160 0
127 141 0
130 151 0
131 147 0
115 129 0
136 146 0
86 102 0
121 139 0
127 144 0
91 101 0
140 155 0
142 160 0
146 164 0
134 145 0
143 155 0
125 140 0
151 167 0
141 161 0
140 155 0
142 154 0
162 175 0
120 135 0
137 150 0
135 149 0
152 167 0
121 134 0
130 138 0
127 141 0
103 114 0
129 135 0
134 144 0
114 116 0
129 142 0
123 135 0
138 152 0
109 121 0
130 135 0
133 136 0
113 123 0
120 134 0
141 152 0
124 128 0
147 162 0
154 166 0
136 145 0
130 133 0
140 143 0
152 161 0
113 121 0
164 179 0
117 116 0
148 151 0
133 139 0
93 89 0
105 100 0
103 102 0
115 110 0
140 146 0
133 136 0
105 92 0
109 108 0
107 93 0
127 129 0
131 137 0
96 84 0
118 114 0
145 146 0
118 114 0
120 126 0
130 126 0
113 110 0
121 105 0
116 106 0
78 62 0
137 138 0
132 134 0
114 110 0
119 109 0
112 108 0
109 93 0
123 113 0
128 129 0
145 145 0
148 138 0
146 148 0
120 110 0
151 159 0
110 88 0
141 135 0
129 126 0
130 132 0
132 121 0
129 127 0
150 151 0
138 138 0
117 107 0
106 89 0
120 115 0
127 113 0
142 143 0
155 162 0
151 161 0
149 155 0
130 133 0
130 130 0
143 144 0
152 159 0
169 184 0
159 161 0
147 147 0
164 171 0
169 182 0
149 154 0
129 131 0
130 126 0
146 153 0
149 158 0
149 149 0
160 169 0
159 167 0
153 160 0
154 164 0
140 139 0
151 162 0
154 163 0
140 145 0
161 170 0
163 177 0
145 154 0
139 145 0
155 163 0
164 178 0
164 180 0
162 178 0
146 157 0
161 180 0
163 174 0
168 180 0
167 183 0
166 179 0
165 186 0
164 183 0
171 190 0
164 184 0
161 180 0
164 186 0
156 179 0
160 182 0
163 184 0
169 189 0
159 180 0
163 183 0
159 174 0
162 180 0
168 188 0
162 182 0
149 169 0
161 181 0
164 182 0
161 181 0
156 176 0
166 185 0
170 189 0
161 182 0
153 172 0
165 185 0
168 186 0
114 128 0
158 177 0
152 167 0
153 170 0
154 171 0
161 180 0
154 173 0
139 154 0
145 163 0
154 169 0
150 166 0
158 175 0
134 150 0
129 144 0
140 154 0
148 168 0
142 154 0
158 175 0
138 153 0
157 177 0
131 143 0
143 156 0
109 122 0
145 161 0
154 170 0
114 124 0
132 147 0
143 160 0
136 149 0
101 111 0
107 119 0
136 148 0
148 163 0
121 134 0
118 131 0
123 132 0
116 128 0
150 165 0
116 129 0
128 143 0
133 149 0
134 146 0
126 139 0
130 144 0
136 150 0
146 163 0
142 156 0
145 161 0
116 128 0
108 121 0
129 145 0
137 152 0
108 117 0
124 137 0
133 148 0
122 137 0
130 144 0
126 142 0
136 150 0
132 148 0
87 99 0
107 119 0
120 133 0
124 139 0
119 137 0
134 152 0
164 181 0
120 136 0
118 134 0
104 118 0
117 133 0
129 147 0
112 128 0
133 149 0
125 141 0
149 167 0
152 168 0
124 141 0
137 152 0
139 157 0
81 93 0
153 171 0
140 159 0
162 177 0
148 165 0
134 151 0
132 149 0
124 140 0
119 139 0
130 147 0
127 145 0
101 115 0
157 174 0
140 161 0
131 148 0
125 145 0
139 158 0
124 142 0
148 169 0
146 168 0
157 178 0
148 167 0
150 168 0
143 160 0
142 158 0
144 163 0
128 152 0
130 153 0
140 160 0
147 165 0
138 161 0
153 171 0
131 146 0
144 162 0
130 148 0
120 140 0
150 174 0
141 158 0
121 145 0
108 129 0
130 149 0
127 144 0
99 118 0
110 125 0
125 144 0
138 159 0
133 151 0
98 114 0
102 125 0
143 161 0
167 186 0
73 95 0
154 175 0
127 147 0
100 119 0
132 154 0
123 142 0
106 131 0
64 82 0
152 174 0
92 108 0
117 138 0
135 155 0
153 175 0
150 172 0
113 131 0
127 148 0
125 145 0
111 129 0
127 146 0
92 107 0
132 153 0
115 133 0
139 159 0
113 131 0
111 130 0
125 145 0
132 153 0
146 167 0
132 153 0
135 153 0
111 131 0
87 105 0
129 144 0
138 160 0
145 167 0
121 143 0
148 169 0
82 94 0
115 136 0
105 130 0
99 119 0
137 152 0
138 156 0
95 115 0
120 138 0
116 135 0
123 143 0
83 103 0
122 135 0
111 129 0
142 162 0
156 176 0
68 88 0
103 126 0
92 107 0
83 103 0
105 122 0
112 133 0
134 156 0
127 145 0
132 146 0
154 177 0
118 137 0
134 157 0
69 88 0
115 130 0
115 135 0
92 112 0
131 144 0
121 134 0
134 145 0
89 108 0
105 120 0
160 181 0
122 140 0
104 112 0
125 141 0
140 155 0
91 98 0
115 136 0
128 147 0
147 165 0
100 122 0
133 146 0
104 124 0
143 158 0
142 158 0
127 139 0
152 171 0
136 153 0
122 135 0
137 158 0
150 164 0
143 161 0
112 119 0
126 148 0
109 130 0
147 166 0
158 180 0
149 159 0
126 140 0
113 129 0
138 150 0
141 158 0
134 151 0
148 170 0
148 168 0
146 161 0
123 128 0
141 162 0
124 143 0
152 173 0
150 167 0
138 156 0
129 144 0
115 129 0
136 151 0
103 117 0
135 147 0
125 142 0
153 165 0
136 143 0
144 151 0
124 140 0
135 140 0
120 135 0
142 159 0
109 123 0
135 145 0
143 157 0
118 122 0
121 127 0
117 125 0
138 156 0
119 131 0
153 170 0
138 142 0
150 165 0
129 134 0
104 113 0
126 131 0
148 162 0
142 153 0
130 135 0
165 181 0
108 101 0
138 148 0
126 131 0
126 136 0
125 131 0
149 158 0
96 92 0
128 127 0
152 165 0
135 142 0
105 108 0
138 137 0
129 127 0
142 141 0
117 118 0
135 141 0
127 129 0
123 130 0
136 140 0
135 133 0
127 124 0
110 104 0
109 102 0
124 128 0
130 123 0
121 114 0
131 122 0
160 167 0
118 116 0
128 126 0
100 97 0
120 113 0
132 124 0
110 100 0
99 83 0
96 82 0
97 83 0
102 105 0
114 105 0
113 108 0
116 110 0
117 109 0
135 134 0
124 116 0
93 80 0
125 122 0
130 119 0
130 122 0
134 130 0
110 100 0
105 96 0
135 139 0
139 138 0
128 121 0
134 126 0
137 142 0
128 121 0
146 148 0
147 153 0
134 135 0
138 140 0
146 141 0
155 155 0
159 163 0
156 165 0
145 150 0
152 154 0
153 156 0
149 159 0
158 169 0
149 154 0
158 165 0
155 163 0
135 135 0
144 146 0
163 173 0
158 164 0
155 164 0
151 154 0
171 181 0
149 152 0
161 170 0
174 198 0
154 160 0
150 153 0
152 161 0
151 161 0
151 158 0
157 165 0
160 168 0
174 187 0
157 170 0
156 169 0
167 181 0
170 188 0
149 151 0
154 160 0
157 170 0
163 179 0
158 168 0
153 173 0
168 190 0
166 188 0
155 173 0
152 171 0
166 186 0
172 193 0
163 185 0
162 182 0
167 186 0
172 190 0
161 182 0
158 180 0
174 193 0
173 193 0
164 184 0
161 183 0
156 176 0
150 170 0
156 174 0
164 182 0
166 185 0
164 180 0
147 168 0
157 177 0
161 181 0
147 162 0
147 165 0
146 164 0
152 170 0
166 184 0
146 164 0
144 161 0
165 180 0
128 143 0
163 179 0
157 174 0
138 155 0
136 153 0
136 151 0
135 150 0
161 181 0
119 134 0
142 159 0
171 189 0
145 161 0
131 147 0
130 140 0
145 158 0
109 123 0
114 128 0
154 169 0
91 102 0
120 133 0
147 165 0
115 126 0
132 145 0
116 128 0
120 134 0
136 152 0
133 146 0
118 132 0
143 157 0
129 140 0
129 141 0
128 143 0
117 129 0
146 161 0
114 126 0
109 122 0
106 118 0
141 156 0
106 118 0
117 133 0
130 143 0
148 163 0
135 150 0
122 136 0
139 153 0
125 138 0
118 133 0
120 132 0
138 153 0
118 135 0
140 155 0
139 154 0
128 141 0
126 142 0
151 166 0
136 152 0
122 137 0
114 128 0
127 142 0
136 154 0
134 152 0
123 139 0
161 181 0
118 136 0
141 160 0
123 142 0
139 158 0
163 183 0
128 145 0
117 131 0
160 180 0
140 156 0
123 143 0
152 169 0
127 145 0
118 136 0
147 163 0
152 169 0
133 154 0
115 136 0
146 166 0
139 161 0
115 131 0
122 142 0
164 183 0
102 119 0
145 162 0
127 146 0
141 162 0
133 154 0
155 178 0
116 131 0
147 166 0
130 150 0
120 136 0
122 140 0
140 157 0
151 174 0
130 148 0
117 136 0
138 159 0
140 155 0
127 145 0
150 172 0
146 167 0
144 165 0
106 125 0
129 150 0
117 136 0
153 171 0
125 146 0
102 124 0
101 118 0
139 155 0
117 134 0
132 154 0
142 160 0
117 137 0
138 158 0
145 165 0
120 144 0
127 145 0
107 124 0
132 154 0
135 157 0
149 171 0
105 128 0
98 117 0
131 145 0
146 168 0
128 148 0
108 125 0
158 178 0
112 132 0
156 174 0
141 164 0
71 92 0
165 185 0
122 142 0
144 162 0
133 148 0
114 136 0
156 176 0
161 180 0
128 149 0
112 133 0
119 136 0
86 106 0
143 165 0
156 176 0
101 118 0
136 154 0
136 153 0
120 141 0
131 151 0
119 138 0
108 128 0
145 162 0
123 134 0
103 123 0
124 147 0
142 162 0
131 151 0
101 113 0
97 115 0
124 138 0
105 126 0
149 169 0
136 155 0
119 133 0
102 122 0
116 133 0
128 147 0
127 146 0
136 156 0
155 177 0
114 136 0
152 173 0
132 147 0
147 169 0
109 121 0
99 120 0
140 160 0
120 139 0
127 149 0
112 130 0
111 123 0
150 167 0
113 134 0
85 100 0
120 140 0
118 136 0
136 150 0
110 126 0
114 133 0
136 156 0
134 156 0
135 150 0
128 146 0
128 148 0
144 161 0
85 105 0
136 157 0
138 160 0
112 132 0
152 168 0
115 136 0
113 130 0
114 134 0
130 150 0
139 154 0
121 134 0
137 153 0
119 137 0
148 170 0
155 176 0
127 144 0
147 165 0
122 141 0
131 140 0
125 144 0
135 155 0
162 178 0
164 182 0
132 148 0
146 164 0
156 171 0
124 133 0
147 165 0
135 155 0
145 165 0
126 144 0
144 154 0
145 154 0
133 146 0
107 122 0
135 152 0
128 139 0
134 149 0
134 149 0
88 91 0
135 139 0
144 159 0
151 162 0
138 146 0
151 162 0
146 159 0
126 134 0
119 128 0
129 143 0
96 103 0
135 146 0
146 151 0
124 143 0
147 155 0
113 118 0
135 141 0
119 129 0
109 114 0
109 109 0
146 152 0
149 152 0
106 113 0
125 139 0
108 111 0
134 136 0
156 161 0
97 96 0
127 121 0
135 134 0
120 124 0
129 135 0
122 124 0
147 150 0
146 153 0
131 133 0
118 123 0
140 156 0
111 111 0
131 136 0
124 130 0
147 159 0
112 103 0
127 120 0
117 115 0
146 148 0
116 101 0
155 171 0
118 113 0
138 148 0
144 141 0
127 120 0
139 140 0
141 140 0
121 112 0
94 86 0
128 127 0
136 133 0
92 78 0
132 135 0
119 105 0
98 81 0
120 111 0
125 116 0
138 145 0
136 134 0
149 150 0
141 142 0
120 124 0
136 137 0
115 107 0
130 127 0
129 130 0
130 124 0
148 150 0
165 169 0
106 105 0
127 120 0
138 140 0
148 150 0
138 136 0
161 164 0
154 157 0
107 91 0
127 125 0
135 138 0
167 175 0
146 152 0
145 148 0
164 171 0
148 146 0
157 165 0
140 146 0
152 155 0
149 162 0
162 174 0
140 137 0
148 142 0
167 169 0
159 163 0
143 139 0
170 184 0
158 161 0
157 167 0
168 183 0
166 173 0
158 165 0
161 168 0
157 166 0
173 192 0
158 167 0
158 158 0
157 158 0
162 174 0
158 172 0
165 175 0
168 184 0
158 168 0
164 176 0
152 159 0
173 188 0
167 177 0
167 187 0
158 167 0
172 189 0
160 170 0
159 178 0
159 178 0
165 188 0
166 187 0
155 175 0
163 183 0
162 185 0
164 185 0
162 183 0
156 175 0
139 155 0
159 177 0
148 165 0
155 175 0
142 159 0
163 185 0
158 178 0
154 172 0
155 170 0
156 175 0
145 163 0
160 180 0
153 169 0
143 159 0
156 175 0
144 160 0
153 171 0
143 159 0
142 159 0
155 170 0
148 164 0
140 158 0
124 137 0
126 140 0
133 148 0
150 166 0
128 143 0
130 143 0
138 151 0
151 170 0
151 166 0
139 155 0
144 160 0
128 142 0
157 173 0
140 156 0
115 129 0
121 133 0
141 156 0
133 146 0
107 121 0
135 149 0
121 133 0
138 155 0
111 123 0
99 112 0
128 139 0
111 123 0
125 138 0
143 160 0
133 147 0
125 140 0
157 171 0
127 142 0
94 107 0
137 151 0
142 158 0
137 151 0
132 146 0
98 111 0
113 127 0
118 133 0
151 167 0
142 156 0
152 167 0
118 132 0
115 128 0
131 147 0
141 156 0
119 132 0
145 163 0
158 173 0
100 114 0
117 129 0
140 158 0
125 139 0
134 153 0
125 144 0
121 138 0
106 120 0
142 158 0
150 167 0
111 125 0
130 144 0
133 152 0
116 135 0
147 163 0
143 157 0
156 174 0
148 166 0
120 137 0
129 145 0
164 184 0
150 168 0
138 154 0
111 134 0
114 130 0
108 124 0
152 170 0
150 169 0
105 123 0
123 142 0
159 181 0
152 169 0
128 147 0
156 177 0
159 177 0
152 174 0
141 162 0
140 159 0
124 140 0
128 147 0
139 157 0
108 130 0
137 153 0
119 136 0
96 115 0
132 149 0
127 149 0
149 170 0
131 146 0
131 148 0
154 172 0
112 129 0
134 153 0
123 142 0
137 154 0
133 153 0
163 186 0
156 177 0
133 154 0
132 151 0
148 169 0
147 165 0
105 120 0
141 162 0
102 115 0
131 149 0
133 154 0
150 172 0
155 177 0
134 154 0
135 157 0
113 135 0
121 142 0
159 179 0
144 164 0
129 152 0
125 145 0
128 148 0
115 134 0
134 152 0
111 130 0
130 149 0
122 139 0
112 133 0
112 135 0
114 133 0
137 159 0
129 151 0
114 131 0
125 145 0
146 169 0
90 108 0
133 154 0
148 170 0
146 165 0
119 137 0
95 115 0
116 137 0
113 129 0
126 145 0
121 140 0
161 181 0
155 172 0
168 191 0
150 167 0
144 169 0
134 150 0
111 130 0
140 159 0
115 133 0
121 142 0
123 141 0
121 143 0
90 109 0
140 159 0
125 142 0
136 153 0
137 157 0
124 144 0
146 167 0
130 147 0
119 134 0
129 149 0
118 134 0
141 160 0
115 138 0
156 175 0
144 164 0
118 136 0
95 115 0
79 95 0
140 160 0
107 127 0
127 148 0
122 138 0
102 122 0
141 164 0
146 167 0
135 154 0
109 127 0
143 161 0
96 109 0
135 153 0
135 150 0
142 162 0
134 157 0
141 153 0
98 112 0
143 158 0
108 128 0
103 121 0
135 157 0
136 154 0
125 138 0
113 131 0
126 141 0
99 116 0
142 162 0
132 149 0
168 195 0
122 139 0
117 131 0
144 162 0
122 137 0
126 138 0
114 127 0
117 134 0
144 164 0
113 130 0
137 154 0
123 146 0
123 143 0
169 187 0
139 158 0
130 142 0
150 170 0
130 139 0
152 173 0
170 190 0
141 158 0
153 173 0
110 119 0
134 148 0
126 138 0
121 132 0
158 171 0
100 104 0
139 157 0
124 140 0
124 136 0
126 131 0
134 148 0
117 137 0
133 145 0
132 146 0
167 185 0
133 149 0
107 117 0
131 148 0
109 124 0
140 139 0
154 166 0
149 163 0
136 143 0
133 149 0
149 164 0
122 130 0
146 152 0
149 160 0
144 157 0
128 139 0
148 167 0
164 176 0
134 141 0
141 156 0
145 156 0
149 160 0
98 101 0
149 162 0
127 135 0
152 153 0
139 143 0
130 134 0
144 152 0
140 145 0
133 136 0
117 111 0
111 115 0
143 150 0
143 147 0
130 143 0
116 120 0
152 162 0
125 126 0
128 134 0
120 127 0
145 150 0
160 169 0
123 121 0
91 90 0
132 128 0
124 120 0
123 118 0
142 143 0
126 123 0
135 136 0
128 128 0
128 133 0
106 105 0
120 105 0
146 156 0
113 108 0
120 122 0
131 131 0
145 142 0
115 106 0
133 142 0
142 146 0
131 128 0
135 141 0
140 136 0
159 166 0
138 136 0
116 107 0
126 116 0
131 127 0
109 92 0
137 142 0
137 137 0
151 155 0
132 127 0
136 135 0
152 152 0
113 109 0
123 119 0
137 139 0
141 140 0
147 148 0
148 148 0
146 149 0
154 153 0
135 136 0
159 169 0
117 110 0
136 127 0
156 158 0
135 134 0
136 134 0
146 144 0
153 150 0
167 179 0
146 145 0
148 152 0
143 148 0
162 169 0
141 140 0
164 172 0
143 146 0
151 157 0
156 163 0
148 153 0
157 161 0
163 171 0
162 176 0
162 166 0
159 172 0
147 154 0
164 176 0
149 151 0
147 151 0
154 161 0
171 183 0
167 179 0
169 184 0
149 158 0
167 177 0
166 179 0
168 182 0
158 178 0
162 181 0
154 174 0
156 178 0
171 190 0
168 191 0
169 188 0
171 192 0
165 184 0
161 182 0
146 163 0
155 173 0
163 183 0
163 181 0
150 171 0
147 169 0
153 172 0
152 170 0
166 186 0
147 165 0
138 156 0
156 177 0
155 174 0
158 176 0
160 175 0
157 174 0
160 179 0
162 181 0
150 168 0
134 149 0
144 161 0
160 178 0
146 163 0
147 162 0
156 173 0
150 168 0
164 181 0
140 156 0
122 136 0
135 149 0
146 163 0
148 165 0
147 164 0
118 131 0
144 160 0
124 140 0
124 137 0
141 158 0
129 144 0
138 151 0
139 155 0
119 132 0
154 172 0
110 125 0
143 157 0
122 136 0
143 159 0
135 149 0
137 150 0
119 131 0
143 159 0
137 152 0
158 173 0
129 143 0
130 146 0
117 128 0
145 162 0
106 119 0
147 161 0
111 123 0
118 130 0
142 159 0
148 166 0
132 148 0
147 165 0
135 147 0
136 155 0
112 127 0
160 175 0
121 138 0
137 155 0
138 155 0
126 141 0
140 159 0
115 131 0
138 157 0
158 175 0
159 176 0
115 130 0
128 145 0
145 164 0
147 167 0
134 149 0
129 146 0
127 144 0
138 154 0
145 162 0
120 137 0
111 126 0
135 151 0
164 184 0
136 153 0
143 165 0
146 167 0
136 151 0
143 162 0
157 179 0
122 134 0
150 170 0
151 171 0
136 158 0
149 171 0
129 146 0
132 150 0
160 182 0
153 171 0
128 147 0
159 176 0
139 157 0
150 167 0
127 141 0
162 185 0
140 160 0
139 157 0
141 159 0
110 130 0
134 154 0
107 126 0
140 160 0
128 148 0
132 147 0
119 139 0
126 148 0
116 132 0
127 144 0
101 118 0
152 171 0
164 185 0
121 140 0
119 135 0
153 172 0
99 115 0
132 151 0
137 155 0
115 136 0
139 159 0
140 160 0
142 165 0
135 153 0
119 138 0
129 150 0
77 93 0
106 122 0
136 154 0
128 148 0
147 168 0
126 145 0
127 145 0
102 122 0
141 164 0
118 140 0
129 151 0
149 169 0
140 160 0
136 154 0
153 177 0
158 180 0
127 146 0
125 144 0
128 146 0
106 125 0
101 119 0
109 128 0
136 155 0
143 165 0
115 136 0
105 126 0
110 124 0
101 116 0
136 158 0
115 136 0
134 152 0
117 132 0
103 125 0
101 122 0
113 131 0
135 156 0
153 174 0
128 145 0
113 127 0
136 152 0
140 158 0
119 137 0
134 152 0
135 157 0
97 104 0
103 123 0
145 169 0
103 121 0
91 106 0
139 161 0
133 155 0
133 155 0
145 162 0
109 124 0
129 146 0
113 132 0
155 179 0
121 141 0
132 154 0
123 138 0
118 136 0
132 149 0
119 138 0
137 156 0
108 122 0
110 130 0
105 118 0
127 143 0
145 162 0
110 132 0
126 148 0
122 138 0
133 151 0
139 155 0
112 132 0
170 194 0
117 132 0
142 157 0
147 170 0
115 132 0
144 166 0
108 119 0
111 131 0
119 137 0
128 148 0
129 146 0
157 179 0
125 136 0
136 152 0
146 166 0
111 131 0
116 135 0
150 163 0
113 130 0
133 152 0
142 163 0
153 171 0
129 149 0
152 166 0
130 148 0
116 137 0
137 153 0
100 114 0
127 144 0
147 166 0
135 146 0
158 179 0
146 161 0
152 161 0
141 156 0
155 172 0
123 146 0
133 139 0
139 141 0
142 157 0
152 174 0
127 138 0
128 141 0
157 171 0
144 164 0
133 151 0
128 144 0
145 163 0
157 172 0
91 95 0
136 151 0
125 139 0
134 152 0
116 128 0
142 144 0
138 155 0
129 138 0
90 101 0
125 134 0
157 167 0
139 150 0
136 132 0
113 121 0
136 149 0
150 163 0
158 171 0
113 125 0
138 146 0
132 149 0
109 112 0
131 137 0
120 129 0
138 132 0
138 151 0
128 135 0
144 151 0
139 150 0
144 154 0
145 159 0
116 118 0
146 149 0
157 164 0
146 139 0
135 137 0
130 137 0
152 157 0
141 149 0
113 110 0
120 124 0
148 161 0
128 133 0
137 146 0
148 155 0
129 135 0
143 145 0
135 136 0
132 134 0
145 142 0
145 147 0
107 104 0
119 122 0
144 152 0
146 149 0
157 171 0
106 97 0
127 122 0
118 115 0
149 157 0
119 112 0
140 139 0
148 154 0
139 145 0
120 120 0
121 115 0
122 119 0
115 114 0
102 88 0
110 93 0
132 128 0
140 135 0
131 127 0
145 151 0
168 178 0
129 123 0
132 128 0
174 184 0
143 148 0
148 145 0
140 139 0
143 150 0
143 139 0
140 139 0
154 149 0
141 149 0
117 113 0
152 154 0
156 161 0
147 139 0
148 152 0
153 161 0
159 167 0
153 157 0
148 155 0
135 131 0
151 157 0
142 138 0
139 141 0
155 160 0
151 158 0
166 175 0
168 182 0
167 179 0
158 169 0
145 153 0
168 182 0
144 144 0
144 149 0
165 178 0
150 154 0
159 172 0
167 173 0
158 165 0
150 154 0
160 170 0
154 163 0
163 181 0
165 178 0
162 169 0
162 168 0
155 154 0
164 173 0
171 187 0
160 170 0
159 168 0
157 178 0
150 170 0
172 191 0
167 186 0
176 195 0
161 180 0
166 184 0
172 190 0
167 186 0
153 170 0
157 176 0
166 185 0
164 182 0
167 186 0
167 185 0
155 174 0
151 171 0
136 152 0
142 161 0
124 140 0
153 172 0
163 181 0
146 163 0
142 158 0
155 172 0
119 133 0
133 149 0
158 175 0
130 145 0
132 147 0
140 158 0
146 164 0
140 155 0
158 174 0
138 153 0
138 153 0
134 148 0
156 174 0
121 135 0
119 133 0
138 154 0
148 166 0
135 149 0
128 141 0
148 162 0
158 174 0
122 134 0
115 129 0
133 148 0
132 146 0
139 155 0
122 136 0
132 147 0
137 152 0
92 103 0
147 164 0
139 150 0
137 153 0
144 159 0
111 127 0
118 131 0
143 156 0
133 149 0
116 130 0
150 165 0
137 152 0
128 143 0
118 133 0
109 124 0
131 146 0
136 150 0
141 158 0
125 137 0
138 154 0
155 171 0
138 155 0
132 146 0
138 156 0
140 155 0
149 167 0
125 142 0
127 143 0
120 135 0
124 140 0
140 160 0
147 164 0
143 159 0
158 176 0
124 140 0
160 179 0
139 158 0
130 148 0
137 155 0
138 155 0
131 148 0
139 156 0
149 169 0
148 166 0
147 166 0
156 175 0
137 158 0
134 154 0
146 162 0
126 145 0
155 175 0
125 140 0
119 141 0
135 154 0
124 143 0
137 152 0
120 140 0
164 185 0
141 160 0
127 146 0
141 159 0
147 168 0
137 156 0
152 170 0
111 128 0
156 174 0
153 173 0
144 163 0
150 174 0
156 176 0
138 155 0
99 115 0
168 188 0
123 143 0
142 165 0
127 148 0
141 160 0
137 157 0
118 138 0
127 145 0
142 162 0
123 143 0
149 168 0
139 159 0
105 120 0
137 159 0
157 177 0
157 178 0
143 163 0
121 139 0
126 146 0
144 161 0
135 155 0
130 145 0
159 180 0
122 139 0
115 134 0
145 166 0
136 157 0
105 123 0
97 111 0
158 178 0
163 186 0
156 176 0
133 152 0
144 162 0
115 129 0
124 145 0
156 177 0
118 136 0
122 145 0
117 137 0
116 139 0
126 143 0
148 167 0
125 145 0
140 159 0
141 159 0
154 177 0
114 136 0
141 160 0
140 161 0
146 160 0
109 131 0
135 154 0
114 135 0
150 169 0
166 188 0
127 150 0
140 156 0
115 138 0
128 151 0
138 160 0
134 160 0
129 151 0
127 140 0
149 168 0
115 132 0
136 153 0
152 169 0
121 140 0
106 126 0
140 151 0
111 130 0
133 152 0
127 147 0
137 158 0
119 140 0
107 127 0
123 143 0
107 125 0
114 135 0
143 161 0
134 157 0
137 158 0
115 136 0
115 137 0
133 153 0
149 168 0
111 132 0
134 152 0
144 158 0
137 154 0
158 179 0
116 138 0
115 131 0
100 118 0
141 160 0
156 180 0
113 131 0
126 137 0
151 170 0
155 169 0
128 143 0
152 168 0
158 176 0
126 150 0
135 149 0
154 166 0
109 125 0
150 173 0
160 180 0
143 164 0
127 146 0
158 179 0
118 133 0
144 166 0
138 152 0
114 135 0
137 146 0
137 159 0
120 132 0
140 155 0
136 158 0
113 133 0
130 151 0
137 149 0
158 176 0
140 161 0
135 151 0
145 160 0
142 159 0
144 163 0
137 159 0
140 148 0
151 171 0
139 155 0
133 146 0
102 115 0
155 172 0
142 160 0
139 154 0
130 146 0
156 173 0
120 141 0
122 138 0
112 127 0
153 164 0
144 154 0
156 175 0
136 148 0
120 131 0
126 138 0
161 171 0
117 129 0
144 157 0
130 145 0
135 145 0
142 159 0
156 175 0
143 154 0
141 154 0
117 128 0
158 170 0
152 156 0
104 119 0
131 148 0
127 133 0
85 89 0
135 144 0
129 139 0
123 136 0
135 145 0
125 141 0
140 155 0
123 136 0
157 168 0
134 144 0
138 139 0
146 154 0
116 123 0
138 137 0
130 141 0
136 134 0
160 168 0
141 152 0
100 98 0
147 156 0
133 136 0
139 146 0
129 128 0
137 144 0
102 105 0
147 152 0
139 139 0
130 136 0
139 139 0
138 147 0
115 116 0
117 125 0
134 133 0
145 147 0
122 113 0
121 125 0
130 131 0
119 112 0
121 124 0
143 141 0
151 152 0
102 84 0
119 114 0
143 155 0
106 106 0
102 97 0
124 113 0
135 128 0
119 117 0
153 157 0
156 161 0
142 141 0
147 144 0
129 114 0
143 136 0
155 161 0
142 141 0
154 152 0
113 110 0
145 154 0
149 152 0
149 150 0
160 167 0
144 139 0
140 135 0
134 138 0
137 138 0
151 151 0
150 154 0
139 139 0
164 173 0
151 157 0
150 151 0
158 167 0
166 179 0
155 164 0
139 139 0
147 145 0
145 144 0
161 170 0
124 128 0
131 129 0
157 160 0
152 158 0
146 155 0
158 163 0
166 173 0
145 146 0
151 157 0
145 149 0
143 150 0
162 170 0
141 140 0
162 173 0
169 184 0
149 157 0
154 162 0
135 130 0
159 170 0
160 167 0
155 159 0
162 175 0
166 181 0
159 173 0
163 175 0
159 172 0
164 182 0
166 183 0
163 181 0
156 175 0
159 179 0
145 164 0
168 187 0
163 180 0
154 173 0
164 182 0
176 197 0
167 189 0
154 174 0
161 182 0
145 163 0
173 192 0
163 185 0
152 172 0
161 178 0
156 176 0
159 176 0
162 181 0
173 192 0
155 173 0
146 162 0
146 162 0
149 167 0
126 142 0
158 175 0
135 151 0
141 157 0
160 177 0
142 159 0
138 151 0
159 176 0
149 163 0
139 155 0
133 150 0
141 156 0
157 174 0
133 147 0
135 153 0
154 172 0
161 179 0
144 160 0
140 155 0
147 164 0
139 153 0
117 128 0
129 144 0
143 158 0
116 132 0
151 167 0
147 163 0
143 157 0
101 114 0
149 165 0
146 162 0
154 171 0
143 159 0
140 156 0
144 159 0
133 150 0
134 149 0
116 132 0
135 153 0
124 137 0
120 137 0
152 167 0
114 129 0
164 182 0
127 143 0
143 162 0
146 162 0
144 158 0
145 163 0
115 129 0
140 155 0
134 150 0
144 156 0
129 145 0
157 175 0
135 152 0
128 143 0
159 178 0
141 158 0
139 155 0
147 164 0
132 148 0
155 172 0
148 162 0
135 155 0
129 147 0
170 189 0
142 156 0
148 167 0
136 155 0
140 161 0
98 112 0
126 143 0
142 158 0
104 120 0
144 164 0
151 169 0
130 148 0
125 147 0
139 156 0
158 180 0
131 147 0
116 133 0
143 162 0
136 156 0
143 164 0
132 153 0
155 177 0
147 170 0
137 154 0
136 154 0
162 185 0
119 140 0
134 152 0
160 181 0
167 189 0
146 167 0
132 149 0
144 163 0
114 137 0
143 160 0
146 166 0
142 160 0
148 167 0
123 137 0
176 198 0
158 175 0
132 151 0
136 157 0
133 156 0
120 138 0
128 149 0
140 160 0
122 141 0
155 174 0
104 123 0
112 131 0
107 127 0
142 162 0
124 143 0
124 144 0
147 167 0
139 160 0
161 178 0
150 172 0
139 160 0
120 141 0
129 151 0
145 161 0
148 171 0
137 158 0
134 154 0
136 158 0
131 153 0
132 152 0
100 117 0
150 173 0
144 164 0
124 148 0
141 160 0
159 177 0
139 160 0
143 165 0
115 136 0
119 139 0
91 106 0
158 179 0
146 165 0
150 172 0
128 149 0
144 165 0
143 161 0
112 134 0
140 161 0
95 118 0
126 143 0
133 149 0
137 155 0
140 161 0
127 151 0
134 154 0
128 151 0
138 157 0
142 161 0
96 117 0
124 144 0
143 161 0
136 157 0
166 189 0
140 156 0
115 135 0
135 156 0
143 165 0
126 148 0
136 159 0
120 137 0
128 143 0
121 138 0
50 79 0
127 147 0
149 171 0
126 150 0
148 169 0
128 145 0
163 184 0
124 142 0
127 149 0
122 139 0
115 137 0
155 177 0
137 154 0
93 108 0
139 160 0
117 137 0
92 107 0
105 123 0
109 124 0
128 149 0
112 127 0
143 160 0
110 129 0
137 156 0
116 133 0
137 154 0
133 159 0
112 136 0
63 84 0
103 118 0
122 140 0
112 131 0
120 142 0
113 130 0
117 129 0
149 171 0
125 144 0
123 145 0
130 149 0
147 167 0
115 133 0
140 152 0
132 147 0
136 157 0
154 179 0
138 153 0
143 163 0
101 125 0
123 138 0
149 167 0
119 136 0
100 117 0
142 162 0
112 129 0
125 142 0
135 154 0
135 148 0
128 144 0
148 161 0
128 135 0
147 166 0
147 166 0
133 151 0
160 175 0
122 130 0
126 140 0
134 155 0
144 160 0
152 167 0
144 162 0
160 176 0
148 167 0
164 180 0
144 162 0
125 136 0
150 162 0
137 149 0
154 168 0
164 177 0
151 167 0
117 123 0
127 138 0
145 158 0
141 154 0
133 139 0
138 155 0
138 153 0
123 133 0
142 156 0
114 130 0
155 165 0
134 150 0
127 140 0
124 137 0
122 128 0
154 172 0
148 154 0
135 151 0
148 155 0
136 144 0
155 165 0
143 146 0
141 146 0
138 141 0
141 156 0
134 141 0
129 134 0
112 124 0
138 144 0
141 148 0
161 168 0
150 150 0
138 140 0
144 149 0
117 122 0
153 161 0
143 141 0
127 130 0
142 142 0
122 118 0
153 164 0
138 135 0
151 151 0
126 119 0
143 143 0
126 125 0
139 151 0
119 118 0
152 156 0
105 90 0
114 111 0
156 165 0
116 107 0
104 103 0
144 142 0
158 161 0
150 153 0
138 135 0
105 99 0
133 137 0
156 163 0
126 119 0
144 149 0
148 145 0
147 149 0
139 141 0
147 154 0
142 143 0
142 141 0
129 133 0
138 141 0
140 145 0
127 133 0
132 135 0
163 167 0
165 173 0
133 136 0
142 135 0
120 109 0
142 138 0
152 156 0
138 129 0
132 134 0
135 129 0
149 151 0
147 154 0
149 159 0
130 117 0
160 167 0
128 123 0
153 170 0
137 139 0
148 153 0
165 181 0
162 163 0
165 176 0
168 181 0
145 145 0
146 151 0
147 153 0
162 174 0
162 171 0
155 157 0
149 153 0
152 159 0
151 153 0
160 170 0
143 143 0
149 148 0
170 186 0
160 169 0
153 163 0
149 153 0
153 164 0
158 167 0
162 173 0
162 181 0
158 179 0
167 188 0
154 175 0
163 184 0
165 185 0
154 173 0
158 178 0
158 178 0
131 147 0
163 182 0
167 186 0
144 161 0
166 187 0
154 172 0
157 176 0
149 165 0
145 160 0
146 165 0
165 183 0
153 169 0
153 169 0
157 176 0
130 148 0
162 180 0
154 171 0
152 170 0
156 173 0
119 134 0
147 164 0
163 181 0
155 173 0
153 171 0
142 157 0
154 172 0
155 173 0
143 157 0
129 144 0
149 166 0
155 172 0
151 165 0
134 149 0
146 165 0
151 169 0
128 141 0
159 175 0
125 142 0
127 140 0
150 168 0
154 170 0
151 167 0
151 167 0
130 145 0
130 148 0
145 160 0
151 170 0
138 155 0
138 153 0
130 146 0
144 160 0
133 147 0
131 147 0
145 160 0
112 123 0
152 167 0
139 156 0
141 156 0
145 159 0
139 157 0
130 143 0
138 154 0
137 156 0
146 163 0
147 166 0
132 148 0
128 145 0
142 158 0
136 151 0
122 137 0
139 157 0
159 177 0
126 146 0
133 148 0
137 153 0
111 127 0
133 148 0
134 153 0
124 143 0
144 164 0
126 143 0
143 162 0
138 156 0
145 166 0
138 156 0
142 160 0
118 130 0
93 110 0
127 143 0
143 159 0
164 187 0
119 136 0
128 142 0
145 166 0
142 158 0
136 154 0
149 168 0
148 166 0
129 146 0
156 176 0
144 166 0
137 155 0
148 171 0
134 149 0
136 158 0
138 160 0
134 154 0
141 161 0
139 157 0
159 177 0
104 125 0
145 165 0
142 161 0
92 111 0
140 159 0
123 137 0
166 184 0
145 164 0
128 149 0
116 130 0
144 167 0
129 152 0
138 160 0
131 152 0
144 165 0
139 162 0
139 160 0
113 135 0
126 145 0
131 154 0
163 186 0
135 156 0
146 168 0
154 174 0
137 157 0
144 164 0
154 172 0
106 126 0
155 173 0
166 188 0
154 175 0
172 195 0
149 171 0
117 139 0
117 132 0
149 171 0
106 123 0
165 187 0
154 174 0
127 145 0
114 130 0
131 150 0
125 146 0
148 169 0
127 142 0
145 164 0
144 165 0
137 157 0
120 137 0
148 167 0
127 147 0
127 142 0
126 146 0
144 162 0
123 147 0
156 174 0
141 162 0
117 137 0
166 183 0
112 130 0
115 134 0
113 130 0
136 155 0
115 134 0
129 149 0
109 128 0
156 180 0
114 134 0
124 143 0
130 149 0
147 167 0
123 138 0
118 135 0
103 125 0
109 130 0
134 154 0
139 161 0
91 110 0
126 143 0
157 179 0
148 171 0
91 106 0
112 133 0
119 140 0
164 185 0
143 162 0
160 179 0
108 131 0
137 156 0
128 139 0
144 169 0
113 135 0
149 169 0
131 149 0
124 139 0
114 137 0
148 165 0
121 143 0
100 119 0
141 161 0
108 127 0
129 151 0
125 147 0
116 139 0
85 105 0
142 153 0
119 134 0
133 152 0
124 148 0
126 144 0
125 143 0
135 153 0
136 159 0
157 180 0
143 164 0
156 176 0
132 150 0
125 145 0
132 150 0
142 164 0
139 154 0
118 133 0
132 149 0
125 143 0
134 157 0
148 170 0
109 122 0
158 180 0
150 168 0
153 178 0
143 166 0
147 170 0
144 164 0
155 174 0
143 157 0
145 163 0
117 134 0
117 133 0
149 161 0
155 176 0
124 130 0
127 133 0
128 137 0
140 160 0
133 154 0
158 180 0
128 138 0
121 138 0
138 153 0
127 146 0
166 177 0
151 166 0
153 169 0
126 143 0
153 177 0
138 150 0
154 172 0
151 167 0
147 166 0
105 118 0
132 149 0
122 140 0
124 134 0
144 159 0
157 169 0
147 168 0
138 154 0
148 160 0
121 138 0
134 141 0
128 137 0
141 158 0
122 134 0
141 155 0
150 163 0
136 157 0
121 133 0
131 146 0
135 147 0
133 143 0
134 149 0
160 176 0
130 141 0
135 152 0
153 168 0
114 114 0
140 151 0
128 133 0
144 152 0
140 145 0
129 139 0
148 151 0
155 165 0
142 149 0
139 144 0
152 165 0
135 138 0
138 145 0
137 142 0
118 121 0
167 176 0
145 149 0
110 112 0
127 118 0
159 172 0
131 129 0
128 132 0
155 162 0
138 139 0
154 162 0
160 168 0
151 165 0
142 150 0
118 126 0
141 146 0
114 110 0
150 161 0
158 161 0
146 149 0
106 110 0
85 77 0
136 130 0
139 137 0
157 160 0
136 136 0
131 137 0
143 149 0
135 130 0
152 157 0
142 135 0
150 157 0
129 126 0
154 165 0
127 126 0
143 147 0
158 171 0
151 160 0
141 145 0
141 147 0
149 146 0
128 122 0
150 153 0
145 150 0
159 161 0
147 145 0
137 139 0
156 164 0
144 148 0
137 142 0
166 181 0
146 153 0
138 130 0
145 145 0
140 139 0
147 154 0
156 162 0
143 140 0
144 150 0
140 145 0
148 152 0
149 152 0
165 176 0
158 168 0
157 164 0
154 160 0
150 160 0
161 166 0
143 151 0
142 143 0
148 151 0
151 157 0
159 169 0
152 163 0
167 180 0
159 174 0
153 168 0
152 163 0
143 148 0
147 152 0
160 171 0
161 173 0
159 169 0
157 177 0
157 175 0
146 164 0
159 178 0
158 178 0
146 164 0
168 186 0
147 167 0
149 167 0
159 177 0
162 182 0
146 162 0
170 189 0
145 162 0
160 179 0
146 164 0
138 154 0
168 188 0
139 155 0
136 151 0
156 172 0
144 160 0
158 176 0
151 169 0
164 183 0
140 158 0
137 151 0
166 185 0
151 168 0
128 145 0
170 189 0
137 152 0
146 165 0
158 174 0
158 175 0
142 161 0
158 175 0
146 165 0
138 152 0
140 156 0
136 152 0
161 180 0
143 159 0
134 150 0
154 171 0
141 156 0
151 168 0
145 163 0
157 174 0
151 169 0
132 148 0
149 165 0
131 148 0
133 148 0
109 123 0
117 133 0
150 167 0
121 136 0
144 160 0
147 164 0
145 161 0
134 150 0
146 160 0
126 140 0
134 152 0
152 171 0
139 155 0
120 135 0
167 186 0
115 131 0
117 131 0
144 160 0
150 169 0
127 145 0
146 165 0
134 149 0
141 157 0
159 177 0
127 141 0
160 179 0
140 159 0
152 171 0
160 176 0
147 168 0
131 147 0
139 157 0
134 148 0
130 145 0
140 158 0
122 137 0
145 163 0
142 161 0
160 178 0
131 148 0
150 169 0
127 141 0
157 176 0
127 147 0
160 178 0
152 173 0
127 146 0
120 137 0
148 171 0
151 171 0
130 152 0
162 184 0
144 161 0
116 131 0
146 167 0
125 144 0
136 159 0
126 145 0
143 165 0
110 131 0
154 173 0
151 168 0
116 137 0
135 154 0
131 146 0
144 165 0
146 167 0
127 145 0
141 160 0
129 151 0
150 167 0
149 168 0
137 153 0
125 143 0
121 135 0
119 139 0
141 164 0
152 174 0
123 146 0
143 165 0
167 188 0
150 170 0
153 176 0
149 173 0
164 186 0
119 142 0
146 170 0
155 177 0
98 120 0
131 151 0
130 148 0
142 162 0
113 131 0
139 159 0
142 161 0
65 85 0
177 198 0
142 164 0
145 164 0
140 161 0
111 127 0
128 145 0
154 177 0
135 155 0
118 138 0
143 160 0
124 147 0
111 127 0
135 150 0
145 160 0
116 137 0
146 170 0
126 146 0
164 185 0
134 156 0
97 115 0
141 160 0
135 154 0
138 158 0
139 164 0
119 140 0
141 156 0
148 168 0
122 142 0
129 147 0
119 140 0
150 172 0
102 124 0
160 182 0
150 172 0
125 142 0
129 146 0
141 162 0
101 120 0
123 139 0
134 155 0
155 179 0
144 161 0
116 132 0
128 146 0
128 148 0
126 141 0
151 172 0
149 171 0
85 103 0
108 127 0
117 137 0
126 148 0
118 137 0
173 195 0
153 171 0
84 100 0
138 159 0
146 168 0
136 157 0
139 162 0
129 147 0
124 143 0
132 147 0
137 158 0
117 133 0
106 121 0
103 119 0
129 150 0
102 118 0
135 151 0
136 157 0
161 182 0
112 135 0
132 151 0
132 153 0
123 142 0
90 105 0
151 167 0
156 177 0
135 153 0
112 131 0
111 129 0
143 157 0
110 128 0
135 156 0
138 155 0
116 134 0
107 116 0
161 186 0
149 167 0
127 145 0
145 161 0
160 175 0
160 177 0
111 127 0
125 140 0
125 148 0
135 149 0
145 165 0
149 164 0
150 165 0
135 156 0
134 149 0
142 158 0
126 146 0
123 141 0
150 168 0
152 170 0
128 144 0
145 165 0
120 135 0
146 165 0
122 134 0
104 115 0
145 165 0
147 169 0
148 169 0
165 184 0
141 162 0
144 163 0
130 146 0
127 136 0
159 177 0
122 120 0
145 161 0
142 155 0
125 141 0
143 152 0
134 152 0
137 148 0
162 183 0
114 134 0
151 167 0
163 171 0
131 143 0
128 143 0
125 130 0
131 137 0
125 138 0
136 155 0
154 167 0
130 146 0
124 136 0
152 164 0
132 143 0
155 175 0
120 126 0
138 150 0
153 166 0
150 162 0
147 156 0
121 124 0
138 150 0
170 184 0
124 131 0
133 150 0
152 159 0
141 142 0
123 132 0
149 162 0
159 173 0
123 127 0
136 141 0
146 161 0
121 131 0
142 149 0
126 128 0
137 141 0
138 142 0
103 104 0
146 145 0
154 159 0
157 175 0
143 157 0
147 160 0
128 132 0
129 129 0
160 171 0
153 163 0
125 132 0
146 153 0
140 148 0
146 155 0
136 137 0
130 125 0
141 144 0
110 111 0
127 128 0
146 150 0
125 122 0
146 157 0
117 116 0
121 116 0
132 143 0
136 140 0
131 126 0
118 113 0
161 168 0
149 160 0
141 137 0
133 132 0
143 147 0
138 131 0
143 145 0
143 144 0
143 137 0
137 132 0
159 161 0
150 157 0
134 144 0
139 140 0
151 154 0
149 157 0
144 144 0
145 150 0
118 109 0
148 151 0
144 145 0
131 127 0
158 169 0
153 160 0
135 129 0
133 137 0
119 116 0
164 172 0
145 140 0
160 163 0
138 136 0
162 174 0
151 152 0
153 159 0
153 156 0
158 166 0
149 150 0
157 159 0
165 173 0
151 156 0
152 159 0
146 149 0
157 162 0
158 168 0
162 173 0
161 172 0
168 184 0
157 159 0
174 188 0
164 176 0
153 161 0
160 170 0
170 181 0
166 183 0
154 172 0
157 176 0
156 175 0
163 184 0
159 176 0
154 173 0
165 182 0
167 184 0
153 171 0
168 189 0
132 146 0
160 179 0
145 162 0
156 176 0
148 165 0
141 159 0
149 167 0
155 172 0
145 160 0
153 165 0
148 166 0
163 183 0
168 187 0
153 170 0
148 165 0
130 145 0
160 178 0
149 163 0
145 161 0
162 183 0
143 156 0
153 170 0
156 174 0
164 182 0
135 150 0
150 169 0
143 160 0
156 174 0
134 149 0
138 155 0
142 158 0
138 153 0
131 148 0
165 185 0
158 175 0
115 126 0
133 149 0
154 171 0
136 154 0
133 147 0
157 177 0
142 157 0
151 167 0
144 163 0
147 163 0
137 153 0
145 160 0
134 151 0
136 153 0
136 154 0
156 174 0
153 172 0
118 135 0
130 145 0
150 168 0
116 130 0
146 160 0
115 130 0
126 143 0
127 144 0
128 145 0
124 141 0
156 173 0
127 142 0
139 158 0
143 161 0
139 156 0
127 145 0
140 158 0
125 142 0
158 179 0
155 174 0
138 153 0
147 166 0
151 172 0
152 170 0
155 175 0
155 176 0
147 165 0
162 182 0
121 138 0
148 166 0
109 122 0
117 136 0
122 141 0
137 157 0
143 162 0
155 175 0
142 163 0
128 143 0
136 159 0
137 152 0
142 161 0
149 167 0
138 157 0
137 159 0
143 163 0
137 154 0
137 157 0
140 161 0
138 157 0
148 167 0
116 133 0
129 148 0
140 163 0
135 150 0
145 163 0
156 174 0
128 146 0
149 170 0
141 161 0
134 154 0
146 169 0
140 159 0
145 169 0
146 166 0
162 180 0
130 151 0
160 182 0
141 162 0
111 134 0
139 159 0
168 189 0
174 193 0
126 149 0
121 142 0
138 159 0
149 170 0
140 163 0
129 144 0
136 156 0
141 164 0
157 180 0
119 142 0
154 177 0
125 148 0
118 138 0
141 162 0
131 150 0
171 191 0
137 161 0
121 140 0
122 145 0
135 154 0
149 169 0
140 161 0
162 183 0
141 163 0
120 143 0
138 155 0
147 165 0
108 125 0
158 172 0
127 148 0
120 139 0
145 162 0
140 155 0
162 184 0
131 150 0
134 152 0
134 154 0
134 154 0
148 170 0
141 163 0
132 151 0
123 144 0
147 167 0
137 159 0
121 144 0
153 176 0
116 136 0
156 178 0
148 171 0
66 89 0
129 149 0
121 141 0
130 147 0
112 125 0
155 176 0
97 115 0
142 162 0
117 132 0
133 153 0
158 180 0
148 169 0
125 143 0
97 121 0
162 183 0
128 148 0
97 115 0
135 157 0
138 152 0
111 129 0
137 160 0
136 155 0
117 138 0
136 146 0
104 123 0
150 172 0
154 170 0
127 147 0
114 135 0
150 172 0
134 156 0
137 159 0
162 182 0
105 123 0
124 145 0
163 184 0
124 138 0
150 167 0
103 127 0
125 146 0
128 149 0
116 132 0
131 148 0
111 123 0
120 138 0
80 98 0
141 161 0
86 102 0
131 145 0
112 130 0
149 170 0
113 135 0
134 155 0
132 149 0
149 172 0
144 164 0
151 164 0
116 134 0
123 137 0
137 152 0
145 167 0
138 154 0
117 129 0
139 158 0
140 164 0
99 121 0
123 138 0
141 161 0
137 151 0
133 154 0
164 183 0
163 178 0
125 143 0
143 155 0
115 124 0
127 143 0
150 172 0
105 125 0
126 144 0
143 158 0
153 167 0
153 170 0
162 180 0
133 144 0
128 142 0
121 141 0
150 168 0
122 141 0
125 146 0
168 182 0
141 159 0
156 172 0
142 150 0
134 151 0
142 151 0
138 159 0
129 150 0
153 168 0
110 120 0
144 162 0
149 171 0
123 136 0
134 149 0
142 155 0
147 155 0
130 150 0
142 154 0
119 129 0
148 163 0
150 167 0
124 137 0
134 145 0
149 167 0
130 136 0
137 148 0
150 161 0
151 163 0
128 144 0
121 121 0
133 139 0
142 157 0
140 156 0
160 167 0
97 101 0
138 157 0
137 146 0
163 175 0
130 136 0
144 164 0
138 145 0
150 156 0
145 144 0
123 135 0
155 168 0
128 135 0
117 125 0
120 129 0
147 157 0
132 141 0
151 161 0
158 170 0
123 112 0
130 139 0
146 156 0
115 110 0
152 159 0
151 156 0
147 151 0
157 164 0
125 134 0
138 141 0
118 124 0
142 154 0
110 104 0
127 119 0
139 148 0
142 144 0
131 136 0
132 132 0
156 160 0
143 146 0
121 123 0
139 135 0
154 157 0
146 150 0
136 138 0
122 124 0
139 143 0
150 151 0
126 126 0
149 158 0
141 143 0
158 161 0
150 146 0
103 93 0
121 118 0
164 177 0
156 161 0
148 157 0
149 154 0
144 153 0
133 135 0
145 143 0
133 132 0
162 174 0
146 146 0
146 148 0
162 169 0
147 152 0
148 152 0
139 140 0
139 136 0
131 137 0
154 162 0
158 166 0
157 160 0
170 182 0
153 166 0
148 151 0
144 153 0
150 153 0
172 186 0
139 134 0
152 156 0
159 164 0
162 167 0
173 192 0
151 155 0
161 172 0
158 165 0
161 176 0
158 168 0
160 163 0
150 157 0
165 178 0
149 150 0
149 167 0
161 182 0
159 180 0
165 185 0
152 173 0
166 186 0
153 170 0
156 173 0
154 176 0
143 162 0
155 172 0
147 167 0
157 175 0
143 162 0
158 179 0
147 162 0
151 169 0
150 167 0
164 183 0
142 158 0
164 185 0
164 181 0
153 167 0
145 160 0
159 179 0
146 164 0
136 151 0
153 170 0
138 157 0
123 140 0
125 138 0
144 158 0
145 160 0
151 169 0
141 159 0
152 170 0
126 140 0
151 168 0
149 164 0
131 147 0
165 184 0
131 147 0
164 181 0
124 138 0
124 140 0
155 173 0
134 151 0
144 162 0
145 161 0
131 146 0
140 159 0
137 151 0
130 148 0
131 145 0
153 170 0
116 132 0
130 145 0
143 159 0
153 172 0
154 169 0
135 152 0
150 169 0
141 158 0
151 168 0
132 150 0
140 158 0
144 164 0
143 159 0
143 161 0
136 153 0
143 158 0
148 166 0
118 135 0
129 143 0
129 146 0
145 163 0
164 184 0
161 180 0
154 172 0
127 141 0
125 141 0
138 155 0
131 152 0
129 144 0
151 171 0
141 161 0
135 150 0
143 159 0
143 160 0
151 165 0
138 158 0
145 164 0
112 131 0
133 148 0
129 147 0
143 162 0
142 163 0
151 169 0
147 167 0
126 148 0
159 179 0
145 161 0
127 144 0
149 167 0
125 146 0
132 151 0
130 147 0
157 180 0
143 165 0
153 176 0
135 154 0
120 138 0
160 181 0
155 174 0
142 162 0
130 151 0
145 166 0
147 166 0
135 157 0
172 196 0
125 144 0
121 137 0
103 120 0
84 100 0
157 178 0
152 174 0
114 133 0
131 148 0
134 155 0
119 140 0
137 156 0
163 184 0
147 168 0
151 170 0
151 174 0
128 147 0
164 183 0
117 136 0
140 161 0
138 160 0
142 155 0
139 159 0
125 144 0
108 126 0
127 151 0
138 156 0
148 167 0
150 172 0
123 141 0
126 147 0
141 158 0
154 176 0
158 181 0
159 181 0
116 135 0
118 138 0
136 159 0
150 172 0
131 149 0
150 169 0
146 167 0
130 150 0
128 148 0
129 154 0
125 144 0
128 149 0
121 142 0
115 132 0
111 130 0
105 122 0
122 142 0
105 129 0
132 155 0
161 180 0
150 172 0
113 133 0
127 143 0
112 132 0
158 180 0
153 172 0
143 161 0
117 139 0
122 140 0
148 170 0
122 145 0
124 143 0
104 121 0
107 124 0
153 175 0
101 121 0
114 134 0
143 168 0
112 133 0
128 148 0
133 156 0
125 146 0
137 157 0
130 145 0
116 134 0
135 155 0
136 156 0
136 158 0
134 157 0
135 155 0
147 167 0
141 159 0
115 134 0
134 151 0
131 147 0
143 166 0
125 141 0
144 165 0
113 133 0
113 136 0
132 147 0
111 132 0
108 124 0
137 159 0
128 147 0
140 156 0
142 158 0
118 138 0
132 149 0
135 158 0
143 164 0
148 170 0
120 132 0
134 149 0
125 143 0
123 141 0
149 171 0
140 155 0
143 165 0
121 138 0
119 133 0
119 140 0
118 136 0
103 123 0
128 145 0
128 143 0
144 165 0
151 170 0
125 142 0
145 164 0
150 172 0
151 168 0
150 171 0
143 164 0
165 189 0
130 142 0
140 159 0
149 171 0
129 145 0
144 159 0
128 144 0
128 148 0
123 142 0
125 143 0
139 160 0
149 170 0
127 148 0
173 193 0
154 172 0
137 156 0
161 178 0
169 192 0
143 164 0
172 191 0
134 158 0
144 163 0
160 178 0
149 167 0
150 166 0
142 158 0
150 165 0
133 153 0
144 162 0
141 157 0
145 161 0
92 100 0
127 147 0
165 184 0
149 169 0
149 166 0
157 170 0
144 158 0
133 145 0
133 147 0
146 157 0
160 178 0
141 156 0
155 166 0
144 160 0
137 155 0
173 190 0
137 156 0
138 156 0
143 157 0
141 148 0
124 133 0
158 170 0
126 122 0
140 146 0
150 163 0
124 133 0
115 123 0
154 158 0
138 142 0
150 165 0
120 120 0
152 165 0
121 129 0
150 162 0
137 141 0
142 152 0
132 134 0
137 144 0
85 91 0
141 148 0
142 150 0
156 163 0
118 129 0
157 167 0
137 138 0
147 160 0
149 160 0
132 135 0
156 162 0
141 152 0
139 142 0
145 157 0
141 141 0
143 155 0
147 156 0
144 143 0
149 156 0
137 138 0
150 158 0
146 146 0
141 147 0
144 144 0
140 145 0
142 150 0
134 129 0
155 166 0
133 129 0
138 142 0
118 116 0
150 156 0
159 170 0
115 117 0
157 159 0
159 165 0
154 158 0
147 151 0
152 155 0
152 158 0
148 153 0
138 143 0
141 143 0
155 160 0
162 172 0
146 151 0
145 149 0
149 153 0
146 149 0
148 157 0
117 117 0
146 150 0
145 143 0
174 187 0
137 147 0
133 130 0
166 178 0
156 166 0
163 172 0
148 151 0
149 152 0
146 153 0
161 170 0
143 148 0
166 175 0
159 169 0
150 156 0
157 170 0
152 162 0
161 170 0
125 119 0
152 163 0
147 148 0
169 182 0
170 183 0
143 149 0
151 154 0
167 174 0
160 165 0
160 170 0
168 186 0
152 159 0
144 155 0
154 173 0
150 168 0
161 179 0
160 179 0
156 173 0
150 169 0
149 167 0
164 184 0
151 167 0
146 160 0
156 176 0
165 184 0
151 168 0
139 157 0
169 184 0
152 170 0
157 176 0
154 172 0
144 161 0
148 163 0
132 147 0
147 167 0
127 144 0
125 141 0
139 155 0
146 163 0
143 159 0
141 157 0
144 160 0
144 163 0
152 172 0
150 168 0
154 170 0
143 159 0
150 170 0
139 157 0
144 162 0
156 173 0
153 172 0
141 162 0
133 147 0
145 163 0
150 164 0
139 157 0
128 144 0
138 155 0
128 141 0
132 146 0
153 172 0
130 145 0
125 141 0
154 176 0
139 157 0
137 153 0
121 138 0
141 158 0
151 169 0
142 161 0
126 142 0
164 182 0
163 181 0
132 151 0
140 153 0
123 138 0
144 161 0
136 153 0
145 161 0
112 126 0
125 143 0
127 144 0
148 166 0
139 156 0
137 155 0
160 182 0
121 139 0
163 182 0
118 137 0
148 169 0
118 133 0
145 166 0
128 144 0
150 168 0
152 171 0
140 156 0
135 151 0
162 182 0
134 151 0
136 156 0
162 181 0
133 152 0
129 144 0
130 150 0
163 182 0
140 160 0
151 171 0
110 128 0
137 157 0
105 125 0
160 181 0
141 161 0
152 173 0
136 156 0
172 193 0
144 162 0
109 125 0
147 170 0
139 159 0
146 167 0
143 160 0
146 165 0
130 151 0
143 161 0
142 162 0
141 164 0
147 169 0
161 180 0
131 155 0
124 147 0
154 176 0
141 162 0
111 129 0
168 193 0
130 150 0
139 159 0
154 175 0
178 200 0
149 169 0
140 164 0
145 164 0
143 162 0
150 169 0
128 150 0
133 152 0
144 166 0
144 166 0
169 189 0
157 180 0
157 176 0
149 173 0
137 156 0
126 148 0
138 160 0
147 167 0
132 153 0
164 188 0
132 151 0
121 138 0
141 158 0
126 147 0
143 165 0
152 174 0
151 171 0
137 157 0
144 164 0
144 163 0
140 162 0
149 165 0
147 167 0
143 159 0
148 167 0
132 151 0
139 161 0
134 157 0
150 174 0
155 176 0
150 175 0
153 177 0
112 130 0
151 171 0
135 155 0
138 157 0
122 140 0
131 153 0
139 156 0
139 159 0
163 186 0
148 170 0
136 157 0
158 179 0
119 141 0
142 166 0
125 145 0
135 155 0
138 158 0
140 159 0
148 171 0
159 182 0
134 151 0
134 147 0
146 169 0
136 151 0
137 160 0
123 143 0
149 169 0
111 129 0
118 137 0
145 170 0
141 162 0
92 109 0
138 161 0
136 156 0
142 163 0
113 132 0
139 161 0
144 167 0
121 139 0
127 144 0
132 148 0
137 153 0
144 168 0
118 137 0
125 143 0
135 158 0
136 160 0
142 163 0
109 123 0
152 167 0
119 137 0
97 115 0
110 126 0
156 178 0
136 158 0
152 171 0
148 168 0
159 180 0
162 182 0
152 170 0
120 133 0
150 168 0
167 194 0
101 121 0
144 168 0
167 186 0
154 173 0
144 162 0
157 174 0
128 144 0
124 145 0
99 121 0
148 172 0
136 152 0
142 158 0
145 165 0
143 166 0
128 146 0
139 155 0
146 165 0
161 178 0
138 158 0
150 171 0
142 162 0
145 159 0
126 150 0
131 147 0
158 166 0
161 182 0
135 152 0
172 195 0
139 147 0
131 139 0
124 138 0
162 182 0
128 140 0
137 156 0
156 177 0
141 161 0
125 141 0
158 180 0
140 160 0
140 160 0
138 154 0
149 166 0
141 151 0
143 157 0
152 171 0
127 137 0
147 162 0
160 179 0
133 144 0
144 159 0
137 156 0
157 173 0
158 180 0
152 164 0
148 155 0
141 160 0
135 151 0
130 145 0
141 160 0
148 158 0
145 158 0
161 182 0
126 137 0
149 159 0
147 150 0
127 139 0
127 143 0
147 160 0
141 152 0
133 143 0
159 173 0
158 175 0
134 148 0
170 192 0
136 143 0
151 166 0
143 155 0
149 163 0
119 125 0
150 161 0
137 143 0
137 150 0
143 147 0
123 119 0
118 126 0
97 111 0
128 126 0
129 135 0
160 169 0
131 136 0
152 168 0
138 143 0
160 162 0
134 142 0
145 155 0
153 161 0
150 155 0
152 163 0
132 138 0
150 158 0
128 141 0
147 152 0
154 160 0
126 133 0
100 107 0
140 144 0
133 141 0
125 127 0
140 148 0
142 154 0
128 120 0
141 144 0
134 134 0
133 130 0
143 146 0
138 147 0
154 164 0
153 160 0
157 163 0
142 143 0
154 160 0
149 156 0
146 143 0
157 172 0
161 166 0
150 157 0
162 171 0
131 133 0
121 122 0
145 153 0
131 134 0
138 132 0
129 134 0
147 153 0
149 154 0
148 147 0
153 159 0
151 149 0
160 172 0
160 166 0
164 179 0
149 157 0
163 174 0
153 161 0
127 128 0
149 156 0
141 143 0
143 134 0
165 169 0
159 166 0
167 180 0
164 180 0
149 157 0
122 122 0
160 173 0
149 151 0
142 146 0
165 173 0
163 177 0
138 138 0
139 142 0
151 149 0
137 137 0
154 164 0
169 178 0
145 155 0
158 168 0
148 147 0
151 158 0
148 153 0
154 173 0
168 187 0
140 162 0
150 167 0
162 181 0
162 181 0
156 174 0
140 156 0
153 171 0
145 163 0
152 173 0
160 180 0
148 166 0
163 180 0
150 166 0
167 187 0
156 172 0
164 182 0
141 156 0
160 176 0
154 173 0
148 165 0
161 180 0
144 159 0
138 154 0
146 162 0
148 162 0
157 175 0
141 157 0
144 157 0
138 155 0
144 160 0
145 162 0
151 166 0
143 163 0
137 152 0
160 180 0
143 159 0
159 178 0
160 177 0
137 153 0
151 169 0
133 148 0
156 174 0
138 155 0
150 164 0
133 149 0
154 173 0
148 164 0
150 167 0
136 152 0
135 152 0
132 148 0
124 138 0
147 164 0
149 167 0
148 167 0
156 173 0
140 157 0
121 137 0
154 173 0
151 169 0
149 168 0
145 161 0
123 136 0
159 179 0
140 159 0
128 147 0
133 151 0
147 167 0
142 159 0
139 157 0
125 142 0
152 169 0
148 166 0
143 159 0
141 160 0
147 165 0
142 159 0
144 164 0
142 160 0
159 178 0
157 176 0
144 160 0
133 152 0
140 158 0
129 151 0
161 176 0
114 132 0
165 182 0
151 171 0
135 153 0
152 174 0
140 157 0
156 177 0
162 178 0
140 161 0
151 173 0
144 165 0
153 171 0
158 179 0
127 151 0
147 165 0
136 155 0
141 162 0
142 162 0
145 166 0
154 177 0
122 143 0
142 158 0
153 170 0
126 145 0
145 165 0
114 134 0
125 139 0
118 138 0
150 168 0
153 175 0
149 168 0
150 169 0
112 133 0
141 159 0
149 168 0
128 148 0
113 131 0
121 139 0
158 180 0
141 163 0
160 179 0
109 129 0
152 174 0
128 149 0
131 152 0
163 185 0
146 166 0
150 173 0
116 139 0
123 143 0
152 173 0
110 131 0
118 143 0
131 152 0
167 189 0
143 167 0
121 140 0
143 164 0
129 148 0
121 142 0
131 151 0
141 166 0
136 158 0
147 170 0
129 153 0
147 167 0
151 170 0
150 173 0
139 160 0
142 164 0
125 143 0
131 152 0
137 158 0
145 166 0
152 174 0
138 159 0
159 179 0
148 169 0
149 171 0
123 143 0
136 153 0
130 144 0
166 188 0
135 158 0
167 189 0
137 156 0
113 136 0
151 175 0
130 154 0
148 170 0
125 145 0
149 170 0
148 171 0
157 176 0
126 147 0
138 161 0
98 116 0
144 165 0
130 151 0
136 158 0
99 120 0
138 160 0
161 184 0
136 155 0
144 166 0
164 185 0
114 133 0
127 147 0
141 161 0
103 124 0
137 156 0
174 198 0
163 188 0
136 155 0
139 159 0
163 183 0
152 169 0
142 164 0
116 138 0
118 137 0
143 160 0
164 181 0
155 178 0
138 160 0
118 134 0
127 147 0
160 182 0
153 173 0
116 137 0
171 192 0
133 150 0
128 150 0
111 125 0
119 139 0
126 137 0
139 160 0
129 149 0
98 118 0
124 138 0
152 169 0
143 155 0
131 151 0
160 178 0
147 168 0
135 153 0
126 145 0
130 139 0
111 132 0
136 157 0
108 131 0
168 187 0
144 161 0
145 165 0
122 143 0
139 165 0
114 131 0
157 175 0
92 106 0
157 175 0
133 154 0
99 113 0
153 171 0
135 155 0
111 134 0
150 164 0
120 134 0
160 177 0
117 133 0
163 185 0
153 173 0
124 144 0
147 159 0
124 138 0
159 177 0
156 175 0
153 173 0
115 131 0
140 157 0
135 154 0
134 151 0
144 168 0
150 172 0
153 163 0
138 157 0
151 171 0
153 176 0
141 163 0
156 165 0
128 149 0
118 132 0
151 170 0
132 151 0
158 176 0
151 165 0
117 127 0
147 158 0
144 159 0
159 177 0
163 180 0
118 134 0
140 160 0
155 177 0
149 163 0
129 135 0
126 130 0
155 164 0
123 134 0
143 158 0
122 135 0
136 142 0
153 170 0
126 140 0
151 165 0
165 176 0
132 142 0
159 167 0
156 164 0
133 144 0
148 159 0
144 153 0
135 141 0
146 158 0
134 146 0
135 145 0
136 143 0
138 151 0
145 148 0
124 136 0
133 141 0
136 142 0
137 148 0
140 153 0
160 171 0
136 144 0
149 158 0
136 136 0
167 178 0
130 139 0
141 149 0
149 168 0
136 142 0
141 159 0
147 158 0
151 158 0
144 157 0
159 172 0
146 162 0
129 128 0
152 159 0
109 112 0
150 160 0
140 145 0
136 150 0
142 148 0
138 151 0
128 121 0
154 165 0
143 152 0
132 127 0
169 180 0
142 147 0
149 150 0
148 150 0
138 139 0
156 161 0
146 150 0
131 134 0
138 141 0
132 131 0
123 123 0
115 113 0
130 117 0
147 149 0
125 114 0
151 155 0
149 145 0
139 138 0
141 140 0
152 156 0
159 173 0
137 142 0
143 148 0
153 157 0
142 147 0
157 161 0
138 139 0
155 161 0
132 128 0
145 152 0
178 193 0
134 140 0
153 159 0
151 155 0
156 159 0
160 167 0
136 140 0
146 153 0
149 159 0
141 144 0
170 178 0
163 177 0
161 176 0
141 150 0
157 166 0
158 169 0
147 156 0
149 159 0
170 179 0
157 166 0
151 162 0
152 160 0
147 161 0
162 181 0
152 171 0
146 166 0
161 179 0
153 171 0
138 154 0
156 175 0
135 154 0
138 157 0
153 169 0
160 181 0
155 172 0
144 163 0
152 169 0
157 175 0
151 170 0
159 176 0
148 165 0
158 176 0
154 173 0
123 138 0
174 194 0
156 173 0
155 174 0
136 154 0
154 172 0
150 166 0
164 181 0
147 164 0
162 179 0
153 171 0
144 162 0
126 145 0
153 173 0
154 174 0
154 171 0
141 159 0
121 138 0
157 175 0
160 176 0
148 164 0
146 161 0
155 174 0
148 166 0
155 172 0
110 126 0
159 175 0
142 159 0
163 181 0
139 156 0
139 155 0
151 170 0
113 127 0
136 151 0
135 153 0
142 159 0
144 162 0
171 191 0
123 137 0
150 169 0
146 164 0
144 159 0
141 162 0
157 177 0
135 152 0
152 171 0
142 162 0
132 149 0
145 165 0
153 173 0
138 155 0
92 108 0
137 155 0
134 151 0
129 144 0
145 165 0
145 165 0
143 161 0
137 156 0
167 185 0
156 175 0
143 161 0
132 148 0
137 156 0
143 161 0
126 145 0
147 165 0
136 155 0
162 184 0
130 146 0
150 170 0
167 189 0
148 172 0
136 154 0
134 156 0
128 148 0
172 196 0
153 169 0
133 153 0
146 170 0
144 165 0
150 171 0
150 170 0
140 161 0
158 179 0
122 140 0
163 186 0
147 167 0
127 144 0
118 137 0
168 187 0
146 167 0
124 145 0
155 176 0
149 171 0
119 137 0
145 167 0
130 147 0
162 183 0
135 155 0
119 142 0
147 169 0
155 176 0
125 144 0
95 115 0
140 162 0
138 157 0
151 171 0
127 147 0
174 198 0
143 164 0
154 177 0
155 176 0
156 179 0
114 138 0
142 163 0
133 151 0
130 148 0
149 165 0
144 165 0
145 164 0
128 150 0
126 147 0
153 176 0
133 152 0
118 136 0
139 160 0
139 158 0
132 153 0
125 146 0
139 160 0
132 152 0
134 156 0
154 177 0
162 185 0
142 166 0
133 153 0
132 155 0
132 151 0
145 166 0
121 142 0
151 174 0
115 132 0
121 135 0
120 140 0
147 169 0
151 172 0
132 152 0
112 130 0
110 132 0
118 135 0
123 136 0
141 162 0
135 150 0
125 144 0
144 159 0
142 162 0
120 132 0
159 181 0
143 162 0
131 150 0
114 134 0
138 156 0
119 140 0
128 145 0
150 170 0
134 158 0
112 130 0
121 141 0
117 137 0
144 164 0
131 150 0
146 165 0
105 123 0
164 188 0
160 178 0
145 168 0
159 175 0
151 171 0
157 179 0
120 142 0
161 182 0
148 171 0
149 172 0
141 166 0
126 143 0
150 167 0
152 173 0
130 147 0
151 168 0
151 169 0
140 160 0
156 179 0
144 163 0
141 155 0
130 150 0
124 147 0
140 165 0
142 162 0
139 158 0
139 159 0
129 151 0
155 179 0
150 171 0
146 159 0
135 158 0
142 164 0
145 167 0
131 153 0
149 165 0
155 174 0
135 156 0
144 159 0
128 147 0
135 147 0
156 179 0
154 173 0
125 137 0
151 173 0
163 179 0
141 159 0
147 166 0
116 132 0
141 161 0
133 152 0
121 138 0
124 139 0
143 159 0
149 168 0
132 153 0
104 121 0
116 138 0
148 165 0
137 156 0
150 171 0
158 177 0
140 158 0
140 162 0
162 187 0
127 145 0
114 134 0
124 135 0
151 172 0
130 150 0
137 151 0
126 143 0
142 160 0
130 149 0
137 158 0
127 139 0
152 172 0
152 167 0
148 167 0
143 156 0
148 164 0
115 130 0
122 145 0
163 174 0
141 154 0
173 190 0
162 186 0
152 162 0
154 165 0
128 137 0
165 177 0
120 130 0
136 157 0
143 166 0
138 149 0
165 186 0
141 155 0
121 131 0
126 144 0
140 154 0
140 156 0
121 134 0
164 177 0
142 161 0
155 162 0
134 144 0
117 123 0
158 171 0
152 166 0
156 170 0
148 156 0
133 140 0
109 126 0
134 149 0
149 170 0
121 137 0
137 155 0
136 148 0
165 178 0
134 139 0
157 171 0
135 141 0
158 159 0
153 156 0
143 144 0
142 153 0
153 156 0
142 149 0
104 111 0
135 139 0
144 157 0
156 164 0
145 160 0
153 157 0
144 157 0
160 168 0
136 142 0
140 154 0
150 160 0
155 161 0
157 166 0
148 159 0
155 160 0
147 151 0
129 138 0
139 144 0
142 155 0
152 162 0
138 135 0
133 136 0
153 158 0
128 128 0
138 131 0
149 161 0
161 172 0
126 126 0
148 160 0
149 148 0
158 172 0
153 159 0
126 131 0
135 138 0
159 172 0
154 160 0
147 155 0
155 163 0
127 126 0
158 162 0
140 145 0
163 168 0
149 161 0
132 136 0
138 132 0
137 140 0
159 171 0
154 161 0
155 156 0
141 147 0
142 147 0
145 148 0
168 175 0
149 150 0
151 147 0
146 145 0
149 157 0
148 159 0
156 166 0
168 180 0
148 154 0
143 144 0
140 137 0
167 176 0
160 172 0
159 163 0
160 170 0
150 153 0
157 166 0
145 153 0
172 187 0
168 187 0
150 154 0
168 182 0
164 171 0
159 166 0
160 177 0
152 158 0
148 170 0
167 187 0
153 171 0
166 186 0
156 175 0
157 177 0
161 179 0
139 157 0
142 160 0
140 156 0
159 177 0
167 183 0
148 167 0
147 164 0
152 171 0
152 173 0
133 149 0
145 162 0
151 171 0
141 156 0
134 150 0
130 144 0
146 161 0
129 146 0
132 150 0
162 178 0
153 172 0
147 165 0
148 169 0
131 146 0
149 167 0
143 162 0
141 159 0
144 161 0
125 139 0
139 153 0
126 143 0
128 144 0
147 164 0
148 167 0
146 164 0
158 176 0
156 176 0
136 151 0
144 163 0
152 172 0
158 175 0
154 172 0
148 166 0
153 171 0
141 158 0
127 143 0
140 157 0
149 168 0
150 167 0
140 156 0
127 143 0
146 162 0
149 167 0
142 159 0
128 144 0
157 173 0
156 174 0
158 178 0
155 175 0
143 160 0
156 176 0
117 134 0
125 142 0
132 151 0
139 156 0
145 162 0
140 157 0
140 160 0
142 159 0
165 183 0
115 131 0
150 172 0
130 145 0
163 181 0
159 180 0
142 160 0
154 174 0
135 153 0
160 180 0
116 136 0
159 176 0
152 171 0
155 176 0
142 160 0
157 178 0
162 180 0
158 176 0
128 146 0
153 175 0
137 158 0
141 160 0
129 147 0
156 179 0
128 143 0
136 156 0
162 184 0
138 159 0
154 177 0
143 160 0
155 175 0
157 177 0
162 182 0
111 130 0
163 182 0
139 162 0
129 148 0
143 162 0
170 188 0
144 166 0
95 114 0
137 158 0
117 133 0
135 157 0
144 166 0
140 160 0
154 177 0
149 169 0
150 172 0
121 140 0
139 158 0
146 168 0
140 162 0
153 174 0
161 181 0
154 172 0
150 175 0
145 166 0
159 178 0
137 160 0
140 162 0
128 152 0
137 158 0
141 163 0
158 180 0
123 144 0
147 167 0
158 180 0
152 172 0
154 173 0
135 151 0
141 164 0
111 130 0
154 179 0
145 169 0
159 180 0
171 195 0
115 136 0
133 154 0
132 148 0
124 144 0
107 127 0
135 158 0
127 150 0
142 159 0
140 157 0
119 133 0
135 158 0
142 162 0
107 126 0
137 154 0
144 166 0
154 176 0
153 174 0
153 175 0
148 169 0
168 190 0
149 170 0
134 156 0
124 147 0
150 171 0
109 130 0
116 133 0
122 144 0
137 155 0
135 157 0
141 161 0
145 168 0
159 180 0
149 170 0
147 170 0
143 166 0
143 162 0
135 153 0
152 173 0
107 129 0
134 153 0
138 159 0
132 155 0
124 147 0
124 147 0
117 133 0
141 160 0
133 150 0
113 122 0
162 182 0
127 146 0
142 160 0
152 176 0
154 179 0
142 159 0
153 174 0
116 134 0
126 148 0
124 148 0
138 160 0
127 142 0
150 172 0
138 157 0
121 142 0
117 138 0
141 162 0
154 179 0
112 132 0
146 163 0
109 125 0
154 170 0
163 188 0
141 158 0
134 148 0
122 141 0
175 198 0
161 182 0
154 178 0
113 128 0
131 150 0
134 155 0
143 161 0
140 159 0
117 135 0
110 119 0
157 177 0
112 130 0
142 160 0
149 166 0
120 133 0
157 172 0
149 170 0
130 150 0
134 158 0
152 176 0
138 154 0
144 166 0
140 160 0
153 176 0
124 147 0
118 132 0
149 170 0
143 161 0
119 140 0
133 155 0
142 162 0
134 151 0
131 140 0
123 140 0
116 134 0
127 136 0
149 167 0
146 165 0
152 172 0
161 182 0
150 165 0
150 171 0
123 143 0
159 181 0
164 185 0
155 175 0
134 155 0
143 161 0
140 159 0
166 188 0
124 134 0
133 149 0
150 165 0
160 182 0
160 176 0
159 179 0
148 157 0
129 148 0
130 139 0
129 144 0
158 180 0
145 166 0
169 191 0
132 138 0
172 182 0
143 162 0
150 162 0
147 158 0
126 144 0
137 155 0
146 163 0
134 152 0
124 130 0
155 169 0
164 181 0
143 147 0
146 157 0
136 149 0
136 151 0
142 149 0
152 156 0
154 169 0
140 158 0
144 155 0
131 142 0
154 169 0
121 135 0
139 151 0
130 143 0
151 165 0
128 138 0
155 175 0
140 156 0
149 165 0
163 179 0
126 129 0
141 151 0
135 143 0
133 150 0
105 118 0
161 171 0
141 146 0
160 173 0
121 123 0
140 162 0
145 150 0
135 150 0
163 170 0
118 125 0
138 151 0
175 187 0
118 126 0
154 159 0
141 138 0
147 164 0
151 157 0
140 147 0
143 157 0
150 168 0
134 136 0
146 150 0
149 153 0
157 168 0
136 140 0
159 169 0
153 158 0
141 144 0
150 158 0
164 176 0
150 156 0
147 141 0
137 143 0
159 171 0
133 141 0
126 125 0
152 152 0
152 152 0
135 131 0
155 161 0
156 161 0
140 139 0
147 150 0
145 148 0
159 173 0
155 157 0
152 158 0
140 140 0
158 168 0
159 172 0
148 154 0
162 171 0
149 150 0
163 178 0
148 157 0
154 164 0
155 164 0
152 157 0
155 160 0
161 171 0
149 157 0
145 154 0
147 149 0
167 181 0
147 150 0
157 155 0
172 189 0
160 174 0
160 175 0
167 185 0
150 150 0
160 172 0
162 177 0
163 178 0
143 153 0
161 181 0
156 176 0
155 176 0
171 191 0
133 152 0
154 174 0
151 170 0
163 183 0
162 184 0
150 168 0
158 174 0
152 169 0
161 181 0
141 157 0
160 180 0
152 168 0
151 169 0
158 176 0
156 175 0
159 178 0
149 166 0
154 172 0
140 157 0
143 159 0
145 161 0
146 161 0
140 156 0
144 161 0
150 167 0
139 157 0
168 189 0
141 156 0
133 148 0
148 165 0
128 147 0
148 166 0
147 165 0
147 165 0
132 149 0
150 170 0
149 166 0
157 178 0
134 150 0
149 166 0
163 183 0
146 161 0
154 171 0
139 154 0
154 170 0
130 147 0
152 171 0
136 151 0
156 174 0
152 168 0
164 183 0
153 170 0
150 166 0
148 167 0
141 156 0
127 141 0
151 171 0
140 160 0
165 185 0
152 167 0
155 171 0
133 150 0
146 163 0
150 171 0
163 185 0
135 153 0
150 170 0
125 141 0
122 140 0
166 186 0
150 171 0
145 162 0
128 148 0
157 175 0
159 179 0
138 157 0
121 137 0
136 155 0
140 157 0
116 135 0
146 170 0
156 178 0
138 157 0
148 169 0
151 174 0
133 153 0
147 163 0
141 159 0
140 153 0
162 179 0
130 146 0
135 155 0
160 177 0
153 173 0
165 188 0
146 164 0
138 156 0
161 181 0
139 157 0
148 171 0
122 144 0
99 119 0
163 184 0
139 159 0
144 164 0
158 175 0
159 182 0
129 151 0
127 146 0
169 192 0
147 165 0
145 166 0
99 116 0
136 157 0
156 176 0
160 178 0
141 159 0
141 160 0
122 140 0
140 164 0
148 173 0
126 143 0
133 150 0
150 172 0
139 160 0
167 188 0
112 131 0
130 152 0
157 180 0
143 165 0
141 160 0
144 162 0
158 181 0
137 159 0
140 161 0
131 154 0
134 156 0
137 159 0
132 154 0
145 169 0
136 158 0
154 174 0
158 180 0
164 185 0
129 150 0
156 180 0
131 149 0
154 177 0
158 179 0
146 164 0
167 188 0
137 158 0
143 161 0
140 161 0
137 154 0
147 164 0
102 120 0
153 174 0
147 168 0
130 154 0
149 166 0
131 154 0
148 170 0
148 170 0
126 148 0
130 145 0
140 162 0
140 156 0
137 159 0
135 154 0
140 162 0
133 152 0
153 172 0
145 167 0
138 160 0
138 160 0
136 159 0
120 140 0
167 188 0
174 194 0
121 143 0
155 173 0
138 154 0
149 170 0
133 153 0
139 160 0
102 123 0
97 115 0
128 145 0
155 177 0
123 144 0
142 161 0
153 173 0
142 161 0
136 155 0
133 156 0
129 149 0
120 138 0
132 156 0
146 167 0
155 177 0
123 142 0
138 158 0
149 171 0
124 140 0
164 186 0
138 158 0
124 142 0
155 177 0
151 169 0
156 178 0
148 170 0
142 160 0
144 167 0
130 152 0
123 145 0
161 186 0
131 152 0
137 159 0
131 150 0
117 141 0
130 149 0
171 188 0
124 148 0
129 146 0
161 184 0
140 163 0
155 178 0
114 137 0
127 150 0
131 152 0
145 168 0
138 159 0
172 195 0
139 155 0
149 166 0
136 158 0
151 172 0
135 159 0
144 160 0
129 148 0
145 163 0
153 173 0
145 166 0
146 166 0
154 172 0
173 194 0
143 164 0
131 154 0
160 176 0
146 167 0
150 167 0
161 183 0
137 149 0
151 173 0
142 162 0
159 178 0
156 168 0
163 185 0
144 163 0
145 160 0
128 144 0
121 141 0
134 156 0
161 180 0
152 172 0
145 157 0
151 168 0
164 176 0
111 133 0
140 160 0
129 149 0
128 137 0
172 197 0
148 167 0
147 162 0
145 159 0
155 178 0
151 165 0
132 151 0
126 143 0
138 152 0
140 160 0
136 153 0
133 151 0
129 140 0
141 155 0
147 160 0
165 180 0
141 154 0
137 156 0
142 156 0
164 184 0
145 161 0
173 192 0
156 166 0
133 151 0
139 148 0
142 157 0
160 169 0
104 117 0
157 176 0
144 166 0
144 156 0
119 128 0
123 137 0
165 173 0
153 165 0
152 160 0
146 161 0
142 152 0
94 109 0
137 146 0
154 169 0
168 184 0
139 147 0
134 146 0
129 136 0
134 136 0
145 158 0
148 166 0
131 140 0
147 154 0
149 164 0
145 151 0
133 130 0
143 148 0
152 157 0
142 151 0
166 175 0
130 141 0
162 179 0
162 172 0
146 150 0
149 166 0
144 149 0
149 165 0
140 152 0
157 164 0
119 113 0
151 162 0
153 159 0
142 149 0
166 179 0
147 153 0
152 159 0
134 141 0
170 183 0
164 172 0
167 172 0
128 123 0
171 186 0
158 163 0
152 160 0
164 172 0
133 129 0
167 182 0
154 162 0
157 167 0
133 132 0
166 175 0
141 150 0
171 188 0
124 123 0
154 158 0
137 147 0
154 170 0
166 175 0
144 154 0
159 165 0
141 141 0
146 154 0
170 182 0
147 149 0
155 166 0
136 135 0
146 147 0
145 142 0
174 191 0
131 134 0
156 163 0
142 141 0
160 168 0
152 161 0
153 163 0
158 168 0
147 151 0
156 161 0
144 147 0
151 156 0
154 164 0
162 176 0
151 158 0
164 176 0
126 121 0
161 176 0
152 169 0
161 181 0
137 157 0
167 188 0
163 183 0
157 178 0
156 176 0
165 187 0
148 166 0
167 187 0
149 169 0
156 176 0
161 178 0
148 166 0
153 173 0
152 169 0
121 131 0
167 187 0
156 177 0
149 165 0
157 174 0
154 176 0
152 170 0
153 171 0
137 153 0
164 184 0
136 153 0
150 168 0
174 194 0
152 170 0
162 182 0
167 190 0
171 190 0
156 175 0
147 166 0
138 157 0
164 185 0
150 169 0
125 138 0
152 170 0
156 175 0
126 142 0
162 181 0
155 172 0
151 171 0
150 168 0
150 168 0
159 178 0
146 161 0
136 156 0
125 140 0
143 161 0
161 182 0
157 173 0
158 176 0
139 154 0
156 177 0
147 166 0
158 174 0
152 170 0
150 166 0
132 147 0
127 143 0
149 167 0
160 177 0
149 165 0
142 159 0
121 137 0
119 135 0
148 168 0
160 181 0
164 184 0
139 159 0
152 169 0
153 172 0
150 169 0
148 166 0
150 171 0
156 175 0
166 187 0
138 160 0
147 165 0
149 167 0
142 163 0
145 162 0
161 179 0
151 168 0
144 162 0
149 171 0
160 182 0
154 175 0
137 157 0
138 159 0
148 172 0
117 133 0
160 177 0
152 172 0
155 173 0
148 169 0
158 178 0
146 165 0
140 160 0
156 173 0
124 140 0
148 167 0
135 155 0
110 128 0
144 164 0
128 145 0
153 173 0
165 185 0
102 117 0
109 126 0
137 158 0
134 156 0
140 161 0
139 160 0
140 159 0
143 168 0
155 177 0
161 181 0
138 157 0
157 179 0
147 171 0
133 156 0
134 155 0
133 154 0
157 176 0
146 165 0
128 148 0
146 168 0
130 147 0
147 168 0
146 167 0
133 153 0
153 178 0
150 171 0
125 148 0
154 176 0
113 137 0
153 177 0
165 189 0
122 141 0
137 152 0
143 163 0
134 153 0
156 175 0
172 191 0
154 174 0
135 157 0
148 171 0
142 161 0
139 160 0
98 115 0
149 170 0
134 156 0
101 123 0
161 182 0
146 169 0
168 191 0
146 168 0
131 153 0
127 151 0
145 163 0
144 163 0
102 120 0
153 174 0
146 169 0
166 187 0
136 156 0
127 148 0
129 145 0
162 185 0
129 149 0
109 132 0
135 154 0
118 138 0
157 175 0
131 152 0
131 148 0
123 147 0
120 142 0
141 156 0
134 155 0
149 169 0
132 157 0
144 160 0
160 182 0
132 149 0
172 194 0
87 106 0
149 174 0
90 108 0
132 152 0
144 167 0
171 192 0
109 132 0
121 136 0
139 161 0
138 152 0
133 157 0
133 153 0
152 173 0
158 180 0
154 171 0
142 165 0
132 151 0
143 167 0
159 181 0
126 148 0
151 167 0
128 141 0
120 139 0
155 176 0
126 147 0
133 150 0
147 168 0
154 177 0
116 137 0
124 143 0
135 156 0
157 172 0
114 133 0
149 171 0
135 150 0
131 154 0
125 147 0
133 152 0
138 156 0
137 154 0
128 150 0
157 177 0
151 166 0
154 172 0
144 151 0
126 145 0
136 154 0
140 161 0
154 174 0
123 145 0
122 143 0
153 178 0
148 164 0
141 160 0
134 154 0
113 134 0
137 161 0
134 150 0
140 159 0
140 159 0
138 159 0
134 149 0
150 172 0
148 161 0
158 173 0
148 163 0
108 128 0
154 175 0
132 153 0
139 161 0
138 159 0
169 191 0
142 161 0
153 167 0
160 181 0
150 172 0
142 155 0
143 157 0
143 159 0
161 181 0
136 158 0
155 175 0
160 180 0
127 147 0
135 155 0
134 150 0
155 171 0
154 165 0
150 167 0
146 164 0
121 135 0
140 150 0
155 175 0
159 180 0
148 163 0
136 152 0
144 158 0
168 186 0
127 139 0
134 143 0
150 163 0
152 164 0
171 189 0
153 166 0
130 145 0
122 134 0
134 152 0
146 163 0
149 166 0
131 142 0
139 160 0
139 159 0
144 158 0
138 159 0
158 173 0
163 179 0
158 171 0
158 169 0
142 156 0
144 155 0
133 139 0
152 167 0
155 169 0
159 175 0
122 133 0
157 166 0
143 159 0
148 160 0
115 117 0
150 164 0
151 159 0
160 183 0
152 162 0
125 136 0
137 146 0
154 165 0
154 153 0
143 152 0
132 140 0
173 188 0
161 181 0
145 149 0
144 158 0
150 162 0
142 147 0
135 147 0
168 180 0
143 158 0
143 149 0
153 168 0
163 177 0
146 158 0
129 133 0
147 154 0
149 160 0
158 176 0
154 166 0
156 168 0
143 146 0
148 160 0
134 138 0
140 144 0
156 161 0
141 145 0
151 163 0
152 159 0
154 165 0
143 152 0
137 128 0
142 148 0
139 145 0
141 149 0
155 164 0
140 145 0
151 156 0
141 144 0
158 161 0
152 160 0
166 178 0
156 162 0
160 168 0
167 178 0
135 139 0
156 159 0
156 163 0
158 176 0
154 168 0
156 165 0
142 143 0
157 155 0
146 151 0
143 156 0
158 161 0
145 142 0
154 164 0
166 181 0
161 171 0
150 161 0
152 156 0
142 153 0
163 177 0
147 150 0
153 171 0
150 157 0
164 181 0
145 145 0
153 165 0
158 163 0
160 168 0
159 175 0
161 180 0
175 194 0
168 187 0
157 174 0
160 180 0
160 177 0
157 176 0
141 159 0
152 168 0
165 184 0
149 167 0
149 166 0
147 165 0
162 183 0
139 155 0
145 161 0
148 165 0
146 161 0
171 190 0
155 174 0
140 156 0
164 182 0
150 165 0
152 170 0
153 170 0
138 155 0
159 180 0
150 167 0
139 156 0
151 167 0
126 144 0
161 181 0
150 167 0
148 169 0
138 157 0
129 145 0
150 168 0
153 170 0
154 170 0
144 161 0
146 165 0
144 161 0
164 179 0
144 160 0
143 160 0
155 173 0
154 173 0
134 150 0
147 166 0
152 171 0
152 168 0
110 127 0
152 171 0
147 162 0
140 161 0
144 160 0
148 168 0
124 137 0
134 153 0
152 169 0
138 156 0
138 156 0
153 172 0
142 158 0
150 172 0
147 164 0
131 147 0
144 165 0
145 162 0
139 162 0
147 162 0
129 148 0
152 173 0
173 192 0
141 161 0
142 159 0
153 172 0
143 164 0
138 158 0
150 170 0
143 164 0
148 166 0
163 182 0
148 168 0
147 164 0
151 171 0
152 173 0
148 166 0
137 154 0
143 164 0
169 190 0
161 182 0
167 187 0
99 115 0
136 157 0
143 166 0
134 154 0
144 164 0
138 159 0
158 176 0
155 176 0
146 164 0
167 185 0
161 184 0
138 157 0
149 169 0
135 150 0
135 157 0
113 133 0
142 160 0
133 152 0
156 177 0
163 187 0
162 183 0
162 183 0
160 181 0
157 180 0
154 173 0
102 122 0
121 141 0
130 155 0
158 178 0
138 159 0
142 163 0
141 162 0
150 173 0
139 160 0
166 189 0
165 187 0
133 153 0
129 147 0
130 155 0
157 176 0
110 130 0
150 171 0
151 173 0
143 165 0
122 144 0
154 177 0
150 172 0
150 172 0
142 165 0
143 161 0
142 163 0
143 165 0
156 171 0
111 130 0
153 175 0
144 163 0
153 175 0
151 167 0
136 158 0
146 167 0
119 138 0
142 163 0
132 153 0
158 181 0
157 174 0
155 177 0
141 161 0
135 153 0
133 153 0
136 157 0
149 170 0
122 143 0
160 182 0
150 170 0
154 177 0
153 178 0
140 163 0
136 157 0
148 169 0
135 155 0
127 146 0
109 126 0
150 171 0
156 179 0
136 159 0
126 147 0
156 177 0
147 170 0
135 155 0
162 182 0
139 160 0
140 162 0
162 186 0
139 162 0
147 170 0
152 173 0
120 138 0
143 163 0
125 148 0
146 170 0
129 149 0
155 173 0
146 167 0
143 164 0
118 139 0
138 160 0
125 146 0
149 169 0
166 189 0
148 171 0
134 152 0
168 185 0
141 163 0
147 166 0
149 169 0
116 128 0
150 174 0
163 177 0
128 150 0
128 148 0
139 161 0
123 139 0
150 171 0
129 145 0
141 160 0
147 160 0
149 170 0
162 187 0
146 167 0
121 135 0
150 172 0
148 170 0
140 160 0
163 182 0
155 175 0
136 155 0
141 161 0
144 164 0
150 170 0
159 182 0
148 168 0
143 162 0
134 157 0
93 103 0
151 173 0
152 174 0
145 162 0
114 131 0
126 145 0
120 129 0
146 167 0
133 152 0
158 179 0
145 167 0
140 159 0
110 124 0
123 144 0
147 170 0
163 184 0
126 141 0
143 165 0
152 168 0
140 162 0
138 153 0
144 154 0
152 173 0
125 144 0
155 180 0
157 172 0
127 143 0
147 161 0
154 171 0
154 169 0
107 121 0
175 198 0
152 172 0
148 168 0
134 146 0
152 174 0
134 149 0
137 157 0
139 148 0
136 150 0
131 150 0
135 153 0
94 113 0
170 192 0
143 159 0
133 151 0
146 153 0
117 130 0
134 149 0
170 188 0
143 156 0
127 137 0
149 163 0
117 134 0
119 137 0
147 164 0
119 132 0
142 155 0
149 169 0
151 165 0
145 159 0
128 142 0
154 169 0
153 162 0
154 169 0
137 155 0
153 172 0
134 143 0
112 122 0
152 163 0
135 147 0
140 156 0
157 178 0
128 143 0
152 165 0
130 145 0
165 185 0
130 145 0
153 165 0
159 169 0
146 149 0
147 159 0
150 162 0
159 175 0
161 172 0
132 140 0
142 154 0
142 152 0
141 140 0
140 151 0
156 165 0
151 164 0
120 133 0
149 160 0
130 139 0
124 134 0
144 152 0
163 175 0
130 145 0
136 148 0
153 164 0
131 139 0
129 132 0
107 114 0
135 140 0
160 171 0
175 193 0
129 138 0
150 158 0
145 155 0
138 142 0
158 172 0
150 156 0
165 178 0
168 185 0
154 160 0
152 159 0
154 158 0
160 169 0
146 152 0
152 161 0
152 167 0
150 161 0
167 181 0
162 166 0
154 163 0
149 159 0
162 175 0
141 146 0
158 161 0
134 126 0
154 162 0
158 170 0
154 162 0
146 149 0
159 164 0
155 163 0
137 137 0
146 155 0
155 156 0
157 168 0
170 178 0
153 157 0
168 180 0
142 150 0
145 146 0
132 127 0
164 170 0
133 141 0
151 164 0
141 147 0
136 140 0
175 195 0
151 154 0
160 167 0
151 160 0
165 173 0
147 154 0
137 139 0
159 168 0
141 149 0
168 179 0
154 166 0
158 170 0
153 172 0
149 167 0
160 178 0
162 181 0
160 178 0
168 187 0
149 166 0
173 193 0
156 176 0
155 170 0
144 159 0
150 167 0
139 157 0
148 167 0
154 172 0
164 184 0
162 180 0
157 175 0
147 166 0
139 155 0
130 145 0
152 169 0
139 156 0
159 176 0
154 172 0
164 182 0
151 167 0
142 158 0
139 156 0
138 154 0
127 143 0
165 184 0
131 145 0
158 178 0
144 161 0
132 150 0
142 161 0
153 171 0
155 175 0
138 155 0
155 175 0
158 179 0
163 180 0
167 185 0
141 156 0
148 165 0
161 181 0
160 181 0
134 155 0
148 166 0
120 136 0
157 174 0
148 168 0
156 175 0
152 170 0
149 168 0
132 148 0
150 168 0
165 187 0
150 169 0
150 166 0
148 165 0
151 169 0
151 174 0
166 187 0
150 167 0
156 176 0
138 156 0
152 173 0
132 151 0
153 173 0
163 185 0
163 185 0
142 160 0
157 177 0
166 184 0
148 168 0
142 162 0
131 147 0
145 164 0
130 150 0
137 155 0
149 170 0
114 131 0
152 171 0
134 152 0
150 172 0
150 171 0
136 155 0
144 167 0
166 185 0
149 168 0
151 174 0
152 175 0
153 173 0
137 156 0
160 180 0
150 172 0
158 179 0
145 164 0
152 174 0
142 161 0
149 165 0
149 169 0
120 140 0
158 174 0
158 179 0
155 175 0
169 189 0
147 163 0
157 177 0
132 151 0
135 156 0
148 170 0
166 188 0
132 152 0
117 134 0
139 161 0
142 164 0
119 138 0
136 156 0
147 170 0
148 167 0
137 153 0
121 141 0
164 185 0
158 181 0
153 177 0
141 160 0
137 155 0
149 171 0
158 182 0
149 169 0
156 178 0
148 168 0
162 183 0
133 152 0
130 150 0
140 160 0
144 167 0
151 173 0
127 147 0
138 159 0
163 187 0
161 179 0
145 166 0
169 191 0
120 142 0
142 162 0
128 150 0
140 162 0
132 151 0
155 177 0
144 167 0
136 155 0
141 161 0
141 161 0
127 151 0
125 145 0
120 138 0
128 147 0
159 179 0
169 191 0
140 162 0
161 181 0
140 161 0
153 174 0
144 169 0
132 149 0
130 153 0
149 169 0
151 173 0
143 165 0
144 167 0
151 175 0
149 171 0
156 180 0
147 168 0
128 151 0
153 177 0
124 148 0
136 159 0
147 169 0
139 161 0
134 154 0
141 163 0
148 171 0
153 173 0
108 129 0
155 177 0
116 134 0
126 142 0
147 168 0
129 152 0
135 157 0
147 166 0
139 159 0
161 186 0
136 158 0
143 167 0
142 168 0
147 166 0
134 159 0
156 179 0
145 163 0
141 163 0
156 173 0
142 163 0
149 167 0
139 160 0
143 163 0
144 167 0
129 147 0
128 145 0
169 188 0
107 128 0
136 153 0
136 157 0
129 148 0
134 157 0
116 135 0
153 172 0
140 156 0
142 165 0
137 152 0
168 190 0
159 186 0
118 131 0
129 150 0
139 156 0
159 183 0
152 171 0
107 124 0
151 169 0
158 177 0
125 146 0
151 171 0
130 148 0
140 163 0
152 173 0
144 163 0
144 163 0
134 156 0
141 151 0
147 168 0
84 104 0
161 186 0
164 183 0
148 165 0
144 162 0
149 172 0
139 157 0
158 181 0
166 186 0
150 166 0
108 121 0
150 171 0
123 147 0
144 161 0
159 182 0
172 196 0
138 154 0
152 174 0
147 169 0
148 171 0
159 180 0
159 181 0
131 153 0
131 139 0
152 168 0
133 155 0
132 145 0
147 167 0
115 132 0
154 170 0
123 143 0
148 163 0
138 152 0
152 170 0
103 127 0
151 165 0
154 165 0
128 139 0
152 172 0
127 142 0
158 172 0
161 174 0
148 163 0
152 172 0
143 164 0
118 131 0
151 169 0
141 159 0
166 186 0
115 135 0
162 184 0
130 146 0
151 162 0
132 151 0
153 169 0
152 159 0
102 110 0
145 149 0
155 167 0
150 172 0
150 164 0
124 143 0
112 113 0
165 185 0
129 142 0
157 174 0
149 158 0
149 162 0
166 177 0
126 135 0
162 177 0
146 155 0
148 156 0
141 156 0
136 144 0
163 179 0
145 159 0
144 156 0
125 132 0
133 135 0
126 140 0
132 135 0
138 158 0
127 127 0
145 157 0
160 172 0
137 143 0
154 165 0
169 184 0
139 153 0
165 171 0
148 155 0
153 161 0
143 158 0
139 149 0
155 155 0
140 154 0
142 143 0
148 157 0
139 148 0
140 149 0
165 184 0
148 158 0
139 141 0
146 156 0
151 160 0
162 177 0
130 139 0
145 145 0
147 161 0
129 145 0
162 173 0
170 178 0
162 171 0
138 141 0
149 150 0
154 156 0
163 173 0
145 155 0
138 147 0
159 167 0
142 149 0
172 183 0
148 160 0
134 140 0
157 164 0
155 164 0
157 166 0
149 155 0
141 146 0
148 144 0
166 183 0
155 157 0
160 168 0
146 153 0
140 148 0
167 179 0
160 166 0
162 168 0
127 127 0
159 164 0
150 158 0
152 156 0
173 189 0
154 161 0
167 186 0
164 177 0
161 170 0
141 145 0
164 174 0
155 153 0
146 150 0
160 167 0
177 192 0
167 181 0
155 173 0
172 195 0
156 177 0
165 185 0
137 152 0
158 177 0
154 171 0
169 187 0
155 177 0
148 166 0
156 173 0
146 162 0
165 183 0
152 173 0
147 167 0
146 160 0
132 150 0
141 159 0
150 171 0
140 159 0
147 166 0
154 171 0
141 161 0
158 179 0
157 176 0
167 184 0
166 181 0
146 166 0
137 155 0
141 160 0
144 162 0
151 170 0
167 185 0
152 172 0
160 180 0
147 166 0
144 159 0
135 154 0
157 174 0
140 156 0
156 174 0
163 182 0
162 183 0
176 196 0
153 174 0
148 166 0
151 170 0
172 192 0
143 161 0
118 133 0
156 173 0
163 183 0
156 176 0
121 135 0
155 173 0
174 191 0
142 158 0
146 167 0
133 151 0
156 174 0
159 178 0
117 129 0
157 175 0
135 153 0
139 161 0
117 131 0
150 170 0
129 146 0
134 152 0
164 185 0
145 167 0
139 161 0
139 156 0
168 189 0
159 179 0
131 153 0
161 179 0
149 170 0
139 162 0
141 164 0
159 179 0
129 145 0
160 183 0
157 176 0
137 153 0
139 158 0
160 180 0
141 162 0
135 151 0
158 180 0
121 139 0
147 167 0
170 192 0
137 157 0
136 159 0
151 169 0
149 168 0
157 180 0
148 168 0
155 173 0
154 174 0
145 164 0
150 171 0
136 157 0
148 168 0
153 171 0
146 166 0
143 163 0
151 174 0
134 155 0
154 175 0
158 180 0
148 168 0
149 171 0
146 166 0
149 172 0
155 174 0
152 171 0
149 170 0
138 158 0
150 176 0
114 133 0
149 170 0
119 139 0
155 175 0
140 161 0
159 182 0
146 169 0
135 153 0
160 182 0
151 172 0
150 171 0
156 178 0
140 160 0
126 146 0
169 194 0
142 164 0
139 161 0
146 171 0
102 122 0
161 182 0
160 182 0
148 170 0
157 179 0
162 185 0
146 167 0
134 152 0
154 170 0
142 162 0
144 166 0
162 185 0
135 154 0
164 187 0
163 180 0
153 176 0
163 187 0
146 167 0
174 194 0
156 179 0
159 178 0
137 155 0
144 165 0
159 180 0
134 158 0
137 157 0
123 146 0
135 157 0
156 174 0
120 139 0
129 150 0
147 170 0
128 147 0
122 142 0
147 170 0
155 174 0
126 145 0
161 185 0
88 105 0
152 176 0
140 161 0
121 140 0
138 158 0
131 151 0
151 177 0
132 151 0
120 139 0
136 156 0
154 173 0
113 137 0
117 137 0
149 169 0
160 182 0
128 141 0
129 144 0
154 173 0
142 162 0
123 140 0
137 160 0
141 166 0
125 149 0
113 131 0
127 146 0
142 164 0
142 162 0
123 143 0
147 165 0
154 176 0
134 149 0
154 175 0
134 154 0
155 176 0
128 145 0
115 133 0
124 145 0
158 175 0
135 159 0
138 161 0
128 143 0
143 164 0
142 164 0
157 176 0
101 111 0
158 181 0
152 172 0
116 138 0
125 141 0
128 152 0
141 160 0
101 122 0
154 172 0
122 139 0
129 149 0
160 182 0
135 158 0
146 162 0
130 151 0
147 170 0
115 128 0
148 168 0
162 182 0
148 169 0
153 172 0
167 191 0
141 165 0
154 169 0
156 179 0
170 194 0
109 130 0
131 152 0
149 165 0
161 185 0
147 169 0
143 164 0
153 174 0
127 149 0
139 161 0
131 151 0
138 155 0
137 156 0
156 171 0
130 153 0
147 163 0
130 152 0
150 167 0
162 181 0
154 170 0
128 138 0
138 153 0
142 162 0
127 144 0
136 153 0
158 178 0
135 146 0
160 176 0
148 167 0
147 167 0
140 157 0
149 166 0
153 170 0
152 170 0
148 166 0
161 176 0
161 178 0
143 163 0
125 138 0
160 181 0
146 171 0
154 166 0
117 126 0
133 146 0
141 158 0
139 150 0
146 161 0
161 173 0
154 170 0
160 182 0
160 176 0
150 162 0
132 145 0
153 169 0
123 138 0
148 159 0
149 165 0
157 179 0
141 159 0
121 133 0
143 156 0
129 139 0
151 164 0
168 184 0
147 163 0
157 174 0
137 155 0
166 185 0
141 148 0
137 144 0
126 131 0
143 162 0
134 142 0
155 167 0
120 121 0
161 179 0
154 165 0
151 169 0
140 145 0
148 155 0
171 182 0
148 163 0
164 181 0
134 142 0
124 128 0
150 164 0
134 146 0
133 135 0
153 167 0
163 170 0
150 163 0
155 166 0
140 144 0
130 133 0
145 146 0
142 148 0
146 160 0
125 134 0
162 177 0
153 165 0
144 147 0
138 147 0
171 184 0
157 168 0
155 168 0
137 147 0
145 151 0
147 152 0
160 165 0
159 164 0
122 125 0
123 134 0
146 155 0
132 132 0
150 154 0
154 162 0
149 155 0
124 128 0
140 139 0
132 131 0
142 143 0
132 137 0
148 151 0
162 177 0
139 142 0
137 138 0
151 162 0
164 171 0
133 133 0
157 167 0
172 186 0
164 178 0
154 161 0
161 169 0
138 147 0
145 143 0
160 168 0
161 174 0
161 171 0
170 183 0
132 127 0
162 173 0
172 182 0
150 151 0
141 153 0
156 164 0
162 172 0
161 176 0
159 168 0
153 155 0
157 166 0
157 164 0
144 147 0
164 167 0
164 184 0
167 185 0
166 188 0
167 188 0
169 188 0
159 178 0
141 157 0
165 183 0
158 177 0
153 175 0
168 187 0
163 183 0
146 165 0
146 165 0
152 173 0
149 168 0
149 165 0
149 164 0
161 181 0
154 172 0
153 171 0
153 174 0
148 165 0
155 173 0
173 193 0
143 163 0
147 163 0
160 182 0
151 171 0
150 169 0
157 176 0
161 180 0
153 173 0
156 175 0
159 178 0
147 167 0
120 136 0
144 162 0
144 164 0
121 139 0
155 173 0
159 177 0
164 184 0
160 178 0
130 148 0
150 168 0
151 168 0
160 180 0
159 178 0
166 184 0
163 178 0
140 159 0
146 164 0
132 147 0
150 169 0
145 160 0
175 193 0
161 181 0
160 182 0
145 161 0
158 177 0
159 180 0
154 173 0
150 173 0
144 163 0
143 164 0
160 178 0
106 121 0
166 184 0
158 180 0
142 161 0
138 155 0
147 167 0
141 161 0
160 177 0
149 164 0
156 177 0
165 184 0
139 162 0
142 165 0
151 170 0
141 160 0
149 167 0
151 171 0
130 151 0
146 164 0
166 186 0
152 171 0
160 177 0
129 148 0
156 179 0
155 175 0
143 161 0
138 161 0
143 162 0
153 175 0
128 147 0
144 163 0
138 158 0
152 176 0
174 198 0
127 149 0
162 186 0
154 176 0
149 171 0
141 159 0
152 170 0
146 168 0
176 197 0
152 172 0
133 155 0
150 173 0
158 181 0
135 154 0
121 141 0
149 170 0
160 181 0
125 146 0
149 167 0
141 161 0
151 170 0
155 177 0
152 173 0
142 163 0
165 189 0
144 165 0
144 159 0
141 160 0
162 183 0
144 167 0
142 162 0
168 189 0
161 186 0
152 175 0
143 161 0
102 121 0
143 163 0
111 129 0
137 160 0
120 141 0
128 148 0
147 169 0
104 126 0
161 180 0
156 172 0
166 189 0
131 156 0
147 166 0
157 176 0
148 169 0
154 174 0
120 141 0
128 148 0
153 177 0
158 181 0
146 168 0
159 180 0
157 179 0
141 163 0
119 129 0
154 176 0
142 163 0
140 158 0
113 133 0
124 147 0
108 127 0
154 177 0
123 147 0
131 153 0
134 149 0
114 137 0
123 139 0
145 164 0
145 162 0
146 168 0
153 172 0
136 160 0
133 154 0
142 164 0
137 150 0
116 132 0
141 162 0
145 167 0
153 176 0
155 175 0
125 147 0
153 175 0
141 163 0
135 158 0
148 170 0
128 148 0
155 178 0
146 167 0
158 179 0
136 157 0
124 142 0
151 176 0
149 170 0
150 170 0
129 147 0
126 145 0
163 184 0
152 170 0
130 150 0
149 172 0
142 164 0
128 148 0
150 171 0
114 137 0
127 148 0
134 151 0
147 169 0
172 195 0
124 147 0
142 163 0
135 157 0
145 170 0
160 178 0
123 145 0
122 136 0
133 155 0
167 189 0
147 161 0
148 170 0
146 167 0
133 156 0
118 138 0
147 165 0
163 184 0
148 169 0
121 142 0
138 160 0
149 170 0
139 160 0
134 150 0
153 173 0
157 180 0
147 171 0
148 166 0
144 166 0
154 172 0
157 173 0
129 142 0
152 175 0
153 169 0
149 166 0
146 163 0
129 146 0
141 164 0
154 174 0
132 152 0
126 148 0
130 144 0
133 154 0
95 117 0
143 164 0
119 140 0
158 176 0
170 195 0
120 138 0
143 165 0
88 111 0
144 164 0
150 171 0
158 176 0
160 186 0
152 169 0
146 168 0
136 150 0
141 161 0
153 174 0
154 171 0
171 192 0
159 179 0
133 158 0
115 130 0
168 191 0
128 148 0
159 178 0
133 151 0
140 159 0
121 135 0
171 189 0
147 162 0
150 168 0
139 156 0
134 144 0
147 165 0
140 154 0
114 134 0
116 125 0
124 138 0
140 157 0
143 162 0
150 163 0
122 137 0
154 175 0
143 162 0
159 177 0
160 181 0
117 130 0
139 151 0
167 186 0
156 169 0
132 152 0
164 188 0
166 189 0
134 144 0
128 139 0
149 168 0
129 135 0
131 139 0
146 160 0
135 147 0
147 169 0
134 146 0
168 182 0
147 161 0
155 166 0
145 162 0
151 166 0
138 154 0
140 153 0
164 180 0
156 177 0
164 185 0
159 173 0
127 139 0
152 161 0
151 167 0
144 152 0
164 185 0
155 166 0
144 163 0
151 169 0
169 186 0
156 169 0
157 168 0
138 149 0
154 168 0
150 149 0
163 179 0
144 157 0
166 181 0
162 173 0
147 152 0
150 157 0
164 179 0
148 155 0
151 161 0
122 132 0
151 158 0
138 148 0
151 165 0
152 159 0
125 137 0
160 169 0
137 146 0
133 134 0
147 148 0
157 169 0
172 189 0
157 164 0
145 154 0
156 168 0
154 161 0
160 174 0
157 171 0
163 171 0
152 171 0
155 170 0
162 175 0
163 170 0
145 160 0
125 130 0
149 157 0
145 154 0
145 157 0
144 154 0
153 159 0
160 176 0
159 168 0
155 163 0
148 154 0
154 164 0
158 163 0
158 165 0
155 165 0
149 157 0
133 138 0
157 164 0
140 133 0
138 141 0
143 151 0
155 164 0
138 136 0
158 173 0
152 156 0
157 162 0
165 176 0
173 196 0
152 170 0
150 169 0
160 179 0
164 184 0
163 179 0
157 175 0
154 170 0
148 166 0
157 175 0
156 175 0
150 169 0
154 174 0
126 143 0
145 166 0
167 187 0
158 179 0
166 186 0
152 173 0
158 175 0
162 186 0
156 173 0
154 172 0
154 173 0
149 167 0
165 183 0
150 169 0
162 183 0
158 176 0
136 155 0
160 178 0
156 176 0
137 155 0
159 179 0
157 179 0
165 184 0
160 181 0
131 147 0
140 157 0
152 174 0
136 154 0
133 150 0
140 158 0
143 160 0
163 186 0
152 171 0
156 174 0
139 155 0
161 181 0
158 179 0
173 193 0
156 176 0
161 181 0
151 170 0
140 159 0
158 176 0
154 176 0
140 160 0
125 140 0
153 172 0
162 181 0
150 172 0
151 167 0
146 166 0
135 153 0
131 150 0
145 164 0
164 183 0
156 174 0
147 168 0
164 185 0
143 161 0
166 186 0
115 133 0
142 163 0
133 150 0
130 151 0
149 165 0
144 162 0
138 155 0
143 163 0
145 160 0
152 169 0
155 174 0
145 162 0
157 176 0
148 167 0
136 160 0
164 188 0
157 177 0
129 148 0
152 172 0
139 161 0
133 155 0
140 161 0
157 180 0
148 171 0
161 182 0
151 175 0
142 164 0
144 166 0
144 164 0
150 172 0
150 170 0
134 155 0
154 173 0
151 176 0
157 177 0
132 155 0
161 185 0
131 151 0
161 184 0
142 164 0
151 173 0
151 169 0
157 179 0
131 152 0
160 179 0
139 159 0
154 172 0
112 131 0
166 185 0
141 159 0
153 173 0
134 151 0
118 141 0
160 183 0
149 171 0
160 179 0
146 169 0
136 156 0
146 169 0
144 168 0
149 170 0
162 184 0
125 146 0
151 168 0
149 168 0
155 176 0
143 166 0
160 180 0
123 141 0
152 174 0
141 166 0
146 165 0
139 161 0
175 198 0
122 145 0
168 191 0
125 146 0
142 166 0
142 165 0
138 159 0
134 155 0
134 155 0
113 137 0
147 168 0
168 191 0
146 168 0
147 169 0
164 185 0
164 180 0
149 170 0
123 144 0
143 162 0
176 198 0
127 148 0
142 165 0
151 172 0
112 129 0
152 176 0
149 169 0
149 172 0
166 189 0
153 176 0
136 155 0
117 136 0
166 188 0
147 168 0
139 160 0
156 180 0
145 167 0
150 169 0
137 160 0
138 156 0
113 131 0
144 169 0
132 151 0
132 152 0
169 194 0
124 145 0
140 161 0
130 147 0
168 188 0
135 160 0
137 159 0
157 181 0
104 118 0
153 171 0
120 134 0
136 160 0
146 164 0
147 169 0
158 181 0
166 186 0
134 157 0
157 181 0
98 118 0
125 147 0
148 164 0
147 167 0
157 175 0
117 137 0
127 145 0
116 135 0
170 190 0
145 161 0
160 180 0
133 156 0
127 149 0
156 173 0
141 162 0
162 186 0
111 134 0
149 170 0
130 151 0
112 135 0
155 178 0
141 165 0
145 169 0
129 150 0
160 177 0
129 150 0
125 146 0
134 156 0
162 183 0
169 190 0
163 187 0
132 148 0
118 136 0
116 131 0
145 166 0
145 168 0
133 152 0
156 179 0
139 157 0
138 157 0
151 174 0
125 140 0
137 154 0
152 170 0
158 173 0
146 166 0
126 145 0
131 153 0
154 175 0
144 169 0
156 173 0
124 146 0
121 145 0
159 180 0
137 154 0
141 161 0
120 137 0
147 158 0
139 158 0
152 169 0
148 166 0
133 153 0
151 174 0
169 187 0
132 147 0
146 165 0
154 168 0
154 175 0
172 188 0
150 168 0
149 164 0
153 170 0
155 175 0
170 185 0
168 186 0
154 172 0
96 110 0
128 147 0
164 185 0
135 148 0
155 171 0
137 145 0
155 173 0
161 178 0
153 171 0
147 167 0
135 156 0
169 188 0
155 171 0
123 134 0
135 151 0
155 171 0
158 169 0
137 158 0
133 146 0
115 122 0
128 142 0
148 167 0
163 177 0
157 175 0
136 145 0
145 157 0
131 142 0
138 149 0
160 179 0
138 148 0
165 181 0
151 164 0
157 169 0
145 159 0
141 149 0
140 154 0
133 149 0
144 166 0
166 183 0
143 142 0
147 158 0
160 171 0
154 167 0
142 156 0
152 162 0
165 172 0
168 176 0
166 181 0
153 168 0
154 166 0
148 160 0
140 155 0
161 171 0
135 149 0
147 155 0
142 152 0
146 162 0
156 167 0
147 156 0
147 164 0
144 154 0
139 148 0
151 157 0
148 165 0
150 162 0
167 175 0
161 168 0
127 133 0
173 186 0
148 159 0
156 165 0
148 157 0
163 180 0
158 169 0
142 152 0
145 153 0
151 161 0
152 160 0
142 152 0
164 177 0
162 177 0
148 155 0
146 156 0
159 165 0
147 156 0
151 159 0
132 137 0
139 147 0
151 164 0
139 149 0
146 153 0
150 155 0
141 142 0
152 163 0
151 156 0
166 176 0
155 166 0
163 177 0
160 167 0
152 161 0
158 167 0
156 165 0
151 149 0
143 150 0
151 158 0
145 147 0
151 159 0
151 160 0
164 174 0
154 160 0
158 175 0
149 158 0
146 159 0
158 165 0
147 151 0
142 142 0
149 163 0
149 170 0
153 173 0
164 183 0
151 170 0
152 171 0
177 193 0
143 158 0
157 175 0
153 173 0
152 174 0
165 183 0
156 179 0
155 173 0
162 181 0
152 170 0
159 175 0
141 158 0
131 149 0
162 182 0
166 186 0
151 172 0
152 169 0
161 180 0
149 170 0
161 183 0
159 177 0
150 170 0
161 181 0
164 186 0
156 175 0
155 175 0
163 183 0
163 181 0
145 162 0
154 176 0
162 183 0
160 179 0
144 164 0
165 188 0
136 155 0
152 172 0
165 186 0
149 169 0
163 182 0
124 138 0
142 162 0
156 174 0
140 159 0
145 165 0
166 187 0
156 175 0
143 158 0
154 177 0
162 183 0
136 153 0
155 175 0
144 162 0
170 191 0
141 160 0
169 191 0
143 165 0
137 158 0
127 141 0
140 160 0
154 170 0
131 149 0
154 179 0
155 175 0
162 181 0
150 171 0
161 182 0
158 180 0
159 177 0
129 146 0
152 173 0
152 170 0
139 157 0
162 183 0
162 178 0
136 155 0
141 162 0
160 177 0
152 171 0
168 192 0
160 182 0
159 180 0
157 176 0
168 191 0
162 181 0
147 164 0
158 180 0
132 149 0
145 161 0
122 143 0
166 188 0
165 187 0
134 155 0
122 141 0
161 184 0
123 144 0
145 167 0
154 176 0
163 184 0
169 191 0
143 163 0
147 169 0
140 164 0
150 175 0
145 166 0
136 158 0
134 153 0
140 161 0
143 162 0
131 155 0
167 189 0
139 161 0
149 173 0
128 148 0
129 150 0
130 148 0
128 147 0
144 164 0
152 173 0
147 171 0
154 177 0
128 147 0
159 180 0
151 174 0
141 161 0
173 197 0
164 188 0
144 164 0
149 169 0
143 166 0
154 179 0
143 165 0
156 178 0
124 143 0
162 181 0
131 151 0
145 168 0
169 189 0
95 114 0
144 164 0
170 195 0
157 179 0
151 170 0
136 157 0
160 183 0
171 196 0
161 179 0
155 175 0
161 185 0
147 168 0
150 172 0
163 188 0
162 180 0
134 158 0
155 179 0
143 164 0
136 156 0
155 178 0
134 156 0
130 150 0
145 169 0
125 143 0
132 155 0
138 160 0
152 173 0
157 174 0
123 145 0
139 160 0
146 170 0
150 173 0
145 168 0
153 175 0
128 148 0
156 180 0
157 180 0
154 176 0
146 169 0
129 146 0
127 151 0
140 164 0
134 159 0
153 174 0
148 169 0
135 153 0
138 157 0
157 181 0
125 148 0
160 181 0
154 178 0
136 157 0
138 161 0
132 152 0
155 175 0
153 176 0
159 185 0
121 141 0
122 144 0
142 162 0
157 180 0
145 169 0
136 155 0
145 168 0
123 141 0
144 164 0
140 161 0
124 148 0
150 172 0
160 181 0
160 180 0
165 187 0
98 120 0
149 170 0
153 167 0
138 158 0
154 173 0
131 153 0
138 158 0
144 167 0
140 159 0
124 147 0
168 191 0
143 163 0
161 185 0
135 158 0
169 189 0
155 175 0
139 158 0
150 168 0
140 163 0
143 163 0
152 177 0
153 173 0
161 184 0
139 160 0
153 171 0
161 187 0
154 174 0
145 165 0
145 170 0
146 170 0
109 129 0
127 147 0
152 173 0
143 169 0
150 164 0
177 194 0
137 158 0
152 170 0
146 169 0
147 165 0
159 180 0
136 154 0
146 167 0
156 174 0
149 170 0
120 140 0
147 168 0
151 173 0
155 176 0
144 160 0
134 151 0
143 166 0
115 132 0
140 154 0
130 150 0
169 187 0
146 160 0
169 191 0
146 166 0
165 188 0
145 161 0
140 161 0
150 160 0
159 168 0
140 162 0
131 144 0
146 170 0
131 150 0
125 142 0
157 180 0
159 181 0
160 182 0
138 156 0
154 166 0
139 155 0
152 171 0
133 148 0
149 167 0
161 175 0
148 163 0
146 163 0
156 176 0
153 177 0
134 148 0
131 153 0
156 173 0
164 183 0
155 177 0
145 166 0
163 176 0
135 147 0
145 161 0
171 183 0
147 169 0
152 168 0
135 150 0
144 167 0
154 168 0
135 151 0
151 167 0
162 182 0
167 178 0
148 165 0
162 179 0
153 167 0
141 151 0
129 147 0
163 182 0
170 185 0
153 165 0
130 138 0
135 146 0
159 177 0
168 183 0
151 159 0
162 175 0
152 166 0
137 148 0
169 188 0
150 161 0
140 139 0
125 138 0
134 149 0
130 141 0
154 163 0
164 176 0
159 177 0
158 168 0
158 165 0
148 162 0
166 183 0
146 162 0
141 150 0
135 146 0
155 169 0
157 175 0
147 158 0
147 151 0
168 180 0
144 138 0
150 154 0
149 160 0
141 147 0
155 172 0
161 175 0
163 177 0
135 144 0
161 173 0
160 172 0
142 147 0
160 171 0
162 173 0
147 162 0
168 183 0
161 175 0
145 154 0
150 153 0
120 125 0
166 181 0
147 156 0
155 161 0
160 170 0
125 130 0
138 149 0
153 161 0
175 195 0
146 154 0
139 146 0
153 167 0
149 155 0
161 168 0
170 187 0
146 151 0
163 179 0
154 158 0
143 147 0
169 188 0
155 162 0
164 178 0
153 163 0
142 147 0
147 152 0
162 175 0
160 172 0
158 168 0
153 162 0
143 162 0
166 186 0
180 199 0
133 149 0
148 166 0
167 183 0
174 194 0
170 193 0
141 155 0
146 165 0
151 170 0
159 180 0
146 166 0
146 162 0
159 178 0
156 177 0
141 158 0
140 157 0
143 161 0
172 193 0
152 172 0
132 151 0
139 158 0
147 167 0
150 170 0
149 167 0
152 172 0
175 196 0
160 181 0
146 167 0
147 168 0
161 181 0
165 185 0
145 163 0
152 170 0
157 175 0
170 189 0
154 172 0
146 165 0
147 165 0
152 171 0
147 165 0
141 160 0
143 159 0
148 169 0
172 190 0
140 158 0
161 178 0
164 184 0
154 174 0
148 167 0
148 167 0
134 152 0
145 165 0
136 153 0
159 179 0
157 174 0
155 174 0
152 170 0
163 182 0
125 143 0
160 181 0
156 177 0
148 167 0
159 179 0
160 182 0
145 166 0
167 185 0
144 162 0
160 182 0
144 165 0
165 181 0
147 162 0
168 189 0
153 174 0
147 164 0
122 140 0
160 177 0
148 169 0
152 171 0
162 180 0
143 164 0
148 169 0
145 168 0
147 169 0
159 180 0
136 156 0
156 178 0
138 158 0
147 168 0
131 150 0
141 159 0
143 164 0
146 168 0
142 162 0
126 143 0
166 188 0
154 175 0
147 167 0
147 166 0
126 148 0
135 156 0
143 162 0
152 172 0
136 158 0
142 161 0
138 161 0
136 161 0
153 175 0
161 180 0
143 165 0
153 175 0
170 189 0
126 146 0
132 154 0
125 148 0
160 181 0
156 176 0
179 199 0
142 166 0
150 170 0
153 176 0
140 162 0
154 174 0
144 166 0
154 175 0
124 145 0
140 160 0
143 163 0
124 146 0
151 172 0
151 172 0
138 161 0
134 156 0
139 160 0
157 180 0
148 170 0
145 167 0
165 189 0
121 143 0
132 153 0
145 167 0
162 186 0
135 154 0
156 178 0
122 144 0
143 164 0
136 155 0
127 149 0
143 164 0
141 160 0
168 189 0
148 168 0
137 152 0
152 174 0
140 158 0
149 171 0
153 175 0
161 185 0
139 157 0
124 142 0
125 144 0
144 168 0
173 196 0
154 177 0
142 163 0
145 165 0
125 146 0
126 146 0
140 162 0
153 174 0
153 174 0
123 141 0
144 166 0
159 178 0
154 178 0
129 149 0
154 176 0
148 171 0
155 174 0
122 137 0
129 149 0
136 160 0
158 179 0
141 160 0
160 183 0
136 160 0
118 138 0
164 187 0
162 188 0
124 145 0
106 124 0
144 168 0
147 168 0
162 179 0
132 147 0
135 154 0
162 186 0
156 179 0
155 180 0
127 148 0
161 182 0
138 162 0
132 150 0
136 158 0
146 169 0
143 161 0
135 158 0
149 171 0
141 162 0
145 164 0
141 161 0
146 169 0
126 148 0
130 154 0
150 173 0
149 172 0
156 173 0
91 110 0
113 129 0
133 157 0
150 171 0
101 125 0
149 171 0
128 147 0
153 175 0
151 171 0
169 187 0
125 146 0
134 158 0
156 176 0
127 149 0
166 187 0
143 157 0
123 145 0
140 164 0
144 165 0
140 162 0
147 169 0
152 174 0
126 146 0
149 167 0
161 184 0
139 153 0
164 185 0
144 157 0
144 168 0
135 151 0
136 154 0
147 163 0
172 196 0
117 135 0
151 171 0
163 184 0
143 167 0
124 146 0
170 193 0
166 190 0
140 154 0
154 175 0
138 160 0
130 150 0
125 141 0
123 141 0
159 178 0
170 190 0
164 181 0
157 177 0
140 156 0
154 176 0
132 150 0
141 162 0
147 165 0
125 146 0
149 169 0
153 177 0
145 162 0
159 172 0
139 158 0
153 174 0
151 172 0
172 197 0
136 154 0
146 165 0
137 155 0
155 173 0
144 162 0
159 177 0
148 165 0
149 166 0
157 167 0
163 180 0
163 181 0
150 171 0
165 184 0
150 172 0
137 152 0
143 152 0
168 187 0
156 167 0
152 167 0
153 167 0
157 176 0
139 159 0
158 178 0
153 169 0
141 153 0
154 169 0
168 180 0
136 146 0
144 157 0
155 177 0
177 199 0
145 165 0
148 165 0
154 176 0
155 167 0
131 134 0
141 160 0
161 169 0
156 174 0
149 163 0
139 146 0
164 187 0
159 173 0
139 150 0
147 152 0
149 163 0
160 176 0
169 190 0
151 164 0
132 137 0
136 142 0
149 161 0
166 185 0
139 153 0
157 175 0
157 178 0
142 156 0
146 155 0
137 146 0
162 159 0
155 166 0
167 174 0
170 186 0
161 175 0
135 145 0
169 187 0
161 172 0
151 166 0
162 169 0
151 163 0
161 170 0
152 161 0
138 146 0
168 184 0
138 154 0
164 172 0
143 153 0
151 159 0
153 159 0
143 152 0
124 125 0
136 150 0
146 154 0
137 140 0
157 172 0
147 157 0
146 155 0
157 163 0
144 157 0
146 150 0
158 172 0
168 178 0
159 170 0
148 151 0
165 177 0
164 176 0
165 169 0
164 180 0
157 160 0
162 179 0
146 150 0
167 175 0
162 177 0
164 168 0
157 164 0
176 188 0
173 194 0
143 150 0
164 175 0
168 182 0
161 176 0
157 172 0
165 180 0
149 161 0
162 175 0
156 171 0
160 171 0
159 172 0
150 168 0
149 168 0
168 189 0
144 162 0
153 171 0
163 181 0
169 191 0
165 185 0
134 151 0
161 182 0
143 158 0
171 191 0
142 160 0
141 161 0
160 180 0
160 181 0
151 169 0
141 159 0
142 160 0
151 167 0
148 165 0
132 150 0
168 187 0
160 179 0
164 183 0
150 166 0
157 175 0
147 167 0
154 176 0
162 181 0
124 140 0
157 174 0
156 172 0
165 182 0
157 180 0
159 178 0
164 187 0
149 170 0
166 187 0
154 173 0
147 164 0
106 124 0
160 182 0
158 177 0
170 190 0
149 169 0
143 163 0
149 169 0
154 173 0
165 185 0
167 188 0
144 163 0
162 181 0
155 177 0
165 184 0
151 171 0
149 168 0
151 170 0
142 160 0
146 163 0
137 154 0
162 184 0
152 168 0
157 175 0
171 194 0
165 186 0
161 182 0
158 178 0
142 159 0
151 173 0
170 193 0
133 154 0
129 146 0
162 184 0
177 198 0
147 167 0
143 162 0
156 178 0
155 176 0
151 173 0
134 153 0
149 172 0
166 183 0
134 148 0
132 154 0
160 183 0
136 156 0
147 170 0
115 132 0
139 157 0
139 160 0
132 154 0
148 168 0
159 178 0
146 169 0
158 182 0
143 167 0
140 164 0
150 170 0
147 167 0
146 168 0
137 156 0
135 155 0
160 183 0
138 159 0
152 173 0
160 182 0
148 168 0
138 154 0
146 167 0
126 146 0
131 154 0
165 183 0
144 165 0
137 157 0
145 165 0
131 153 0
136 157 0
121 134 0
161 185 0
130 152 0
156 177 0
153 172 0
133 149 0
148 170 0
137 157 0
160 183 0
168 190 0
159 179 0
161 180 0
161 181 0
127 146 0
149 172 0
150 171 0
176 198 0
150 173 0
127 147 0
120 141 0
149 169 0
159 183 0
143 168 0
176 198 0
132 154 0
162 179 0
138 156 0
131 154 0
138 157 0
136 155 0
148 173 0
144 162 0
135 158 0
125 148 0
164 184 0
131 154 0
141 160 0
138 157 0
149 173 0
158 183 0
126 148 0
158 181 0
166 189 0
154 174 0
133 149 0
162 185 0
122 146 0
155 177 0
136 152 0
135 158 0
146 164 0
134 158 0
171 192 0
155 179 0
163 186 0
150 174 0
143 163 0
154 173 0
156 179 0
133 159 0
147 168 0
114 134 0
150 169 0
136 153 0
139 161 0
146 169 0
156 179 0
152 174 0
134 158 0
138 155 0
117 135 0
144 167 0
128 149 0
126 148 0
146 169 0
137 160 0
146 169 0
164 186 0
123 146 0
155 170 0
150 172 0
137 160 0
144 164 0
119 134 0
134 156 0
149 167 0
162 186 0
146 168 0
158 180 0
158 181 0
147 165 0
162 183 0
159 180 0
122 143 0
151 169 0
160 181 0
133 153 0
127 150 0
123 148 0
122 143 0
134 156 0
121 143 0
139 164 0
135 150 0
132 152 0
127 144 0
151 172 0
143 161 0
136 156 0
133 155 0
159 174 0
124 145 0
154 172 0
157 181 0
157 176 0
151 167 0
150 168 0
134 157 0
149 166 0
140 162 0
156 179 0
157 175 0
154 177 0
147 170 0
166 187 0
147 165 0
154 177 0
155 173 0
152 174 0
155 176 0
142 165 0
155 179 0
137 161 0
123 143 0
164 184 0
166 185 0
116 137 0
146 169 0
144 164 0
157 179 0
151 172 0
158 180 0
134 156 0
155 172 0
156 176 0
157 179 0
148 158 0
156 182 0
152 171 0
141 157 0
146 169 0
146 162 0
128 143 0
146 160 0
133 153 0
130 147 0
143 161 0
130 151 0
153 173 0
96 118 0
140 155 0
141 158 0
139 161 0
151 165 0
145 161 0
164 178 0
163 177 0
136 150 0
127 143 0
165 178 0
123 143 0
139 153 0
151 168 0
156 179 0
158 171 0
89 105 0
160 181 0
163 184 0
131 152 0
142 161 0
140 156 0
128 138 0
155 175 0
167 180 0
157 176 0
145 158 0
150 167 0
146 170 0
148 162 0
140 163 0
136 148 0
135 152 0
139 154 0
153 173 0
148 158 0
148 167 0
155 173 0
133 142 0
140 155 0
147 164 0
140 153 0
144 147 0
156 172 0
145 151 0
150 163 0
141 158 0
163 177 0
134 146 0
160 179 0
134 142 0
153 170 0
124 141 0
151 166 0
158 176 0
160 179 0
118 129 0
157 178 0
124 129 0
142 151 0
153 164 0
154 162 0
166 178 0
124 141 0
159 172 0
144 153 0
149 159 0
160 174 0
164 172 0
158 172 0
150 159 0
149 156 0
155 164 0
157 171 0
153 166 0
140 155 0
158 172 0
118 116 0
149 165 0
165 180 0
153 154 0
160 168 0
155 171 0
171 178 0
151 162 0
144 153 0
154 164 0
158 168 0
151 155 0
164 170 0
152 163 0
159 162 0
154 160 0
147 153 0
158 179 0
147 156 0
161 174 0
165 177 0
151 161 0
137 141 0
156 165 0
140 149 0
140 147 0
164 170 0
163 177 0
155 170 0
150 158 0
155 160 0
154 164 0
161 172 0
160 175 0
148 157 0
164 176 0
169 181 0
156 161 0
125 126 0
158 166 0
164 180 0
152 164 0
131 135 0
159 157 0
169 179 0
161 171 0
159 178 0
152 171 0
159 181 0
157 176 0
163 183 0
163 187 0
150 168 0
170 191 0
164 184 0
160 180 0
161 181 0
170 192 0
148 168 0
164 184 0
159 177 0
161 181 0
133 151 0
157 177 0
159 178 0
139 158 0
145 163 0
166 182 0
157 178 0
148 169 0
159 180 0
151 169 0
162 181 0
158 176 0
145 161 0
172 191 0
128 147 0
139 158 0
159 177 0
143 162 0
145 163 0
153 174 0
151 172 0
131 152 0
154 176 0
153 170 0
158 179 0
150 169 0
150 170 0
162 182 0
159 177 0
163 184 0
156 177 0
145 167 0
164 186 0
139 155 0
141 160 0
165 183 0
162 181 0
151 172 0
147 168 0
154 176 0
146 162 0
161 178 0
162 183 0
143 162 0
135 155 0
148 167 0
121 139 0
144 161 0
152 171 0
126 144 0
149 172 0
160 182 0
152 170 0
154 175 0
145 163 0
139 156 0
138 157 0
147 167 0
163 180 0
133 150 0
162 180 0
166 186 0
139 158 0
169 187 0
150 173 0
139 160 0
159 179 0
147 165 0
135 156 0
170 195 0
140 163 0
163 185 0
141 163 0
151 173 0
142 166 0
136 155 0
149 170 0
141 163 0
143 162 0
150 172 0
156 176 0
156 179 0
138 159 0
154 175 0
168 192 0
126 142 0
150 173 0
148 169 0
144 166 0
133 156 0
152 175 0
150 170 0
172 193 0
164 186 0
143 165 0
161 185 0
132 153 0
164 188 0
140 162 0
146 169 0
167 187 0
143 168 0
153 175 0
145 168 0
165 187 0
147 170 0
143 166 0
148 169 0
147 166 0
162 183 0
144 167 0
134 158 0
143 167 0
152 173 0
155 176 0
161 183 0
144 168 0
134 156 0
151 174 0
112 134 0
144 166 0
162 186 0
156 174 0
131 150 0
151 170 0
136 160 0
141 163 0
141 164 0
151 173 0
134 156 0
171 194 0
97 118 0
99 121 0
135 158 0
156 175 0
156 178 0
125 145 0
152 173 0
162 181 0
170 193 0
150 173 0
134 156 0
118 137 0
158 180 0
154 173 0
146 164 0
146 165 0
146 169 0
121 139 0
145 162 0
145 168 0
128 148 0
127 151 0
162 185 0
149 170 0
162 183 0
158 177 0
146 162 0
129 151 0
133 158 0
156 179 0
107 126 0
147 171 0
146 163 0
129 149 0
131 149 0
131 151 0
153 173 0
138 161 0
155 179 0
139 160 0
116 137 0
145 162 0
146 165 0
144 164 0
125 145 0
111 134 0
158 175 0
154 176 0
133 155 0
136 159 0
135 151 0
153 177 0
143 160 0
176 199 0
121 134 0
174 198 0
147 170 0
144 170 0
147 166 0
134 152 0
145 163 0
146 171 0
155 174 0
142 164 0
154 173 0
134 151 0
151 168 0
115 126 0
153 168 0
155 178 0
126 148 0
141 160 0
152 169 0
130 150 0
157 178 0
144 163 0
129 149 0
160 183 0
145 168 0
136 155 0
152 173 0
137 159 0
137 158 0
145 160 0
167 189 0
154 178 0
138 160 0
114 129 0
131 148 0
129 146 0
138 160 0
123 145 0
128 148 0
163 186 0
148 168 0
142 157 0
158 183 0
157 176 0
153 170 0
156 175 0
122 145 0
152 168 0
151 169 0
151 172 0
164 185 0
137 159 0
145 163 0
136 154 0
134 157 0
140 161 0
144 162 0
153 173 0
127 148 0
127 141 0
134 153 0
162 187 0
123 142 0
116 136 0
153 171 0
135 156 0
146 166 0
140 161 0
171 196 0
145 165 0
152 174 0
163 185 0
131 145 0
126 145 0
141 153 0
145 166 0
143 163 0
139 156 0
168 190 0
161 182 0
163 183 0
119 133 0
148 161 0
140 162 0
170 181 0
138 153 0
142 159 0
150 172 0
147 167 0
153 173 0
169 190 0
165 188 0
157 174 0
147 160 0
99 109 0
137 156 0
131 147 0
149 167 0
144 157 0
134 150 0
148 166 0
148 164 0
168 186 0
136 146 0
133 144 0
151 168 0
152 168 0
161 178 0
144 161 0
155 178 0
169 192 0
134 154 0
167 183 0
146 162 0
168 189 0
165 182 0
155 170 0
151 163 0
158 176 0
148 163 0
144 151 0
151 164 0
159 173 0
171 192 0
135 146 0
157 174 0
142 149 0
140 155 0
150 163 0
133 144 0
149 167 0
157 176 0
140 144 0
151 171 0
150 165 0
151 164 0
166 179 0
140 155 0
135 150 0
163 183 0
139 144 0
137 145 0
143 152 0
157 170 0
146 163 0
146 159 0
146 156 0
158 174 0
157 174 0
145 162 0
137 143 0
146 155 0
152 165 0
161 175 0
153 166 0
125 136 0
154 163 0
140 151 0
152 161 0
166 181 0
126 129 0
139 137 0
154 169 0
158 168 0
163 172 0
135 141 0
166 182 0
160 169 0
150 156 0
156 163 0
157 164 0
154 161 0
167 177 0
168 182 0
167 187 0
155 167 0
151 160 0
159 173 0
152 161 0
148 152 0
154 164 0
134 141 0
156 165 0
147 148 0
154 167 0
158 171 0
158 169 0
174 190 0
166 177 0
155 156 0
169 179 0
162 173 0
158 172 0
159 173 0
174 191 0
162 179 0
164 182 0
153 162 0
142 150 0
155 173 0
163 180 0
153 171 0
148 165 0
162 181 0
147 166 0
142 162 0
165 184 0
156 173 0
134 154 0
167 186 0
149 170 0
153 172 0
167 188 0
160 182 0
167 186 0
140 158 0
169 188 0
155 174 0
160 178 0
154 175 0
156 178 0
165 182 0
143 162 0
155 176 0
142 158 0
162 182 0
168 184 0
146 167 0
152 172 0
148 169 0
156 178 0
153 167 0
161 180 0
139 159 0
153 171 0
171 193 0
147 167 0
142 162 0
159 179 0
157 179 0
152 170 0
164 183 0
163 182 0
157 174 0
142 162 0
142 159 0
127 144 0
143 164 0
144 161 0
154 171 0
143 164 0
129 145 0
171 191 0
151 170 0
155 174 0
147 167 0
156 178 0
148 166 0
161 182 0
167 188 0
142 160 0
144 164 0
132 151 0
169 189 0
161 180 0
148 168 0
134 154 0
134 151 0
129 147 0
150 171 0
140 159 0
154 173 0
145 162 0
165 186 0
148 169 0
156 179 0
152 172 0
144 164 0
168 192 0
144 165 0
152 175 0
163 184 0
136 156 0
161 183 0
154 175 0
161 182 0
157 178 0
148 167 0
138 160 0
145 168 0
136 156 0
150 172 0
168 186 0
139 162 0
113 132 0
148 174 0
129 148 0
170 191 0
155 176 0
145 168 0
148 170 0
154 178 0
160 185 0
150 173 0
152 175 0
168 192 0
160 183 0
123 143 0
126 145 0
99 121 0
144 168 0
144 168 0
149 171 0
144 166 0
151 173 0
169 189 0
175 197 0
162 184 0
164 184 0
133 156 0
135 159 0
161 187 0
145 165 0
141 163 0
144 168 0
155 176 0
135 154 0
144 168 0
141 160 0
134 156 0
144 166 0
161 184 0
163 187 0
149 169 0
152 175 0
130 151 0
133 156 0
159 174 0
166 188 0
170 190 0
143 166 0
165 186 0
158 176 0
147 169 0
158 177 0
117 134 0
117 136 0
165 188 0
139 162 0
98 119 0
155 179 0
138 152 0
146 168 0
135 156 0
133 155 0
148 172 0
166 193 0
138 156 0
145 163 0
121 140 0
130 146 0
137 154 0
162 182 0
155 178 0
152 174 0
157 179 0
157 180 0
136 158 0
141 165 0
118 138 0
141 162 0
158 183 0
160 183 0
150 170 0
130 154 0
153 175 0
138 158 0
165 189 0
144 165 0
126 147 0
142 156 0
147 169 0
162 187 0
151 174 0
146 169 0
132 155 0
154 175 0
110 133 0
151 175 0
130 146 0
140 156 0
157 181 0
144 159 0
154 178 0
144 167 0
135 159 0
150 172 0
133 158 0
164 185 0
161 179 0
161 181 0
149 171 0
161 185 0
160 184 0
158 178 0
142 163 0
146 162 0
159 181 0
152 172 0
166 189 0
141 162 0
134 157 0
142 163 0
165 186 0
144 163 0
135 154 0
152 175 0
144 166 0
131 153 0
127 144 0
160 181 0
154 174 0
166 185 0
159 182 0
160 181 0
147 160 0
147 170 0
163 181 0
142 160 0
134 157 0
149 163 0
120 145 0
163 187 0
131 154 0
147 169 0
141 160 0
156 175 0
141 163 0
153 178 0
163 184 0
141 162 0
171 196 0
126 137 0
162 183 0
133 158 0
147 165 0
154 179 0
128 146 0
130 144 0
172 190 0
129 148 0
146 171 0
135 158 0
164 188 0
147 168 0
145 168 0
163 183 0
148 163 0
122 136 0
155 170 0
135 151 0
113 134 0
161 177 0
176 194 0
121 141 0
143 162 0
151 169 0
141 162 0
155 175 0
153 178 0
157 176 0
141 162 0
151 171 0
159 181 0
134 147 0
158 180 0
149 163 0
140 156 0
165 182 0
134 157 0
137 158 0
135 153 0
158 177 0
160 175 0
116 136 0
153 172 0
149 167 0
143 160 0
148 169 0
166 183 0
164 182 0
157 167 0
158 175 0
123 142 0
165 188 0
136 152 0
159 179 0
139 158 0
147 168 0
130 142 0
151 172 0
142 155 0
164 187 0
160 178 0
162 182 0
146 165 0
139 159 0
125 141 0
148 163 0
127 138 0
161 184 0
125 143 0
161 178 0
163 177 0
153 164 0
159 177 0
168 187 0
152 165 0
161 177 0
161 175 0
146 151 0
150 168 0
145 159 0
138 147 0
159 175 0
136 157 0
138 152 0
149 162 0
164 178 0
161 172 0
157 167 0
154 164 0
141 144 0
162 179 0
159 169 0
169 190 0
158 174 0
140 152 0
143 149 0
118 123 0
167 189 0
157 171 0
144 144 0
138 154 0
175 191 0
143 153 0
153 161 0
158 180 0
155 161 0
137 152 0
173 190 0
160 167 0
148 162 0
133 137 0
142 161 0
151 161 0
148 158 0
155 171 0
129 138 0
155 168 0
153 165 0
137 152 0
145 157 0
149 159 0
145 155 0
152 165 0
124 135 0
154 158 0
150 152 0
156 165 0
152 163 0
157 168 0
134 146 0
142 149 0
155 165 0
126 125 0
150 167 0
148 153 0
160 173 0
146 154 0
166 179 0
149 156 0
161 171 0
162 175 0
150 156 0
161 176 0
146 156 0
152 162 0
152 161 0
168 185 0
155 167 0
150 154 0
163 171 0
153 166 0
165 175 0
163 175 0
166 177 0
150 164 0
149 155 0
155 174 0
150 171 0
157 177 0
164 186 0
151 171 0
163 183 0
141 163 0
164 184 0
165 187 0
154 172 0
166 184 0
149 167 0
158 179 0
152 176 0
161 181 0
135 152 0
171 190 0
169 188 0
145 163 0
155 176 0
152 170 0
176 198 0
162 183 0
148 167 0
157 176 0
167 187 0
160 181 0
142 162 0
170 189 0
156 176 0
134 156 0
156 174 0
150 172 0
161 183 0
154 174 0
143 157 0
146 167 0
156 178 0
157 181 0
155 174 0
160 181 0
156 177 0
156 176 0
155 176 0
171 190 0
156 175 0
132 145 0
135 155 0
152 173 0
153 176 0
145 165 0
152 172 0
152 175 0
163 183 0
125 144 0
150 172 0
173 194 0
144 166 0
156 175 0
161 183 0
153 169 0
152 172 0
164 183 0
143 163 0
163 186 0
141 159 0
159 175 0
161 183 0
155 175 0
165 188 0
148 168 0
141 162 0
165 187 0
153 175 0
161 180 0
139 159 0
159 181 0
163 184 0
152 174 0
145 164 0
133 152 0
131 149 0
155 179 0
161 179 0
168 188 0
145 167 0
147 167 0
142 161 0
160 181 0
155 177 0
163 186 0
148 167 0
159 181 0
167 188 0
134 154 0
152 172 0
139 157 0
151 172 0
153 174 0
154 177 0
158 180 0
153 171 0
164 184 0
135 156 0
164 187 0
154 175 0
149 169 0
151 176 0
151 174 0
129 149 0
155 177 0
137 154 0
150 173 0
156 177 0
157 179 0
158 178 0
149 172 0
153 172 0
139 157 0
169 192 0
169 193 0
151 171 0
146 166 0
154 174 0
130 150 0
152 168 0
139 156 0
148 167 0
160 184 0
149 171 0
144 165 0
148 170 0
138 161 0
130 152 0
166 187 0
149 173 0
149 169 0
172 194 0
160 181 0
150 171 0
157 178 0
159 182 0
171 196 0
149 171 0
164 186 0
141 160 0
152 176 0
144 165 0
153 177 0
134 156 0
119 138 0
121 136 0
147 169 0
120 140 0
148 171 0
139 164 0
146 168 0
146 168 0
144 163 0
140 160 0
145 170 0
140 161 0
162 184 0
163 183 0
155 179 0
165 189 0
134 154 0
141 161 0
147 166 0
158 181 0
168 187 0
149 165 0
169 189 0
160 185 0
83 104 0
146 169 0
149 168 0
146 171 0
149 169 0
156 177 0
151 172 0
155 178 0
146 170 0
148 172 0
150 171 0
156 175 0
154 173 0
137 161 0
153 177 0
147 162 0
164 187 0
163 187 0
147 167 0
155 174 0
160 182 0
158 181 0
143 158 0
155 173 0
148 167 0
156 174 0
138 161 0
164 186 0
149 171 0
153 172 0
124 147 0
147 168 0
133 152 0
148 169 0
126 145 0
170 192 0
152 177 0
125 148 0
165 187 0
154 178 0
138 156 0
163 183 0
121 143 0
126 147 0
151 177 0
157 179 0
148 169 0
140 162 0
148 172 0
134 155 0
126 147 0
140 161 0
131 153 0
142 163 0
155 177 0
161 182 0
137 159 0
146 163 0
146 163 0
135 152 0
140 153 0
149 172 0
143 159 0
155 173 0
147 166 0
122 145 0
149 168 0
139 161 0
155 177 0
148 171 0
128 148 0
155 179 0
136 159 0
165 181 0
111 122 0
134 159 0
148 170 0
154 171 0
136 157 0
167 187 0
122 140 0
141 163 0
145 160 0
145 164 0
155 175 0
145 166 0
142 159 0
134 157 0
149 169 0
163 184 0
165 188 0
145 164 0
165 186 0
132 146 0
151 170 0
111 123 0
143 162 0
119 133 0
150 170 0
130 152 0
153 176 0
151 176 0
158 180 0
151 174 0
113 132 0
165 177 0
158 171 0
142 160 0
126 142 0
144 165 0
148 164 0
139 163 0
159 178 0
155 177 0
154 170 0
139 155 0
170 188 0
163 183 0
140 154 0
160 177 0
140 159 0
146 165 0
154 170 0
156 179 0
163 183 0
142 157 0
170 187 0
163 182 0
161 179 0
133 151 0
162 179 0
168 180 0
142 159 0
130 144 0
107 122 0
145 158 0
146 158 0
154 172 0
147 162 0
130 139 0
153 167 0
153 177 0
156 172 0
161 182 0
153 162 0
157 175 0
161 180 0
158 171 0
152 170 0
159 175 0
169 180 0
122 140 0
154 172 0
127 144 0
165 184 0
146 163 0
151 169 0
165 185 0
156 173 0
148 156 0
161 172 0
151 167 0
156 172 0
149 161 0
159 170 0
143 157 0
162 177 0
152 162 0
160 176 0
165 178 0
160 169 0
171 189 0
155 162 0
171 186 0
169 186 0
149 158 0
163 179 0
157 180 0
151 168 0
160 174 0
142 151 0
128 130 0
159 173 0
161 174 0
147 155 0
157 174 0
151 155 0
161 175 0
142 152 0
147 160 0
156 165 0
159 169 0
150 160 0
151 166 0
169 184 0
146 159 0
155 166 0
140 147 0
151 158 0
169 183 0
147 156 0
137 143 0
149 151 0
155 165 0
164 177 0
165 182 0
156 162 0
167 183 0
155 164 0
146 159 0
168 183 0
171 187 0
167 183 0
146 159 0
153 165 0
163 176 0
157 167 0
145 148 0
163 178 0
154 156 0
136 140 0
150 152 0
140 147 0
168 180 0
154 158 0
144 157 0
169 186 0
152 172 0
164 182 0
167 181 0
155 171 0
140 158 0
158 180 0
160 179 0
163 179 0
167 188 0
139 156 0
152 171 0
150 169 0
146 169 0
163 184 0
146 164 0
146 165 0
163 183 0
143 164 0
141 161 0
169 192 0
150 170 0
170 185 0
169 190 0
151 170 0
143 160 0
149 168 0
144 161 0
162 183 0
169 190 0
157 178 0
149 166 0
162 181 0
131 149 0
161 181 0
143 161 0
130 148 0
153 167 0
154 173 0
159 176 0
141 158 0
142 161 0
147 165 0
168 189 0
141 161 0
127 145 0
141 164 0
154 173 0
152 172 0
160 180 0
174 193 0
151 165 0
144 160 0
131 148 0
155 178 0
161 181 0
146 162 0
183 202 0
128 146 0
162 183 0
137 155 0
156 175 0
171 192 0
155 178 0
140 159 0
176 196 0
143 164 0
135 153 0
139 159 0
134 158 0
155 174 0
145 165 0
165 186 0
133 154 0
139 159 0
170 191 0
175 195 0
147 167 0
142 161 0
141 161 0
144 167 0
155 173 0
139 161 0
176 195 0
151 175 0
160 182 0
149 174 0
143 167 0
148 165 0
156 175 0
160 183 0
136 159 0
158 177 0
157 179 0
145 167 0
150 172 0
150 170 0
160 181 0
138 162 0
140 161 0
164 186 0
135 153 0
156 179 0
159 176 0
158 180 0
146 168 0
146 168 0
158 182 0
132 155 0
149 172 0
143 165 0
174 194 0
166 186 0
152 174 0
143 161 0
146 167 0
138 156 0
146 170 0
115 133 0
159 176 0
169 190 0
160 179 0
172 197 0
152 172 0
147 169 0
145 167 0
127 148 0
155 179 0
138 160 0
150 173 0
156 182 0
146 168 0
137 155 0
134 155 0
159 180 0
149 170 0
161 185 0
121 142 0
134 156 0
160 180 0
148 171 0
100 119 0
146 170 0
142 163 0
137 158 0
154 175 0
116 136 0
129 151 0
157 181 0
151 177 0
164 187 0
144 168 0
134 154 0
111 135 0
118 138 0
156 179 0
132 152 0
147 167 0
149 170 0
147 170 0
127 148 0
152 169 0
143 164 0
147 170 0
169 191 0
164 187 0
154 176 0
103 125 0
151 172 0
138 155 0
146 168 0
166 189 0
140 156 0
168 186 0
146 167 0
154 176 0
148 169 0
167 190 0
129 150 0
140 166 0
153 176 0
119 140 0
138 161 0
129 148 0
159 181 0
147 169 0
164 188 0
141 160 0
129 151 0
151 175 0
147 166 0
135 155 0
164 188 0
139 159 0
148 171 0
163 184 0
124 138 0
126 151 0
142 162 0
147 171 0
176 199 0
150 166 0
127 147 0
127 146 0
149 167 0
138 159 0
154 177 0
161 184 0
151 174 0
169 186 0
133 156 0
133 153 0
126 147 0
138 158 0
138 156 0
151 172 0
154 179 0
136 160 0
137 152 0
143 168 0
145 168 0
121 145 0
168 186 0
111 133 0
161 184 0
140 157 0
133 156 0
141 162 0
134 158 0
160 186 0
147 168 0
146 167 0
162 182 0
144 168 0
152 172 0
113 137 0
160 177 0
111 126 0
138 156 0
136 155 0
151 172 0
130 149 0
145 165 0
170 192 0
121 142 0
168 193 0
137 154 0
138 154 0
132 154 0
141 162 0
142 162 0
158 174 0
154 179 0
144 166 0
111 128 0
116 127 0
149 170 0
149 168 0
123 140 0
159 181 0
171 193 0
142 165 0
170 192 0
147 166 0
156 177 0
158 179 0
138 160 0
137 156 0
126 146 0
155 176 0
155 176 0
136 151 0
127 147 0
151 171 0
126 138 0
147 167 0
139 154 0
121 142 0
139 154 0
150 159 0
135 153 0
141 162 0
155 171 0
142 165 0
145 157 0
143 160 0
160 179 0
154 171 0
139 160 0
121 139 0
148 165 0
149 164 0
159 174 0
159 182 0
137 154 0
168 186 0
156 175 0
164 182 0
144 161 0
102 116 0
162 174 0
154 170 0
158 178 0
169 190 0
170 192 0
158 176 0
159 175 0
149 163 0
159 178 0
135 145 0
128 133 0
141 157 0
143 158 0
148 164 0
158 177 0
141 155 0
154 171 0
146 163 0
149 172 0
142 145 0
127 140 0
147 161 0
140 140 0
171 193 0
153 169 0
160 179 0
159 179 0
156 176 0
141 156 0
150 162 0
161 183 0
163 182 0
158 171 0
172 186 0
154 166 0
158 168 0
152 174 0
160 174 0
152 173 0
159 177 0
140 154 0
154 170 0
137 147 0
156 173 0
152 171 0
171 191 0
124 135 0
157 172 0
159 174 0
140 151 0
157 171 0
169 184 0
155 180 0
129 143 0
163 179 0
146 159 0
139 152 0
158 176 0
153 166 0
163 174 0
140 141 0
144 154 0
147 157 0
170 179 0
163 176 0
169 184 0
162 177 0
177 192 0
163 169 0
161 171 0
166 184 0
151 164 0
149 157 0
174 187 0
148 160 0
163 178 0
173 188 0
150 166 0
140 142 0
158 162 0
145 158 0
152 165 0
145 159 0
157 166 0
165 178 0
157 158 0
155 158 0
164 177 0
156 173 0
150 161 0
164 182 0
148 164 0
153 163 0
164 178 0
154 161 0
163 176 0
150 161 0
164 177 0
161 177 0
167 187 0
161 182 0
160 179 0
161 180 0
161 180 0
156 174 0
143 162 0
159 180 0
168 189 0
154 174 0
148 168 0
149 169 0
160 181 0
168 190 0
157 175 0
144 162 0
154 175 0
148 163 0
151 163 0
162 184 0
141 158 0
150 169 0
158 175 0
168 190 0
160 181 0
163 181 0
144 164 0
156 176 0
155 178 0
162 182 0
163 182 0
157 177 0
164 185 0
160 182 0
155 175 0
161 181 0
154 173 0
160 179 0
150 169 0
144 161 0
162 182 0
152 173 0
165 186 0
158 180 0
154 174 0
159 178 0
165 185 0
162 183 0
154 177 0
142 159 0
145 165 0
153 170 0
151 169 0
159 179 0
149 172 0
155 175 0
155 175 0
146 165 0
132 152 0
164 189 0
153 174 0
152 173 0
156 178 0
155 173 0
143 164 0
160 182 0
144 163 0
144 164 0
154 177 0
142 161 0
162 180 0
144 163 0
164 180 0
149 168 0
154 173 0
150 172 0
163 185 0
151 169 0
157 181 0
138 157 0
168 189 0
167 186 0
168 186 0
152 173 0
163 183 0
148 165 0
144 165 0
150 169 0
162 186 0
121 139 0
157 183 0
156 176 0
136 158 0
159 182 0
163 182 0
154 173 0
150 171 0
145 168 0
146 164 0
149 169 0
142 163 0
138 160 0
151 171 0
138 159 0
166 189 0
151 171 0
148 170 0
153 175 0
153 178 0
163 184 0
125 145 0
162 185 0
144 162 0
135 160 0
149 165 0
157 180 0
150 172 0
156 174 0
134 152 0
136 156 0
165 185 0
150 166 0
153 174 0
134 152 0
156 180 0
149 172 0
144 167 0
147 166 0
125 145 0
160 180 0
152 174 0
157 179 0
145 164 0
133 155 0
133 154 0
147 165 0
169 193 0
132 156 0
143 163 0
120 140 0
149 173 0
160 185 0
118 135 0
164 186 0
149 167 0
153 179 0
141 163 0
147 169 0
144 167 0
137 161 0
114 133 0
124 146 0
145 168 0
140 162 0
149 171 0
152 175 0
153 178 0
156 178 0
138 162 0
172 197 0
147 169 0
139 161 0
165 190 0
156 178 0
131 154 0
148 166 0
128 150 0
153 173 0
170 192 0
166 186 0
153 173 0
148 170 0
146 168 0
152 174 0
160 179 0
130 152 0
136 159 0
158 179 0
132 153 0
151 173 0
149 170 0
139 162 0
143 167 0
133 156 0
164 183 0
156 180 0
101 124 0
155 177 0
143 161 0
140 160 0
146 171 0
140 163 0
162 182 0
124 146 0
127 147 0
122 141 0
139 158 0
158 179 0
172 197 0
154 179 0
144 166 0
139 159 0
133 155 0
147 171 0
148 170 0
136 160 0
147 170 0
156 180 0
154 175 0
129 146 0
146 168 0
141 162 0
172 193 0
152 176 0
152 177 0
153 173 0
136 157 0
135 154 0
153 169 0
152 171 0
141 156 0
158 179 0
162 182 0
137 160 0
154 177 0
119 140 0
137 155 0
156 178 0
144 161 0
153 177 0
132 152 0
162 177 0
141 163 0
123 148 0
133 149 0
135 157 0
140 158 0
106 123 0
142 164 0
133 154 0
129 154 0
124 147 0
134 157 0
136 161 0
136 157 0
154 177 0
147 169 0
167 190 0
125 139 0
114 131 0
151 172 0
149 174 0
133 156 0
162 181 0
126 140 0
137 153 0
150 172 0
156 175 0
140 165 0
159 178 0
166 182 0
146 168 0
140 156 0
124 136 0
157 176 0
162 180 0
147 165 0
162 187 0
129 146 0
159 179 0
140 160 0
153 173 0
134 155 0
146 169 0
167 187 0
166 186 0
123 138 0
134 155 0
121 139 0
159 180 0
153 176 0
148 171 0
144 167 0
160 177 0
146 163 0
138 154 0
149 171 0
143 164 0
140 159 0
146 163 0
163 182 0
154 174 0
135 149 0
137 159 0
145 164 0
122 142 0
161 175 0
174 197 0
167 192 0
134 151 0
147 162 0
153 173 0
175 195 0
120 135 0
139 159 0
156 166 0
159 182 0
163 179 0
140 157 0
163 180 0
160 175 0
148 164 0
147 165 0
149 157 0
165 176 0
164 186 0
154 167 0
143 153 0
166 186 0
140 160 0
160 178 0
144 157 0
146 167 0
142 158 0
166 180 0
142 157 0
154 176 0
136 149 0
143 155 0
148 161 0
160 170 0
150 171 0
166 184 0
160 182 0
119 119 0
160 169 0
150 166 0
141 161 0
163 180 0
169 184 0
134 147 0
125 134 0
160 172 0
141 152 0
148 161 0
147 153 0
168 183 0
154 162 0
161 179 0
157 173 0
156 174 0
153 168 0
154 172 0
150 173 0
147 166 0
148 161 0
115 126 0
140 147 0
145 153 0
160 173 0
165 171 0
166 178 0
145 146 0
177 199 0
138 141 0
136 155 0
141 154 0
156 173 0
150 159 0
142 156 0
155 163 0
143 151 0
159 166 0
154 166 0
156 175 0
159 178 0
142 146 0
150 162 0
159 168 0
148 158 0
160 172 0
148 159 0
165 182 0
173 190 0
162 179 0
147 165 0
141 160 0
148 156 0
158 170 0
175 188 0
166 180 0
154 157 0
158 166 0
164 176 0
145 151 0
157 171 0
159 169 0
158 169 0
152 163 0
142 146 0
155 169 0
158 174 0
140 160 0
176 196 0
163 183 0
171 190 0
152 171 0
150 168 0
151 172 0
146 164 0
157 174 0
160 178 0
157 178 0
145 163 0
159 180 0
160 182 0
160 179 0
155 174 0
173 193 0
148 167 0
142 160 0
160 178 0
164 183 0
142 160 0
151 174 0
147 165 0
144 164 0
142 162 0
148 170 0
173 194 0
155 177 0
137 158 0
146 165 0
161 183 0
150 170 0
145 157 0
166 185 0
159 179 0
135 157 0
153 177 0
145 166 0
170 192 0
156 180 0
166 189 0
153 172 0
138 160 0
168 189 0
158 178 0
165 186 0
138 155 0
163 186 0
157 173 0
150 169 0
156 173 0
158 178 0
164 186 0
166 190 0
162 183 0
154 174 0
167 187 0
157 176 0
169 193 0
159 177 0
139 153 0
166 189 0
147 167 0
160 182 0
160 181 0
168 189 0
132 151 0
149 166 0
148 170 0
140 161 0
170 193 0
147 169 0
127 147 0
136 156 0
156 177 0
167 190 0
166 184 0
148 168 0
146 170 0
138 157 0
163 187 0
146 165 0
137 155 0
138 161 0
143 166 0
156 181 0
162 185 0
162 185 0
160 180 0
153 176 0
165 185 0
160 186 0
152 173 0
155 178 0
149 173 0
157 181 0
161 185 0
153 175 0
161 181 0
175 197 0
160 183 0
171 193 0
169 191 0
141 162 0
150 169 0
147 169 0
147 167 0
168 189 0
152 176 0
143 160 0
143 165 0
146 167 0
136 156 0
151 172 0
143 167 0
146 165 0
152 173 0
158 180 0
143 163 0
140 159 0
138 160 0
126 148 0
157 178 0
157 181 0
150 175 0
163 180 0
142 162 0
152 172 0
159 184 0
150 175 0
149 174 0
164 187 0
152 176 0
150 162 0
135 156 0
141 165 0
135 155 0
161 180 0
161 185 0
158 180 0
141 165 0
159 182 0
156 179 0
162 185 0
144 163 0
120 142 0
147 170 0
137 155 0
147 165 0
174 197 0
156 181 0
166 185 0
162 182 0
157 179 0
167 194 0
143 162 0
138 162 0
133 156 0
160 183 0
141 165 0
147 169 0
147 165 0
133 151 0
146 167 0
160 183 0
156 175 0
165 189 0
153 176 0
146 165 0
126 146 0
151 173 0
125 146 0
155 176 0
153 175 0
96 117 0
119 140 0
106 129 0
137 157 0
142 167 0
133 155 0
134 156 0
167 186 0
148 170 0
151 176 0
137 161 0
147 164 0
155 178 0
166 190 0
150 167 0
167 186 0
132 153 0
162 183 0
163 188 0
151 169 0
147 169 0
135 153 0
128 142 0
151 170 0
144 168 0
129 149 0
163 185 0
155 178 0
146 165 0
150 167 0
145 169 0
146 169 0
147 170 0
128 145 0
168 190 0
168 190 0
163 179 0
161 185 0
139 160 0
140 160 0
146 168 0
162 183 0
134 153 0
166 183 0
149 163 0
137 156 0
150 171 0
127 149 0
159 182 0
165 185 0
128 148 0
156 177 0
166 189 0
164 184 0
144 163 0
157 172 0
145 167 0
161 185 0
131 149 0
145 165 0
163 188 0
162 182 0
155 177 0
153 171 0
141 158 0
165 187 0
111 126 0
153 177 0
155 171 0
156 177 0
137 156 0
157 178 0
136 158 0
154 171 0
144 161 0
162 184 0
153 170 0
162 181 0
122 138 0
149 171 0
154 170 0
140 162 0
139 153 0
168 191 0
159 179 0
143 165 0
159 182 0
144 167 0
157 170 0
159 179 0
164 188 0
158 180 0
152 178 0
136 155 0
151 171 0
156 179 0
148 169 0
138 158 0
140 163 0
160 172 0
161 182 0
155 175 0
155 180 0
139 159 0
131 153 0
143 164 0
139 156 0
160 178 0
138 156 0
156 175 0
149 169 0
142 161 0
159 180 0
173 190 0
162 184 0
133 150 0
154 178 0
155 178 0
147 160 0
128 142 0
148 169 0
139 155 0
143 157 0
125 143 0
148 166 0
147 160 0
162 181 0
150 166 0
158 173 0
162 182 0
147 164 0
144 162 0
162 184 0
142 155 0
162 184 0
157 172 0
170 188 0
154 170 0
132 145 0
153 170 0
143 161 0
166 182 0
146 163 0
149 164 0
144 159 0
153 169 0
154 172 0
141 155 0
135 157 0
154 176 0
162 184 0
151 160 0
154 164 0
140 153 0
144 155 0
169 180 0
160 169 0
171 189 0
141 157 0
160 171 0
133 137 0
151 164 0
159 177 0
172 190 0
138 147 0
164 181 0
161 178 0
157 170 0
164 185 0
142 156 0
151 164 0
176 192 0
164 178 0
162 175 0
152 167 0
158 175 0
111 115 0
159 166 0
173 192 0
163 172 0
152 170 0
151 160 0
153 167 0
164 187 0
133 139 0
152 163 0
152 162 0
172 183 0
158 167 0
145 153 0
149 164 0
163 181 0
157 172 0
160 168 0
154 170 0
167 188 0
146 154 0
173 187 0
161 179 0
162 173 0
153 160 0
171 183 0
138 147 0
148 162 0
167 188 0
150 159 0
156 167 0
156 166 0
165 178 0
154 169 0
149 162 0
145 152 0
152 161 0
154 168 0
149 162 0
153 167 0
153 159 0
123 113 0
149 155 0
166 186 0
153 166 0
155 166 0
152 164 0
148 148 0
138 155 0
123 141 0
155 177 0
148 168 0
152 172 0
153 173 0
153 169 0
154 172 0
161 180 0
138 156 0
163 180 0
159 180 0
159 177 0
162 181 0
162 181 0
154 172 0
158 179 0
152 171 0
168 190 0
163 186 0
167 188 0
167 186 0
167 187 0
161 181 0
168 190 0
139 159 0
134 154 0
149 168 0
164 183 0
156 178 0
150 171 0
145 160 0
175 194 0
163 184 0
173 195 0
151 170 0
148 168 0
160 183 0
144 164 0
156 175 0
157 176 0
133 150 0
129 149 0
146 165 0
156 175 0
145 166 0
140 160 0
157 177 0
153 177 0
143 163 0
162 182 0
172 193 0
156 176 0
141 158 0
154 173 0
164 184 0
154 175 0
154 175 0
145 163 0
161 177 0
160 182 0
148 170 0
146 162 0
160 180 0
146 164 0
167 186 0
141 165 0
159 179 0
156 177 0
150 172 0
146 166 0
177 196 0
161 181 0
137 159 0
150 174 0
157 179 0
120 139 0
148 168 0
164 182 0
153 173 0
153 176 0
150 171 0
152 176 0
171 191 0
145 164 0
148 167 0
160 186 0
142 163 0
158 180 0
157 179 0
141 162 0
158 181 0
152 175 0
155 179 0
151 172 0
154 174 0
128 147 0
156 177 0
140 161 0
136 157 0
134 151 0
128 146 0
153 175 0
145 167 0
161 180 0
155 175 0
134 156 0
175 197 0
156 176 0
140 161 0
160 183 0
145 164 0
158 181 0
175 197 0
145 168 0
135 157 0
153 175 0
174 197 0
135 154 0
146 165 0
160 184 0
159 178 0
148 173 0
138 160 0
151 172 0
151 170 0
143 164 0
127 145 0
160 183 0
151 171 0
157 177 0
153 176 0
161 185 0
141 163 0
156 179 0
139 159 0
150 169 0
140 156 0
135 154 0
150 170 0
162 187 0
141 165 0
159 180 0
152 176 0
153 176 0
153 176 0
85 103 0
164 181 0
139 161 0
165 187 0
151 173 0
149 168 0
167 190 0
139 160 0
131 154 0
131 148 0
108 131 0
134 156 0
130 151 0
140 162 0
140 158 0
153 173 0
120 141 0
109 130 0
149 172 0
149 170 0
128 151 0
144 166 0
154 174 0
121 144 0
157 179 0
157 180 0
156 180 0
148 168 0
156 180 0
148 165 0
166 185 0
164 184 0
137 159 0
117 140 0
159 184 0
135 158 0
145 165 0
152 174 0
164 184 0
157 180 0
152 173 0
115 135 0
144 169 0
141 161 0
125 145 0
144 166 0
138 156 0
128 150 0
150 172 0
135 152 0
126 143 0
120 139 0
157 182 0
144 163 0
142 165 0
124 146 0
145 169 0
138 161 0
162 183 0
152 170 0
161 181 0
135 158 0
144 169 0
152 172 0
165 181 0
135 155 0
155 174 0
162 188 0
154 177 0
172 195 0
169 191 0
157 176 0
136 151 0
120 145 0
150 172 0
152 170 0
153 177 0
136 159 0
163 187 0
150 171 0
155 171 0
139 161 0
137 158 0
140 158 0
159 184 0
158 177 0
142 161 0
143 164 0
112 135 0
145 170 0
162 176 0
155 178 0
160 182 0
158 177 0
124 146 0
95 109 0
139 158 0
135 153 0
143 168 0
153 169 0
158 177 0
162 181 0
131 150 0
154 176 0
163 184 0
146 164 0
147 162 0
161 185 0
166 186 0
149 165 0
135 158 0
164 185 0
144 168 0
165 184 0
145 168 0
138 159 0
154 174 0
164 188 0
140 159 0
162 179 0
162 184 0
153 176 0
161 178 0
154 174 0
148 171 0
157 176 0
153 171 0
145 166 0
118 132 0
134 154 0
148 164 0
148 171 0
146 164 0
153 172 0
159 176 0
138 150 0
119 137 0
166 186 0
128 147 0
148 168 0
154 170 0
143 167 0
140 157 0
136 155 0
144 159 0
155 170 0
131 152 0
123 146 0
120 135 0
136 153 0
167 190 0
156 177 0
131 151 0
151 172 0
160 178 0
154 168 0
149 162 0
140 160 0
163 179 0
167 182 0
164 178 0
145 159 0
141 161 0
148 159 0
161 179 0
163 184 0
158 173 0
146 162 0
165 186 0
141 157 0
152 170 0
170 189 0
157 172 0
139 160 0
151 170 0
152 168 0
132 150 0
145 155 0
154 175 0
142 146 0
150 163 0
131 140 0
170 186 0
158 180 0
161 180 0
156 166 0
167 189 0
152 172 0
144 155 0
142 161 0
147 164 0
149 167 0
166 185 0
160 178 0
154 166 0
144 150 0
133 147 0
135 145 0
139 158 0
141 151 0
151 166 0
155 170 0
161 181 0
154 163 0
158 167 0
159 181 0
128 137 0
148 151 0
144 159 0
162 172 0
161 171 0
127 141 0
170 190 0
165 185 0
167 188 0
162 175 0
152 160 0
173 194 0
153 172 0
176 195 0
157 170 0
152 167 0
158 169 0
136 148 0
163 177 0
170 187 0
145 155 0
147 155 0
164 177 0
154 164 0
150 164 0
163 173 0
156 163 0
173 190 0
158 170 0
154 160 0
162 179 0
147 154 0
166 178 0
155 165 0
155 165 0
152 153 0
165 184 0
162 172 0
161 171 0
160 174 0
127 140 0
169 180 0
161 182 0
156 173 0
153 168 0
169 191 0
133 147 0
170 187 0
163 185 0
156 175 0
150 170 0
166 184 0
168 188 0
150 170 0
150 169 0
151 173 0
149 167 0
167 189 0
163 182 0
147 166 0
159 181 0
178 198 0
163 181 0
154 174 0
152 172 0
159 180 0
140 160 0
154 175 0
142 162 0
155 173 0
169 193 0
171 194 0
164 185 0
157 178 0
160 183 0
173 194 0
160 177 0
153 172 0
159 184 0
147 165 0
149 167 0
147 167 0
166 185 0
157 181 0
147 166 0
154 176 0
159 177 0
149 170 0
153 176 0
169 190 0
169 188 0
158 181 0
155 172 0
151 171 0
130 151 0
158 177 0
169 185 0
155 170 0
154 176 0
158 177 0
137 157 0
148 171 0
154 176 0
145 166 0
142 164 0
169 189 0
145 168 0
142 163 0
151 172 0
150 173 0
156 179 0
164 188 0
151 170 0
152 174 0
158 180 0
155 175 0
150 171 0
147 171 0
142 164 0
157 177 0
142 162 0
162 185 0
161 184 0
154 176 0
158 181 0
165 189 0
169 191 0
143 163 0
157 181 0
151 174 0
163 185 0
136 155 0
152 173 0
149 168 0
138 157 0
152 173 0
154 176 0
145 164 0
156 176 0
146 165 0
151 173 0
147 166 0
139 161 0
152 172 0
164 187 0
130 151 0
148 169 0
159 180 0
148 166 0
159 183 0
165 189 0
137 160 0
144 166 0
157 178 0
152 178 0
129 149 0
152 174 0
148 170 0
147 167 0
141 161 0
147 167 0
168 189 0
156 179 0
152 174 0
154 174 0
154 176 0
142 163 0
157 178 0
144 160 0
129 149 0
149 169 0
154 177 0
160 181 0
133 154 0
166 189 0
145 163 0
159 180 0
161 179 0
141 164 0
161 183 0
138 160 0
152 173 0
168 188 0
131 147 0
151 173 0
165 188 0
148 169 0
176 199 0
153 171 0
163 182 0
153 177 0
148 170 0
144 167 0
142 163 0
123 143 0
144 167 0
165 189 0
168 190 0
132 157 0
160 187 0
134 152 0
149 169 0
172 197 0
124 138 0
118 136 0
129 149 0
168 190 0
142 164 0
163 184 0
153 176 0
136 162 0
129 147 0
126 146 0
126 147 0
136 157 0
168 190 0
153 174 0
163 188 0
137 158 0
146 168 0
162 182 0
169 191 0
160 185 0
160 183 0
172 196 0
148 169 0
159 181 0
136 157 0
162 180 0
146 168 0
145 168 0
141 162 0
150 170 0
156 180 0
167 189 0
141 163 0
158 180 0
126 145 0
165 189 0
148 167 0
121 143 0
144 165 0
125 139 0
145 168 0
125 145 0
155 173 0
157 180 0
140 158 0
151 170 0
133 155 0
163 187 0
131 148 0
122 141 0
162 187 0
121 146 0
132 155 0
157 176 0
164 189 0
159 179 0
139 159 0
165 188 0
148 168 0
144 161 0
152 176 0
149 174 0
136 156 0
153 174 0
141 161 0
155 169 0
156 179 0
142 160 0
154 169 0
147 170 0
163 188 0
131 152 0
161 187 0
137 157 0
161 180 0
122 144 0
134 152 0
173 197 0
148 169 0
151 174 0
147 170 0
165 187 0
167 190 0
144 160 0
145 159 0
125 147 0
124 143 0
130 152 0
147 165 0
138 160 0
123 146 0
107 125 0
139 152 0
145 162 0
165 188 0
133 156 0
143 157 0
150 166 0
149 169 0
152 175 0
155 178 0
160 181 0
157 171 0
167 190 0
139 161 0
157 178 0
179 200 0
144 168 0
154 172 0
157 180 0
131 150 0
152 166 0
134 152 0
171 196 0
171 196 0
131 151 0
154 174 0
153 172 0
162 183 0
136 161 0
141 157 0
146 169 0
169 192 0
144 163 0
139 156 0
146 165 0
144 165 0
163 184 0
140 163 0
153 171 0
172 186 0
162 186 0
152 168 0
165 189 0
154 175 0
152 167 0
154 169 0
140 157 0
152 171 0
132 147 0
148 165 0
162 181 0
158 178 0
159 185 0
154 170 0
150 169 0
146 167 0
165 182 0
165 182 0
147 164 0
172 190 0
161 173 0
155 171 0
153 172 0
162 183 0
141 163 0
150 168 0
146 153 0
157 172 0
117 127 0
147 161 0
134 151 0
165 178 0
174 183 0
146 160 0
164 180 0
133 154 0
169 187 0
170 188 0
170 186 0
142 153 0
150 168 0
148 163 0
154 169 0
150 156 0
128 135 0
174 193 0
148 167 0
154 170 0
149 163 0
168 188 0
147 150 0
140 154 0
157 175 0
160 180 0
170 190 0
167 185 0
142 155 0
146 156 0
162 184 0
161 182 0
174 191 0
175 190 0
156 175 0
145 155 0
146 157 0
159 175 0
139 151 0
146 160 0
161 183 0
163 183 0
152 160 0
152 167 0
169 184 0
165 179 0
141 150 0
125 128 0
168 183 0
146 158 0
158 166 0
152 174 0
157 173 0
159 173 0
165 184 0
150 159 0
159 174 0
162 171 0
161 176 0
157 171 0
151 156 0
150 170 0
149 164 0
151 158 0
157 166 0
153 163 0
164 176 0
160 178 0
156 167 0
156 173 0
131 146 0
146 157 0
158 169 0
151 157 0
141 146 0
159 170 0
168 180 0
164 187 0
143 154 0
158 168 0
166 176 0
165 180 0
155 164 0
159 171 0
155 161 0
142 149 0
162 183 0
170 192 0
168 187 0
158 177 0
155 173 0
158 178 0
163 181 0
151 169 0
164 183 0
166 185 0
160 181 0
149 171 0
149 168 0
154 174 0
156 175 0
150 171 0
157 178 0
163 183 0
146 165 0
171 192 0
161 185 0
160 183 0
151 171 0
161 178 0
165 183 0
158 175 0
169 193 0
141 161 0
163 182 0
172 192 0
143 164 0
165 184 0
164 185 0
151 171 0
149 170 0
167 187 0
155 177 0
155 177 0
161 180 0
158 177 0
160 181 0
153 173 0
157 175 0
157 177 0
161 182 0
160 185 0
158 180 0
166 186 0
143 163 0
166 189 0
144 162 0
148 171 0
142 162 0
158 181 0
157 178 0
151 171 0
131 152 0
155 176 0
130 148 0
163 187 0
158 181 0
156 175 0
144 167 0
124 141 0
143 162 0
147 167 0
147 164 0
162 185 0
174 196 0
156 177 0
143 166 0
158 179 0
159 182 0
156 177 0
141 162 0
136 159 0
147 168 0
158 181 0
143 166 0
147 167 0
145 162 0
156 179 0
150 172 0
162 183 0
162 188 0
170 193 0
150 171 0
158 179 0
147 165 0
148 173 0
144 169 0
169 189 0
150 175 0
149 171 0
154 177 0
136 158 0
146 166 0
159 179 0
135 154 0
166 185 0
164 184 0
162 185 0
141 163 0
145 165 0
139 159 0
168 189 0
148 172 0
151 172 0
146 166 0
139 160 0
127 146 0
152 171 0
161 185 0
134 157 0
152 175 0
146 166 0
143 166 0
138 156 0
168 193 0
141 162 0
160 179 0
161 184 0
167 188 0
147 168 0
144 161 0
152 174 0
162 186 0
159 181 0
126 146 0
146 171 0
156 176 0
163 186 0
149 171 0
140 161 0
158 179 0
137 159 0
138 154 0
159 179 0
145 169 0
159 181 0
148 169 0
120 137 0
163 180 0
143 166 0
139 162 0
145 169 0
148 167 0
151 175 0
155 179 0
143 165 0
146 169 0
156 181 0
158 180 0
151 175 0
144 166 0
152 175 0
155 178 0
170 194 0
141 154 0
160 183 0
146 164 0
163 186 0
146 165 0
167 189 0
146 170 0
155 177 0
125 148 0
151 176 0
126 149 0
115 133 0
155 176 0
148 171 0
149 172 0
150 172 0
160 182 0
157 179 0
161 184 0
161 181 0
165 188 0
147 169 0
158 179 0
160 187 0
169 189 0
141 165 0
152 171 0
135 159 0
98 119 0
146 167 0
153 173 0
153 178 0
143 164 0
162 185 0
145 166 0
131 150 0
120 141 0
152 167 0
148 170 0
156 180 0
146 168 0
116 139 0
140 162 0
136 160 0
135 155 0
155 177 0
137 157 0
150 171 0
112 133 0
147 165 0
162 184 0
148 172 0
161 183 0
159 182 0
143 164 0
176 195 0
107 126 0
137 158 0
138 161 0
139 150 0
159 183 0
151 172 0
152 172 0
157 180 0
160 180 0
133 158 0
146 165 0
122 141 0
124 143 0
144 165 0
141 152 0
152 169 0
143 163 0
137 154 0
158 179 0
158 178 0
162 182 0
155 172 0
122 145 0
147 169 0
157 179 0
132 146 0
158 175 0
134 158 0
170 196 0
133 157 0
143 166 0
158 180 0
155 177 0
128 147 0
158 173 0
151 171 0
138 160 0
158 178 0
154 174 0
141 162 0
163 184 0
130 147 0
139 151 0
151 171 0
152 172 0
159 178 0
150 171 0
131 148 0
149 170 0
170 192 0
153 168 0
141 161 0
157 175 0
142 164 0
134 156 0
127 149 0
160 177 0
135 151 0
161 182 0
163 180 0
141 157 0
162 183 0
136 159 0
163 183 0
125 135 0
158 172 0
153 173 0
157 174 0
159 178 0
162 184 0
153 177 0
147 168 0
141 160 0
156 176 0
150 170 0
150 172 0
158 180 0
170 194 0
167 190 0
151 169 0
170 191 0
165 180 0
153 171 0
167 185 0
124 138 0
167 181 0
145 161 0
130 147 0
154 174 0
177 199 0
155 174 0
148 162 0
164 176 0
149 165 0
147 162 0
160 173 0
152 169 0
154 168 0
147 162 0
152 176 0
150 171 0
171 184 0
170 182 0
132 146 0
153 164 0
140 155 0
156 170 0
157 174 0
153 167 0
145 157 0
175 198 0
156 166 0
149 171 0
125 134 0
154 170 0
137 153 0
148 166 0
127 142 0
153 158 0
145 160 0
167 186 0
143 160 0
156 168 0
168 187 0
109 129 0
163 176 0
161 171 0
144 167 0
144 162 0
157 176 0
141 154 0
153 173 0
162 177 0
166 185 0
152 162 0
156 174 0
169 180 0
164 180 0
156 174 0
169 181 0
158 177 0
165 180 0
146 163 0
135 146 0
160 170 0
137 151 0
165 189 0
160 169 0
165 177 0
155 167 0
144 155 0
167 183 0
152 160 0
136 142 0
157 172 0
151 157 0
160 176 0
160 177 0
159 174 0
173 194 0
137 144 0
150 162 0
143 157 0
151 158 0
158 171 0
167 186 0
143 157 0
163 175 0
148 161 0
160 171 0
150 165 0
167 179 0
154 160 0
168 183 0
162 178 0
154 167 0
152 160 0
156 170 0
168 188 0
159 173 0
134 136 0
153 164 0
159 172 0
154 167 0
155 159 0
155 172 0
160 181 0
162 183 0
161 180 0
164 183 0
157 175 0
173 194 0
159 183 0
128 151 0
164 187 0
147 166 0
163 183 0
169 190 0
124 142 0
161 184 0
157 177 0
152 171 0
153 172 0
146 163 0
149 167 0
150 170 0
155 174 0
176 198 0
157 176 0
157 176 0
164 179 0
155 173 0
147 164 0
136 155 0
154 176 0
148 168 0
154 172 0
148 167 0
160 182 0
156 177 0
168 190 0
163 184 0
155 177 0
158 180 0
153 173 0
162 183 0
158 177 0
144 164 0
135 156 0
160 181 0
157 179 0
149 171 0
156 175 0
146 164 0
161 181 0
158 180 0
138 156 0
153 175 0
167 190 0
149 168 0
143 166 0
158 177 0
169 188 0
154 176 0
154 175 0
162 184 0
140 160 0
132 152 0
149 171 0
150 171 0
140 158 0
154 174 0
122 138 0
150 170 0
164 186 0
159 180 0
154 177 0
164 187 0
152 174 0
156 177 0
140 162 0
164 186 0
169 193 0
148 168 0
167 189 0
143 164 0
157 179 0
149 173 0
157 178 0
148 172 0
152 171 0
167 189 0
168 188 0
173 195 0
161 180 0
154 175 0
157 180 0
170 191 0
152 173 0
142 162 0
151 171 0
128 149 0
155 175 0
177 199 0
148 165 0
168 193 0
145 164 0
150 173 0
160 181 0
157 180 0
151 169 0
148 170 0
129 149 0
145 162 0
167 190 0
142 164 0
172 193 0
167 187 0
161 179 0
156 180 0
134 156 0
165 187 0
144 163 0
142 164 0
145 163 0
139 158 0
150 172 0
170 195 0
166 189 0
173 195 0
133 156 0
173 195 0
144 166 0
169 195 0
167 188 0
142 165 0
156 175 0
160 182 0
142 161 0
150 171 0
138 156 0
155 173 0
161 184 0
157 174 0
152 173 0
145 168 0
156 178 0
140 160 0
138 157 0
161 186 0
159 182 0
143 164 0
144 166 0
142 162 0
148 170 0
162 185 0
159 180 0
132 155 0
149 171 0
127 148 0
137 155 0
154 177 0
155 174 0
133 158 0
124 145 0
148 168 0
142 165 0
134 157 0
165 191 0
136 155 0
164 183 0
144 166 0
152 173 0
158 180 0
147 168 0
151 174 0
144 164 0
155 177 0
150 177 0
166 189 0
158 183 0
138 155 0
144 162 0
135 152 0
159 182 0
135 157 0
144 162 0
155 174 0
145 166 0
165 189 0
123 149 0
142 164 0
155 179 0
142 162 0
155 176 0
168 189 0
152 170 0
129 147 0
148 170 0
136 158 0
166 189 0
144 167 0
125 148 0
135 158 0
161 185 0
146 169 0
126 141 0
160 185 0
150 172 0
137 156 0
127 148 0
168 191 0
161 181 0
162 182 0
164 184 0
164 183 0
127 146 0
127 145 0
141 163 0
146 166 0
168 191 0
152 174 0
150 171 0
150 169 0
154 170 0
132 152 0
145 167 0
148 164 0
124 144 0
138 159 0
174 197 0
122 144 0
129 150 0
125 150 0
154 171 0
154 171 0
144 162 0
169 191 0
143 157 0
154 167 0
136 152 0
157 177 0
130 149 0
150 172 0
155 173 0
142 164 0
145 163 0
137 157 0
155 178 0
148 172 0
159 181 0
151 173 0
151 171 0
115 137 0
152 172 0
175 198 0
142 161 0
146 169 0
119 135 0
147 163 0
141 160 0
151 162 0
168 189 0
155 177 0
163 183 0
161 183 0
142 161 0
145 163 0
156 172 0
144 165 0
173 190 0
156 179 0
143 159 0
140 156 0
139 160 0
166 185 0
147 171 0
152 173 0
156 178 0
158 176 0
151 165 0
163 187 0
160 177 0
150 167 0
153 178 0
159 178 0
125 143 0
143 166 0
131 152 0
145 165 0
147 166 0
148 169 0
145 163 0
161 178 0
145 168 0
152 173 0
173 197 0
130 150 0
142 164 0
169 192 0
168 191 0
155 180 0
171 192 0
176 199 0
160 181 0
142 160 0
151 167 0
165 187 0
132 143 0
129 139 0
148 170 0
140 161 0
145 167 0
133 147 0
137 157 0
149 171 0
158 175 0
173 193 0
168 187 0
155 171 0
151 171 0
151 168 0
165 179 0
161 182 0
142 163 0
156 173 0
156 171 0
165 184 0
156 170 0
153 169 0
164 178 0
143 161 0
134 156 0
166 171 0
132 146 0
155 178 0
164 181 0
160 178 0
139 148 0
165 186 0
141 160 0
160 171 0
161 182 0
152 164 0
179 200 0
150 165 0
143 159 0
174 189 0
155 174 0
149 160 0
143 158 0
162 180 0
141 158 0
164 174 0
162 179 0
140 157 0
161 178 0
143 155 0
163 183 0
171 189 0
165 178 0
157 168 0
155 171 0
163 183 0
145 156 0
150 159 0
146 160 0
152 168 0
159 172 0
150 172 0
166 180 0
155 167 0
170 185 0
128 137 0
164 175 0
146 150 0
150 169 0
149 158 0
144 155 0
155 166 0
159 167 0
159 170 0
144 152 0
148 158 0
169 183 0
134 146 0
160 175 0
142 152 0
152 162 0
130 134 0
151 167 0
165 178 0
154 170 0
147 163 0
160 174 0
160 179 0
168 187 0
170 184 0
150 160 0
145 154 0
152 161 0
163 178 0
165 173 0
167 176 0
136 139 0
153 165 0
170 188 0
152 169 0
165 186 0
163 185 0
169 189 0
166 186 0
154 171 0
155 174 0
158 177 0
165 185 0
160 181 0
137 153 0
133 150 0
154 173 0
151 173 0
158 175 0
160 180 0
158 179 0
154 173 0
155 174 0
169 191 0
165 187 0
160 180 0
160 183 0
155 172 0
160 181 0
162 183 0
157 176 0
136 153 0
157 178 0
164 184 0
143 163 0
155 173 0
161 181 0
161 183 0
159 181 0
163 184 0
153 175 0
153 173 0
151 169 0
154 175 0
147 167 0
165 184 0
127 145 0
147 167 0
171 192 0
157 176 0
171 194 0
156 174 0
163 185 0
154 174 0
146 166 0
143 160 0
152 170 0
158 180 0
156 177 0
168 190 0
167 186 0
147 170 0
149 166 0
153 174 0
164 186 0
163 181 0
155 176 0
158 177 0
170 189 0
166 188 0
143 164 0
143 164 0
130 154 0
156 177 0
173 197 0
158 177 0
139 160 0
153 176 0
159 184 0
159 180 0
127 146 0
152 174 0
146 166 0
130 148 0
156 177 0
145 165 0
159 182 0
154 175 0
155 175 0
160 183 0
148 170 0
173 193 0
151 169 0
135 158 0
163 186 0
173 195 0
176 198 0
140 164 0
167 185 0
153 176 0
149 171 0
143 166 0
140 161 0
151 171 0
147 166 0
150 172 0
165 186 0
156 173 0
156 171 0
146 169 0
151 174 0
139 159 0
126 145 0
150 174 0
158 180 0
129 151 0
138 159 0
153 174 0
129 151 0
122 145 0
149 165 0
151 172 0
139 159 0
174 195 0
152 176 0
148 169 0
145 162 0
145 166 0
169 194 0
157 181 0
157 179 0
141 164 0
163 187 0
152 172 0
127 150 0
133 151 0
159 182 0
114 137 0
167 190 0
152 175 0
141 160 0
157 178 0
167 191 0
169 190 0
146 171 0
144 167 0
135 156 0
158 184 0
139 164 0
138 153 0
154 177 0
140 162 0
143 166 0
155 173 0
127 142 0
157 179 0
156 176 0
144 167 0
123 143 0
138 161 0
159 184 0
122 138 0
162 184 0
147 167 0
127 149 0
165 186 0
143 163 0
166 186 0
177 199 0
124 143 0
146 170 0
135 159 0
159 181 0
164 183 0
156 177 0
142 157 0
142 162 0
131 150 0
112 136 0
155 177 0
142 160 0
154 178 0
148 167 0
157 180 0
167 185 0
139 158 0
142 163 0
120 143 0
143 165 0
163 185 0
158 180 0
123 146 0
150 175 0
107 127 0
145 167 0
149 168 0
132 154 0
149 168 0
149 172 0
163 187 0
159 179 0
139 161 0
166 185 0
145 165 0
128 149 0
128 150 0
129 151 0
146 168 0
142 160 0
132 152 0
100 116 0
128 147 0
153 171 0
173 187 0
148 170 0
157 180 0
153 173 0
124 149 0
159 180 0
157 179 0
143 164 0
148 170 0
129 150 0
148 160 0
151 172 0
158 179 0
155 175 0
144 165 0
130 146 0
126 148 0
170 191 0
150 169 0
145 164 0
142 167 0
131 151 0
146 161 0
157 175 0
154 175 0
155 175 0
153 175 0
141 156 0
172 194 0
147 166 0
148 166 0
147 168 0
132 147 0
168 189 0
163 184 0
142 163 0
146 164 0
140 162 0
166 188 0
158 177 0
166 185 0
149 168 0
127 145 0
153 170 0
149 169 0
161 180 0
147 168 0
160 182 0
148 168 0
155 169 0
142 157 0
158 180 0
121 144 0
161 185 0
168 188 0
145 158 0
139 160 0
153 166 0
157 172 0
134 158 0
161 182 0
138 160 0
144 165 0
137 154 0
147 166 0
158 176 0
152 171 0
133 155 0
145 163 0
143 159 0
140 157 0
144 168 0
165 185 0
153 171 0
150 167 0
142 159 0
156 176 0
133 151 0
141 161 0
161 180 0
174 197 0
161 184 0
138 155 0
164 189 0
161 172 0
150 169 0
150 166 0
148 164 0
149 170 0
169 190 0
151 166 0
155 171 0
164 184 0
135 160 0
149 163 0
163 184 0
150 172 0
160 179 0
153 172 0
120 137 0
147 169 0
155 171 0
140 162 0
140 160 0
143 166 0
164 182 0
171 190 0
171 193 0
151 168 0
135 153 0
160 177 0
170 188 0
154 174 0
172 189 0
162 177 0
147 165 0
126 143 0
139 150 0
165 180 0
149 167 0
169 186 0
144 154 0
121 140 0
130 142 0
149 167 0
172 193 0
157 170 0
171 185 0
152 172 0
159 178 0
156 175 0
159 168 0
154 174 0
146 158 0
149 169 0
150 164 0
158 168 0
156 167 0
154 172 0
164 183 0
170 192 0
172 182 0
151 164 0
164 177 0
159 169 0
146 154 0
169 184 0
142 160 0
170 175 0
163 179 0
148 159 0
149 159 0
156 170 0
153 169 0
155 174 0
157 167 0
167 180 0
166 183 0
167 184 0
160 183 0
151 168 0
148 163 0
161 169 0
147 160 0
146 158 0
149 169 0
158 168 0
176 195 0
177 196 0
154 167 0
168 180 0
145 155 0
164 176 0
155 168 0
164 178 0
164 177 0
155 165 0
172 189 0
159 177 0
157 173 0
165 173 0
149 156 0
148 155 0
148 160 0
168 184 0
157 168 0
147 162 0
155 172 0
158 169 0
167 185 0
155 175 0
149 171 0
160 180 0
160 182 0
154 173 0
168 187 0
165 184 0
167 188 0
152 172 0
145 163 0
151 169 0
153 176 0
135 151 0
167 186 0
152 173 0
172 193 0
134 152 0
161 185 0
160 181 0
159 182 0
156 175 0
166 190 0
156 179 0
159 180 0
162 185 0
161 178 0
155 176 0
161 179 0
145 164 0
156 177 0
171 191 0
170 186 0
146 167 0
156 173 0
137 156 0
161 181 0
166 186 0
146 167 0
134 151 0
147 166 0
151 173 0
163 185 0
156 176 0
171 194 0
172 191 0
148 169 0
152 171 0
142 162 0
146 169 0
148 167 0
152 171 0
151 172 0
137 155 0
158 177 0
151 175 0
148 169 0
152 172 0
155 176 0
164 185 0
168 188 0
145 165 0
167 191 0
149 168 0
146 167 0
138 158 0
152 174 0
148 170 0
134 154 0
164 187 0
154 173 0
164 185 0
155 175 0
160 183 0
170 192 0
159 183 0
176 198 0
148 169 0
146 168 0
161 183 0
159 183 0
168 185 0
130 150 0
138 155 0
158 183 0
138 161 0
140 165 0
151 173 0
133 155 0
146 170 0
159 181 0
125 142 0
160 184 0
157 180 0
166 185 0
171 192 0
166 187 0
150 171 0
149 171 0
152 174 0
164 187 0
146 167 0
144 166 0
149 169 0
157 179 0
166 187 0
145 167 0
152 174 0
137 157 0
157 177 0
152 176 0
159 178 0
148 170 0
143 167 0
143 162 0
136 155 0
146 170 0
148 171 0
135 153 0
155 177 0
170 190 0
162 182 0
153 178 0
163 184 0
161 182 0
173 197 0
162 183 0
145 169 0
153 175 0
153 177 0
144 169 0
144 168 0
130 150 0
141 160 0
170 192 0
138 158 0
158 179 0
134 155 0
164 184 0
142 166 0
157 184 0
162 180 0
143 166 0
148 169 0
128 147 0
153 177 0
140 157 0
163 184 0
164 186 0
144 166 0
124 147 0
148 168 0
142 167 0
164 186 0
147 168 0
154 177 0
146 166 0
151 174 0
155 177 0
158 181 0
122 142 0
124 146 0
167 186 0
147 169 0
171 196 0
148 171 0
149 171 0
159 181 0
153 178 0
147 170 0
125 149 0
136 157 0
142 164 0
135 157 0
133 156 0
128 151 0
160 182 0
121 144 0
170 191 0
151 166 0
177 199 0
154 178 0
136 160 0
155 177 0
143 156 0
147 170 0
150 172 0
124 148 0
113 133 0
132 155 0
155 176 0
156 175 0
144 167 0
124 145 0
141 167 0
139 160 0
112 135 0
173 195 0
167 190 0
174 193 0
144 167 0
153 178 0
133 155 0
153 177 0
130 149 0
165 180 0
172 196 0
158 180 0
136 157 0
168 194 0
155 177 0
161 187 0
167 191 0
142 160 0
145 168 0
123 146 0
108 129 0
130 151 0
124 148 0
151 173 0
174 193 0
152 170 0
160 178 0
163 188 0
156 178 0
148 170 0
150 170 0
137 155 0
149 171 0
145 165 0
153 179 0
129 141 0
145 169 0
149 169 0
148 171 0
129 152 0
163 184 0
153 169 0
140 161 0
157 179 0
158 179 0
150 167 0
164 181 0
146 167 0
128 147 0
163 188 0
125 144 0
138 152 0
153 178 0
161 182 0
116 133 0
146 168 0
147 165 0
121 140 0
155 176 0
132 153 0
166 187 0
155 176 0
147 169 0
156 176 0
106 123 0
153 175 0
166 189 0
141 159 0
134 158 0
135 150 0
146 163 0
159 177 0
161 182 0
168 194 0
138 162 0
142 157 0
164 186 0
133 153 0
144 160 0
116 131 0
166 189 0
148 170 0
153 177 0
152 172 0
159 176 0
137 157 0
171 192 0
143 165 0
135 153 0
157 175 0
155 175 0
165 184 0
161 179 0
161 181 0
163 180 0
172 196 0
162 180 0
159 185 0
143 160 0
142 158 0
160 171 0
165 179 0
148 163 0
155 179 0
144 162 0
135 156 0
117 132 0
126 131 0
151 171 0
157 176 0
160 186 0
162 182 0
140 152 0
148 168 0
155 168 0
159 175 0
164 182 0
162 179 0
131 138 0
148 167 0
154 162 0
157 176 0
162 177 0
164 183 0
158 175 0
161 180 0
169 183 0
155 174 0
160 173 0
163 184 0
172 190 0
151 167 0
162 180 0
161 177 0
163 172 0
144 159 0
164 184 0
157 178 0
174 191 0
163 183 0
160 182 0
133 145 0
143 158 0
144 154 0
140 156 0
151 172 0
136 155 0
167 183 0
144 163 0
156 166 0
158 176 0
149 163 0
166 182 0
162 174 0
154 166 0
162 182 0
151 169 0
134 155 0
166 181 0
137 156 0
155 176 0
142 157 0
162 178 0
156 173 0
161 176 0
157 178 0
137 151 0
155 167 0
155 163 0
164 174 0
155 162 0
146 156 0
165 176 0
161 174 0
143 159 0
139 156 0
172 190 0
162 178 0
158 172 0
163 177 0
174 187 0
153 166 0
163 179 0
173 190 0
155 161 0
164 178 0
148 168 0
135 135 0
176 192 0
158 180 0
173 193 0
169 181 0
152 158 0
167 183 0
152 156 0
159 167 0
151 166 0
152 160 0
165 180 0
141 149 0
147 144 0
158 167 0
165 176 0
163 184 0
144 157 0
171 189 0
156 178 0
155 179 0
170 188 0
145 165 0
160 179 0
169 187 0
144 162 0
163 184 0
131 151 0
159 182 0
164 182 0
158 179 0
149 170 0
163 184 0
173 192 0
165 183 0
159 182 0
165 185 0
161 182 0
164 187 0
143 161 0
158 179 0
151 170 0
152 171 0
140 161 0
164 184 0
158 179 0
165 189 0
160 179 0
161 180 0
158 175 0
173 195 0
157 178 0
144 162 0
164 187 0
154 175 0
146 169 0
156 176 0
157 180 0
132 148 0
146 164 0
172 191 0
153 169 0
151 170 0
136 151 0
129 148 0
165 188 0
129 149 0
155 176 0
141 166 0
158 179 0
143 166 0
155 177 0
159 181 0
153 172 0
169 191 0
157 181 0
149 168 0
162 179 0
144 167 0
147 168 0
160 183 0
160 182 0
150 168 0
124 145 0
155 178 0
152 176 0
172 196 0
158 180 0
172 191 0
164 184 0
152 172 0
145 165 0
154 176 0
162 185 0
175 198 0
156 179 0
160 183 0
154 177 0
145 168 0
155 175 0
138 157 0
167 187 0
157 178 0
159 178 0
140 163 0
150 171 0
161 185 0
144 161 0
150 174 0
149 170 0
148 167 0
145 165 0
159 183 0
157 181 0
146 169 0
121 142 0
141 158 0
146 169 0
168 189 0
133 151 0
161 185 0
154 178 0
136 155 0
138 160 0
170 189 0
151 171 0
145 163 0
148 170 0
145 166 0
172 196 0
167 194 0
130 153 0
142 161 0
170 195 0
126 145 0
148 171 0
157 182 0
144 163 0
138 158 0
142 161 0
154 172 0
140 159 0
162 185 0
150 169 0
161 184 0
128 147 0
144 167 0
161 180 0
137 155 0
159 183 0
156 175 0
147 165 0
128 149 0
145 166 0
144 160 0
138 160 0
165 189 0
151 173 0
140 159 0
148 173 0
134 156 0
136 161 0
167 187 0
174 198 0
133 155 0
135 158 0
147 171 0
141 163 0
165 184 0
164 188 0
131 154 0
144 167 0
153 172 0
123 149 0
179 200 0
156 179 0
148 170 0
164 189 0
158 178 0
163 187 0
138 161 0
155 177 0
143 165 0
165 186 0
105 123 0
157 180 0
167 190 0
174 198 0
140 162 0
150 170 0
134 160 0
143 162 0
144 160 0
157 180 0
157 180 0
156 177 0
146 169 0
148 171 0
142 163 0
169 191 0
136 158 0
135 159 0
126 142 0
167 189 0
112 132 0
143 166 0
147 170 0
133 153 0
159 186 0
145 167 0
143 167 0
146 169 0
155 178 0
147 163 0
112 132 0
155 178 0
172 196 0
159 181 0
147 169 0
153 178 0
151 169 0
137 159 0
135 159 0
151 172 0
136 154 0
123 141 0
148 168 0
133 155 0
151 177 0
118 141 0
131 148 0
108 126 0
142 158 0
122 144 0
165 185 0
140 162 0
132 148 0
154 173 0
147 166 0
148 170 0
149 171 0
159 181 0
171 190 0
146 167 0
164 188 0
154 176 0
136 159 0
156 180 0
138 157 0
148 166 0
156 178 0
121 146 0
157 177 0
133 152 0
125 141 0
133 157 0
154 176 0
150 170 0
123 144 0
160 181 0
168 189 0
135 157 0
154 178 0
154 174 0
145 167 0
154 175 0
148 169 0
144 168 0
175 198 0
157 180 0
167 185 0
132 150 0
147 170 0
135 155 0
156 176 0
144 167 0
152 176 0
161 184 0
172 186 0
136 159 0
158 182 0
167 185 0
145 159 0
147 169 0
176 192 0
176 199 0
144 157 0
127 146 0
161 182 0
171 192 0
162 175 0
144 167 0
158 180 0
139 161 0
134 154 0
166 190 0
128 147 0
166 190 0
156 173 0
149 165 0
141 156 0
147 169 0
147 160 0
168 188 0
155 170 0
136 157 0
165 186 0
123 138 0
152 170 0
136 149 0
146 169 0
166 185 0
155 175 0
156 175 0
153 175 0
128 147 0
141 158 0
158 177 0
167 190 0
167 187 0
166 188 0
165 189 0
116 131 0
144 164 0
168 191 0
146 164 0
162 175 0
156 175 0
172 190 0
149 167 0
167 182 0
151 168 0
126 143 0
147 162 0
161 183 0
146 164 0
155 170 0
155 167 0
153 170 0
150 167 0
139 149 0
164 185 0
164 183 0
156 173 0
156 172 0
166 176 0
136 151 0
159 182 0
148 161 0
157 168 0
150 171 0
165 184 0
151 162 0
149 164 0
173 190 0
147 162 0
155 169 0
157 170 0
143 150 0
130 145 0
143 153 0
136 148 0
161 172 0
145 164 0
151 169 0
133 152 0
144 154 0
162 177 0
170 183 0
145 155 0
136 146 0
170 180 0
156 173 0
140 157 0
146 165 0
152 173 0
166 183 0
172 189 0
144 148 0
169 188 0
146 156 0
158 177 0
166 187 0
165 182 0
160 170 0
160 178 0
157 175 0
146 154 0
172 189 0
136 142 0
165 177 0
147 162 0
133 149 0
157 170 0
152 161 0
132 138 0
166 182 0
169 184 0
169 185 0
142 153 0
165 181 0
164 184 0
165 181 0
157 172 0
143 152 0
144 150 0
157 173 0
142 157 0
162 169 0
160 170 0
142 152 0
143 150 0
160 171 0
152 163 0
161 176 0
144 152 0
162 172 0
152 169 0
168 188 0
163 184 0
168 189 0
164 183 0
163 184 0
149 171 0
166 187 0
150 172 0
161 183 0
156 175 0
160 181 0
153 174 0
159 178 0
138 158 0
165 184 0
138 159 0
151 169 0
154 172 0
158 182 0
166 187 0
154 171 0
157 176 0
148 165 0
154 172 0
165 187 0
167 189 0
162 184 0
135 155 0
152 174 0
151 173 0
164 188 0
165 188 0
150 168 0
160 181 0
146 168 0
157 176 0
142 162 0
154 176 0
170 190 0
163 180 0
167 187 0
144 164 0
164 185 0
160 183 0
171 192 0
151 171 0
159 179 0
139 156 0
154 179 0
171 193 0
163 185 0
138 155 0
147 170 0
155 176 0
135 148 0
153 174 0
166 189 0
155 177 0
139 159 0
151 165 0
165 190 0
140 163 0
157 179 0
147 165 0
150 170 0
167 189 0
157 178 0
152 173 0
171 196 0
168 191 0
121 142 0
151 174 0
148 167 0
163 185 0
135 152 0
175 194 0
129 149 0
147 167 0
155 177 0
151 171 0
137 159 0
157 181 0
154 173 0
152 169 0
145 164 0
112 131 0
172 194 0
146 169 0
154 174 0
157 178 0
161 183 0
151 173 0
157 178 0
148 167 0
160 182 0
156 179 0
158 174 0
162 180 0
151 175 0
158 178 0
142 165 0
154 177 0
136 156 0
154 173 0
159 178 0
154 174 0
158 182 0
154 176 0
156 179 0
154 176 0
147 171 0
146 169 0
143 164 0
146 166 0
136 158 0
147 170 0
152 173 0
158 179 0
173 197 0
160 179 0
153 170 0
166 189 0
160 183 0
162 187 0
166 190 0
122 144 0
160 181 0
139 158 0
140 161 0
143 166 0
152 176 0
145 171 0
146 171 0
149 170 0
118 140 0
165 184 0
154 177 0
134 157 0
165 188 0
145 162 0
171 192 0
132 155 0
146 169 0
150 175 0
161 184 0
156 178 0
150 171 0
158 179 0
163 186 0
163 184 0
165 187 0
123 139 0
153 172 0
157 177 0
169 191 0
157 177 0
155 181 0
134 156 0
167 194 0
153 177 0
149 172 0
165 188 0
148 169 0
174 196 0
170 193 0
174 195 0
168 193 0
152 172 0
133 153 0
147 168 0
136 158 0
147 170 0
174 195 0
163 186 0
142 162 0
160 182 0
162 180 0
157 182 0
165 189 0
138 160 0
142 163 0
157 178 0
166 189 0
168 189 0
165 187 0
154 174 0
165 181 0
170 196 0
147 170 0
154 179 0
138 154 0
131 151 0
108 131 0
136 155 0
140 162 0
146 164 0
156 176 0
134 154 0
149 166 0
147 169 0
126 145 0
133 158 0
152 173 0
158 180 0
126 143 0
107 130 0
149 169 0
136 158 0
158 180 0
154 178 0
125 147 0
143 155 0
134 158 0
145 163 0
149 168 0
170 196 0
159 186 0
139 161 0
140 163 0
141 161 0
122 146 0
128 146 0
145 168 0
159 176 0
130 153 0
130 151 0
146 167 0
151 169 0
136 158 0
148 170 0
176 195 0
156 180 0
147 164 0
160 179 0
173 197 0
154 174 0
147 171 0
153 174 0
154 177 0
159 180 0
138 161 0
169 191 0
160 186 0
165 189 0
146 167 0
123 138 0
153 173 0
129 149 0
169 188 0
154 172 0
150 175 0
172 193 0
171 196 0
145 163 0
141 159 0
158 180 0
147 166 0
158 178 0
149 171 0
151 174 0
130 145 0
152 171 0
160 186 0
168 191 0
125 144 0
138 148 0
142 167 0
138 158 0
161 186 0
145 163 0
155 177 0
156 173 0
171 188 0
142 159 0
156 180 0
146 170 0
121 136 0
156 173 0
152 176 0
172 196 0
158 177 0
152 176 0
144 161 0
145 168 0
115 130 0
166 185 0
147 164 0
149 167 0
136 149 0
165 182 0
140 164 0
146 164 0
161 179 0
168 188 0
147 166 0
146 168 0
170 192 0
160 177 0
152 171 0
154 169 0
144 162 0
152 171 0
138 154 0
141 158 0
160 182 0
166 184 0
146 159 0
159 176 0
145 160 0
171 188 0
138 151 0
162 187 0
149 162 0
148 171 0
151 168 0
159 173 0
170 189 0
154 176 0
150 165 0
150 170 0
168 185 0
134 148 0
142 158 0
146 165 0
165 185 0
155 163 0
169 190 0
140 159 0
146 169 0
153 170 0
158 181 0
149 167 0
153 169 0
162 179 0
126 141 0
155 168 0
165 182 0
148 170 0
163 180 0
172 193 0
151 173 0
147 159 0
154 171 0
164 188 0
159 172 0
166 186 0
157 168 0
156 175 0
165 185 0
158 164 0
138 154 0
154 170 0
168 176 0
134 152 0
152 169 0
160 172 0
165 184 0
147 162 0
155 167 0
174 191 0
167 182 0
155 171 0
140 152 0
163 180 0
161 182 0
152 163 0
128 132 0
140 150 0
149 164 0
153 168 0
170 185 0
163 176 0
140 150 0
145 158 0
148 161 0
147 160 0
154 171 0
154 161 0
162 176 0
152 159 0
124 132 0
155 166 0
165 184 0
163 175 0
160 173 0
151 158 0
159 167 0
162 177 0
152 158 0
154 159 0
150 162 0
162 171 0
164 180 0
148 163 0
149 160 0
158 172 0
171 187 0
164 180 0
158 170 0
159 170 0
159 179 0
157 177 0
162 179 0
157 178 0
155 176 0
147 165 0
153 171 0
159 181 0
159 178 0
149 171 0
158 177 0
158 177 0
137 161 0
148 168 0
152 176 0
141 159 0
158 178 0
161 181 0
151 170 0
131 152 0
163 183 0
161 184 0
142 163 0
166 190 0
166 186 0
135 153 0
133 152 0
174 198 0
161 178 0
155 176 0
164 187 0
158 176 0
165 183 0
169 190 0
163 187 0
157 181 0
158 177 0
139 162 0
136 157 0
158 180 0
133 154 0
150 170 0
162 182 0
139 157 0
142 163 0
169 192 0
168 188 0
157 178 0
149 169 0
145 161 0
164 186 0
165 186 0
158 177 0
168 185 0
169 190 0
158 179 0
140 163 0
153 176 0
153 173 0
154 173 0
165 186 0
154 174 0
161 182 0
162 184 0
148 169 0
139 161 0
143 165 0
153 177 0
163 186 0
149 170 0
158 178 0
169 188 0
164 188 0
156 179 0
151 172 0
159 181 0
138 158 0
141 158 0
150 168 0
168 189 0
153 175 0
160 180 0
161 186 0
151 173 0
161 184 0
158 178 0
139 158 0
162 186 0
169 191 0
152 171 0
158 181 0
146 168 0
171 192 0
136 157 0
147 168 0
141 164 0
152 171 0
152 173 0
163 186 0
137 157 0
154 177 0
171 193 0
147 169 0
165 189 0
165 189 0
150 164 0
150 170 0
155 172 0
145 169 0
159 183 0
157 180 0
141 162 0
165 183 0
140 164 0
148 170 0
163 187 0
165 189 0
141 163 0
169 195 0
164 185 0
127 147 0
144 164 0
148 172 0
141 164 0
132 154 0
153 175 0
151 174 0
164 184 0
174 196 0
137 159 0
168 190 0
160 182 0
152 172 0
172 196 0
163 185 0
150 168 0
149 171 0
148 167 0
148 174 0
132 150 0
140 161 0
170 191 0
118 138 0
156 180 0
166 186 0
128 153 0
158 180 0
151 175 0
154 178 0
148 169 0
135 149 0
153 170 0
129 149 0
158 182 0
157 180 0
169 192 0
150 174 0
151 174 0
152 173 0
151 170 0
156 178 0
140 161 0
158 179 0
161 181 0
152 174 0
135 159 0
155 177 0
158 177 0
148 169 0
144 168 0
148 168 0
168 190 0
148 170 0
157 180 0
141 164 0
132 152 0
150 169 0
163 184 0
112 137 0
150 171 0
168 190 0
161 183 0
162 186 0
173 195 0
161 184 0
157 179 0
149 170 0
159 181 0
135 155 0
162 183 0
140 156 0
153 172 0
132 157 0
148 168 0
146 167 0
147 170 0
133 153 0
139 159 0
161 187 0
156 179 0
148 170 0
158 180 0
151 171 0
123 146 0
153 174 0
130 149 0
149 167 0
147 165 0
147 171 0
157 177 0
157 179 0
151 163 0
150 173 0
136 154 0
141 163 0
139 156 0
126 147 0
158 180 0
153 173 0
127 148 0
143 161 0
132 152 0
147 166 0
131 152 0
172 193 0
157 180 0
166 185 0
166 189 0
161 187 0
152 172 0
143 167 0
146 169 0
163 184 0
152 173 0
170 189 0
143 167 0
158 179 0
151 172 0
166 188 0
158 179 0
137 154 0
121 143 0
126 146 0
129 146 0
148 172 0
160 183 0
143 166 0
137 157 0
158 180 0
155 179 0
154 180 0
145 167 0
141 158 0
139 159 0
143 162 0
134 154 0
166 190 0
137 152 0
156 175 0
155 179 0
141 164 0
161 180 0
163 181 0
151 173 0
152 173 0
159 178 0
147 167 0
151 172 0
159 176 0
156 177 0
172 190 0
165 185 0
136 157 0
158 178 0
130 144 0
132 152 0
149 167 0
172 193 0
139 157 0
141 159 0
144 163 0
139 160 0
117 135 0
160 178 0
154 175 0
151 172 0
154 175 0
149 163 0
167 183 0
147 160 0
146 168 0
120 131 0
157 176 0
176 199 0
147 164 0
151 167 0
151 165 0
169 188 0
142 163 0
169 192 0
163 185 0
160 178 0
150 163 0
167 185 0
167 190 0
152 173 0
154 165 0
158 176 0
158 180 0
157 176 0
143 154 0
139 139 0
130 138 0
160 174 0
174 196 0
154 178 0
173 191 0
149 155 0
167 189 0
171 188 0
144 161 0
148 162 0
159 179 0
136 156 0
167 186 0
161 174 0
141 157 0
152 168 0
161 178 0
158 179 0
161 179 0
151 162 0
139 162 0
155 170 0
155 167 0
164 179 0
147 165 0
161 185 0
132 146 0
173 197 0
161 180 0
151 175 0
167 182 0
142 163 0
151 168 0
174 194 0
175 198 0
152 165 0
158 177 0
157 176 0
156 171 0
175 191 0
157 178 0
156 172 0
169 191 0
156 171 0
166 189 0
158 168 0
159 178 0
155 165 0
125 133 0
146 165 0
162 176 0
172 189 0
169 180 0
155 167 0
162 182 0
157 178 0
148 163 0
160 173 0
154 169 0
153 164 0
164 181 0
150 168 0
158 178 0
140 156 0
161 173 0
149 149 0
163 178 0
162 178 0
161 176 0
161 174 0
163 177 0
162 182 0
151 156 0
164 178 0
162 178 0
171 193 0
163 177 0
150 158 0
156 175 0
172 193 0
159 174 0
178 196 0
160 172 0
160 173 0
158 170 0
162 177 0
142 150 0
163 172 0
171 191 0
174 193 0
146 168 0
166 185 0
159 181 0
154 176 0
166 184 0
158 180 0
161 180 0
165 187 0
159 181 0
164 184 0
144 166 0
165 185 0
158 175 0
148 167 0
129 151 0
167 189 0
162 184 0
160 181 0
149 167 0
164 183 0
155 173 0
164 186 0
162 182 0
144 163 0
155 177 0
164 186 0
163 186 0
164 183 0
158 178 0
159 182 0
151 172 0
151 171 0
138 159 0
151 173 0
119 139 0
142 161 0
171 192 0
142 161 0
160 181 0
171 192 0
147 167 0
164 187 0
153 173 0
138 157 0
168 193 0
159 181 0
149 168 0
163 188 0
161 184 0
150 174 0
150 169 0
157 179 0
169 190 0
134 155 0
126 149 0
159 180 0
160 182 0
139 158 0
153 174 0
164 184 0
167 188 0
158 180 0
171 192 0
148 173 0
138 157 0
163 187 0
152 173 0
144 167 0
161 186 0
163 183 0
171 192 0
159 179 0
156 176 0
160 179 0
153 175 0
171 191 0
160 180 0
147 168 0
155 180 0
171 191 0
151 171 0
153 173 0
160 180 0
142 163 0
120 134 0
164 185 0
162 186 0
174 196 0
136 158 0
167 190 0
160 184 0
168 190 0
152 172 0
140 154 0
149 174 0
129 147 0
148 171 0
152 176 0
171 194 0
154 176 0
157 180 0
164 187 0
145 165 0
159 184 0
146 168 0
134 152 0
155 176 0
146 166 0
159 180 0
162 182 0
123 144 0
143 165 0
158 181 0
157 180 0
122 143 0
147 169 0
151 173 0
155 176 0
158 183 0
130 153 0
152 176 0
155 175 0
135 157 0
159 182 0
148 167 0
153 173 0
153 175 0
156 174 0
170 194 0
157 176 0
111 131 0
154 176 0
143 166 0
150 171 0
113 133 0
150 169 0
160 182 0
137 158 0
146 169 0
164 188 0
133 155 0
161 183 0
155 178 0
146 166 0
160 183 0
143 158 0
150 172 0
152 172 0
158 179 0
137 161 0
155 175 0
162 186 0
144 166 0
146 169 0
159 183 0
162 183 0
146 170 0
161 182 0
169 189 0
162 186 0
135 154 0
165 188 0
163 187 0
160 181 0
136 155 0
162 187 0
163 181 0
155 178 0
150 169 0
127 145 0
172 195 0
143 167 0
159 180 0
123 147 0
148 168 0
157 176 0
121 143 0
165 188 0
152 173 0
146 168 0
166 185 0
161 185 0
148 171 0
143 166 0
135 159 0
151 172 0
132 154 0
158 180 0
173 193 0
147 170 0
138 160 0
154 176 0
148 171 0
159 179 0
166 189 0
161 175 0
143 163 0
144 168 0
148 170 0
165 185 0
171 192 0
168 190 0
143 168 0
147 170 0
137 161 0
154 176 0
151 170 0
145 169 0
153 174 0
155 177 0
165 189 0
159 181 0
167 191 0
144 167 0
156 179 0
156 180 0
140 166 0
144 164 0
161 182 0
148 173 0
128 146 0
142 158 0
162 183 0
131 151 0
143 159 0
134 154 0
167 191 0
173 190 0
144 164 0
141 160 0
145 164 0
140 158 0
155 179 0
163 179 0
161 179 0
151 176 0
134 154 0
157 173 0
170 196 0
155 172 0
156 170 0
156 176 0
161 185 0
159 177 0
153 177 0
151 176 0
142 163 0
161 181 0
147 169 0
164 184 0
136 157 0
144 162 0
152 166 0
157 179 0
133 155 0
162 179 0
142 164 0
146 171 0
148 170 0
163 187 0
141 165 0
153 173 0
163 184 0
157 175 0
146 169 0
139 157 0
147 169 0
152 176 0
155 178 0
160 181 0
156 180 0
151 166 0
157 175 0
165 185 0
122 139 0
150 171 0
145 164 0
163 184 0
130 153 0
152 174 0
169 188 0
171 193 0
157 176 0
158 180 0
144 161 0
157 179 0
144 166 0
123 143 0
150 171 0
125 145 0
166 189 0
133 152 0
167 188 0
156 176 0
147 171 0
132 148 0
140 154 0
135 153 0
168 189 0
164 187 0
150 169 0
137 156 0
159 178 0
165 179 0
170 192 0
141 152 0
144 160 0
160 167 0
166 188 0
153 172 0
160 171 0
149 171 0
162 175 0
160 174 0
154 174 0
155 169 0
148 166 0
156 171 0
167 190 0
170 187 0
157 160 0
137 153 0
164 183 0
156 171 0
153 176 0
136 155 0
167 186 0
159 182 0
159 177 0
149 155 0
134 150 0
146 158 0
136 155 0
160 178 0
157 172 0
162 179 0
155 167 0
160 172 0
146 164 0
154 172 0
152 166 0
153 177 0
162 179 0
153 174 0
154 169 0
124 135 0
151 160 0
163 185 0
169 192 0
161 175 0
170 181 0
166 179 0
160 176 0
166 184 0
125 139 0
158 174 0
145 164 0
147 168 0
157 168 0
158 178 0
142 147 0
161 176 0
164 178 0
145 155 0
169 179 0
154 165 0
169 183 0
163 176 0
159 181 0
151 165 0
162 176 0
160 173 0
151 167 0
154 174 0
159 179 0
172 186 0
161 179 0
157 172 0
148 161 0
175 198 0
134 141 0
167 185 0
148 162 0
164 185 0
157 168 0
150 158 0
160 171 0
155 172 0
158 172 0
178 200 0
137 139 0
162 173 0
155 167 0
165 182 0
167 188 0
164 181 0
162 182 0
147 148 0
177 197 0
166 186 0
166 186 0
158 177 0
167 186 0
152 174 0
153 172 0
172 193 0
147 167 0
155 175 0
154 177 0
154 176 0
139 157 0
153 173 0
151 169 0
152 172 0
166 188 0
172 195 0
159 178 0
155 172 0
164 185 0
151 169 0
142 162 0
150 171 0
174 194 0
153 173 0
153 172 0
166 183 0
169 190 0
146 168 0
148 165 0
123 140 0
142 161 0
171 194 0
134 155 0
173 194 0
155 179 0
160 181 0
142 163 0
144 164 0
142 163 0
174 195 0
154 175 0
146 162 0
161 182 0
155 176 0
171 192 0
163 184 0
154 175 0
165 188 0
154 177 0
144 166 0
150 171 0
150 172 0
169 187 0
160 183 0
162 183 0
142 163 0
148 170 0
156 180 0
155 176 0
156 177 0
153 172 0
166 189 0
133 154 0
132 154 0
162 180 0
148 169 0
164 187 0
132 154 0
153 176 0
161 184 0
159 182 0
150 173 0
145 166 0
151 167 0
154 177 0
153 177 0
136 159 0
133 155 0
156 174 0
151 171 0
149 172 0
144 163 0
152 176 0
156 177 0
165 188 0
141 164 0
153 178 0
166 186 0
144 166 0
164 184 0
165 185 0
155 176 0
153 172 0
142 165 0
166 188 0
169 192 0
153 178 0
163 184 0
154 179 0
154 176 0
145 169 0
145 163 0
160 185 0
155 178 0
157 178 0
152 172 0
164 182 0
157 180 0
125 148 0
160 181 0
167 190 0
143 166 0
161 184 0
141 165 0
158 179 0
162 188 0
171 191 0
162 185 0
155 178 0
159 180 0
142 161 0
134 155 0
157 180 0
162 183 0
155 180 0
145 167 0
162 187 0
151 172 0
169 193 0
158 179 0
157 177 0
160 180 0
164 182 0
156 180 0
149 171 0
158 180 0
155 175 0
153 177 0
156 175 0
138 160 0
159 180 0
163 184 0
155 175 0
172 196 0
153 176 0
147 170 0
161 183 0
152 171 0
144 165 0
166 189 0
135 159 0
151 175 0
167 194 0
161 185 0
157 181 0
157 173 0
156 179 0
162 182 0
164 183 0
167 188 0
154 177 0
161 184 0
149 170 0
131 152 0
151 169 0
160 178 0
157 183 0
142 163 0
165 188 0
151 173 0
159 184 0
161 183 0
141 163 0
168 187 0
143 162 0
160 181 0
136 159 0
134 152 0
167 187 0
167 187 0
139 162 0
140 159 0
148 170 0
151 177 0
131 151 0
149 169 0
164 188 0
144 166 0
150 167 0
155 177 0
157 181 0
140 157 0
151 172 0
154 178 0
159 178 0
124 148 0
132 151 0
165 185 0
143 163 0
151 174 0
146 168 0
144 164 0
151 171 0
160 183 0
143 166 0
129 153 0
151 173 0
141 161 0
151 172 0
138 161 0
146 167 0
137 156 0
154 176 0
148 171 0
128 151 0
150 171 0
144 163 0
158 173 0
145 169 0
160 187 0
160 181 0
167 191 0
120 145 0
149 172 0
163 183 0
141 166 0
145 167 0
156 179 0
153 176 0
172 196 0
157 174 0
141 159 0
147 168 0
159 177 0
155 178 0
137 156 0
116 139 0
147 169 0
125 147 0
143 165 0
150 174 0
132 154 0
159 172 0
169 190 0
164 185 0
163 188 0
152 174 0
155 173 0
166 186 0
148 166 0
155 171 0
161 183 0
138 157 0
154 173 0
148 170 0
157 180 0
153 177 0
138 156 0
165 187 0
147 169 0
154 177 0
143 153 0
174 198 0
151 171 0
165 185 0
163 183 0
127 147 0
148 170 0
163 184 0
153 170 0
174 198 0
168 186 0
154 173 0
141 154 0
154 174 0
165 184 0
157 176 0
148 162 0
174 194 0
153 173 0
169 191 0
140 158 0
135 152 0
170 187 0
150 173 0
138 152 0
147 167 0
161 177 0
143 164 0
148 169 0
148 167 0
162 180 0
146 166 0
149 169 0
132 151 0
172 190 0
168 189 0
161 181 0
167 180 0
156 179 0
156 167 0
153 174 0
159 172 0
148 164 0
154 174 0
132 154 0
118 138 0
154 176 0
166 187 0
148 163 0
170 195 0
146 167 0
154 168 0
152 172 0
155 171 0
148 161 0
149 161 0
129 140 0
158 174 0
164 185 0
129 147 0
150 169 0
168 190 0
141 154 0
152 174 0
142 162 0
171 186 0
169 188 0
152 164 0
167 188 0
143 164 0
154 171 0
137 148 0
141 156 0
157 171 0
162 180 0
167 186 0
161 178 0
149 168 0
152 161 0
166 181 0
158 175 0
165 182 0
167 178 0
161 180 0
146 165 0
166 189 0
170 189 0
158 176 0
173 186 0
166 188 0
135 150 0
149 154 0
149 161 0
153 166 0
163 180 0
171 186 0
154 169 0
145 154 0
164 177 0
166 183 0
153 164 0
164 185 0
145 156 0
165 184 0
147 161 0
153 168 0
164 187 0
166 179 0
154 169 0
158 170 0
171 190 0
161 182 0
162 182 0
149 165 0
152 167 0
153 168 0
155 173 0
162 177 0
161 178 0
174 198 0
160 174 0
156 169 0
162 177 0
165 179 0
142 161 0
129 144 0
150 167 0
161 175 0
165 178 0
158 180 0
150 171 0
160 174 0
136 147 0
158 174 0
160 173 0
152 166 0
170 181 0
136 158 0
154 175 0
171 192 0
168 191 0
157 177 0
159 181 0
165 186 0
170 191 0
159 180 0
169 190 0
170 192 0
151 173 0
156 175 0
160 182 0
155 175 0
132 150 0
165 188 0
175 196 0
156 179 0
148 170 0
152 172 0
159 180 0
159 183 0
152 173 0
164 185 0
147 169 0
177 199 0
158 181 0
148 171 0
148 171 0
154 170 0
166 188 0
152 170 0
156 176 0
145 164 0
167 189 0
125 144 0
150 170 0
172 195 0
153 177 0
141 160 0
140 161 0
168 189 0
167 190 0
162 183 0
170 195 0
157 177 0
138 157 0
150 171 0
158 182 0
149 165 0
137 156 0
147 170 0
164 184 0
150 170 0
163 182 0
168 189 0
145 167 0
143 162 0
141 163 0
155 175 0
154 177 0
164 188 0
157 178 0
152 173 0
117 136 0
163 180 0
154 175 0
154 173 0
150 174 0
164 184 0
165 187 0
152 171 0
147 171 0
149 168 0
161 182 0
141 162 0
155 175 0
113 133 0
166 191 0
139 162 0
155 176 0
142 165 0
154 173 0
153 176 0
141 164 0
159 181 0
149 170 0
152 176 0
164 181 0
149 170 0
162 181 0
140 162 0
141 160 0
133 154 0
159 180 0
165 189 0
144 165 0
160 184 0
151 174 0
164 190 0
159 182 0
136 155 0
159 179 0
160 181 0
149 170 0
157 180 0
146 167 0
158 179 0
148 169 0
165 189 0
172 191 0
131 153 0
148 167 0
161 186 0
175 197 0
152 176 0
133 148 0
134 153 0
154 174 0
166 190 0
170 195 0
162 182 0
171 194 0
134 154 0
148 170 0
137 158 0
150 174 0
147 169 0
131 150 0
169 191 0
164 185 0
134 156 0
162 184 0
158 180 0
151 172 0
148 172 0
173 197 0
174 195 0
146 169 0
128 147 0
149 172 0
147 169 0
161 187 0
141 168 0
148 170 0
168 190 0
144 166 0
155 178 0
146 170 0
131 154 0
151 173 0
143 168 0
157 181 0
166 193 0
152 174 0
156 177 0
134 156 0
149 170 0
150 173 0
153 177 0
145 164 0
161 182 0
143 163 0
139 162 0
171 191 0
128 149 0
171 196 0
170 192 0
140 161 0
139 164 0
156 175 0
143 166 0
142 164 0
159 180 0
147 169 0
146 170 0
134 158 0
166 190 0
157 177 0
138 158 0
167 187 0
148 170 0
169 193 0
125 149 0
150 174 0
173 197 0
168 191 0
147 167 0
155 175 0
148 171 0
136 156 0
141 162 0
138 159 0
137 161 0
158 180 0
153 177 0
158 181 0
135 158 0
151 173 0
159 181 0
142 164 0
161 183 0
149 172 0
126 148 0
173 197 0
154 171 0
171 193 0
115 136 0
108 130 0
154 174 0
157 179 0
168 189 0
169 191 0
143 165 0
143 166 0
120 144 0
142 162 0
141 163 0
137 154 0
154 178 0
153 179 0
168 189 0
163 186 0
156 179 0
166 185 0
159 181 0
148 166 0
144 159 0
163 187 0
142 165 0
145 164 0
152 174 0
154 178 0
148 165 0
163 188 0
144 165 0
158 181 0
154 176 0
161 183 0
152 175 0
159 177 0
160 181 0
155 174 0
150 167 0
169 194 0
150 172 0
153 176 0
168 194 0
135 158 0
136 155 0
159 182 0
140 164 0
157 177 0
163 188 0
153 177 0
138 161 0
157 180 0
154 165 0
153 171 0
166 185 0
163 186 0
128 141 0
170 186 0
119 140 0
156 178 0
159 179 0
147 172 0
166 186 0
161 177 0
150 171 0
132 150 0
143 164 0
147 163 0
149 170 0
143 162 0
152 169 0
162 178 0
162 187 0
145 165 0
148 160 0
158 181 0
142 160 0
155 173 0
153 175 0
143 163 0
159 181 0
139 160 0
157 178 0
146 168 0
161 179 0
163 183 0
170 185 0
164 187 0
156 175 0
160 180 0
145 163 0
166 186 0
158 172 0
153 176 0
169 184 0
150 172 0
153 176 0
156 175 0
157 176 0
166 185 0
143 159 0
145 160 0
149 165 0
160 178 0
146 160 0
146 166 0
142 162 0
159 178 0
151 163 0
145 169 0
152 171 0
154 174 0
152 170 0
155 165 0
152 169 0
155 176 0
160 185 0
157 175 0
148 160 0
114 126 0
155 168 0
169 187 0
164 185 0
152 171 0
144 155 0
143 163 0
150 162 0
148 164 0
149 166 0
148 163 0
158 175 0
147 168 0
144 154 0
134 151 0
169 187 0
143 150 0
155 177 0
135 159 0
164 183 0
172 190 0
167 184 0
167 186 0
159 178 0
145 169 0
160 174 0
152 168 0
153 176 0
159 174 0
140 153 0
148 164 0
154 166 0
153 171 0
146 169 0
165 175 0
162 182 0
151 160 0
150 166 0
151 169 0
155 178 0
172 186 0
165 179 0
157 170 0
176 195 0
167 180 0
157 172 0
158 180 0
160 177 0
164 175 0
143 162 0
176 199 0
161 174 0
152 168 0
163 178 0
141 151 0
167 180 0
162 173 0
163 178 0
169 188 0
171 189 0
147 159 0
136 142 0
162 178 0
146 157 0
160 175 0
175 195 0
153 165 0
173 186 0
151 162 0
158 172 0
162 175 0
137 151 0
150 159 0
161 172 0
164 172 0
150 172 0
162 185 0
142 158 0
140 160 0
158 179 0
165 187 0
139 162 0
172 192 0
160 182 0
149 172 0
167 188 0
159 178 0
156 176 0
164 186 0
170 191 0
163 184 0
172 192 0
169 190 0
146 166 0
126 146 0
156 176 0
143 164 0
145 165 0
161 182 0
153 171 0
147 166 0
142 158 0
159 179 0
148 169 0
153 174 0
165 187 0
146 170 0
146 165 0
115 134 0
154 175 0
159 177 0
148 168 0
173 195 0
164 188 0
148 169 0
165 183 0
151 169 0
160 181 0
137 158 0
142 164 0
162 183 0
160 180 0
153 171 0
158 176 0
128 146 0
162 182 0
157 179 0
157 179 0
160 182 0
168 189 0
153 173 0
149 169 0
139 158 0
167 188 0
148 170 0
171 194 0
168 190 0
150 169 0
147 164 0
154 175 0
154 175 0
160 182 0
148 168 0
169 191 0
165 187 0
147 169 0
146 168 0
155 180 0
143 163 0
172 197 0
154 173 0
136 157 0
146 168 0
163 187 0
166 189 0
173 197 0
157 178 0
159 183 0
153 175 0
151 175 0
162 187 0
147 165 0
164 185 0
157 179 0
137 156 0
152 169 0
161 184 0
147 171 0
157 178 0
152 176 0
166 188 0
147 170 0
156 175 0
152 173 0
131 153 0
166 188 0
167 190 0
151 171 0
157 177 0
160 184 0
160 186 0
162 187 0
147 170 0
161 181 0
139 161 0
151 174 0
155 176 0
175 194 0
136 153 0
133 154 0
131 156 0
127 150 0
150 170 0
153 176 0
159 183 0
160 182 0
154 177 0
131 152 0
143 164 0
141 162 0
151 177 0
149 172 0
169 193 0
160 184 0
160 179 0
158 180 0
139 160 0
141 160 0
153 176 0
151 175 0
145 168 0
160 183 0
154 179 0
131 149 0
122 143 0
144 167 0
150 172 0
157 179 0
154 175 0
144 169 0
152 174 0
164 185 0
165 189 0
138 157 0
147 168 0
151 176 0
162 186 0
164 187 0
161 182 0
151 168 0
137 159 0
145 164 0
147 168 0
144 167 0
156 178 0
155 179 0
133 155 0
165 187 0
157 181 0
154 177 0
141 162 0
155 178 0
155 174 0
167 194 0
175 198 0
145 163 0
145 169 0
147 169 0
150 173 0
162 186 0
124 149 0
164 186 0
146 171 0
170 190 0
159 182 0
159 179 0
142 163 0
164 186 0
143 164 0
147 171 0
164 188 0
150 171 0
160 182 0
152 174 0
167 186 0
145 168 0
131 156 0
139 163 0
156 180 0
164 186 0
148 170 0
141 164 0
137 158 0
164 185 0
165 191 0
166 190 0
166 182 0
169 191 0
148 171 0
167 190 0
147 169 0
153 175 0
156 179 0
161 182 0
148 171 0
124 147 0
130 147 0
156 176 0
154 169 0
158 176 0
138 163 0
157 178 0
159 181 0
158 180 0
146 160 0
170 195 0
155 172 0
149 168 0
144 166 0
154 172 0
146 168 0
152 172 0
144 164 0
152 174 0
140 160 0
127 147 0
157 181 0
161 180 0
155 178 0
142 167 0
165 187 0
153 178 0
160 180 0
150 171 0
140 160 0
151 175 0
154 172 0
156 180 0
172 193 0
138 155 0
121 141 0
164 181 0
127 144 0
164 185 0
161 183 0
164 188 0
164 184 0
146 167 0
142 160 0
142 164 0
150 164 0
171 192 0
146 161 0
148 171 0
137 154 0
158 176 0
149 171 0
172 194 0
158 174 0
161 183 0
157 180 0
155 179 0
161 185 0
153 171 0
153 174 0
154 176 0
135 158 0
160 183 0
164 189 0
179 200 0
158 182 0
157 179 0
135 152 0
156 179 0
151 172 0
144 162 0
150 167 0
162 188 0
167 183 0
134 151 0
146 160 0
131 149 0
169 195 0
143 161 0
163 182 0
173 197 0
142 157 0
154 177 0
152 173 0
143 167 0
173 194 0
144 166 0
152 164 0
146 164 0
156 178 0
142 156 0
142 166 0
150 167 0
164 183 0
145 165 0
154 170 0
158 177 0
154 179 0
119 131 0
134 146 0
164 183 0
163 184 0
168 182 0
138 156 0
120 141 0
152 168 0
158 176 0
169 190 0
138 161 0
148 165 0
165 185 0
160 177 0
159 178 0
151 167 0
165 186 0
145 159 0
175 190 0
157 176 0
148 163 0
157 179 0
164 183 0
143 167 0
137 157 0
164 187 0
162 178 0
153 178 0
159 178 0
172 197 0
151 165 0
142 161 0
154 171 0
160 176 0
155 171 0
147 165 0
152 169 0
137 148 0
151 169 0
146 165 0
145 159 0
152 169 0
169 177 0
140 158 0
141 158 0
148 166 0
167 183 0
150 161 0
151 168 0
158 164 0
171 186 0
168 183 0
149 161 0
158 182 0
162 173 0
157 178 0
153 177 0
162 186 0
154 170 0
163 169 0
168 179 0
168 187 0
158 174 0
160 166 0
143 151 0
165 182 0
161 178 0
165 186 0
128 143 0
152 168 0
154 169 0
165 186 0
153 167 0
149 163 0
143 154 0
138 148 0
170 190 0
150 163 0
162 173 0
168 187 0
155 173 0
170 189 0
169 184 0
168 192 0
172 192 0
159 179 0
146 159 0
134 149 0
169 188 0
156 170 0
147 165 0
166 178 0
